( pcb2gcode 2.5.0 )
( Software-independent Gcode )

( This file uses 3 drill bit sizes. )
( Bit sizes: [0.5mm] [0.8mm] [1mm] )

G94       (Millimeters per minute feed rate.)
G21       (Units == Millimeters.)
G90       (Absolute coordinates.)
G00 S600     (RPM spindle speed.)

G53 G00 Z0.00000 (Retract)
T1
M5      (Spindle stop.)
G04 P1.00000
(MSG, Change tool bit to drill size 0.5mm)
M0      (Temporary machine stop.)
M3      (Spindle on clockwise.)
G0 Z2.00000
G04 P1.00000

G1 F30.00000
G0 X0.00000 Y0.00000
G1 Z-2.50000
G1 Z2.00000
G0 X36.04300 Y-6.65200
G1 Z-2.50000
G1 Z2.00000
G0 X60.56500 Y-33.73300
G1 Z-2.50000
G1 Z2.00000
G0 X49.98400 Y-46.30100
G1 Z-2.50000
G1 Z2.00000
G0 X51.73800 Y-46.79300
G1 Z-2.50000
G1 Z2.00000
G0 X37.76800 Y-61.57100
G1 Z-2.50000
G1 Z2.00000
G0 X39.69700 Y-62.63500
G1 Z-2.50000
G1 Z2.00000
G0 X38.24900 Y-63.89300
G1 Z-2.50000
G1 Z2.00000
G0 X35.08400 Y-64.01000
G1 Z-2.50000
G1 Z2.00000
G0 X33.89200 Y-60.57700
G1 Z-2.50000
G1 Z2.00000
G0 X27.82100 Y-62.05700
G1 Z-2.50000
G1 Z2.00000
G0 X25.81000 Y-61.95100
G1 Z-2.50000
G1 Z2.00000
G0 X32.00000 Y-71.54300
G1 Z-2.50000
G1 Z2.00000
G0 X32.38600 Y-73.76700
G1 Z-2.50000
G1 Z2.00000
G0 X32.78700 Y-75.40300
G1 Z-2.50000
G1 Z2.00000
G0 X30.77300 Y-78.34700
G1 Z-2.50000
G1 Z2.00000
G0 X32.87300 Y-79.90700
G1 Z-2.50000
G1 Z2.00000
G0 X38.04100 Y-80.03700
G1 Z-2.50000
G1 Z2.00000
G0 X42.14600 Y-78.98600
G1 Z-2.50000
G1 Z2.00000
G0 X34.44500 Y-85.12000
G1 Z-2.50000
G1 Z2.00000
G0 X33.67700 Y-89.84600
G1 Z-2.50000
G1 Z2.00000
G0 X29.64500 Y-95.38600
G1 Z-2.50000
G1 Z2.00000
G0 X30.67100 Y-99.07600
G1 Z-2.50000
G1 Z2.00000
G0 X23.08300 Y-99.42100
G1 Z-2.50000
G1 Z2.00000
G0 X15.14500 Y-109.02600
G1 Z-2.50000
G1 Z2.00000
G0 X13.19300 Y-80.90000
G1 Z-2.50000
G1 Z2.00000
G0 X8.20700 Y-77.85300
G1 Z-2.50000
G1 Z2.00000
G0 X4.66800 Y-72.43100
G1 Z-2.50000
G1 Z2.00000
G0 X20.29400 Y-79.64300
G1 Z-2.50000
G1 Z2.00000
G0 X24.90100 Y-75.11600
G1 Z-2.50000
G1 Z2.00000
G0 X59.82500 Y-75.74000
G1 Z-2.50000
G1 Z2.00000
G0 X66.92500 Y-70.71300
G1 Z-2.50000
G1 Z2.00000
G0 X69.73300 Y-70.95500
G1 Z-2.50000
G1 Z2.00000
G0 X74.60200 Y-71.54500
G1 Z-2.50000
G1 Z2.00000
G0 X76.70700 Y-71.25400
G1 Z-2.50000
G1 Z2.00000
G0 X88.05700 Y-67.79300
G1 Z-2.50000
G1 Z2.00000
G0 X88.95000 Y-63.58100
G1 Z-2.50000
G1 Z2.00000
G0 X91.58800 Y-61.53500
G1 Z-2.50000
G1 Z2.00000
G0 X104.39800 Y-61.23700
G1 Z-2.50000
G1 Z2.00000
G0 X105.52900 Y-60.10600
G1 Z-2.50000
G1 Z2.00000
G0 X107.82700 Y-53.86800
G1 Z-2.50000
G1 Z2.00000
G0 X112.33000 Y-55.97400
G1 Z-2.50000
G1 Z2.00000
G0 X120.92900 Y-61.97800
G1 Z-2.50000
G1 Z2.00000
G0 X111.63100 Y-74.06600
G1 Z-2.50000
G1 Z2.00000
G0 X104.92700 Y-68.65800
G1 Z-2.50000
G1 Z2.00000
G0 X108.56500 Y-66.40500
G1 Z-2.50000
G1 Z2.00000
G0 X94.86900 Y-77.38700
G1 Z-2.50000
G1 Z2.00000
G0 X96.06600 Y-84.34900
G1 Z-2.50000
G1 Z2.00000
G0 X98.90800 Y-85.11100
G1 Z-2.50000
G1 Z2.00000
G0 X103.60300 Y-90.37100
G1 Z-2.50000
G1 Z2.00000
G0 X106.21100 Y-91.03600
G1 Z-2.50000
G1 Z2.00000
G0 X106.35700 Y-89.02100
G1 Z-2.50000
G1 Z2.00000
G0 X112.22800 Y-95.93600
G1 Z-2.50000
G1 Z2.00000
G0 X122.23600 Y-87.91600
G1 Z-2.50000
G1 Z2.00000
G0 X123.71800 Y-80.80300
G1 Z-2.50000
G1 Z2.00000
G0 X125.35900 Y-78.64000
G1 Z-2.50000
G1 Z2.00000
G0 X131.86000 Y-84.61000
G1 Z-2.50000
G1 Z2.00000
G0 X133.19300 Y-83.29300
G1 Z-2.50000
G1 Z2.00000
G0 X130.53400 Y-88.88300
G1 Z-2.50000
G1 Z2.00000
G0 X140.04300 Y-77.94200
G1 Z-2.50000
G1 Z2.00000
G0 X140.77600 Y-75.36000
G1 Z-2.50000
G1 Z2.00000
G0 X145.69700 Y-79.15600
G1 Z-2.50000
G1 Z2.00000
G0 X144.63300 Y-80.48700
G1 Z-2.50000
G1 Z2.00000
G0 X147.76300 Y-73.85800
G1 Z-2.50000
G1 Z2.00000
G0 X143.67400 Y-68.58300
G1 Z-2.50000
G1 Z2.00000
G0 X149.30800 Y-58.69900
G1 Z-2.50000
G1 Z2.00000
G0 X143.36800 Y-54.33400
G1 Z-2.50000
G1 Z2.00000
G0 X148.83200 Y-50.00600
G1 Z-2.50000
G1 Z2.00000
G0 X160.34000 Y-44.27500
G1 Z-2.50000
G1 Z2.00000
G0 X166.73700 Y-43.52300
G1 Z-2.50000
G1 Z2.00000
G0 X178.00100 Y-51.74200
G1 Z-2.50000
G1 Z2.00000
G0 X181.07500 Y-50.77900
G1 Z-2.50000
G1 Z2.00000
G0 X179.01000 Y-64.56700
G1 Z-2.50000
G1 Z2.00000
G0 X174.65900 Y-68.63400
G1 Z-2.50000
G1 Z2.00000
G0 X173.71200 Y-70.35800
G1 Z-2.50000
G1 Z2.00000
G0 X176.77900 Y-72.42600
G1 Z-2.50000
G1 Z2.00000
G0 X187.06500 Y-66.27700
G1 Z-2.50000
G1 Z2.00000
G0 X193.93600 Y-75.84200
G1 Z-2.50000
G1 Z2.00000
G0 X192.83200 Y-83.38600
G1 Z-2.50000
G1 Z2.00000
G0 X186.14600 Y-85.70100
G1 Z-2.50000
G1 Z2.00000
G0 X176.66900 Y-88.70100
G1 Z-2.50000
G1 Z2.00000
G0 X172.39600 Y-84.84200
G1 Z-2.50000
G1 Z2.00000
G0 X169.49800 Y-86.20500
G1 Z-2.50000
G1 Z2.00000
G0 X167.92400 Y-84.52000
G1 Z-2.50000
G1 Z2.00000
G0 X171.18800 Y-92.18900
G1 Z-2.50000
G1 Z2.00000
G0 X154.56100 Y-112.98700
G1 Z-2.50000
G1 Z2.00000
G0 X144.54800 Y-123.15200
G1 Z-2.50000
G1 Z2.00000
G0 X125.87200 Y-113.34600
G1 Z-2.50000
G1 Z2.00000
G0 X123.73000 Y-114.59000
G1 Z-2.50000
G1 Z2.00000
G0 X128.11900 Y-103.92800
G1 Z-2.50000
G1 Z2.00000
G0 X126.24900 Y-100.17500
G1 Z-2.50000
G1 Z2.00000
G0 X104.57100 Y-122.31400
G1 Z-2.50000
G1 Z2.00000
G0 X99.66200 Y-116.54200
G1 Z-2.50000
G1 Z2.00000
G0 X99.39100 Y-114.33800
G1 Z-2.50000
G1 Z2.00000
G0 X94.96600 Y-109.84600
G1 Z-2.50000
G1 Z2.00000
G0 X98.27700 Y-107.31900
G1 Z-2.50000
G1 Z2.00000
G0 X98.14300 Y-103.43200
G1 Z-2.50000
G1 Z2.00000
G0 X88.88600 Y-109.63500
G1 Z-2.50000
G1 Z2.00000
G0 X86.96100 Y-106.78800
G1 Z-2.50000
G1 Z2.00000
G0 X82.79800 Y-108.73400
G1 Z-2.50000
G1 Z2.00000
G0 X76.25200 Y-114.27200
G1 Z-2.50000
G1 Z2.00000
G0 X74.03100 Y-113.64100
G1 Z-2.50000
G1 Z2.00000
G0 X75.45300 Y-116.94500
G1 Z-2.50000
G1 Z2.00000
G0 X66.21100 Y-111.84400
G1 Z-2.50000
G1 Z2.00000
G0 X63.56300 Y-109.02600
G1 Z-2.50000
G1 Z2.00000
G0 X59.42400 Y-112.82100
G1 Z-2.50000
G1 Z2.00000
G0 X85.08100 Y-117.65200
G1 Z-2.50000
G1 Z2.00000
G0 X87.78000 Y-90.37100
G1 Z-2.50000
G1 Z2.00000
G0 X80.56800 Y-86.18100
G1 Z-2.50000
G1 Z2.00000
G0 X106.66300 Y-46.01100
G1 Z-2.50000
G1 Z2.00000
G0 X105.26500 Y-43.26800
G1 Z-2.50000
G1 Z2.00000
G0 X105.51700 Y-41.66800
G1 Z-2.50000
G1 Z2.00000
G0 X108.08300 Y-39.10100
G1 Z-2.50000
G1 Z2.00000
G0 X110.29700 Y-43.05400
G1 Z-2.50000
G1 Z2.00000
G0 X112.16500 Y-44.56800
G1 Z-2.50000
G1 Z2.00000
G0 X111.31100 Y-46.01100
G1 Z-2.50000
G1 Z2.00000
G0 X116.88900 Y-41.15100
G1 Z-2.50000
G1 Z2.00000
G0 X118.48900 Y-40.86900
G1 Z-2.50000
G1 Z2.00000
G0 X133.54000 Y-30.16700
G1 Z-2.50000
G1 Z2.00000
G0 X134.66800 Y-32.99600
G1 Z-2.50000
G1 Z2.00000
G0 X143.84100 Y-28.35500
G1 Z-2.50000
G1 Z2.00000
G0 X157.61900 Y-26.74700
G1 Z-2.50000
G1 Z2.00000
G0 X157.85000 Y-28.35500
G1 Z-2.50000
G1 Z2.00000
G0 X180.61000 Y-11.34700
G1 Z-2.50000
G1 Z2.00000
G0 X137.15900 Y-53.02500
G1 Z-2.50000
G1 Z2.00000
G0 X164.60900 Y-60.53100
G1 Z-2.50000
G1 Z2.00000
G0 X127.27300 Y-17.85900
G1 Z-2.50000
G1 Z2.00000
G0 X119.55800 Y-23.41900
G1 Z-2.50000
G1 Z2.00000
G0 X91.80100 Y-37.10100
G1 Z-2.50000
G1 Z2.00000
G0 X77.11100 Y-40.08100
G1 Z-2.50000
G1 Z2.00000
G0 X76.80100 Y-41.68100
G1 Z-2.50000
G1 Z2.00000
G0 X73.59200 Y-44.00000
G1 Z-2.50000
G1 Z2.00000

G53 G00 Z0.00000 (Retract)
T2
M5      (Spindle stop.)
G04 P1.00000
(MSG, Change tool bit to drill size 0.8mm)
M0      (Temporary machine stop.)
M3      (Spindle on clockwise.)
G0 Z2.00000
G04 P1.00000

G1 F30.00000
G0 X30.72000 Y-25.26000
G1 Z-2.50000
G1 Z2.00000
G0 X33.26000 Y-25.26000
G1 Z-2.50000
G1 Z2.00000
G0 X35.80000 Y-25.26000
G1 Z-2.50000
G1 Z2.00000
G0 X38.34000 Y-25.26000
G1 Z-2.50000
G1 Z2.00000
G0 X40.88000 Y-25.26000
G1 Z-2.50000
G1 Z2.00000
G0 X43.42000 Y-25.26000
G1 Z-2.50000
G1 Z2.00000
G0 X45.96000 Y-25.26000
G1 Z-2.50000
G1 Z2.00000
G0 X48.50000 Y-25.26000
G1 Z-2.50000
G1 Z2.00000
G0 X51.04000 Y-25.26000
G1 Z-2.50000
G1 Z2.00000
G0 X53.58000 Y-25.26000
G1 Z-2.50000
G1 Z2.00000
G0 X45.96000 Y-32.88000
G1 Z-2.50000
G1 Z2.00000
G0 X43.42000 Y-32.88000
G1 Z-2.50000
G1 Z2.00000
G0 X40.88000 Y-32.88000
G1 Z-2.50000
G1 Z2.00000
G0 X38.34000 Y-32.88000
G1 Z-2.50000
G1 Z2.00000
G0 X35.80000 Y-32.88000
G1 Z-2.50000
G1 Z2.00000
G0 X33.26000 Y-32.88000
G1 Z-2.50000
G1 Z2.00000
G0 X30.72000 Y-32.88000
G1 Z-2.50000
G1 Z2.00000
G0 X48.50000 Y-32.88000
G1 Z-2.50000
G1 Z2.00000
G0 X51.04000 Y-32.88000
G1 Z-2.50000
G1 Z2.00000
G0 X53.58000 Y-32.88000
G1 Z-2.50000
G1 Z2.00000
G0 X63.68000 Y-25.26000
G1 Z-2.50000
G1 Z2.00000
G0 X66.22000 Y-25.26000
G1 Z-2.50000
G1 Z2.00000
G0 X68.76000 Y-25.26000
G1 Z-2.50000
G1 Z2.00000
G0 X71.30000 Y-25.26000
G1 Z-2.50000
G1 Z2.00000
G0 X73.84000 Y-25.26000
G1 Z-2.50000
G1 Z2.00000
G0 X76.38000 Y-25.26000
G1 Z-2.50000
G1 Z2.00000
G0 X78.92000 Y-25.26000
G1 Z-2.50000
G1 Z2.00000
G0 X81.46000 Y-25.26000
G1 Z-2.50000
G1 Z2.00000
G0 X84.00000 Y-25.26000
G1 Z-2.50000
G1 Z2.00000
G0 X86.54000 Y-25.26000
G1 Z-2.50000
G1 Z2.00000
G0 X93.72000 Y-25.38000
G1 Z-2.50000
G1 Z2.00000
G0 X96.26000 Y-25.38000
G1 Z-2.50000
G1 Z2.00000
G0 X98.80000 Y-25.38000
G1 Z-2.50000
G1 Z2.00000
G0 X101.34000 Y-25.38000
G1 Z-2.50000
G1 Z2.00000
G0 X103.88000 Y-25.38000
G1 Z-2.50000
G1 Z2.00000
G0 X106.42000 Y-25.38000
G1 Z-2.50000
G1 Z2.00000
G0 X108.96000 Y-25.38000
G1 Z-2.50000
G1 Z2.00000
G0 X111.50000 Y-25.38000
G1 Z-2.50000
G1 Z2.00000
G0 X114.04000 Y-25.38000
G1 Z-2.50000
G1 Z2.00000
G0 X116.58000 Y-25.38000
G1 Z-2.50000
G1 Z2.00000
G0 X111.50000 Y-33.00000
G1 Z-2.50000
G1 Z2.00000
G0 X108.96000 Y-33.00000
G1 Z-2.50000
G1 Z2.00000
G0 X106.42000 Y-33.00000
G1 Z-2.50000
G1 Z2.00000
G0 X103.88000 Y-33.00000
G1 Z-2.50000
G1 Z2.00000
G0 X101.34000 Y-33.00000
G1 Z-2.50000
G1 Z2.00000
G0 X98.80000 Y-33.00000
G1 Z-2.50000
G1 Z2.00000
G0 X96.26000 Y-33.00000
G1 Z-2.50000
G1 Z2.00000
G0 X93.72000 Y-33.00000
G1 Z-2.50000
G1 Z2.00000
G0 X86.54000 Y-32.88000
G1 Z-2.50000
G1 Z2.00000
G0 X84.00000 Y-32.88000
G1 Z-2.50000
G1 Z2.00000
G0 X81.46000 Y-32.88000
G1 Z-2.50000
G1 Z2.00000
G0 X78.92000 Y-32.88000
G1 Z-2.50000
G1 Z2.00000
G0 X76.38000 Y-32.88000
G1 Z-2.50000
G1 Z2.00000
G0 X73.84000 Y-32.88000
G1 Z-2.50000
G1 Z2.00000
G0 X71.30000 Y-32.88000
G1 Z-2.50000
G1 Z2.00000
G0 X68.76000 Y-32.88000
G1 Z-2.50000
G1 Z2.00000
G0 X66.22000 Y-32.88000
G1 Z-2.50000
G1 Z2.00000
G0 X63.68000 Y-32.88000
G1 Z-2.50000
G1 Z2.00000
G0 X83.50000 Y-67.80000
G1 Z-2.50000
G1 Z2.00000
G0 X83.50000 Y-70.34000
G1 Z-2.50000
G1 Z2.00000
G0 X83.50000 Y-72.88000
G1 Z-2.50000
G1 Z2.00000
G0 X83.50000 Y-75.42000
G1 Z-2.50000
G1 Z2.00000
G0 X83.50000 Y-77.96000
G1 Z-2.50000
G1 Z2.00000
G0 X83.50000 Y-80.50000
G1 Z-2.50000
G1 Z2.00000
G0 X83.50000 Y-83.04000
G1 Z-2.50000
G1 Z2.00000
G0 X91.12000 Y-75.42000
G1 Z-2.50000
G1 Z2.00000
G0 X91.12000 Y-77.96000
G1 Z-2.50000
G1 Z2.00000
G0 X91.12000 Y-80.50000
G1 Z-2.50000
G1 Z2.00000
G0 X91.12000 Y-83.04000
G1 Z-2.50000
G1 Z2.00000
G0 X83.88000 Y-91.84000
G1 Z-2.50000
G1 Z2.00000
G0 X83.88000 Y-94.38000
G1 Z-2.50000
G1 Z2.00000
G0 X83.88000 Y-96.92000
G1 Z-2.50000
G1 Z2.00000
G0 X83.88000 Y-99.46000
G1 Z-2.50000
G1 Z2.00000
G0 X83.88000 Y-102.00000
G1 Z-2.50000
G1 Z2.00000
G0 X83.88000 Y-104.54000
G1 Z-2.50000
G1 Z2.00000
G0 X83.88000 Y-107.08000
G1 Z-2.50000
G1 Z2.00000
G0 X91.50000 Y-99.46000
G1 Z-2.50000
G1 Z2.00000
G0 X91.50000 Y-96.92000
G1 Z-2.50000
G1 Z2.00000
G0 X91.50000 Y-94.38000
G1 Z-2.50000
G1 Z2.00000
G0 X91.50000 Y-91.84000
G1 Z-2.50000
G1 Z2.00000
G0 X101.50000 Y-91.84000
G1 Z-2.50000
G1 Z2.00000
G0 X101.50000 Y-94.38000
G1 Z-2.50000
G1 Z2.00000
G0 X101.50000 Y-96.92000
G1 Z-2.50000
G1 Z2.00000
G0 X101.50000 Y-99.46000
G1 Z-2.50000
G1 Z2.00000
G0 X101.50000 Y-102.00000
G1 Z-2.50000
G1 Z2.00000
G0 X101.50000 Y-104.54000
G1 Z-2.50000
G1 Z2.00000
G0 X101.50000 Y-107.08000
G1 Z-2.50000
G1 Z2.00000
G0 X109.12000 Y-99.46000
G1 Z-2.50000
G1 Z2.00000
G0 X109.12000 Y-96.92000
G1 Z-2.50000
G1 Z2.00000
G0 X109.12000 Y-94.38000
G1 Z-2.50000
G1 Z2.00000
G0 X109.12000 Y-91.84000
G1 Z-2.50000
G1 Z2.00000
G0 X102.38000 Y-83.00000
G1 Z-2.50000
G1 Z2.00000
G0 X102.38000 Y-80.46000
G1 Z-2.50000
G1 Z2.00000
G0 X102.38000 Y-77.92000
G1 Z-2.50000
G1 Z2.00000
G0 X102.38000 Y-75.38000
G1 Z-2.50000
G1 Z2.00000
G0 X102.38000 Y-72.84000
G1 Z-2.50000
G1 Z2.00000
G0 X102.38000 Y-70.30000
G1 Z-2.50000
G1 Z2.00000
G0 X102.38000 Y-67.76000
G1 Z-2.50000
G1 Z2.00000
G0 X110.00000 Y-67.76000
G1 Z-2.50000
G1 Z2.00000
G0 X110.00000 Y-70.30000
G1 Z-2.50000
G1 Z2.00000
G0 X110.00000 Y-72.84000
G1 Z-2.50000
G1 Z2.00000
G0 X110.00000 Y-75.38000
G1 Z-2.50000
G1 Z2.00000
G0 X110.00000 Y-77.92000
G1 Z-2.50000
G1 Z2.00000
G0 X110.00000 Y-80.46000
G1 Z-2.50000
G1 Z2.00000
G0 X110.00000 Y-83.00000
G1 Z-2.50000
G1 Z2.00000
G0 X91.12000 Y-67.80000
G1 Z-2.50000
G1 Z2.00000
G0 X91.12000 Y-70.34000
G1 Z-2.50000
G1 Z2.00000
G0 X91.12000 Y-72.88000
G1 Z-2.50000
G1 Z2.00000
G0 X91.50000 Y-102.00000
G1 Z-2.50000
G1 Z2.00000
G0 X91.50000 Y-104.54000
G1 Z-2.50000
G1 Z2.00000
G0 X91.50000 Y-107.08000
G1 Z-2.50000
G1 Z2.00000
G0 X100.00000 Y-120.00000
G1 Z-2.50000
G1 Z2.00000
G0 X100.00000 Y-125.00000
G1 Z-2.50000
G1 Z2.00000
G0 X109.63000 Y-120.00000
G1 Z-2.50000
G1 Z2.00000
G0 X119.79000 Y-120.00000
G1 Z-2.50000
G1 Z2.00000
G0 X123.84000 Y-120.00000
G1 Z-2.50000
G1 Z2.00000
G0 X129.84000 Y-114.00000
G1 Z-2.50000
G1 Z2.00000
G0 X129.84000 Y-110.00000
G1 Z-2.50000
G1 Z2.00000
G0 X134.00000 Y-120.00000
G1 Z-2.50000
G1 Z2.00000
G0 X140.00000 Y-114.00000
G1 Z-2.50000
G1 Z2.00000
G0 X140.00000 Y-110.00000
G1 Z-2.50000
G1 Z2.00000
G0 X143.00000 Y-103.11500
G1 Z-2.50000
G1 Z2.00000
G0 X143.00000 Y-100.57500
G1 Z-2.50000
G1 Z2.00000
G0 X143.00000 Y-98.03500
G1 Z-2.50000
G1 Z2.00000
G0 X143.00000 Y-95.49500
G1 Z-2.50000
G1 Z2.00000
G0 X143.00000 Y-92.95500
G1 Z-2.50000
G1 Z2.00000
G0 X143.00000 Y-90.41500
G1 Z-2.50000
G1 Z2.00000
G0 X143.00000 Y-87.87500
G1 Z-2.50000
G1 Z2.00000
G0 X150.62000 Y-87.87500
G1 Z-2.50000
G1 Z2.00000
G0 X150.62000 Y-90.41500
G1 Z-2.50000
G1 Z2.00000
G0 X150.62000 Y-92.95500
G1 Z-2.50000
G1 Z2.00000
G0 X150.62000 Y-95.49500
G1 Z-2.50000
G1 Z2.00000
G0 X150.62000 Y-98.03500
G1 Z-2.50000
G1 Z2.00000
G0 X150.62000 Y-100.57500
G1 Z-2.50000
G1 Z2.00000
G0 X150.62000 Y-103.11500
G1 Z-2.50000
G1 Z2.00000
G0 X142.00000 Y-119.00000
G1 Z-2.50000
G1 Z2.00000
G0 X142.00000 Y-124.00000
G1 Z-2.50000
G1 Z2.00000
G0 X109.12000 Y-102.00000
G1 Z-2.50000
G1 Z2.00000
G0 X109.12000 Y-104.54000
G1 Z-2.50000
G1 Z2.00000
G0 X109.12000 Y-107.08000
G1 Z-2.50000
G1 Z2.00000
G0 X129.88000 Y-72.20000
G1 Z-2.50000
G1 Z2.00000
G0 X129.88000 Y-69.66000
G1 Z-2.50000
G1 Z2.00000
G0 X129.88000 Y-67.12000
G1 Z-2.50000
G1 Z2.00000
G0 X129.88000 Y-64.58000
G1 Z-2.50000
G1 Z2.00000
G0 X129.88000 Y-62.04000
G1 Z-2.50000
G1 Z2.00000
G0 X129.88000 Y-59.50000
G1 Z-2.50000
G1 Z2.00000
G0 X129.88000 Y-56.96000
G1 Z-2.50000
G1 Z2.00000
G0 X137.50000 Y-56.96000
G1 Z-2.50000
G1 Z2.00000
G0 X137.50000 Y-59.50000
G1 Z-2.50000
G1 Z2.00000
G0 X137.50000 Y-62.04000
G1 Z-2.50000
G1 Z2.00000
G0 X137.50000 Y-64.58000
G1 Z-2.50000
G1 Z2.00000
G0 X137.50000 Y-67.12000
G1 Z-2.50000
G1 Z2.00000
G0 X137.50000 Y-69.66000
G1 Z-2.50000
G1 Z2.00000
G0 X137.50000 Y-72.20000
G1 Z-2.50000
G1 Z2.00000
G0 X129.88000 Y-47.70000
G1 Z-2.50000
G1 Z2.00000
G0 X129.88000 Y-45.16000
G1 Z-2.50000
G1 Z2.00000
G0 X129.88000 Y-42.62000
G1 Z-2.50000
G1 Z2.00000
G0 X129.88000 Y-40.08000
G1 Z-2.50000
G1 Z2.00000
G0 X129.88000 Y-37.54000
G1 Z-2.50000
G1 Z2.00000
G0 X129.88000 Y-35.00000
G1 Z-2.50000
G1 Z2.00000
G0 X129.88000 Y-32.46000
G1 Z-2.50000
G1 Z2.00000
G0 X137.50000 Y-32.46000
G1 Z-2.50000
G1 Z2.00000
G0 X137.50000 Y-35.00000
G1 Z-2.50000
G1 Z2.00000
G0 X137.50000 Y-37.54000
G1 Z-2.50000
G1 Z2.00000
G0 X137.50000 Y-40.08000
G1 Z-2.50000
G1 Z2.00000
G0 X137.50000 Y-42.62000
G1 Z-2.50000
G1 Z2.00000
G0 X137.50000 Y-45.16000
G1 Z-2.50000
G1 Z2.00000
G0 X137.50000 Y-47.70000
G1 Z-2.50000
G1 Z2.00000
G0 X116.58000 Y-33.00000
G1 Z-2.50000
G1 Z2.00000
G0 X114.04000 Y-33.00000
G1 Z-2.50000
G1 Z2.00000
G0 X163.64000 Y-27.50000
G1 Z-2.50000
G1 Z2.00000
G0 X166.18000 Y-27.50000
G1 Z-2.50000
G1 Z2.00000
G0 X168.72000 Y-27.50000
G1 Z-2.50000
G1 Z2.00000
G0 X171.26000 Y-27.50000
G1 Z-2.50000
G1 Z2.00000
G0 X173.80000 Y-27.50000
G1 Z-2.50000
G1 Z2.00000
G0 X176.34000 Y-27.50000
G1 Z-2.50000
G1 Z2.00000
G0 X178.88000 Y-27.50000
G1 Z-2.50000
G1 Z2.00000
G0 X181.42000 Y-27.50000
G1 Z-2.50000
G1 Z2.00000
G0 X183.96000 Y-27.50000
G1 Z-2.50000
G1 Z2.00000
G0 X186.50000 Y-27.50000
G1 Z-2.50000
G1 Z2.00000
G0 X178.88000 Y-35.12000
G1 Z-2.50000
G1 Z2.00000
G0 X176.34000 Y-35.12000
G1 Z-2.50000
G1 Z2.00000
G0 X173.80000 Y-35.12000
G1 Z-2.50000
G1 Z2.00000
G0 X171.26000 Y-35.12000
G1 Z-2.50000
G1 Z2.00000
G0 X168.72000 Y-35.12000
G1 Z-2.50000
G1 Z2.00000
G0 X166.18000 Y-35.12000
G1 Z-2.50000
G1 Z2.00000
G0 X163.64000 Y-35.12000
G1 Z-2.50000
G1 Z2.00000
G0 X170.50000 Y-42.00000
G1 Z-2.50000
G1 Z2.00000
G0 X173.04000 Y-42.00000
G1 Z-2.50000
G1 Z2.00000
G0 X175.58000 Y-42.00000
G1 Z-2.50000
G1 Z2.00000
G0 X178.12000 Y-42.00000
G1 Z-2.50000
G1 Z2.00000
G0 X180.66000 Y-42.00000
G1 Z-2.50000
G1 Z2.00000
G0 X183.20000 Y-42.00000
G1 Z-2.50000
G1 Z2.00000
G0 X185.74000 Y-42.00000
G1 Z-2.50000
G1 Z2.00000
G0 X188.28000 Y-42.00000
G1 Z-2.50000
G1 Z2.00000
G0 X190.82000 Y-42.00000
G1 Z-2.50000
G1 Z2.00000
G0 X183.96000 Y-35.12000
G1 Z-2.50000
G1 Z2.00000
G0 X186.50000 Y-35.12000
G1 Z-2.50000
G1 Z2.00000
G0 X181.42000 Y-35.12000
G1 Z-2.50000
G1 Z2.00000
G0 X178.50000 Y-110.42000
G1 Z-2.50000
G1 Z2.00000
G0 X182.00000 Y-110.42000
G1 Z-2.50000
G1 Z2.00000
G0 X178.50000 Y-120.58000
G1 Z-2.50000
G1 Z2.00000
G0 X182.00000 Y-120.58000
G1 Z-2.50000
G1 Z2.00000
G0 X61.32000 Y-87.87500
G1 Z-2.50000
G1 Z2.00000
G0 X61.32000 Y-90.41500
G1 Z-2.50000
G1 Z2.00000
G0 X61.32000 Y-92.95500
G1 Z-2.50000
G1 Z2.00000
G0 X61.32000 Y-95.49500
G1 Z-2.50000
G1 Z2.00000
G0 X61.32000 Y-98.03500
G1 Z-2.50000
G1 Z2.00000
G0 X61.32000 Y-100.57500
G1 Z-2.50000
G1 Z2.00000
G0 X61.32000 Y-103.11500
G1 Z-2.50000
G1 Z2.00000
G0 X53.70000 Y-95.49500
G1 Z-2.50000
G1 Z2.00000
G0 X53.70000 Y-98.03500
G1 Z-2.50000
G1 Z2.00000
G0 X53.70000 Y-100.57500
G1 Z-2.50000
G1 Z2.00000
G0 X53.70000 Y-103.11500
G1 Z-2.50000
G1 Z2.00000
G0 X53.70000 Y-92.95500
G1 Z-2.50000
G1 Z2.00000
G0 X53.70000 Y-90.41500
G1 Z-2.50000
G1 Z2.00000
G0 X53.70000 Y-87.87500
G1 Z-2.50000
G1 Z2.00000
G0 X26.62000 Y-88.00000
G1 Z-2.50000
G1 Z2.00000
G0 X26.62000 Y-90.54000
G1 Z-2.50000
G1 Z2.00000
G0 X26.62000 Y-93.08000
G1 Z-2.50000
G1 Z2.00000
G0 X26.62000 Y-95.62000
G1 Z-2.50000
G1 Z2.00000
G0 X26.62000 Y-98.16000
G1 Z-2.50000
G1 Z2.00000
G0 X26.62000 Y-100.70000
G1 Z-2.50000
G1 Z2.00000
G0 X26.62000 Y-103.24000
G1 Z-2.50000
G1 Z2.00000
G0 X19.00000 Y-95.62000
G1 Z-2.50000
G1 Z2.00000
G0 X19.00000 Y-98.16000
G1 Z-2.50000
G1 Z2.00000
G0 X19.00000 Y-100.70000
G1 Z-2.50000
G1 Z2.00000
G0 X19.00000 Y-103.24000
G1 Z-2.50000
G1 Z2.00000
G0 X19.00000 Y-93.08000
G1 Z-2.50000
G1 Z2.00000
G0 X19.00000 Y-90.54000
G1 Z-2.50000
G1 Z2.00000
G0 X19.00000 Y-88.00000
G1 Z-2.50000
G1 Z2.00000

G53 G00 Z0.00000 (Retract)
T3
M5      (Spindle stop.)
G04 P1.00000
(MSG, Change tool bit to drill size 1mm)
M0      (Temporary machine stop.)
M3      (Spindle on clockwise.)
G0 Z2.00000
G04 P1.00000

G1 F30.00000
G0 X6.50000 Y-15.76000
G1 Z-2.50000
G1 Z2.00000
G0 X6.50000 Y-18.30000
G1 Z-2.50000
G1 Z2.00000
G0 X6.50000 Y-20.84000
G1 Z-2.50000
G1 Z2.00000
G0 X6.50000 Y-23.38000
G1 Z-2.50000
G1 Z2.00000
G0 X6.50000 Y-25.92000
G1 Z-2.50000
G1 Z2.00000
G0 X6.50000 Y-28.46000
G1 Z-2.50000
G1 Z2.00000
G0 X6.50000 Y-31.00000
G1 Z-2.50000
G1 Z2.00000
G0 X6.50000 Y-33.54000
G1 Z-2.50000
G1 Z2.00000
G0 X6.50000 Y-36.08000
G1 Z-2.50000
G1 Z2.00000
G0 X6.50000 Y-38.62000
G1 Z-2.50000
G1 Z2.00000
G0 X6.50000 Y-41.16000
G1 Z-2.50000
G1 Z2.00000
G0 X6.50000 Y-43.70000
G1 Z-2.50000
G1 Z2.00000
G0 X6.50000 Y-46.24000
G1 Z-2.50000
G1 Z2.00000
G0 X6.50000 Y-48.78000
G1 Z-2.50000
G1 Z2.00000
G0 X32.50000 Y-48.78000
G1 Z-2.50000
G1 Z2.00000
G0 X35.04000 Y-48.78000
G1 Z-2.50000
G1 Z2.00000
G0 X37.58000 Y-48.78000
G1 Z-2.50000
G1 Z2.00000
G0 X40.12000 Y-48.78000
G1 Z-2.50000
G1 Z2.00000
G0 X42.66000 Y-48.78000
G1 Z-2.50000
G1 Z2.00000
G0 X45.20000 Y-48.78000
G1 Z-2.50000
G1 Z2.00000
G0 X47.74000 Y-48.78000
G1 Z-2.50000
G1 Z2.00000
G0 X50.28000 Y-48.78000
G1 Z-2.50000
G1 Z2.00000
G0 X52.82000 Y-48.78000
G1 Z-2.50000
G1 Z2.00000
G0 X55.36000 Y-48.78000
G1 Z-2.50000
G1 Z2.00000
G0 X57.90000 Y-48.78000
G1 Z-2.50000
G1 Z2.00000
G0 X60.44000 Y-48.78000
G1 Z-2.50000
G1 Z2.00000
G0 X62.98000 Y-48.78000
G1 Z-2.50000
G1 Z2.00000
G0 X65.52000 Y-48.78000
G1 Z-2.50000
G1 Z2.00000
G0 X68.06000 Y-48.78000
G1 Z-2.50000
G1 Z2.00000
G0 X70.60000 Y-48.78000
G1 Z-2.50000
G1 Z2.00000
G0 X73.14000 Y-48.78000
G1 Z-2.50000
G1 Z2.00000
G0 X75.68000 Y-48.78000
G1 Z-2.50000
G1 Z2.00000
G0 X78.22000 Y-48.78000
G1 Z-2.50000
G1 Z2.00000
G0 X80.76000 Y-48.78000
G1 Z-2.50000
G1 Z2.00000
G0 X83.30000 Y-48.78000
G1 Z-2.50000
G1 Z2.00000
G0 X85.84000 Y-48.78000
G1 Z-2.50000
G1 Z2.00000
G0 X88.38000 Y-48.78000
G1 Z-2.50000
G1 Z2.00000
G0 X90.92000 Y-48.78000
G1 Z-2.50000
G1 Z2.00000
G0 X74.20100 Y-66.99900
G1 Z-2.50000
G1 Z2.00000
G0 X71.66100 Y-66.99900
G1 Z-2.50000
G1 Z2.00000
G0 X69.12100 Y-66.99900
G1 Z-2.50000
G1 Z2.00000
G0 X66.58100 Y-66.99900
G1 Z-2.50000
G1 Z2.00000
G0 X64.04100 Y-66.99900
G1 Z-2.50000
G1 Z2.00000
G0 X61.50100 Y-66.99900
G1 Z-2.50000
G1 Z2.00000
G0 X58.96100 Y-66.99900
G1 Z-2.50000
G1 Z2.00000
G0 X56.42100 Y-66.99900
G1 Z-2.50000
G1 Z2.00000
G0 X53.88100 Y-66.99900
G1 Z-2.50000
G1 Z2.00000
G0 X51.34100 Y-66.99900
G1 Z-2.50000
G1 Z2.00000
G0 X42.20100 Y-66.99900
G1 Z-2.50000
G1 Z2.00000
G0 X39.66100 Y-66.99900
G1 Z-2.50000
G1 Z2.00000
G0 X37.12100 Y-66.99900
G1 Z-2.50000
G1 Z2.00000
G0 X34.58100 Y-66.99900
G1 Z-2.50000
G1 Z2.00000
G0 X42.20100 Y-87.21900
G1 Z-2.50000
G1 Z2.00000
G0 X42.20100 Y-89.75900
G1 Z-2.50000
G1 Z2.00000
G0 X42.20100 Y-92.29900
G1 Z-2.50000
G1 Z2.00000
G0 X42.20100 Y-94.83900
G1 Z-2.50000
G1 Z2.00000
G0 X42.20100 Y-97.37900
G1 Z-2.50000
G1 Z2.00000
G0 X42.20100 Y-99.91900
G1 Z-2.50000
G1 Z2.00000
G0 X42.20100 Y-102.45900
G1 Z-2.50000
G1 Z2.00000
G0 X42.20100 Y-104.99900
G1 Z-2.50000
G1 Z2.00000
G0 X62.00000 Y-77.54000
G1 Z-2.50000
G1 Z2.00000
G0 X62.00000 Y-72.46000
G1 Z-2.50000
G1 Z2.00000
G0 X74.20100 Y-87.21900
G1 Z-2.50000
G1 Z2.00000
G0 X74.20100 Y-89.75900
G1 Z-2.50000
G1 Z2.00000
G0 X74.20100 Y-92.29900
G1 Z-2.50000
G1 Z2.00000
G0 X74.20100 Y-94.83900
G1 Z-2.50000
G1 Z2.00000
G0 X74.20100 Y-97.37900
G1 Z-2.50000
G1 Z2.00000
G0 X74.20100 Y-99.91900
G1 Z-2.50000
G1 Z2.00000
G0 X74.20100 Y-102.45900
G1 Z-2.50000
G1 Z2.00000
G0 X74.20100 Y-104.99900
G1 Z-2.50000
G1 Z2.00000
G0 X119.20100 Y-87.21900
G1 Z-2.50000
G1 Z2.00000
G0 X119.20100 Y-89.75900
G1 Z-2.50000
G1 Z2.00000
G0 X119.20100 Y-92.29900
G1 Z-2.50000
G1 Z2.00000
G0 X119.20100 Y-94.83900
G1 Z-2.50000
G1 Z2.00000
G0 X119.20100 Y-97.37900
G1 Z-2.50000
G1 Z2.00000
G0 X119.20100 Y-99.91900
G1 Z-2.50000
G1 Z2.00000
G0 X119.20100 Y-102.45900
G1 Z-2.50000
G1 Z2.00000
G0 X119.20100 Y-104.99900
G1 Z-2.50000
G1 Z2.00000
G0 X144.92000 Y-110.00000
G1 Z-2.50000
G1 Z2.00000
G0 X144.92000 Y-114.00000
G1 Z-2.50000
G1 Z2.00000
G0 X150.00000 Y-110.00000
G1 Z-2.50000
G1 Z2.00000
G0 X150.00000 Y-114.00000
G1 Z-2.50000
G1 Z2.00000
G0 X157.00000 Y-110.00000
G1 Z-2.50000
G1 Z2.00000
G0 X157.20100 Y-104.99900
G1 Z-2.50000
G1 Z2.00000
G0 X157.20100 Y-102.45900
G1 Z-2.50000
G1 Z2.00000
G0 X157.20100 Y-99.91900
G1 Z-2.50000
G1 Z2.00000
G0 X157.20100 Y-97.37900
G1 Z-2.50000
G1 Z2.00000
G0 X157.20100 Y-94.83900
G1 Z-2.50000
G1 Z2.00000
G0 X157.20100 Y-92.29900
G1 Z-2.50000
G1 Z2.00000
G0 X157.20100 Y-89.75900
G1 Z-2.50000
G1 Z2.00000
G0 X157.20100 Y-87.21900
G1 Z-2.50000
G1 Z2.00000
G0 X165.50000 Y-80.28000
G1 Z-2.50000
G1 Z2.00000
G0 X165.50000 Y-82.82000
G1 Z-2.50000
G1 Z2.00000
G0 X165.50000 Y-85.36000
G1 Z-2.50000
G1 Z2.00000
G0 X165.50000 Y-87.90000
G1 Z-2.50000
G1 Z2.00000
G0 X165.50000 Y-90.44000
G1 Z-2.50000
G1 Z2.00000
G0 X165.50000 Y-92.98000
G1 Z-2.50000
G1 Z2.00000
G0 X165.50000 Y-95.52000
G1 Z-2.50000
G1 Z2.00000
G0 X165.50000 Y-98.06000
G1 Z-2.50000
G1 Z2.00000
G0 X165.50000 Y-100.60000
G1 Z-2.50000
G1 Z2.00000
G0 X165.50000 Y-103.14000
G1 Z-2.50000
G1 Z2.00000
G0 X165.50000 Y-105.68000
G1 Z-2.50000
G1 Z2.00000
G0 X165.50000 Y-108.22000
G1 Z-2.50000
G1 Z2.00000
G0 X165.50000 Y-110.76000
G1 Z-2.50000
G1 Z2.00000
G0 X165.50000 Y-113.30000
G1 Z-2.50000
G1 Z2.00000
G0 X165.50000 Y-115.84000
G1 Z-2.50000
G1 Z2.00000
G0 X165.50000 Y-118.38000
G1 Z-2.50000
G1 Z2.00000
G0 X165.50000 Y-120.92000
G1 Z-2.50000
G1 Z2.00000
G0 X165.50000 Y-123.46000
G1 Z-2.50000
G1 Z2.00000
G0 X165.50000 Y-126.00000
G1 Z-2.50000
G1 Z2.00000
G0 X157.00000 Y-115.08000
G1 Z-2.50000
G1 Z2.00000
G0 X173.70000 Y-100.92000
G1 Z-2.50000
G1 Z2.00000
G0 X177.85000 Y-100.92000
G1 Z-2.50000
G1 Z2.00000
G0 X182.00000 Y-100.92000
G1 Z-2.50000
G1 Z2.00000
G0 X177.85000 Y-106.00000
G1 Z-2.50000
G1 Z2.00000
G0 X173.70000 Y-106.00000
G1 Z-2.50000
G1 Z2.00000
G0 X182.00000 Y-106.00000
G1 Z-2.50000
G1 Z2.00000
G0 X190.50000 Y-98.06000
G1 Z-2.50000
G1 Z2.00000
G0 X190.50000 Y-100.60000
G1 Z-2.50000
G1 Z2.00000
G0 X190.50000 Y-103.14000
G1 Z-2.50000
G1 Z2.00000
G0 X190.50000 Y-105.68000
G1 Z-2.50000
G1 Z2.00000
G0 X190.50000 Y-108.22000
G1 Z-2.50000
G1 Z2.00000
G0 X190.50000 Y-110.76000
G1 Z-2.50000
G1 Z2.00000
G0 X190.50000 Y-113.30000
G1 Z-2.50000
G1 Z2.00000
G0 X190.50000 Y-115.84000
G1 Z-2.50000
G1 Z2.00000
G0 X190.50000 Y-118.38000
G1 Z-2.50000
G1 Z2.00000
G0 X190.50000 Y-120.92000
G1 Z-2.50000
G1 Z2.00000
G0 X190.50000 Y-123.46000
G1 Z-2.50000
G1 Z2.00000
G0 X190.50000 Y-126.00000
G1 Z-2.50000
G1 Z2.00000
G0 X190.50000 Y-95.52000
G1 Z-2.50000
G1 Z2.00000
G0 X190.50000 Y-92.98000
G1 Z-2.50000
G1 Z2.00000
G0 X190.50000 Y-90.44000
G1 Z-2.50000
G1 Z2.00000
G0 X190.50000 Y-87.90000
G1 Z-2.50000
G1 Z2.00000
G0 X190.50000 Y-85.36000
G1 Z-2.50000
G1 Z2.00000
G0 X190.50000 Y-82.82000
G1 Z-2.50000
G1 Z2.00000
G0 X190.50000 Y-80.28000
G1 Z-2.50000
G1 Z2.00000
G0 X190.50000 Y-77.74000
G1 Z-2.50000
G1 Z2.00000
G0 X190.50000 Y-75.20000
G1 Z-2.50000
G1 Z2.00000
G0 X196.00000 Y-75.34000
G1 Z-2.50000
G1 Z2.00000
G0 X196.00000 Y-77.88000
G1 Z-2.50000
G1 Z2.00000
G0 X196.00000 Y-80.42000
G1 Z-2.50000
G1 Z2.00000
G0 X196.00000 Y-82.96000
G1 Z-2.50000
G1 Z2.00000
G0 X196.00000 Y-85.50000
G1 Z-2.50000
G1 Z2.00000
G0 X196.00000 Y-88.04000
G1 Z-2.50000
G1 Z2.00000
G0 X165.50000 Y-75.20000
G1 Z-2.50000
G1 Z2.00000
G0 X165.50000 Y-77.74000
G1 Z-2.50000
G1 Z2.00000
G0 X157.20100 Y-66.99900
G1 Z-2.50000
G1 Z2.00000
G0 X154.66100 Y-66.99900
G1 Z-2.50000
G1 Z2.00000
G0 X152.12100 Y-66.99900
G1 Z-2.50000
G1 Z2.00000
G0 X149.58100 Y-66.99900
G1 Z-2.50000
G1 Z2.00000
G0 X149.82000 Y-55.00000
G1 Z-2.50000
G1 Z2.00000
G0 X152.36000 Y-55.00000
G1 Z-2.50000
G1 Z2.00000
G0 X154.90000 Y-55.00000
G1 Z-2.50000
G1 Z2.00000
G0 X157.44000 Y-55.00000
G1 Z-2.50000
G1 Z2.00000
G0 X159.98000 Y-55.00000
G1 Z-2.50000
G1 Z2.00000
G0 X162.52000 Y-55.00000
G1 Z-2.50000
G1 Z2.00000
G0 X165.06000 Y-55.00000
G1 Z-2.50000
G1 Z2.00000
G0 X167.60000 Y-55.00000
G1 Z-2.50000
G1 Z2.00000
G0 X170.14000 Y-55.00000
G1 Z-2.50000
G1 Z2.00000
G0 X172.68000 Y-55.00000
G1 Z-2.50000
G1 Z2.00000
G0 X175.22000 Y-55.00000
G1 Z-2.50000
G1 Z2.00000
G0 X177.76000 Y-55.00000
G1 Z-2.50000
G1 Z2.00000
G0 X180.30000 Y-55.00000
G1 Z-2.50000
G1 Z2.00000
G0 X182.84000 Y-55.00000
G1 Z-2.50000
G1 Z2.00000
G0 X185.38000 Y-55.00000
G1 Z-2.50000
G1 Z2.00000
G0 X187.92000 Y-55.00000
G1 Z-2.50000
G1 Z2.00000
G0 X190.46000 Y-55.00000
G1 Z-2.50000
G1 Z2.00000
G0 X193.00000 Y-55.00000
G1 Z-2.50000
G1 Z2.00000
G0 X160.08000 Y-42.00000
G1 Z-2.50000
G1 Z2.00000
G0 X155.00000 Y-42.00000
G1 Z-2.50000
G1 Z2.00000
G0 X134.58000 Y-18.00000
G1 Z-2.50000
G1 Z2.00000
G0 X137.12000 Y-18.00000
G1 Z-2.50000
G1 Z2.00000
G0 X139.66000 Y-18.00000
G1 Z-2.50000
G1 Z2.00000
G0 X142.20000 Y-18.00000
G1 Z-2.50000
G1 Z2.00000
G0 X144.74000 Y-18.00000
G1 Z-2.50000
G1 Z2.00000
G0 X147.28000 Y-18.00000
G1 Z-2.50000
G1 Z2.00000
G0 X149.82000 Y-18.00000
G1 Z-2.50000
G1 Z2.00000
G0 X152.36000 Y-18.00000
G1 Z-2.50000
G1 Z2.00000
G0 X154.90000 Y-18.00000
G1 Z-2.50000
G1 Z2.00000
G0 X157.44000 Y-18.00000
G1 Z-2.50000
G1 Z2.00000
G0 X159.98000 Y-18.00000
G1 Z-2.50000
G1 Z2.00000
G0 X162.52000 Y-18.00000
G1 Z-2.50000
G1 Z2.00000
G0 X165.06000 Y-18.00000
G1 Z-2.50000
G1 Z2.00000
G0 X167.60000 Y-18.00000
G1 Z-2.50000
G1 Z2.00000
G0 X170.14000 Y-18.00000
G1 Z-2.50000
G1 Z2.00000
G0 X172.68000 Y-18.00000
G1 Z-2.50000
G1 Z2.00000
G0 X175.22000 Y-18.00000
G1 Z-2.50000
G1 Z2.00000
G0 X177.76000 Y-18.00000
G1 Z-2.50000
G1 Z2.00000
G0 X180.30000 Y-18.00000
G1 Z-2.50000
G1 Z2.00000
G0 X182.84000 Y-18.00000
G1 Z-2.50000
G1 Z2.00000
G0 X185.38000 Y-18.00000
G1 Z-2.50000
G1 Z2.00000
G0 X187.92000 Y-18.00000
G1 Z-2.50000
G1 Z2.00000
G0 X190.46000 Y-18.00000
G1 Z-2.50000
G1 Z2.00000
G0 X193.00000 Y-18.00000
G1 Z-2.50000
G1 Z2.00000
G0 X148.56000 Y-3.50000
G1 Z-2.50000
G1 Z2.00000
G0 X146.02000 Y-3.50000
G1 Z-2.50000
G1 Z2.00000
G0 X143.48000 Y-3.50000
G1 Z-2.50000
G1 Z2.00000
G0 X140.94000 Y-3.50000
G1 Z-2.50000
G1 Z2.00000
G0 X138.40000 Y-3.50000
G1 Z-2.50000
G1 Z2.00000
G0 X135.86000 Y-3.50000
G1 Z-2.50000
G1 Z2.00000
G0 X133.32000 Y-3.50000
G1 Z-2.50000
G1 Z2.00000
G0 X130.78000 Y-3.50000
G1 Z-2.50000
G1 Z2.00000
G0 X128.24000 Y-3.50000
G1 Z-2.50000
G1 Z2.00000
G0 X125.70000 Y-3.50000
G1 Z-2.50000
G1 Z2.00000
G0 X123.16000 Y-3.50000
G1 Z-2.50000
G1 Z2.00000
G0 X120.62000 Y-3.50000
G1 Z-2.50000
G1 Z2.00000
G0 X118.08000 Y-3.50000
G1 Z-2.50000
G1 Z2.00000
G0 X115.54000 Y-3.50000
G1 Z-2.50000
G1 Z2.00000
G0 X113.00000 Y-3.50000
G1 Z-2.50000
G1 Z2.00000
G0 X110.46000 Y-3.50000
G1 Z-2.50000
G1 Z2.00000
G0 X107.92000 Y-3.50000
G1 Z-2.50000
G1 Z2.00000
G0 X105.38000 Y-3.50000
G1 Z-2.50000
G1 Z2.00000
G0 X102.84000 Y-3.50000
G1 Z-2.50000
G1 Z2.00000
G0 X100.30000 Y-3.50000
G1 Z-2.50000
G1 Z2.00000
G0 X97.76000 Y-3.50000
G1 Z-2.50000
G1 Z2.00000
G0 X95.22000 Y-3.50000
G1 Z-2.50000
G1 Z2.00000
G0 X92.68000 Y-3.50000
G1 Z-2.50000
G1 Z2.00000
G0 X90.14000 Y-3.50000
G1 Z-2.50000
G1 Z2.00000
G0 X87.60000 Y-3.50000
G1 Z-2.50000
G1 Z2.00000
G0 X85.06000 Y-3.50000
G1 Z-2.50000
G1 Z2.00000
G0 X82.52000 Y-3.50000
G1 Z-2.50000
G1 Z2.00000
G0 X79.98000 Y-3.50000
G1 Z-2.50000
G1 Z2.00000
G0 X77.44000 Y-3.50000
G1 Z-2.50000
G1 Z2.00000
G0 X74.90000 Y-3.50000
G1 Z-2.50000
G1 Z2.00000
G0 X72.36000 Y-3.50000
G1 Z-2.50000
G1 Z2.00000
G0 X69.82000 Y-3.50000
G1 Z-2.50000
G1 Z2.00000
G0 X67.28000 Y-3.50000
G1 Z-2.50000
G1 Z2.00000
G0 X64.74000 Y-3.50000
G1 Z-2.50000
G1 Z2.00000
G0 X62.20000 Y-3.50000
G1 Z-2.50000
G1 Z2.00000
G0 X59.66000 Y-3.50000
G1 Z-2.50000
G1 Z2.00000
G0 X57.12000 Y-3.50000
G1 Z-2.50000
G1 Z2.00000
G0 X54.58000 Y-3.50000
G1 Z-2.50000
G1 Z2.00000
G0 X52.04000 Y-3.50000
G1 Z-2.50000
G1 Z2.00000
G0 X49.50000 Y-3.50000
G1 Z-2.50000
G1 Z2.00000
G0 X12.20100 Y-87.21900
G1 Z-2.50000
G1 Z2.00000
G0 X12.20100 Y-89.75900
G1 Z-2.50000
G1 Z2.00000
G0 X12.20100 Y-92.29900
G1 Z-2.50000
G1 Z2.00000
G0 X12.20100 Y-94.83900
G1 Z-2.50000
G1 Z2.00000
G0 X12.20100 Y-97.37900
G1 Z-2.50000
G1 Z2.00000
G0 X12.20100 Y-99.91900
G1 Z-2.50000
G1 Z2.00000
G0 X12.20100 Y-102.45900
G1 Z-2.50000
G1 Z2.00000
G0 X12.20100 Y-104.99900
G1 Z-2.50000
G1 Z2.00000

G53 G00 Z0.000 ( All done -- retract )

M5      (Spindle off.)
G04 P1.000000
M9      (Coolant off.)
M2      (Program end.)

