( pcb2gcode 2.5.0 )
( Software-independent Gcode )

G94 ( Millimeters per minute feed rate. )
G21 ( Units == Millimeters. )

G90 ( Absolute coordinates. )
G00 S600 ( RPM spindle speed. )
G01 F40.00000 ( Feedrate. )


G53 G00 Z0.00000 (Retract to tool change height)
T1
M5      (Spindle stop.)
G04 P1.00000 (Wait for spindle to stop)
(MSG, Change tool bit to mill diameter 0.50000mm)
M0      (Temporary machine stop.)
M3 ( Spindle on clockwise. )
G04 P1.00000 (Wait for spindle to get up to speed)
G04 P0 ( dwell for no time -- G64 should not smooth over this point )
G00 Z2.00000 ( retract )

G00 X-0.30000 Y-0.50000 ( rapid move to begin. )
G01 F30.00000
( Mill infeed pass 1/1 )
G01 Z-0.07500
G04 P0 ( dwell for no time -- G64 should not smooth over this point )
G01 F40.00000
G01 X-0.30000 Y-0.50000
G01 X-0.30000 Y0.00000
G01 X-0.29423 Y0.05852
G01 X-0.27714 Y0.11478
G01 X-0.24943 Y0.16665
G01 X-0.21212 Y0.21212
G01 X-0.16665 Y0.24943
G01 X-0.11478 Y0.27714
G01 X-0.05852 Y0.29423
G01 X0.00000 Y0.30000
G01 X0.50000 Y0.30000
G01 X0.55529 Y0.29484
G01 X0.60871 Y0.27958
G01 X0.65842 Y0.25474
G01 X0.70267 Y0.22118
G01 X0.73998 Y0.18001
G01 X0.76906 Y0.13266
G01 X0.78890 Y0.08080
G01 X0.79886 Y0.02614
G01 X0.79855 Y-0.02939
G01 X0.78892 Y-0.12695
G01 X0.77747 Y-0.18461
G01 X0.74902 Y-0.27841
G01 X0.72649 Y-0.33274
G01 X0.68029 Y-0.41920
G01 X0.64762 Y-0.46810
G01 X0.58544 Y-0.54386
G01 X0.54386 Y-0.58544
G01 X0.44445 Y-0.66518
G01 X0.30615 Y-0.73909
G01 X0.18461 Y-0.77747
G01 X0.12695 Y-0.78892
G01 X0.02939 Y-0.79855
G01 X-0.02614 Y-0.79886
G01 X-0.08080 Y-0.78890
G01 X-0.13266 Y-0.76906
G01 X-0.18001 Y-0.73998
G01 X-0.22118 Y-0.70267
G01 X-0.25474 Y-0.65842
G01 X-0.27958 Y-0.60871
G01 X-0.29484 Y-0.55529
G01 X-0.30000 Y-0.50000
G04 P0 ( dwell for no time -- G64 should not smooth over this point )
G00 Z2.00000 ( retract )

G00 X2.30017 Y-15.71168 ( rapid move to begin. )
G01 F30.00000
( Mill infeed pass 1/1 )
G01 Z-0.07500
G04 P0 ( dwell for no time -- G64 should not smooth over this point )
G01 F40.00000
G01 X2.30017 Y-15.71168
G01 X2.30548 Y-15.64325
G01 X2.31694 Y-15.58557
G01 X2.33825 Y-15.52031
G01 X2.36931 Y-15.45913
G01 X2.40198 Y-15.41023
G01 X2.44663 Y-15.35811
G01 X7.04332 Y-10.76142
G01 X7.09544 Y-10.71677
G01 X7.14433 Y-10.68410
G01 X7.20552 Y-10.65304
G01 X7.29932 Y-10.62459
G01 X7.36747 Y-10.61641
G01 X56.02798 Y-10.61499
G01 X61.69995 Y-4.94297
G01 X61.69998 Y-4.53205
G01 X61.58634 Y-4.47131
G01 X61.53744 Y-4.43865
G01 X61.40864 Y-4.33294
G01 X61.36703 Y-4.29136
G01 X61.26135 Y-4.16255
G01 X61.22866 Y-4.11363
G01 X61.13752 Y-3.94007
G01 X61.07923 Y-3.75290
G01 X61.06777 Y-3.69522
G01 X61.05144 Y-3.52938
G01 X61.05144 Y-3.47058
G01 X61.06777 Y-3.30474
G01 X61.07923 Y-3.24709
G01 X61.12761 Y-3.08762
G01 X61.15012 Y-3.03329
G01 X61.22866 Y-2.88633
G01 X61.26135 Y-2.83743
G01 X61.38682 Y-2.68681
G01 X61.53744 Y-2.56134
G01 X61.58634 Y-2.52867
G01 X61.73328 Y-2.45011
G01 X61.78763 Y-2.42760
G01 X61.97564 Y-2.37208
G01 X62.17059 Y-2.35143
G01 X62.22939 Y-2.35143
G01 X62.42434 Y-2.37208
G01 X62.61235 Y-2.42760
G01 X62.66668 Y-2.45011
G01 X62.81364 Y-2.52867
G01 X62.86254 Y-2.56134
G01 X62.99134 Y-2.66705
G01 X63.03292 Y-2.70863
G01 X63.13863 Y-2.83743
G01 X63.17132 Y-2.88633
G01 X63.24986 Y-3.03329
G01 X63.27237 Y-3.08762
G01 X63.32789 Y-3.27563
G01 X63.34854 Y-3.47058
G01 X63.34854 Y-3.52938
G01 X63.33221 Y-3.69522
G01 X63.32073 Y-3.75290
G01 X63.27237 Y-3.91236
G01 X63.24986 Y-3.96669
G01 X63.17132 Y-4.11363
G01 X63.13863 Y-4.16255
G01 X63.01316 Y-4.31315
G01 X62.86254 Y-4.43865
G01 X62.81364 Y-4.47131
G01 X62.69998 Y-4.53207
G01 X62.69998 Y-5.15008
G01 X62.69467 Y-5.21848
G01 X62.68321 Y-5.27616
G01 X62.64933 Y-5.36801
G01 X62.59817 Y-5.45150
G01 X62.57328 Y-5.48180
G01 X56.58863 Y-11.46853
G01 X56.50222 Y-11.53589
G01 X56.46207 Y-11.56048
G01 X56.35907 Y-11.59784
G01 X56.31330 Y-11.60882
G01 X56.26638 Y-11.61252
G01 X7.60397 Y-11.61496
G01 X3.30015 Y-15.91879
G01 X3.30015 Y-99.84168
G01 X14.37488 Y-110.91636
G01 X65.78338 Y-110.91636
G01 X65.88092 Y-110.92599
G01 X65.94699 Y-110.94451
G01 X66.03591 Y-110.98550
G01 X66.08481 Y-111.01817
G01 X66.12357 Y-111.05070
G01 X66.18117 Y-111.04504
G01 X66.24000 Y-111.04504
G01 X66.33754 Y-111.05464
G01 X66.39522 Y-111.06612
G01 X66.51673 Y-111.10448
G01 X66.62979 Y-111.16328
G01 X66.67868 Y-111.19594
G01 X66.75445 Y-111.25812
G01 X66.79606 Y-111.29973
G01 X66.85824 Y-111.37549
G01 X66.89677 Y-111.43536
G01 X91.00899 Y-111.43536
G01 X91.07739 Y-111.44067
G01 X91.13507 Y-111.45213
G01 X91.20033 Y-111.47344
G01 X91.26151 Y-111.50450
G01 X91.34071 Y-111.56206
G01 X91.49591 Y-111.71519
G01 X99.39757 Y-111.71662
G01 X99.46571 Y-111.72480
G01 X99.49426 Y-111.73193
G01 X99.58611 Y-111.76582
G01 X99.66960 Y-111.81697
G01 X99.72172 Y-111.86163
G01 X103.25809 Y-115.39797
G01 X151.44267 Y-115.39797
G01 X153.76820 Y-113.07244
G01 X153.76263 Y-113.01600
G01 X153.76263 Y-112.95718
G01 X153.77655 Y-112.83051
G01 X153.81216 Y-112.70816
G01 X153.83467 Y-112.65383
G01 X153.88087 Y-112.56739
G01 X153.91356 Y-112.51849
G01 X153.97574 Y-112.44273
G01 X154.01732 Y-112.40112
G01 X154.11674 Y-112.32142
G01 X154.22842 Y-112.26008
G01 X154.28275 Y-112.23757
G01 X154.37655 Y-112.20912
G01 X154.43424 Y-112.19764
G01 X154.53177 Y-112.18804
G01 X154.59060 Y-112.18804
G01 X154.71727 Y-112.20196
G01 X154.86733 Y-112.24748
G01 X154.98039 Y-112.30628
G01 X155.02928 Y-112.33894
G01 X155.10505 Y-112.40112
G01 X155.14665 Y-112.44273
G01 X155.22636 Y-112.54214
G01 X155.28770 Y-112.65383
G01 X155.31020 Y-112.70816
G01 X155.34582 Y-112.83051
G01 X155.35974 Y-112.95718
G01 X155.35974 Y-113.01600
G01 X155.35013 Y-113.11354
G01 X155.33865 Y-113.17122
G01 X155.31020 Y-113.26503
G01 X155.28770 Y-113.31936
G01 X155.22636 Y-113.43104
G01 X155.14665 Y-113.53046
G01 X155.10505 Y-113.57204
G01 X155.00563 Y-113.65177
G01 X154.89395 Y-113.71311
G01 X154.83962 Y-113.73561
G01 X154.71727 Y-113.77122
G01 X154.59060 Y-113.78514
G01 X154.53177 Y-113.78514
G01 X154.47526 Y-113.77958
G01 X152.00333 Y-116.25153
G01 X151.92756 Y-116.31371
G01 X151.86772 Y-116.34734
G01 X151.77587 Y-116.38123
G01 X151.74732 Y-116.38836
G01 X151.67917 Y-116.39654
G01 X103.05097 Y-116.39799
G01 X102.95339 Y-116.38836
G01 X102.88735 Y-116.36985
G01 X102.83297 Y-116.34734
G01 X102.77318 Y-116.31371
G01 X102.69741 Y-116.25153
G01 X99.16104 Y-112.71517
G01 X91.28877 Y-112.71519
G01 X91.22037 Y-112.70988
G01 X91.16268 Y-112.69843
G01 X91.09743 Y-112.67712
G01 X91.03624 Y-112.64605
G01 X90.95704 Y-112.58850
G01 X90.80188 Y-112.43539
G01 X66.74673 Y-112.43539
G01 X66.67868 Y-112.49122
G01 X66.62979 Y-112.52390
G01 X66.51673 Y-112.58268
G01 X66.36667 Y-112.62822
G01 X66.24000 Y-112.64214
G01 X66.18117 Y-112.64214
G01 X66.05450 Y-112.62822
G01 X65.90444 Y-112.58268
G01 X65.79138 Y-112.52390
G01 X65.74249 Y-112.49122
G01 X65.66672 Y-112.42904
G01 X65.62514 Y-112.38746
G01 X65.54541 Y-112.28804
G01 X65.48407 Y-112.17636
G01 X65.46157 Y-112.12203
G01 X65.43312 Y-112.02822
G01 X65.42596 Y-111.99965
G01 X65.41630 Y-111.91639
G01 X14.16779 Y-111.91639
G01 X14.09936 Y-111.91108
G01 X14.04168 Y-111.89962
G01 X13.97643 Y-111.87831
G01 X13.91524 Y-111.84725
G01 X13.86634 Y-111.81458
G01 X13.81422 Y-111.76993
G01 X2.44663 Y-100.40234
G01 X2.37927 Y-100.31593
G01 X2.35468 Y-100.27577
G01 X2.31732 Y-100.17277
G01 X2.30635 Y-100.12700
G01 X2.30264 Y-100.08009
G01 X2.30017 Y-15.71168
G04 P0 ( dwell for no time -- G64 should not smooth over this point )
G00 Z2.00000 ( retract )

G00 X5.34998 Y-15.75999 ( rapid move to begin. )
G01 F30.00000
( Mill infeed pass 1/1 )
G01 Z-0.07500
G04 P0 ( dwell for no time -- G64 should not smooth over this point )
G01 F40.00000
G01 X5.34998 Y-15.75999
G01 X5.36776 Y-15.56476
G01 X5.37924 Y-15.50708
G01 X5.43753 Y-15.31991
G01 X5.52867 Y-15.14632
G01 X5.56133 Y-15.09743
G01 X5.66704 Y-14.96863
G01 X5.70862 Y-14.92705
G01 X5.83743 Y-14.82133
G01 X5.88632 Y-14.78867
G01 X6.03329 Y-14.71011
G01 X6.08762 Y-14.68760
G01 X6.24708 Y-14.63924
G01 X6.30476 Y-14.62776
G01 X6.49999 Y-14.60998
G01 X6.69521 Y-14.62776
G01 X6.75289 Y-14.63924
G01 X6.91236 Y-14.68760
G01 X6.96669 Y-14.71011
G01 X7.11365 Y-14.78867
G01 X7.16255 Y-14.82133
G01 X7.31317 Y-14.94681
G01 X7.43864 Y-15.09743
G01 X7.47131 Y-15.14632
G01 X7.53207 Y-15.25996
G01 X8.15007 Y-15.25996
G01 X8.19701 Y-15.26367
G01 X8.30461 Y-15.28445
G01 X8.34809 Y-15.30246
G01 X8.44395 Y-15.35544
G01 X8.47974 Y-15.38600
G01 X17.85714 Y-24.75997
G01 X29.74434 Y-24.75997
G01 X29.79024 Y-24.67412
G01 X29.82290 Y-24.62522
G01 X29.94218 Y-24.48217
G01 X30.08521 Y-24.36292
G01 X30.13410 Y-24.33023
G01 X30.27243 Y-24.25631
G01 X30.32676 Y-24.23381
G01 X30.47682 Y-24.18827
G01 X30.53451 Y-24.17681
G01 X30.71998 Y-24.16000
G01 X30.90548 Y-24.17681
G01 X30.96313 Y-24.18827
G01 X31.11322 Y-24.23381
G01 X31.16755 Y-24.25631
G01 X31.30586 Y-24.33023
G01 X31.35475 Y-24.36292
G01 X31.47598 Y-24.46241
G01 X31.51756 Y-24.50399
G01 X31.61706 Y-24.62522
G01 X31.64975 Y-24.67412
G01 X31.73626 Y-24.83904
G01 X31.79171 Y-25.01684
G01 X31.80316 Y-25.07450
G01 X31.81855 Y-25.23058
G01 X31.81855 Y-25.28938
G01 X31.79884 Y-25.47457
G01 X31.76344 Y-25.59632
G01 X33.56798 Y-27.40086
G01 X86.43158 Y-27.40086
G01 X87.65220 Y-26.18024
G01 X87.65220 Y-24.29690
G01 X87.51506 Y-24.15979
G01 X65.48730 Y-24.15979
G01 X64.72344 Y-24.92365
G01 X64.75169 Y-25.01684
G01 X64.76317 Y-25.07450
G01 X64.77853 Y-25.23058
G01 X64.77853 Y-25.28938
G01 X64.75885 Y-25.47457
G01 X64.70617 Y-25.65319
G01 X64.68367 Y-25.70754
G01 X64.60975 Y-25.84587
G01 X64.57706 Y-25.89477
G01 X64.45781 Y-26.03779
G01 X64.31476 Y-26.15707
G01 X64.26586 Y-26.18971
G01 X64.12756 Y-26.26368
G01 X64.07323 Y-26.28618
G01 X63.89459 Y-26.33886
G01 X63.70940 Y-26.35855
G01 X63.65057 Y-26.35855
G01 X63.46538 Y-26.33886
G01 X63.28677 Y-26.28618
G01 X63.23241 Y-26.26368
G01 X63.09411 Y-26.18971
G01 X63.04521 Y-26.15707
G01 X62.90216 Y-26.03779
G01 X62.76538 Y-25.87112
G01 X62.67630 Y-25.70754
G01 X62.65380 Y-25.65319
G01 X62.60112 Y-25.47457
G01 X62.58143 Y-25.28938
G01 X62.58143 Y-25.23058
G01 X62.59680 Y-25.07450
G01 X62.60828 Y-25.01684
G01 X62.66373 Y-24.83904
G01 X62.75024 Y-24.67412
G01 X62.78291 Y-24.62522
G01 X62.90216 Y-24.48217
G01 X63.04521 Y-24.36292
G01 X63.09411 Y-24.33023
G01 X63.23241 Y-24.25631
G01 X63.28677 Y-24.23381
G01 X63.43683 Y-24.18827
G01 X63.49451 Y-24.17681
G01 X63.67998 Y-24.16000
G01 X63.86546 Y-24.17681
G01 X63.92314 Y-24.18827
G01 X64.01631 Y-24.21654
G01 X64.92662 Y-23.30623
G01 X64.96240 Y-23.27565
G01 X65.05318 Y-23.21428
G01 X65.09667 Y-23.19627
G01 X65.19037 Y-23.16800
G01 X65.28018 Y-23.15977
G01 X87.75156 Y-23.16122
G01 X87.84826 Y-23.17653
G01 X87.88578 Y-23.18791
G01 X87.97468 Y-23.22891
G01 X88.05390 Y-23.28644
G01 X88.50574 Y-23.73622
G01 X88.53630 Y-23.77201
G01 X88.59213 Y-23.85238
G01 X88.63114 Y-23.94654
G01 X88.64849 Y-24.04285
G01 X88.65220 Y-24.08979
G01 X88.65220 Y-24.87999
G01 X92.74434 Y-24.87996
G01 X92.80538 Y-24.76886
G01 X92.94218 Y-24.60216
G01 X93.08521 Y-24.48291
G01 X93.13410 Y-24.45024
G01 X93.29903 Y-24.36373
G01 X93.47683 Y-24.30828
G01 X93.53451 Y-24.29680
G01 X93.69059 Y-24.28143
G01 X93.74939 Y-24.28143
G01 X93.90548 Y-24.29680
G01 X93.96313 Y-24.30828
G01 X94.14093 Y-24.36373
G01 X94.30586 Y-24.45024
G01 X94.35475 Y-24.48291
G01 X94.49780 Y-24.60216
G01 X94.63461 Y-24.76886
G01 X94.73626 Y-24.95903
G01 X94.79171 Y-25.13683
G01 X94.80316 Y-25.19451
G01 X94.81853 Y-25.35057
G01 X94.81853 Y-25.40940
G01 X94.80316 Y-25.56543
G01 X94.79171 Y-25.62314
G01 X94.73626 Y-25.80091
G01 X94.63461 Y-25.99111
G01 X94.49780 Y-26.15781
G01 X94.35475 Y-26.27706
G01 X94.30586 Y-26.30975
G01 X94.14093 Y-26.39626
G01 X93.93458 Y-26.45885
G01 X93.74939 Y-26.47853
G01 X93.69059 Y-26.47853
G01 X93.53451 Y-26.46317
G01 X93.47683 Y-26.45166
G01 X93.29903 Y-26.39626
G01 X93.13410 Y-26.30975
G01 X93.08521 Y-26.27706
G01 X92.94218 Y-26.15781
G01 X92.80538 Y-25.99111
G01 X92.74432 Y-25.87996
G01 X88.65220 Y-25.87996
G01 X88.65220 Y-26.38740
G01 X88.64849 Y-26.43431
G01 X88.62771 Y-26.54188
G01 X88.60970 Y-26.58539
G01 X88.55680 Y-26.68115
G01 X88.52637 Y-26.71684
G01 X86.97041 Y-28.27419
G01 X86.89122 Y-28.33174
G01 X86.80229 Y-28.37274
G01 X86.70709 Y-28.39557
G01 X86.63869 Y-28.40088
G01 X33.33148 Y-28.39944
G01 X33.23478 Y-28.38412
G01 X33.14294 Y-28.35024
G01 X33.05945 Y-28.29908
G01 X33.00733 Y-28.25443
G01 X31.05633 Y-26.30343
G01 X30.93458 Y-26.33886
G01 X30.74939 Y-26.35855
G01 X30.69059 Y-26.35855
G01 X30.50540 Y-26.33886
G01 X30.32676 Y-26.28618
G01 X30.27243 Y-26.26368
G01 X30.13410 Y-26.18971
G01 X30.08521 Y-26.15707
G01 X29.94218 Y-26.03779
G01 X29.82290 Y-25.89477
G01 X29.79024 Y-25.84587
G01 X29.74434 Y-25.75997
G01 X17.65008 Y-25.75999
G01 X17.56026 Y-25.75176
G01 X17.46656 Y-25.72349
G01 X17.42308 Y-25.70549
G01 X17.38292 Y-25.68087
G01 X17.29651 Y-25.61354
G01 X7.94299 Y-16.25996
G01 X7.53207 Y-16.25999
G01 X7.47131 Y-16.37365
G01 X7.43864 Y-16.42255
G01 X7.31317 Y-16.57317
G01 X7.13890 Y-16.71617
G01 X6.96669 Y-16.80987
G01 X6.91236 Y-16.83238
G01 X6.72435 Y-16.88790
G01 X6.52940 Y-16.90855
G01 X6.47057 Y-16.90855
G01 X6.27563 Y-16.88790
G01 X6.08762 Y-16.83238
G01 X6.03329 Y-16.80987
G01 X5.88632 Y-16.73131
G01 X5.83743 Y-16.69865
G01 X5.68681 Y-16.57317
G01 X5.56133 Y-16.42255
G01 X5.52867 Y-16.37365
G01 X5.45010 Y-16.22669
G01 X5.42760 Y-16.17236
G01 X5.37924 Y-16.01290
G01 X5.36776 Y-15.95521
G01 X5.34998 Y-15.75999
G01 X5.34998 Y-18.29999
G01 X5.36776 Y-18.10476
G01 X5.37924 Y-18.04708
G01 X5.43753 Y-17.85991
G01 X5.52867 Y-17.68632
G01 X5.56133 Y-17.63743
G01 X5.68681 Y-17.48681
G01 X5.83743 Y-17.36133
G01 X5.88632 Y-17.32867
G01 X6.03329 Y-17.25011
G01 X6.08762 Y-17.22760
G01 X6.27563 Y-17.17208
G01 X6.49999 Y-17.14998
G01 X6.72435 Y-17.17208
G01 X6.91236 Y-17.22760
G01 X6.96669 Y-17.25011
G01 X7.11365 Y-17.32867
G01 X7.16255 Y-17.36133
G01 X7.31317 Y-17.48681
G01 X7.43864 Y-17.63743
G01 X7.47131 Y-17.68632
G01 X7.56244 Y-17.85991
G01 X7.62074 Y-18.04708
G01 X7.63222 Y-18.10476
G01 X7.64855 Y-18.27058
G01 X7.64855 Y-18.32940
G01 X7.62790 Y-18.52435
G01 X7.56244 Y-18.74007
G01 X7.47131 Y-18.91365
G01 X7.43864 Y-18.96255
G01 X7.31317 Y-19.11317
G01 X7.13890 Y-19.25617
G01 X6.96669 Y-19.34987
G01 X6.91236 Y-19.37238
G01 X6.72435 Y-19.42790
G01 X6.49999 Y-19.45000
G01 X6.27563 Y-19.42790
G01 X6.08762 Y-19.37238
G01 X6.03329 Y-19.34987
G01 X5.88632 Y-19.27131
G01 X5.83743 Y-19.23865
G01 X5.68681 Y-19.11317
G01 X5.56133 Y-18.96255
G01 X5.52867 Y-18.91365
G01 X5.43753 Y-18.74007
G01 X5.37924 Y-18.55290
G01 X5.36776 Y-18.49521
G01 X5.34998 Y-18.29999
G04 P0 ( dwell for no time -- G64 should not smooth over this point )
G00 Z2.00000 ( retract )

G00 X5.35061 Y-23.39243 ( rapid move to begin. )
G01 F30.00000
( Mill infeed pass 1/1 )
G01 Z-0.07500
G04 P0 ( dwell for no time -- G64 should not smooth over this point )
G01 F40.00000
G01 X5.35061 Y-23.39243
G01 X5.35142 Y-23.35058
G01 X5.36776 Y-23.18476
G01 X5.37924 Y-23.12708
G01 X5.43753 Y-22.93991
G01 X5.52867 Y-22.76632
G01 X5.56133 Y-22.71743
G01 X5.68681 Y-22.56681
G01 X5.83743 Y-22.44133
G01 X5.88632 Y-22.40867
G01 X6.03329 Y-22.33011
G01 X6.08762 Y-22.30760
G01 X6.27563 Y-22.25208
G01 X6.49999 Y-22.22998
G01 X6.72435 Y-22.25208
G01 X6.91236 Y-22.30760
G01 X6.96669 Y-22.33011
G01 X7.11365 Y-22.40867
G01 X7.16255 Y-22.44133
G01 X7.31317 Y-22.56681
G01 X7.43864 Y-22.71743
G01 X7.47131 Y-22.76632
G01 X7.56244 Y-22.93991
G01 X7.62074 Y-23.12708
G01 X7.63222 Y-23.18476
G01 X7.64855 Y-23.35058
G01 X7.64855 Y-23.40940
G01 X7.62790 Y-23.60435
G01 X7.56244 Y-23.82007
G01 X7.47131 Y-23.99365
G01 X7.43864 Y-24.04255
G01 X7.31317 Y-24.19317
G01 X7.13890 Y-24.33617
G01 X6.96669 Y-24.42987
G01 X6.91236 Y-24.45238
G01 X6.72435 Y-24.50790
G01 X6.49999 Y-24.53000
G01 X6.27563 Y-24.50790
G01 X6.08762 Y-24.45238
G01 X6.03329 Y-24.42987
G01 X5.88632 Y-24.35131
G01 X5.83743 Y-24.31865
G01 X5.68681 Y-24.19317
G01 X5.56133 Y-24.04255
G01 X5.52867 Y-23.99365
G01 X5.43753 Y-23.82007
G01 X5.37924 Y-23.63290
G01 X5.36776 Y-23.57521
G01 X5.35061 Y-23.39243
G01 X5.35142 Y-25.94940
G01 X5.35142 Y-25.89058
G01 X5.37207 Y-25.69563
G01 X5.42760 Y-25.50762
G01 X5.45010 Y-25.45326
G01 X5.54380 Y-25.28108
G01 X5.68681 Y-25.10681
G01 X5.83743 Y-24.98133
G01 X5.88632 Y-24.94867
G01 X6.03329 Y-24.87011
G01 X6.08762 Y-24.84760
G01 X6.27563 Y-24.79208
G01 X6.49999 Y-24.76998
G01 X6.72435 Y-24.79208
G01 X6.91236 Y-24.84760
G01 X6.96669 Y-24.87011
G01 X7.11365 Y-24.94867
G01 X7.16255 Y-24.98133
G01 X7.29135 Y-25.08705
G01 X7.33293 Y-25.12863
G01 X7.45617 Y-25.28108
G01 X7.54987 Y-25.45326
G01 X7.57237 Y-25.50762
G01 X7.62790 Y-25.69563
G01 X7.64855 Y-25.89058
G01 X7.64855 Y-25.94940
G01 X7.62790 Y-26.14432
G01 X7.57237 Y-26.33236
G01 X7.54987 Y-26.38666
G01 X7.45617 Y-26.55890
G01 X7.33293 Y-26.71135
G01 X7.29135 Y-26.75293
G01 X7.13890 Y-26.87617
G01 X6.96669 Y-26.96987
G01 X6.91236 Y-26.99238
G01 X6.72435 Y-27.04790
G01 X6.52940 Y-27.06855
G01 X6.47057 Y-27.06855
G01 X6.27563 Y-27.04790
G01 X6.08762 Y-26.99238
G01 X6.03329 Y-26.96987
G01 X5.86108 Y-26.87617
G01 X5.70862 Y-26.75293
G01 X5.66704 Y-26.71135
G01 X5.54380 Y-26.55890
G01 X5.45010 Y-26.38666
G01 X5.42760 Y-26.33236
G01 X5.37207 Y-26.14432
G01 X5.35142 Y-25.94940
G01 X5.35142 Y-28.43058
G01 X5.37207 Y-28.23563
G01 X5.42760 Y-28.04762
G01 X5.45010 Y-27.99329
G01 X5.54380 Y-27.82108
G01 X5.66704 Y-27.66863
G01 X5.70862 Y-27.62705
G01 X5.86108 Y-27.50381
G01 X6.03329 Y-27.41011
G01 X6.08762 Y-27.38760
G01 X6.27563 Y-27.33208
G01 X6.47057 Y-27.31143
G01 X6.52940 Y-27.31143
G01 X6.72435 Y-27.33208
G01 X6.91236 Y-27.38760
G01 X6.96669 Y-27.41011
G01 X7.13890 Y-27.50381
G01 X7.29135 Y-27.62705
G01 X7.33293 Y-27.66863
G01 X7.45617 Y-27.82108
G01 X7.54987 Y-27.99329
G01 X7.57237 Y-28.04762
G01 X7.62790 Y-28.23563
G01 X7.64855 Y-28.43058
G01 X7.64855 Y-28.48940
G01 X7.62790 Y-28.68435
G01 X7.57237 Y-28.87236
G01 X7.54987 Y-28.92669
G01 X7.45617 Y-29.09890
G01 X7.33293 Y-29.25135
G01 X7.29135 Y-29.29293
G01 X7.13890 Y-29.41617
G01 X6.96669 Y-29.50987
G01 X6.91236 Y-29.53238
G01 X6.72435 Y-29.58790
G01 X6.52940 Y-29.60855
G01 X6.47057 Y-29.60855
G01 X6.27563 Y-29.58790
G01 X6.08762 Y-29.53238
G01 X6.03329 Y-29.50987
G01 X5.86108 Y-29.41617
G01 X5.70862 Y-29.29293
G01 X5.66704 Y-29.25135
G01 X5.54380 Y-29.09890
G01 X5.45010 Y-28.92669
G01 X5.42760 Y-28.87236
G01 X5.37207 Y-28.68435
G01 X5.35142 Y-28.48940
G01 X5.35142 Y-28.43058
G01 X5.35142 Y-30.97058
G01 X5.37207 Y-30.77563
G01 X5.42760 Y-30.58762
G01 X5.45010 Y-30.53329
G01 X5.54380 Y-30.36108
G01 X5.66704 Y-30.20863
G01 X5.70862 Y-30.16705
G01 X5.83743 Y-30.06133
G01 X5.88632 Y-30.02867
G01 X6.03329 Y-29.95011
G01 X6.08762 Y-29.92760
G01 X6.27563 Y-29.87208
G01 X6.47057 Y-29.85143
G01 X6.52940 Y-29.85143
G01 X6.72435 Y-29.87208
G01 X6.91236 Y-29.92760
G01 X6.96669 Y-29.95011
G01 X7.13890 Y-30.04381
G01 X7.29135 Y-30.16705
G01 X7.33293 Y-30.20863
G01 X7.45617 Y-30.36108
G01 X7.53204 Y-30.49996
G01 X7.94299 Y-30.49996
G01 X9.53531 Y-28.90893
G01 X9.58733 Y-28.86723
G01 X9.61781 Y-28.84937
G01 X9.71705 Y-28.80294
G01 X9.76285 Y-28.79194
G01 X9.87158 Y-28.77845
G01 X122.40156 Y-28.77845
G01 X123.69061 Y-27.48943
G01 X123.77702 Y-27.42207
G01 X123.81718 Y-27.39748
G01 X123.92017 Y-27.36012
G01 X123.96594 Y-27.34915
G01 X124.01288 Y-27.34544
G01 X137.87295 Y-27.34544
G01 X137.91989 Y-27.34915
G01 X137.96566 Y-27.36012
G01 X138.06866 Y-27.39748
G01 X138.10882 Y-27.42207
G01 X138.19523 Y-27.48943
G01 X161.12137 Y-50.41557
G01 X168.59560 Y-50.41557
G01 X168.70431 Y-50.42906
G01 X168.75011 Y-50.44006
G01 X168.79359 Y-50.45807
G01 X168.87982 Y-50.50434
G01 X168.94914 Y-50.56203
G01 X172.30374 Y-53.91666
G01 X172.45564 Y-53.87208
G01 X172.65058 Y-53.85143
G01 X172.70938 Y-53.85143
G01 X172.90435 Y-53.87208
G01 X173.09236 Y-53.92760
G01 X173.14669 Y-53.95011
G01 X173.29363 Y-54.02867
G01 X173.34253 Y-54.06133
G01 X173.47136 Y-54.16705
G01 X173.51294 Y-54.20863
G01 X173.61865 Y-54.33743
G01 X173.65132 Y-54.38633
G01 X173.74245 Y-54.55991
G01 X173.80074 Y-54.74708
G01 X173.81220 Y-54.80477
G01 X173.82853 Y-54.97058
G01 X173.82853 Y-55.02940
G01 X173.81220 Y-55.19522
G01 X173.80074 Y-55.25290
G01 X173.74245 Y-55.44007
G01 X173.65132 Y-55.61363
G01 X173.61865 Y-55.66255
G01 X173.49315 Y-55.81317
G01 X173.34253 Y-55.93865
G01 X173.29363 Y-55.97131
G01 X173.12008 Y-56.06245
G01 X172.93290 Y-56.12074
G01 X172.87522 Y-56.13222
G01 X172.67999 Y-56.14998
G01 X172.48475 Y-56.13222
G01 X172.42709 Y-56.12074
G01 X172.23989 Y-56.06245
G01 X172.06633 Y-55.97131
G01 X172.01744 Y-55.93865
G01 X171.86681 Y-55.81317
G01 X171.74134 Y-55.66255
G01 X171.70867 Y-55.61363
G01 X171.63011 Y-55.46669
G01 X171.60761 Y-55.41236
G01 X171.55925 Y-55.25290
G01 X171.54776 Y-55.19522
G01 X171.52998 Y-54.99999
G01 X171.54776 Y-54.80477
G01 X171.55925 Y-54.74708
G01 X171.59666 Y-54.62374
G01 X168.38849 Y-51.41559
G01 X160.91426 Y-51.41559
G01 X160.81672 Y-51.40597
G01 X160.75066 Y-51.38743
G01 X160.69633 Y-51.36492
G01 X160.61284 Y-51.31379
G01 X160.56072 Y-51.26914
G01 X137.63455 Y-28.34300
G01 X124.25129 Y-28.34300
G01 X122.94494 Y-29.64800
G01 X122.89292 Y-29.68970
G01 X122.86244 Y-29.70756
G01 X122.76320 Y-29.75399
G01 X122.71741 Y-29.76499
G01 X122.60870 Y-29.77848
G01 X10.07852 Y-29.77848
G01 X8.47956 Y-31.37413
G01 X8.44385 Y-31.40459
G01 X8.34809 Y-31.45749
G01 X8.30461 Y-31.47550
G01 X8.19701 Y-31.49628
G01 X8.15007 Y-31.49999
G01 X7.53207 Y-31.49999
G01 X7.45617 Y-31.63890
G01 X7.33293 Y-31.79135
G01 X7.29135 Y-31.83293
G01 X7.16255 Y-31.93865
G01 X7.11365 Y-31.97131
G01 X6.96669 Y-32.04987
G01 X6.91236 Y-32.07238
G01 X6.75289 Y-32.12074
G01 X6.69521 Y-32.13222
G01 X6.52940 Y-32.14855
G01 X6.47057 Y-32.14855
G01 X6.27563 Y-32.12790
G01 X6.08762 Y-32.07238
G01 X6.03329 Y-32.04987
G01 X5.88632 Y-31.97131
G01 X5.83743 Y-31.93865
G01 X5.70862 Y-31.83293
G01 X5.66704 Y-31.79135
G01 X5.56133 Y-31.66255
G01 X5.52867 Y-31.61365
G01 X5.45010 Y-31.46669
G01 X5.42760 Y-31.41236
G01 X5.37207 Y-31.22435
G01 X5.35142 Y-31.02940
G01 X5.35142 Y-30.97058
G01 X5.35142 Y-33.51058
G01 X5.37207 Y-33.31563
G01 X5.42760 Y-33.12762
G01 X5.45010 Y-33.07329
G01 X5.54380 Y-32.90108
G01 X5.66704 Y-32.74863
G01 X5.70862 Y-32.70705
G01 X5.86108 Y-32.58381
G01 X6.03329 Y-32.49011
G01 X6.08762 Y-32.46760
G01 X6.27563 Y-32.41208
G01 X6.47057 Y-32.39143
G01 X6.52940 Y-32.39143
G01 X6.72435 Y-32.41208
G01 X6.91236 Y-32.46760
G01 X6.96669 Y-32.49011
G01 X7.13890 Y-32.58381
G01 X7.29135 Y-32.70705
G01 X7.33293 Y-32.74863
G01 X7.45617 Y-32.90108
G01 X7.54987 Y-33.07329
G01 X7.57237 Y-33.12762
G01 X7.62790 Y-33.31563
G01 X7.64855 Y-33.51058
G01 X7.64855 Y-33.56940
G01 X7.62790 Y-33.76435
G01 X7.57237 Y-33.95236
G01 X7.54987 Y-34.00669
G01 X7.45617 Y-34.17890
G01 X7.33293 Y-34.33135
G01 X7.29135 Y-34.37293
G01 X7.13890 Y-34.49617
G01 X6.96669 Y-34.58987
G01 X6.91236 Y-34.61238
G01 X6.72435 Y-34.66790
G01 X6.52940 Y-34.68855
G01 X6.47057 Y-34.68855
G01 X6.27563 Y-34.66790
G01 X6.08762 Y-34.61238
G01 X6.03329 Y-34.58987
G01 X5.86108 Y-34.49617
G01 X5.70862 Y-34.37293
G01 X5.66704 Y-34.33135
G01 X5.54380 Y-34.17890
G01 X5.45010 Y-34.00669
G01 X5.42760 Y-33.95236
G01 X5.37207 Y-33.76435
G01 X5.35142 Y-33.56940
G01 X5.35142 Y-33.51058
G01 X5.35142 Y-36.05058
G01 X5.37207 Y-35.85563
G01 X5.42760 Y-35.66762
G01 X5.45010 Y-35.61329
G01 X5.54380 Y-35.44108
G01 X5.66704 Y-35.28863
G01 X5.70862 Y-35.24705
G01 X5.86108 Y-35.12381
G01 X6.03329 Y-35.03011
G01 X6.08762 Y-35.00760
G01 X6.27563 Y-34.95208
G01 X6.47057 Y-34.93143
G01 X6.52940 Y-34.93143
G01 X6.72435 Y-34.95208
G01 X6.91236 Y-35.00760
G01 X6.96669 Y-35.03011
G01 X7.13890 Y-35.12381
G01 X7.29135 Y-35.24705
G01 X7.33293 Y-35.28863
G01 X7.45617 Y-35.44108
G01 X7.54987 Y-35.61329
G01 X7.57237 Y-35.66762
G01 X7.62790 Y-35.85563
G01 X7.64855 Y-36.05058
G01 X7.64855 Y-36.10940
G01 X7.62790 Y-36.30435
G01 X7.57237 Y-36.49236
G01 X7.54987 Y-36.54669
G01 X7.45617 Y-36.71890
G01 X7.33293 Y-36.87135
G01 X7.29135 Y-36.91293
G01 X7.13890 Y-37.03617
G01 X6.96669 Y-37.12987
G01 X6.91236 Y-37.15238
G01 X6.72435 Y-37.20790
G01 X6.52940 Y-37.22855
G01 X6.47057 Y-37.22855
G01 X6.27563 Y-37.20790
G01 X6.08762 Y-37.15238
G01 X6.03329 Y-37.12987
G01 X5.86108 Y-37.03617
G01 X5.70862 Y-36.91293
G01 X5.66704 Y-36.87135
G01 X5.54380 Y-36.71890
G01 X5.45010 Y-36.54669
G01 X5.42760 Y-36.49236
G01 X5.37207 Y-36.30435
G01 X5.35142 Y-36.10940
G01 X5.35142 Y-36.05058
G01 X5.35142 Y-38.59058
G01 X5.37207 Y-38.39563
G01 X5.42760 Y-38.20762
G01 X5.45010 Y-38.15329
G01 X5.54380 Y-37.98108
G01 X5.66704 Y-37.82863
G01 X5.70862 Y-37.78705
G01 X5.86108 Y-37.66381
G01 X6.03329 Y-37.57011
G01 X6.08762 Y-37.54760
G01 X6.27563 Y-37.49208
G01 X6.47057 Y-37.47143
G01 X6.52940 Y-37.47143
G01 X6.72435 Y-37.49208
G01 X6.91236 Y-37.54760
G01 X6.96669 Y-37.57011
G01 X7.13890 Y-37.66381
G01 X7.29135 Y-37.78705
G01 X7.33293 Y-37.82863
G01 X7.45617 Y-37.98108
G01 X7.54987 Y-38.15329
G01 X7.57237 Y-38.20762
G01 X7.62790 Y-38.39563
G01 X7.64855 Y-38.59058
G01 X7.64855 Y-38.64940
G01 X7.62790 Y-38.84435
G01 X7.57237 Y-39.03236
G01 X7.54987 Y-39.08669
G01 X7.45617 Y-39.25890
G01 X7.33293 Y-39.41135
G01 X7.29135 Y-39.45293
G01 X7.13890 Y-39.57617
G01 X6.96669 Y-39.66987
G01 X6.91236 Y-39.69238
G01 X6.72435 Y-39.74790
G01 X6.52940 Y-39.76855
G01 X6.47057 Y-39.76855
G01 X6.27563 Y-39.74790
G01 X6.08762 Y-39.69238
G01 X6.03329 Y-39.66987
G01 X5.86108 Y-39.57617
G01 X5.70862 Y-39.45293
G01 X5.66704 Y-39.41135
G01 X5.54380 Y-39.25890
G01 X5.45010 Y-39.08669
G01 X5.42760 Y-39.03236
G01 X5.37207 Y-38.84435
G01 X5.35142 Y-38.64940
G01 X5.35142 Y-38.59058
G01 X5.35142 Y-41.13058
G01 X5.37207 Y-40.93563
G01 X5.42760 Y-40.74762
G01 X5.45010 Y-40.69329
G01 X5.54380 Y-40.52108
G01 X5.66704 Y-40.36863
G01 X5.70862 Y-40.32705
G01 X5.86108 Y-40.20381
G01 X6.03329 Y-40.11011
G01 X6.08762 Y-40.08760
G01 X6.27563 Y-40.03208
G01 X6.47057 Y-40.01143
G01 X6.52940 Y-40.01143
G01 X6.72435 Y-40.03208
G01 X6.91236 Y-40.08760
G01 X6.96669 Y-40.11011
G01 X7.13890 Y-40.20381
G01 X7.29135 Y-40.32705
G01 X7.33293 Y-40.36863
G01 X7.45617 Y-40.52108
G01 X7.54987 Y-40.69329
G01 X7.57237 Y-40.74762
G01 X7.62790 Y-40.93563
G01 X7.64855 Y-41.13058
G01 X7.64855 Y-41.18940
G01 X7.62790 Y-41.38435
G01 X7.57237 Y-41.57236
G01 X7.54987 Y-41.62669
G01 X7.45617 Y-41.79890
G01 X7.33293 Y-41.95135
G01 X7.29135 Y-41.99293
G01 X7.13890 Y-42.11617
G01 X6.96669 Y-42.20987
G01 X6.91236 Y-42.23238
G01 X6.72435 Y-42.28790
G01 X6.52940 Y-42.30855
G01 X6.47057 Y-42.30855
G01 X6.27563 Y-42.28790
G01 X6.08762 Y-42.23238
G01 X6.03329 Y-42.20987
G01 X5.86108 Y-42.11617
G01 X5.70862 Y-41.99293
G01 X5.66704 Y-41.95135
G01 X5.54380 Y-41.79890
G01 X5.45010 Y-41.62669
G01 X5.42760 Y-41.57236
G01 X5.37207 Y-41.38435
G01 X5.35142 Y-41.18940
G01 X5.35142 Y-41.13058
G01 X5.35142 Y-43.67058
G01 X5.37207 Y-43.47563
G01 X5.42760 Y-43.28762
G01 X5.45010 Y-43.23329
G01 X5.54380 Y-43.06108
G01 X5.66704 Y-42.90863
G01 X5.70862 Y-42.86705
G01 X5.86108 Y-42.74381
G01 X6.03329 Y-42.65011
G01 X6.08762 Y-42.62760
G01 X6.27563 Y-42.57208
G01 X6.47057 Y-42.55143
G01 X6.52940 Y-42.55143
G01 X6.72435 Y-42.57208
G01 X6.91236 Y-42.62760
G01 X6.96669 Y-42.65011
G01 X7.13890 Y-42.74381
G01 X7.29135 Y-42.86705
G01 X7.33293 Y-42.90863
G01 X7.45617 Y-43.06108
G01 X7.54987 Y-43.23329
G01 X7.57237 Y-43.28762
G01 X7.62790 Y-43.47563
G01 X7.64855 Y-43.67058
G01 X7.64855 Y-43.72940
G01 X7.62790 Y-43.92435
G01 X7.57237 Y-44.11236
G01 X7.54987 Y-44.16669
G01 X7.45617 Y-44.33890
G01 X7.33293 Y-44.49135
G01 X7.29135 Y-44.53293
G01 X7.13890 Y-44.65617
G01 X6.96669 Y-44.74987
G01 X6.91236 Y-44.77238
G01 X6.72435 Y-44.82790
G01 X6.52940 Y-44.84855
G01 X6.47057 Y-44.84855
G01 X6.27563 Y-44.82790
G01 X6.08762 Y-44.77238
G01 X6.03329 Y-44.74987
G01 X5.86108 Y-44.65617
G01 X5.70862 Y-44.53293
G01 X5.66704 Y-44.49135
G01 X5.54380 Y-44.33890
G01 X5.45010 Y-44.16669
G01 X5.42760 Y-44.11236
G01 X5.37207 Y-43.92435
G01 X5.35142 Y-43.72940
G01 X5.35142 Y-43.67058
G01 X5.35142 Y-46.21058
G01 X5.37207 Y-46.01563
G01 X5.42760 Y-45.82762
G01 X5.45010 Y-45.77329
G01 X5.54380 Y-45.60108
G01 X5.66704 Y-45.44863
G01 X5.70862 Y-45.40705
G01 X5.86108 Y-45.28381
G01 X6.03329 Y-45.19011
G01 X6.08762 Y-45.16760
G01 X6.27563 Y-45.11208
G01 X6.47057 Y-45.09143
G01 X6.52940 Y-45.09143
G01 X6.72435 Y-45.11208
G01 X6.91236 Y-45.16760
G01 X6.96669 Y-45.19011
G01 X7.13890 Y-45.28381
G01 X7.29135 Y-45.40705
G01 X7.33293 Y-45.44863
G01 X7.45617 Y-45.60108
G01 X7.54987 Y-45.77329
G01 X7.57237 Y-45.82762
G01 X7.62790 Y-46.01563
G01 X7.64855 Y-46.21058
G01 X7.64855 Y-46.26940
G01 X7.62790 Y-46.46435
G01 X7.57237 Y-46.65236
G01 X7.54987 Y-46.70669
G01 X7.45617 Y-46.87890
G01 X7.33293 Y-47.03135
G01 X7.29135 Y-47.07293
G01 X7.13890 Y-47.19617
G01 X6.96669 Y-47.28987
G01 X6.91236 Y-47.31238
G01 X6.72435 Y-47.36790
G01 X6.52940 Y-47.38855
G01 X6.47057 Y-47.38855
G01 X6.27563 Y-47.36790
G01 X6.08762 Y-47.31238
G01 X6.03329 Y-47.28987
G01 X5.86108 Y-47.19617
G01 X5.70862 Y-47.07293
G01 X5.66704 Y-47.03135
G01 X5.54380 Y-46.87890
G01 X5.45010 Y-46.70669
G01 X5.42760 Y-46.65236
G01 X5.37207 Y-46.46435
G01 X5.35142 Y-46.26940
G01 X5.35142 Y-46.21058
G04 P0 ( dwell for no time -- G64 should not smooth over this point )
G00 Z2.00000 ( retract )

G00 X5.34998 Y-49.63000 ( rapid move to begin. )
G01 F30.00000
( Mill infeed pass 1/1 )
G01 Z-0.07500
G04 P0 ( dwell for no time -- G64 should not smooth over this point )
G01 F40.00000
G01 X5.34998 Y-49.63000
G01 X5.34998 Y-47.92998
G01 X5.45968 Y-47.69996
G01 X5.48333 Y-47.68055
G01 X5.53519 Y-47.65281
G01 X5.59145 Y-47.63574
G01 X5.64998 Y-47.62998
G01 X7.35000 Y-47.62998
G01 X7.40209 Y-47.63455
G01 X7.45259 Y-47.64809
G01 X7.49998 Y-47.67019
G01 X7.54283 Y-47.70018
G01 X7.57979 Y-47.73714
G01 X7.60979 Y-47.77999
G01 X7.63189 Y-47.82739
G01 X7.64543 Y-47.87791
G01 X7.65000 Y-47.93000
G01 X7.64997 Y-48.27996
G01 X7.94299 Y-48.27999
G01 X22.08771 Y-34.13872
G01 X22.12348 Y-34.10816
G01 X22.21936 Y-34.05515
G01 X22.26285 Y-34.03714
G01 X22.30864 Y-34.02614
G01 X22.41735 Y-34.01266
G01 X28.61747 Y-34.01266
G01 X28.61747 Y-32.19450
G01 X28.62278 Y-32.12607
G01 X28.63423 Y-32.06839
G01 X28.66812 Y-31.97654
G01 X28.68661 Y-31.94195
G01 X28.71927 Y-31.89305
G01 X28.76393 Y-31.84093
G01 X30.67911 Y-29.92572
G01 X30.76552 Y-29.85836
G01 X30.80568 Y-29.83377
G01 X30.90868 Y-29.79641
G01 X30.95445 Y-29.78544
G01 X31.00136 Y-29.78173
G01 X85.53935 Y-29.77926
G01 X85.64809 Y-29.79275
G01 X85.71598 Y-29.81190
G01 X85.77674 Y-29.83934
G01 X85.85713 Y-29.89514
G01 X85.89292 Y-29.92572
G01 X86.74710 Y-30.77987
G01 X114.85989 Y-30.77987
G01 X114.96860 Y-30.79336
G01 X115.01440 Y-30.80436
G01 X115.11364 Y-30.85079
G01 X115.17226 Y-30.88996
G01 X115.21343 Y-30.92633
G01 X116.24363 Y-31.95655
G01 X116.33683 Y-31.92828
G01 X116.39451 Y-31.91680
G01 X116.57998 Y-31.89999
G01 X116.76548 Y-31.91680
G01 X116.82313 Y-31.92828
G01 X117.00093 Y-31.98373
G01 X117.16586 Y-32.07024
G01 X117.21475 Y-32.10291
G01 X117.33599 Y-32.20240
G01 X117.37757 Y-32.24398
G01 X117.49461 Y-32.38886
G01 X117.55564 Y-32.49999
G01 X120.80138 Y-32.49996
G01 X124.79701 Y-28.50431
G01 X124.86632 Y-28.44663
G01 X124.95256 Y-28.40035
G01 X124.99604 Y-28.38234
G01 X125.04184 Y-28.37134
G01 X125.15058 Y-28.35786
G01 X135.49798 Y-28.35786
G01 X135.60669 Y-28.37134
G01 X135.65248 Y-28.38234
G01 X135.75172 Y-28.42877
G01 X135.78220 Y-28.44663
G01 X135.83422 Y-28.48834
G01 X137.85352 Y-30.50631
G01 X137.89817 Y-30.55844
G01 X137.93084 Y-30.60733
G01 X137.96190 Y-30.66852
G01 X137.98321 Y-30.73377
G01 X137.99467 Y-30.79145
G01 X137.99998 Y-30.85988
G01 X137.99995 Y-31.48432
G01 X138.08586 Y-31.53024
G01 X138.13475 Y-31.56290
G01 X138.25598 Y-31.66240
G01 X138.29756 Y-31.70398
G01 X138.41461 Y-31.84886
G01 X138.50366 Y-32.01243
G01 X138.52616 Y-32.06676
G01 X138.57171 Y-32.21683
G01 X138.58316 Y-32.27451
G01 X138.59855 Y-32.43059
G01 X138.59855 Y-32.48939
G01 X138.58316 Y-32.64548
G01 X138.57171 Y-32.70313
G01 X138.52616 Y-32.85322
G01 X138.50366 Y-32.90755
G01 X138.41461 Y-33.07110
G01 X138.29756 Y-33.21599
G01 X138.25598 Y-33.25757
G01 X138.13475 Y-33.35706
G01 X138.08586 Y-33.38975
G01 X137.92093 Y-33.47626
G01 X137.74313 Y-33.53171
G01 X137.68548 Y-33.54316
G01 X137.49998 Y-33.55998
G01 X137.31451 Y-33.54316
G01 X137.25682 Y-33.53171
G01 X137.10676 Y-33.48617
G01 X137.05243 Y-33.46366
G01 X136.91410 Y-33.38975
G01 X136.86521 Y-33.35706
G01 X136.74397 Y-33.25757
G01 X136.70239 Y-33.21599
G01 X136.58538 Y-33.07110
G01 X136.49630 Y-32.90755
G01 X136.47379 Y-32.85322
G01 X136.42828 Y-32.70313
G01 X136.41680 Y-32.64548
G01 X136.40143 Y-32.48939
G01 X136.40143 Y-32.43059
G01 X136.41680 Y-32.27451
G01 X136.42828 Y-32.21683
G01 X136.47379 Y-32.06676
G01 X136.49630 Y-32.01243
G01 X136.58538 Y-31.84886
G01 X136.70239 Y-31.70398
G01 X136.74397 Y-31.66240
G01 X136.86521 Y-31.56290
G01 X136.91410 Y-31.53024
G01 X136.99998 Y-31.48434
G01 X136.99998 Y-31.06697
G01 X135.29084 Y-29.35785
G01 X125.35766 Y-29.35785
G01 X121.36204 Y-33.35353
G01 X121.32625 Y-33.38411
G01 X121.24586 Y-33.43991
G01 X121.15173 Y-33.47893
G01 X121.05541 Y-33.49628
G01 X121.00847 Y-33.49998
G01 X117.55567 Y-33.49996
G01 X117.49461 Y-33.61111
G01 X117.37757 Y-33.75599
G01 X117.33599 Y-33.79757
G01 X117.21475 Y-33.89706
G01 X117.16586 Y-33.92975
G01 X117.00093 Y-34.01626
G01 X116.82313 Y-34.07169
G01 X116.76548 Y-34.08317
G01 X116.57998 Y-34.09998
G01 X116.39451 Y-34.08317
G01 X116.33683 Y-34.07169
G01 X116.15903 Y-34.01626
G01 X115.99410 Y-33.92975
G01 X115.94521 Y-33.89706
G01 X115.82397 Y-33.79757
G01 X115.78239 Y-33.75599
G01 X115.66538 Y-33.61111
G01 X115.57630 Y-33.44756
G01 X115.55379 Y-33.39323
G01 X115.50112 Y-33.21459
G01 X115.48143 Y-33.02940
G01 X115.48143 Y-32.97057
G01 X115.50112 Y-32.78538
G01 X115.53655 Y-32.66366
G01 X114.65278 Y-31.77990
G01 X87.03996 Y-31.77990
G01 X87.03998 Y-31.90433
G01 X87.12586 Y-31.95023
G01 X87.17476 Y-31.98292
G01 X87.31781 Y-32.10217
G01 X87.45461 Y-32.26887
G01 X87.55626 Y-32.45904
G01 X87.61169 Y-32.63684
G01 X87.62317 Y-32.69450
G01 X87.63853 Y-32.85058
G01 X87.63853 Y-32.90938
G01 X87.61885 Y-33.09457
G01 X87.56617 Y-33.27321
G01 X87.54367 Y-33.32754
G01 X87.45461 Y-33.49112
G01 X87.31781 Y-33.65779
G01 X87.17476 Y-33.77707
G01 X87.12586 Y-33.80974
G01 X86.98756 Y-33.88368
G01 X86.93323 Y-33.90618
G01 X86.75459 Y-33.95886
G01 X86.56940 Y-33.97855
G01 X86.51057 Y-33.97855
G01 X86.32538 Y-33.95886
G01 X86.14677 Y-33.90618
G01 X86.09241 Y-33.88368
G01 X85.95411 Y-33.80974
G01 X85.90521 Y-33.77707
G01 X85.76216 Y-33.65779
G01 X85.64291 Y-33.51477
G01 X85.61024 Y-33.46587
G01 X85.53630 Y-33.32754
G01 X85.51380 Y-33.27321
G01 X85.46112 Y-33.09457
G01 X85.44143 Y-32.90938
G01 X85.44143 Y-32.85058
G01 X85.45680 Y-32.69450
G01 X85.46828 Y-32.63684
G01 X85.51380 Y-32.48675
G01 X85.53630 Y-32.43242
G01 X85.61024 Y-32.29412
G01 X85.64291 Y-32.24522
G01 X85.74240 Y-32.12399
G01 X85.78398 Y-32.08241
G01 X85.90521 Y-31.98292
G01 X85.95411 Y-31.95023
G01 X86.03996 Y-31.90436
G01 X86.03996 Y-31.48698
G01 X85.33224 Y-30.77929
G01 X31.23976 Y-30.77929
G01 X29.61749 Y-32.40159
G01 X29.61749 Y-34.01266
G01 X51.74016 Y-34.01266
G01 X52.53655 Y-33.21629
G01 X52.50111 Y-33.09457
G01 X52.48143 Y-32.90938
G01 X52.48143 Y-32.85058
G01 X52.50111 Y-32.66539
G01 X52.55377 Y-32.48675
G01 X52.57627 Y-32.43242
G01 X52.65024 Y-32.29412
G01 X52.68288 Y-32.24522
G01 X52.80215 Y-32.10217
G01 X52.94521 Y-31.98292
G01 X52.99410 Y-31.95023
G01 X53.15900 Y-31.86372
G01 X53.33682 Y-31.80827
G01 X53.39451 Y-31.79681
G01 X53.55059 Y-31.78142
G01 X53.60939 Y-31.78142
G01 X53.79458 Y-31.80113
G01 X54.00093 Y-31.86372
G01 X54.16586 Y-31.95023
G01 X54.21475 Y-31.98292
G01 X54.35780 Y-32.10217
G01 X54.49461 Y-32.26887
G01 X54.59626 Y-32.45904
G01 X54.65171 Y-32.63684
G01 X54.66316 Y-32.69450
G01 X54.67855 Y-32.85058
G01 X54.67855 Y-32.90938
G01 X54.66316 Y-33.06547
G01 X54.65171 Y-33.12315
G01 X54.60616 Y-33.27321
G01 X54.58366 Y-33.32754
G01 X54.50975 Y-33.46587
G01 X54.47706 Y-33.51477
G01 X54.35780 Y-33.65779
G01 X54.21475 Y-33.77707
G01 X54.16586 Y-33.80974
G01 X54.00093 Y-33.89625
G01 X53.79458 Y-33.95886
G01 X53.60939 Y-33.97855
G01 X53.55059 Y-33.97855
G01 X53.36540 Y-33.95886
G01 X53.24363 Y-33.92343
G01 X52.30084 Y-34.86622
G01 X52.26502 Y-34.89681
G01 X52.18466 Y-34.95261
G01 X52.12387 Y-34.98004
G01 X52.05600 Y-34.99919
G01 X51.94729 Y-35.01268
G01 X22.62447 Y-35.01268
G01 X8.50364 Y-49.13353
G01 X8.46785 Y-49.16411
G01 X8.37707 Y-49.22548
G01 X8.33359 Y-49.24349
G01 X8.23989 Y-49.27176
G01 X8.15010 Y-49.27999
G01 X7.64997 Y-49.27999
G01 X7.65000 Y-49.62997
G01 X7.64543 Y-49.68207
G01 X7.63189 Y-49.73259
G01 X7.60979 Y-49.77999
G01 X7.57979 Y-49.82281
G01 X7.54283 Y-49.85979
G01 X7.49998 Y-49.88979
G01 X7.45259 Y-49.91189
G01 X7.40209 Y-49.92543
G01 X7.35000 Y-49.93000
G01 X5.64998 Y-49.93000
G01 X5.59145 Y-49.92423
G01 X5.53519 Y-49.90714
G01 X5.48333 Y-49.87943
G01 X5.46852 Y-49.86726
G01 X5.34998 Y-49.63000
G04 P0 ( dwell for no time -- G64 should not smooth over this point )
G00 Z2.00000 ( retract )

G00 X25.01049 Y-61.95060 ( rapid move to begin. )
G01 F30.00000
( Mill infeed pass 1/1 )
G01 Z-0.07500
G04 P0 ( dwell for no time -- G64 should not smooth over this point )
G01 F40.00000
G01 X25.01049 Y-61.95060
G01 X25.02154 Y-61.82363
G01 X25.03302 Y-61.76597
G01 X25.07137 Y-61.64443
G01 X25.13018 Y-61.53137
G01 X25.16284 Y-61.48248
G01 X25.24481 Y-61.38489
G01 X25.36604 Y-61.28540
G01 X25.47772 Y-61.22408
G01 X25.53205 Y-61.20155
G01 X25.62583 Y-61.17311
G01 X25.68354 Y-61.16165
G01 X25.81049 Y-61.15058
G01 X25.89639 Y-61.15759
G01 X29.14213 Y-57.91182
G01 X29.21790 Y-57.84964
G01 X29.27774 Y-57.81601
G01 X29.36959 Y-57.78213
G01 X29.39814 Y-57.77499
G01 X29.46629 Y-57.76681
G01 X44.53699 Y-57.76537
G01 X44.64573 Y-57.77885
G01 X44.69150 Y-57.78985
G01 X44.73499 Y-57.80786
G01 X44.82970 Y-57.86001
G01 X44.95546 Y-57.97847
G01 X94.82811 Y-57.97847
G01 X104.55427 Y-48.25571
G01 X104.59011 Y-48.22515
G01 X104.68597 Y-48.17217
G01 X104.72946 Y-48.15416
G01 X104.77523 Y-48.14316
G01 X104.88399 Y-48.12967
G01 X110.32376 Y-48.12970
G01 X112.76503 Y-45.68840
G01 X112.78225 Y-45.63661
G01 X112.81331 Y-45.57542
G01 X112.84598 Y-45.52653
G01 X112.89078 Y-45.47425
G01 X115.29096 Y-43.07759
G01 X115.32667 Y-43.04708
G01 X115.42248 Y-42.99415
G01 X115.46596 Y-42.97614
G01 X115.51176 Y-42.96514
G01 X115.62050 Y-42.95165
G01 X117.66575 Y-42.95165
G01 X119.28919 Y-41.32824
G01 X119.28917 Y-38.33790
G01 X119.29448 Y-38.26947
G01 X119.31731 Y-38.17427
G01 X119.33982 Y-38.11994
G01 X119.39097 Y-38.03645
G01 X119.43568 Y-37.98428
G01 X127.93762 Y-29.48579
G01 X127.97340 Y-29.45524
G01 X128.06926 Y-29.40225
G01 X128.11275 Y-29.38424
G01 X128.15854 Y-29.37325
G01 X128.26728 Y-29.35976
G01 X133.23250 Y-29.35976
G01 X133.27941 Y-29.36347
G01 X133.38411 Y-29.38374
G01 X133.51027 Y-29.36842
G01 X133.56910 Y-29.36842
G01 X133.69577 Y-29.38236
G01 X133.81812 Y-29.41798
G01 X133.87245 Y-29.44048
G01 X133.98414 Y-29.50182
G01 X134.08355 Y-29.58153
G01 X134.12513 Y-29.62311
G01 X134.18734 Y-29.69887
G01 X134.22000 Y-29.74779
G01 X134.27880 Y-29.86085
G01 X134.31716 Y-29.98236
G01 X134.32864 Y-30.04005
G01 X134.33824 Y-30.13758
G01 X134.33824 Y-30.19638
G01 X134.32432 Y-30.32305
G01 X134.27880 Y-30.47314
G01 X134.22000 Y-30.58620
G01 X134.18734 Y-30.63509
G01 X134.12513 Y-30.71086
G01 X134.08355 Y-30.75244
G01 X133.98414 Y-30.83217
G01 X133.87245 Y-30.89351
G01 X133.81812 Y-30.91602
G01 X133.69577 Y-30.95163
G01 X133.56910 Y-30.96555
G01 X133.51027 Y-30.96555
G01 X133.38360 Y-30.95163
G01 X133.26125 Y-30.91602
G01 X133.20692 Y-30.89351
G01 X133.12049 Y-30.84731
G01 X133.07159 Y-30.81462
G01 X132.99582 Y-30.75244
G01 X132.95424 Y-30.71086
G01 X132.89204 Y-30.63509
G01 X132.85937 Y-30.58620
G01 X132.80057 Y-30.47314
G01 X132.76468 Y-30.35976
G01 X128.47439 Y-30.35976
G01 X120.28917 Y-38.54498
G01 X120.28919 Y-41.53535
G01 X120.28388 Y-41.60378
G01 X120.27243 Y-41.66146
G01 X120.25112 Y-41.72671
G01 X120.22005 Y-41.78790
G01 X120.18739 Y-41.83680
G01 X120.14274 Y-41.88892
G01 X118.20914 Y-43.82120
G01 X118.15712 Y-43.86290
G01 X118.12664 Y-43.88076
G01 X118.02740 Y-43.92719
G01 X117.98160 Y-43.93819
G01 X117.87289 Y-43.95168
G01 X115.82758 Y-43.95168
G01 X113.72337 Y-46.05589
G01 X113.70612 Y-46.10773
G01 X113.67506 Y-46.16892
G01 X113.64239 Y-46.21781
G01 X113.59774 Y-46.26994
G01 X110.88444 Y-48.98324
G01 X110.81512 Y-49.04092
G01 X110.72889 Y-49.08720
G01 X110.68540 Y-49.10521
G01 X110.63961 Y-49.11621
G01 X110.53089 Y-49.12970
G01 X105.09108 Y-49.12970
G01 X95.38873 Y-58.83204
G01 X95.33661 Y-58.87669
G01 X95.28772 Y-58.90936
G01 X95.22653 Y-58.94042
G01 X95.16128 Y-58.96173
G01 X95.10359 Y-58.97319
G01 X95.03519 Y-58.97850
G01 X44.75008 Y-58.97850
G01 X44.64131 Y-58.96501
G01 X44.59554 Y-58.95401
G01 X44.55206 Y-58.93600
G01 X44.45734 Y-58.88383
G01 X44.42244 Y-58.85447
G01 X44.33159 Y-58.76539
G01 X29.70279 Y-58.76539
G01 X26.60345 Y-61.86470
G01 X26.60904 Y-61.92119
G01 X26.60904 Y-61.97999
G01 X26.59944 Y-62.07755
G01 X26.58796 Y-62.13521
G01 X26.54955 Y-62.25675
G01 X26.49080 Y-62.36980
G01 X26.45811 Y-62.41870
G01 X26.37617 Y-62.51628
G01 X26.25494 Y-62.61578
G01 X26.14323 Y-62.67709
G01 X26.08892 Y-62.69962
G01 X25.99512 Y-62.72807
G01 X25.93741 Y-62.73952
G01 X25.83990 Y-62.74915
G01 X25.78108 Y-62.74915
G01 X25.68354 Y-62.73952
G01 X25.62583 Y-62.72807
G01 X25.53205 Y-62.69962
G01 X25.47772 Y-62.67709
G01 X25.36604 Y-62.61578
G01 X25.26662 Y-62.53604
G01 X25.22502 Y-62.49446
G01 X25.16284 Y-62.41870
G01 X25.13018 Y-62.36980
G01 X25.07137 Y-62.25675
G01 X25.03302 Y-62.13521
G01 X25.02154 Y-62.07755
G01 X25.01049 Y-61.95060
G04 P0 ( dwell for no time -- G64 should not smooth over this point )
G00 Z2.00000 ( retract )

G00 X27.02232 Y-62.08608 ( rapid move to begin. )
G01 F30.00000
( Mill infeed pass 1/1 )
G01 Z-0.07500
G04 P0 ( dwell for no time -- G64 should not smooth over this point )
G01 F40.00000
G01 X27.02232 Y-62.08608
G01 X27.02232 Y-62.02728
G01 X27.03627 Y-61.90061
G01 X27.08178 Y-61.75055
G01 X27.14059 Y-61.63749
G01 X27.17325 Y-61.58857
G01 X27.25519 Y-61.49101
G01 X27.37642 Y-61.39152
G01 X27.48813 Y-61.33018
G01 X27.54246 Y-61.30768
G01 X27.63627 Y-61.27920
G01 X27.69392 Y-61.26775
G01 X27.82090 Y-61.25670
G01 X27.90675 Y-61.26368
G01 X30.25851 Y-58.91192
G01 X30.34492 Y-58.84456
G01 X30.37469 Y-58.82554
G01 X30.43545 Y-58.79810
G01 X30.50334 Y-58.77895
G01 X30.61208 Y-58.76547
G01 X44.12280 Y-58.76547
G01 X44.23153 Y-58.77895
G01 X44.27731 Y-58.78995
G01 X44.32079 Y-58.80796
G01 X44.41548 Y-58.86011
G01 X44.45038 Y-58.88947
G01 X44.54126 Y-58.97857
G01 X95.24230 Y-58.97857
G01 X104.96850 Y-49.25581
G01 X105.00426 Y-49.22525
G01 X105.10012 Y-49.17227
G01 X105.14363 Y-49.15426
G01 X105.18943 Y-49.14326
G01 X105.29816 Y-49.12977
G01 X110.73801 Y-49.12977
G01 X115.79334 Y-44.07776
G01 X115.82911 Y-44.04723
G01 X115.92497 Y-43.99425
G01 X115.96845 Y-43.97624
G01 X116.01425 Y-43.96524
G01 X116.12298 Y-43.95175
G01 X118.08927 Y-43.95175
G01 X120.28927 Y-41.75178
G01 X120.28927 Y-38.75550
G01 X120.29458 Y-38.68707
G01 X120.31741 Y-38.59187
G01 X120.33992 Y-38.53754
G01 X120.39107 Y-38.45405
G01 X120.43578 Y-38.40188
G01 X128.35522 Y-30.48589
G01 X128.39101 Y-30.45534
G01 X128.48687 Y-30.40235
G01 X128.53035 Y-30.38434
G01 X128.57615 Y-30.37335
G01 X128.68488 Y-30.35986
G01 X131.02499 Y-30.35986
G01 X131.13370 Y-30.37335
G01 X131.17949 Y-30.38434
G01 X131.22298 Y-30.40235
G01 X131.30921 Y-30.44863
G01 X131.37853 Y-30.50631
G01 X133.36847 Y-32.49625
G01 X134.04634 Y-32.49625
G01 X134.08233 Y-32.45241
G01 X134.12391 Y-32.41083
G01 X134.22333 Y-32.33110
G01 X134.33504 Y-32.26976
G01 X134.38937 Y-32.24726
G01 X134.51172 Y-32.21167
G01 X134.63839 Y-32.19773
G01 X134.69719 Y-32.19773
G01 X134.82386 Y-32.21167
G01 X134.94621 Y-32.24726
G01 X135.00054 Y-32.26976
G01 X135.11225 Y-32.33110
G01 X135.21167 Y-32.41083
G01 X135.25325 Y-32.45241
G01 X135.31543 Y-32.52818
G01 X135.34809 Y-32.57707
G01 X135.40689 Y-32.69013
G01 X135.44527 Y-32.81167
G01 X135.45673 Y-32.86933
G01 X135.46635 Y-32.96689
G01 X135.46635 Y-33.02569
G01 X135.45241 Y-33.15236
G01 X135.40689 Y-33.30242
G01 X135.34809 Y-33.41550
G01 X135.31543 Y-33.46440
G01 X135.25325 Y-33.54017
G01 X135.21167 Y-33.58175
G01 X135.11225 Y-33.66145
G01 X135.00054 Y-33.72279
G01 X134.94621 Y-33.74530
G01 X134.85241 Y-33.77377
G01 X134.79473 Y-33.78523
G01 X134.69719 Y-33.79485
G01 X134.63839 Y-33.79485
G01 X134.51172 Y-33.78091
G01 X134.38937 Y-33.74530
G01 X134.33504 Y-33.72279
G01 X134.22333 Y-33.66145
G01 X134.12391 Y-33.58175
G01 X134.08233 Y-33.54017
G01 X134.04632 Y-33.49625
G01 X133.16138 Y-33.49628
G01 X133.05264 Y-33.48279
G01 X133.00685 Y-33.47179
G01 X132.90761 Y-33.42536
G01 X132.87713 Y-33.40750
G01 X132.80781 Y-33.34982
G01 X130.81787 Y-31.35988
G01 X128.89200 Y-31.35988
G01 X121.28929 Y-38.96258
G01 X121.28929 Y-41.95887
G01 X121.28106 Y-42.04871
G01 X121.25279 Y-42.14238
G01 X121.23478 Y-42.18587
G01 X121.21020 Y-42.22603
G01 X121.14284 Y-42.31244
G01 X118.62811 Y-44.82508
G01 X118.59781 Y-44.84997
G01 X118.51432 Y-44.90113
G01 X118.42247 Y-44.93501
G01 X118.32577 Y-44.95033
G01 X116.33007 Y-44.95178
G01 X111.29863 Y-49.98334
G01 X111.22932 Y-50.04102
G01 X111.14308 Y-50.08730
G01 X111.09960 Y-50.10531
G01 X111.05380 Y-50.11631
G01 X110.94507 Y-50.12980
G01 X105.50522 Y-50.12977
G01 X95.80293 Y-59.83214
G01 X95.73362 Y-59.88982
G01 X95.64738 Y-59.93610
G01 X95.60390 Y-59.95411
G01 X95.55810 Y-59.96511
G01 X95.44939 Y-59.97859
G01 X44.33588 Y-59.97859
G01 X44.22711 Y-59.96511
G01 X44.18134 Y-59.95411
G01 X44.13786 Y-59.93610
G01 X44.04314 Y-59.88395
G01 X44.00824 Y-59.85459
G01 X43.91739 Y-59.76549
G01 X30.81919 Y-59.76549
G01 X28.61389 Y-61.97077
G01 X28.61945 Y-62.02728
G01 X28.61945 Y-62.08608
G01 X28.60982 Y-62.18364
G01 X28.59837 Y-62.24133
G01 X28.55999 Y-62.36284
G01 X28.50119 Y-62.47590
G01 X28.46852 Y-62.52479
G01 X28.40634 Y-62.60056
G01 X28.36476 Y-62.64214
G01 X28.26535 Y-62.72187
G01 X28.15364 Y-62.78321
G01 X28.09931 Y-62.80572
G01 X28.00551 Y-62.83416
G01 X27.94785 Y-62.84565
G01 X27.85029 Y-62.85525
G01 X27.79149 Y-62.85525
G01 X27.69392 Y-62.84565
G01 X27.63627 Y-62.83416
G01 X27.54246 Y-62.80572
G01 X27.48813 Y-62.78321
G01 X27.37642 Y-62.72187
G01 X27.27701 Y-62.64214
G01 X27.23543 Y-62.60056
G01 X27.17325 Y-62.52479
G01 X27.14059 Y-62.47590
G01 X27.09438 Y-62.38944
G01 X27.07185 Y-62.33511
G01 X27.03627 Y-62.21275
G01 X27.02232 Y-62.08608
G04 P0 ( dwell for no time -- G64 should not smooth over this point )
G00 Z2.00000 ( retract )

G00 X33.09374 Y-60.60658 ( rapid move to begin. )
G01 F30.00000
( Mill infeed pass 1/1 )
G01 Z-0.07500
G04 P0 ( dwell for no time -- G64 should not smooth over this point )
G01 F40.00000
G01 X33.09374 Y-60.60658
G01 X33.09374 Y-60.54778
G01 X33.10766 Y-60.42111
G01 X33.14327 Y-60.29876
G01 X33.16577 Y-60.24443
G01 X33.21197 Y-60.15799
G01 X33.24464 Y-60.10907
G01 X33.32660 Y-60.01151
G01 X33.42419 Y-59.92955
G01 X33.47309 Y-59.89688
G01 X33.55952 Y-59.85068
G01 X33.61385 Y-59.82818
G01 X33.70765 Y-59.79970
G01 X33.76534 Y-59.78825
G01 X33.89229 Y-59.77720
G01 X34.04283 Y-59.79295
G01 X34.10633 Y-59.77519
G01 X34.20389 Y-59.76556
G01 X43.70860 Y-59.76556
G01 X43.81734 Y-59.77905
G01 X43.86311 Y-59.79005
G01 X43.90659 Y-59.80806
G01 X44.00131 Y-59.86021
G01 X44.03618 Y-59.88957
G01 X44.12706 Y-59.97867
G01 X57.52109 Y-59.97867
G01 X57.61863 Y-59.98830
G01 X57.68470 Y-60.00681
G01 X57.73903 Y-60.02932
G01 X57.82252 Y-60.08047
G01 X57.87464 Y-60.12513
G01 X63.66497 Y-65.91544
G01 X63.81684 Y-65.87089
G01 X64.01178 Y-65.85024
G01 X64.07059 Y-65.85024
G01 X64.26553 Y-65.87089
G01 X64.48128 Y-65.93632
G01 X64.65484 Y-66.02745
G01 X64.70373 Y-66.06014
G01 X64.85435 Y-66.18562
G01 X64.97983 Y-66.33624
G01 X65.01252 Y-66.38514
G01 X65.09106 Y-66.53210
G01 X65.11356 Y-66.58643
G01 X65.16195 Y-66.74587
G01 X65.17340 Y-66.80355
G01 X65.18973 Y-66.96939
G01 X65.18973 Y-67.02819
G01 X65.16908 Y-67.22313
G01 X65.11356 Y-67.41114
G01 X65.09106 Y-67.46550
G01 X65.01252 Y-67.61244
G01 X64.97983 Y-67.66133
G01 X64.87414 Y-67.79014
G01 X64.83253 Y-67.83174
G01 X64.70373 Y-67.93743
G01 X64.65484 Y-67.97012
G01 X64.48128 Y-68.06126
G01 X64.29411 Y-68.11955
G01 X64.23642 Y-68.13100
G01 X64.07059 Y-68.14734
G01 X64.01178 Y-68.14734
G01 X63.84595 Y-68.13100
G01 X63.78826 Y-68.11955
G01 X63.60109 Y-68.06126
G01 X63.42753 Y-67.97012
G01 X63.37864 Y-67.93743
G01 X63.22802 Y-67.81195
G01 X63.10254 Y-67.66133
G01 X63.06985 Y-67.61244
G01 X62.99131 Y-67.46550
G01 X62.96881 Y-67.41114
G01 X62.91329 Y-67.22313
G01 X62.89264 Y-67.02819
G01 X62.89264 Y-66.96939
G01 X62.91329 Y-66.77444
G01 X62.95784 Y-66.62255
G01 X57.31398 Y-60.97869
G01 X43.92165 Y-60.97869
G01 X43.81292 Y-60.96521
G01 X43.76715 Y-60.95421
G01 X43.72366 Y-60.93620
G01 X43.62895 Y-60.88405
G01 X43.59407 Y-60.85469
G01 X43.50319 Y-60.76556
G01 X34.66861 Y-60.76559
G01 X34.63140 Y-60.88334
G01 X34.57260 Y-60.99640
G01 X34.53994 Y-61.04529
G01 X34.45797 Y-61.14288
G01 X34.36038 Y-61.22482
G01 X34.31149 Y-61.25751
G01 X34.22505 Y-61.30371
G01 X34.17072 Y-61.32622
G01 X34.07692 Y-61.35467
G01 X34.01924 Y-61.36615
G01 X33.89229 Y-61.37719
G01 X33.76534 Y-61.36615
G01 X33.70765 Y-61.35467
G01 X33.61385 Y-61.32622
G01 X33.55952 Y-61.30371
G01 X33.44784 Y-61.24237
G01 X33.32660 Y-61.14288
G01 X33.24464 Y-61.04529
G01 X33.21197 Y-60.99640
G01 X33.15317 Y-60.88334
G01 X33.10766 Y-60.73325
G01 X33.09374 Y-60.60658
G04 P0 ( dwell for no time -- G64 should not smooth over this point )
G00 Z2.00000 ( retract )

G00 X34.28522 Y-64.03909 ( rapid move to begin. )
G01 F30.00000
( Mill infeed pass 1/1 )
G01 Z-0.07500
G04 P0 ( dwell for no time -- G64 should not smooth over this point )
G01 F40.00000
G01 X34.28522 Y-64.03909
G01 X34.28522 Y-63.98029
G01 X34.29917 Y-63.85362
G01 X34.34469 Y-63.70353
G01 X34.40349 Y-63.59047
G01 X34.43615 Y-63.54158
G01 X34.51809 Y-63.44399
G01 X34.63933 Y-63.34450
G01 X34.75104 Y-63.28316
G01 X34.80537 Y-63.26066
G01 X34.89917 Y-63.23221
G01 X34.95683 Y-63.22073
G01 X35.05439 Y-63.21113
G01 X35.11319 Y-63.21113
G01 X35.21075 Y-63.22073
G01 X35.26841 Y-63.23221
G01 X35.36221 Y-63.26066
G01 X35.41654 Y-63.28316
G01 X35.52825 Y-63.34450
G01 X35.64948 Y-63.44399
G01 X35.73142 Y-63.54158
G01 X35.76409 Y-63.59047
G01 X35.81029 Y-63.67694
G01 X35.83282 Y-63.73127
G01 X35.86127 Y-63.82507
G01 X35.87272 Y-63.88273
G01 X35.88235 Y-63.98029
G01 X35.88235 Y-64.03909
G01 X35.87679 Y-64.09558
G01 X36.47387 Y-64.69266
G01 X43.29880 Y-64.69266
G01 X43.38858 Y-64.70089
G01 X43.48229 Y-64.72916
G01 X43.52577 Y-64.74717
G01 X43.56593 Y-64.77175
G01 X43.65234 Y-64.83911
G01 X47.96236 Y-69.14916
G01 X54.48907 Y-69.14916
G01 X55.35414 Y-68.28615
G01 X55.40809 Y-68.24373
G01 X55.46794 Y-68.21010
G01 X55.55978 Y-68.17622
G01 X55.58833 Y-68.16908
G01 X55.65648 Y-68.16090
G01 X64.71338 Y-68.15945
G01 X65.49784 Y-67.37502
G01 X65.45329 Y-67.22313
G01 X65.43264 Y-67.02819
G01 X65.43264 Y-66.96939
G01 X65.44897 Y-66.80355
G01 X65.46045 Y-66.74587
G01 X65.51872 Y-66.55869
G01 X65.60985 Y-66.38514
G01 X65.64254 Y-66.33624
G01 X65.76802 Y-66.18562
G01 X65.91864 Y-66.06014
G01 X65.96753 Y-66.02745
G01 X66.11450 Y-65.94892
G01 X66.16883 Y-65.92641
G01 X66.32826 Y-65.87805
G01 X66.38595 Y-65.86657
G01 X66.55178 Y-65.85024
G01 X66.61059 Y-65.85024
G01 X66.77642 Y-65.86657
G01 X66.83411 Y-65.87805
G01 X66.99354 Y-65.92641
G01 X67.04790 Y-65.94892
G01 X67.19484 Y-66.02745
G01 X67.24373 Y-66.06014
G01 X67.37253 Y-66.16583
G01 X67.41414 Y-66.20744
G01 X67.51983 Y-66.33624
G01 X67.55252 Y-66.38514
G01 X67.63106 Y-66.53210
G01 X67.65356 Y-66.58643
G01 X67.70908 Y-66.77444
G01 X67.72973 Y-66.96939
G01 X67.72973 Y-67.02819
G01 X67.71340 Y-67.19402
G01 X67.70195 Y-67.25171
G01 X67.64365 Y-67.43888
G01 X67.55252 Y-67.61244
G01 X67.51983 Y-67.66133
G01 X67.39435 Y-67.81195
G01 X67.24373 Y-67.93743
G01 X67.19484 Y-67.97012
G01 X67.02128 Y-68.06126
G01 X66.83411 Y-68.11955
G01 X66.77642 Y-68.13100
G01 X66.61059 Y-68.14734
G01 X66.55178 Y-68.14734
G01 X66.35684 Y-68.12669
G01 X66.20495 Y-68.08213
G01 X65.25222 Y-69.03278
G01 X65.22192 Y-69.05767
G01 X65.13843 Y-69.10883
G01 X65.04658 Y-69.14271
G01 X64.98890 Y-69.15417
G01 X64.92049 Y-69.15948
G01 X55.89298 Y-69.15945
G01 X55.02791 Y-70.02249
G01 X54.97396 Y-70.06491
G01 X54.91411 Y-70.09854
G01 X54.82227 Y-70.13242
G01 X54.76458 Y-70.14388
G01 X54.69606 Y-70.14919
G01 X47.72388 Y-70.14672
G01 X47.67699 Y-70.14301
G01 X47.63127 Y-70.13204
G01 X47.52828 Y-70.09468
G01 X47.48812 Y-70.07009
G01 X47.40171 Y-70.00273
G01 X43.09168 Y-65.69268
G01 X36.26675 Y-65.69268
G01 X36.16922 Y-65.68305
G01 X36.10315 Y-65.66454
G01 X36.04882 Y-65.64203
G01 X35.98898 Y-65.60840
G01 X35.93503 Y-65.56599
G01 X35.16968 Y-64.80269
G01 X35.08378 Y-64.80967
G01 X34.95683 Y-64.79863
G01 X34.89917 Y-64.78717
G01 X34.80537 Y-64.75870
G01 X34.75104 Y-64.73619
G01 X34.63933 Y-64.67485
G01 X34.53991 Y-64.59515
G01 X34.49833 Y-64.55357
G01 X34.43615 Y-64.47780
G01 X34.40349 Y-64.42890
G01 X34.34469 Y-64.31582
G01 X34.29917 Y-64.16576
G01 X34.28522 Y-64.03909
G04 P0 ( dwell for no time -- G64 should not smooth over this point )
G00 Z2.00000 ( retract )

G00 X33.43262 Y-67.02819 ( rapid move to begin. )
G01 F30.00000
( Mill infeed pass 1/1 )
G01 Z-0.07500
G04 P0 ( dwell for no time -- G64 should not smooth over this point )
G01 F40.00000
G01 X33.43262 Y-67.02819
G01 X33.43262 Y-66.96939
G01 X33.45327 Y-66.77444
G01 X33.50880 Y-66.58643
G01 X33.53130 Y-66.53210
G01 X33.60986 Y-66.38514
G01 X33.64253 Y-66.33624
G01 X33.76800 Y-66.18562
G01 X33.91863 Y-66.06014
G01 X33.96752 Y-66.02745
G01 X34.11449 Y-65.94892
G01 X34.16882 Y-65.92641
G01 X34.35683 Y-65.87089
G01 X34.55177 Y-65.85024
G01 X34.61060 Y-65.85024
G01 X34.77641 Y-65.86657
G01 X34.83409 Y-65.87805
G01 X35.02127 Y-65.93632
G01 X35.19485 Y-66.02745
G01 X35.24374 Y-66.06014
G01 X35.39437 Y-66.18562
G01 X35.51984 Y-66.33624
G01 X35.55251 Y-66.38514
G01 X35.63107 Y-66.53210
G01 X35.65357 Y-66.58643
G01 X35.70910 Y-66.77444
G01 X35.72975 Y-66.96939
G01 X35.72975 Y-67.02819
G01 X35.70910 Y-67.22313
G01 X35.65357 Y-67.41114
G01 X35.63107 Y-67.46550
G01 X35.55251 Y-67.61244
G01 X35.51984 Y-67.66133
G01 X35.39437 Y-67.81195
G01 X35.24374 Y-67.93743
G01 X35.19485 Y-67.97012
G01 X35.02127 Y-68.06126
G01 X34.83409 Y-68.11955
G01 X34.77641 Y-68.13100
G01 X34.61060 Y-68.14734
G01 X34.55177 Y-68.14734
G01 X34.38596 Y-68.13100
G01 X34.32828 Y-68.11955
G01 X34.14111 Y-68.06126
G01 X33.96752 Y-67.97012
G01 X33.91863 Y-67.93743
G01 X33.76800 Y-67.81195
G01 X33.64253 Y-67.66133
G01 X33.60986 Y-67.61244
G01 X33.53130 Y-67.46550
G01 X33.50880 Y-67.41114
G01 X33.45327 Y-67.22313
G01 X33.43262 Y-67.02819
G04 P0 ( dwell for no time -- G64 should not smooth over this point )
G00 Z2.00000 ( retract )

G00 X37.45062 Y-63.92200 ( rapid move to begin. )
G01 F30.00000
( Mill infeed pass 1/1 )
G01 Z-0.07500
G04 P0 ( dwell for no time -- G64 should not smooth over this point )
G01 F40.00000
G01 X37.45062 Y-63.92200
G01 X37.45062 Y-63.86319
G01 X37.46457 Y-63.73652
G01 X37.51008 Y-63.58644
G01 X37.56889 Y-63.47338
G01 X37.60155 Y-63.42449
G01 X37.68349 Y-63.32690
G01 X37.80472 Y-63.22741
G01 X37.91643 Y-63.16607
G01 X37.97076 Y-63.14356
G01 X38.06457 Y-63.11511
G01 X38.12223 Y-63.10363
G01 X38.21979 Y-63.09403
G01 X38.27859 Y-63.09403
G01 X38.37615 Y-63.10363
G01 X38.43381 Y-63.11511
G01 X38.52761 Y-63.14356
G01 X38.58194 Y-63.16607
G01 X38.69365 Y-63.22741
G01 X38.79306 Y-63.30714
G01 X38.83464 Y-63.34872
G01 X38.90416 Y-63.43546
G01 X43.45610 Y-63.43546
G01 X43.56481 Y-63.44895
G01 X43.63270 Y-63.46810
G01 X43.69346 Y-63.49553
G01 X43.72323 Y-63.51455
G01 X43.80964 Y-63.58191
G01 X48.37666 Y-68.14896
G01 X52.02387 Y-68.14896
G01 X52.79784 Y-67.37500
G01 X52.75329 Y-67.22313
G01 X52.73264 Y-67.02819
G01 X52.73264 Y-66.96939
G01 X52.75329 Y-66.77444
G01 X52.81869 Y-66.55869
G01 X52.90985 Y-66.38514
G01 X52.94254 Y-66.33624
G01 X53.04826 Y-66.20744
G01 X53.08984 Y-66.16583
G01 X53.21864 Y-66.06014
G01 X53.26753 Y-66.02745
G01 X53.41450 Y-65.94892
G01 X53.46883 Y-65.92641
G01 X53.65684 Y-65.87089
G01 X53.85178 Y-65.85024
G01 X53.91059 Y-65.85024
G01 X54.10553 Y-65.87089
G01 X54.29354 Y-65.92641
G01 X54.34790 Y-65.94892
G01 X54.49484 Y-66.02745
G01 X54.54373 Y-66.06014
G01 X54.69435 Y-66.18562
G01 X54.81983 Y-66.33624
G01 X54.85252 Y-66.38514
G01 X54.93106 Y-66.53210
G01 X54.95356 Y-66.58643
G01 X55.00908 Y-66.77444
G01 X55.02973 Y-66.96939
G01 X55.02973 Y-67.02819
G01 X55.00908 Y-67.22313
G01 X54.94365 Y-67.43888
G01 X54.85252 Y-67.61244
G01 X54.81983 Y-67.66133
G01 X54.69435 Y-67.81195
G01 X54.54373 Y-67.93743
G01 X54.49484 Y-67.97012
G01 X54.34790 Y-68.04866
G01 X54.29354 Y-68.07116
G01 X54.10553 Y-68.12669
G01 X53.91059 Y-68.14734
G01 X53.85178 Y-68.14734
G01 X53.65684 Y-68.12669
G01 X53.50495 Y-68.08213
G01 X52.56271 Y-69.02229
G01 X52.48351 Y-69.07985
G01 X52.44892 Y-69.09834
G01 X52.35707 Y-69.13222
G01 X52.29939 Y-69.14368
G01 X52.23078 Y-69.14899
G01 X48.13811 Y-69.14652
G01 X48.09127 Y-69.14281
G01 X48.04557 Y-69.13184
G01 X47.94258 Y-69.09448
G01 X47.90242 Y-69.06989
G01 X47.81601 Y-69.00253
G01 X43.24899 Y-64.43548
G01 X38.83546 Y-64.43546
G01 X38.79306 Y-64.47805
G01 X38.71730 Y-64.54023
G01 X38.66840 Y-64.57290
G01 X38.58194 Y-64.61910
G01 X38.52761 Y-64.64160
G01 X38.43381 Y-64.67005
G01 X38.37615 Y-64.68153
G01 X38.26350 Y-64.69189
G01 X38.12223 Y-64.68153
G01 X38.06457 Y-64.67005
G01 X37.97076 Y-64.64160
G01 X37.91643 Y-64.61910
G01 X37.80472 Y-64.55776
G01 X37.70531 Y-64.47805
G01 X37.66373 Y-64.43645
G01 X37.60155 Y-64.36068
G01 X37.56889 Y-64.31178
G01 X37.53947 Y-64.25677
G01 X37.51008 Y-64.19873
G01 X37.47171 Y-64.07721
G01 X37.46025 Y-64.01953
G01 X37.45062 Y-63.92200
G01 X36.96934 Y-61.60028
G01 X36.96934 Y-61.54148
G01 X36.98326 Y-61.41481
G01 X37.02878 Y-61.26475
G01 X37.08758 Y-61.15169
G01 X37.12025 Y-61.10277
G01 X37.18243 Y-61.02701
G01 X37.22400 Y-60.98543
G01 X37.32342 Y-60.90572
G01 X37.43513 Y-60.84438
G01 X37.48946 Y-60.82187
G01 X37.58326 Y-60.79340
G01 X37.64095 Y-60.78195
G01 X37.76789 Y-60.77090
G01 X37.89484 Y-60.78195
G01 X37.95789 Y-60.79505
G01 X38.05349 Y-60.78527
G01 X43.31399 Y-60.78527
G01 X43.41152 Y-60.79490
G01 X43.47759 Y-60.81342
G01 X43.53192 Y-60.83592
G01 X43.59176 Y-60.86955
G01 X43.61541 Y-60.88708
G01 X43.66753 Y-60.93173
G01 X43.71457 Y-60.97877
G01 X53.44119 Y-60.97877
G01 X53.50960 Y-60.98408
G01 X53.56728 Y-60.99553
G01 X53.63253 Y-61.01685
G01 X53.65913 Y-61.02942
G01 X53.74262 Y-61.08057
G01 X53.79474 Y-61.12523
G01 X58.58497 Y-65.91544
G01 X58.73684 Y-65.87089
G01 X58.93178 Y-65.85024
G01 X58.99059 Y-65.85024
G01 X59.18553 Y-65.87089
G01 X59.40128 Y-65.93632
G01 X59.57484 Y-66.02745
G01 X59.62373 Y-66.06014
G01 X59.77435 Y-66.18562
G01 X59.89983 Y-66.33624
G01 X59.93252 Y-66.38514
G01 X60.01106 Y-66.53210
G01 X60.03356 Y-66.58643
G01 X60.08195 Y-66.74587
G01 X60.09340 Y-66.80355
G01 X60.10974 Y-66.96939
G01 X60.10974 Y-67.02819
G01 X60.09340 Y-67.19402
G01 X60.08195 Y-67.25171
G01 X60.02365 Y-67.43888
G01 X59.93252 Y-67.61244
G01 X59.89983 Y-67.66133
G01 X59.77435 Y-67.81195
G01 X59.62373 Y-67.93743
G01 X59.57484 Y-67.97012
G01 X59.40128 Y-68.06126
G01 X59.21411 Y-68.11955
G01 X59.15642 Y-68.13100
G01 X58.99059 Y-68.14734
G01 X58.93178 Y-68.14734
G01 X58.76595 Y-68.13100
G01 X58.70826 Y-68.11955
G01 X58.52109 Y-68.06126
G01 X58.34753 Y-67.97012
G01 X58.29864 Y-67.93743
G01 X58.14802 Y-67.81195
G01 X58.02254 Y-67.66133
G01 X57.98985 Y-67.61244
G01 X57.91131 Y-67.46550
G01 X57.88881 Y-67.41114
G01 X57.83329 Y-67.22313
G01 X57.81264 Y-67.02819
G01 X57.81264 Y-66.96939
G01 X57.83329 Y-66.77444
G01 X57.87784 Y-66.62257
G01 X53.23406 Y-61.97879
G01 X43.50748 Y-61.97879
G01 X43.40992 Y-61.96917
G01 X43.34386 Y-61.95065
G01 X43.28952 Y-61.92815
G01 X43.22968 Y-61.89452
G01 X43.20603 Y-61.87699
G01 X43.15391 Y-61.83234
G01 X43.10687 Y-61.78530
G01 X38.53635 Y-61.78527
G01 X38.51692 Y-61.84930
G01 X38.49441 Y-61.90364
G01 X38.44821 Y-61.99010
G01 X38.41552 Y-62.03899
G01 X38.33358 Y-62.13658
G01 X38.23599 Y-62.21852
G01 X38.18710 Y-62.25121
G01 X38.10066 Y-62.29741
G01 X38.04630 Y-62.31992
G01 X37.95253 Y-62.34836
G01 X37.89484 Y-62.35984
G01 X37.76789 Y-62.37089
G01 X37.64095 Y-62.35984
G01 X37.58326 Y-62.34836
G01 X37.48946 Y-62.31992
G01 X37.43513 Y-62.29741
G01 X37.32342 Y-62.23607
G01 X37.20221 Y-62.13658
G01 X37.12025 Y-62.03899
G01 X37.08758 Y-61.99010
G01 X37.02878 Y-61.87704
G01 X36.98326 Y-61.72695
G01 X36.96934 Y-61.60028
G04 P0 ( dwell for no time -- G64 should not smooth over this point )
G00 Z2.00000 ( retract )

G00 X38.89794 Y-62.66480 ( rapid move to begin. )
G01 F30.00000
( Mill infeed pass 1/1 )
G01 Z-0.07500
G04 P0 ( dwell for no time -- G64 should not smooth over this point )
G01 F40.00000
G01 X38.89794 Y-62.66480
G01 X38.89794 Y-62.60597
G01 X38.91186 Y-62.47933
G01 X38.95738 Y-62.32924
G01 X39.01618 Y-62.21618
G01 X39.04884 Y-62.16729
G01 X39.13081 Y-62.06970
G01 X39.25204 Y-61.97021
G01 X39.36373 Y-61.90887
G01 X39.41806 Y-61.88636
G01 X39.51186 Y-61.85792
G01 X39.56954 Y-61.84643
G01 X39.66708 Y-61.83683
G01 X39.72590 Y-61.83683
G01 X39.82344 Y-61.84643
G01 X39.88112 Y-61.85792
G01 X39.97493 Y-61.88636
G01 X40.02926 Y-61.90887
G01 X40.11569 Y-61.95507
G01 X40.16459 Y-61.98776
G01 X40.26217 Y-62.06970
G01 X40.31793 Y-62.13536
G01 X45.32770 Y-62.13536
G01 X45.43641 Y-62.14885
G01 X45.50430 Y-62.16800
G01 X45.56506 Y-62.19543
G01 X45.59483 Y-62.21446
G01 X45.68124 Y-62.28182
G01 X49.89817 Y-66.49880
G01 X50.30912 Y-66.49880
G01 X50.36985 Y-66.38514
G01 X50.40254 Y-66.33624
G01 X50.50826 Y-66.20744
G01 X50.54984 Y-66.16583
G01 X50.67864 Y-66.06014
G01 X50.72753 Y-66.02745
G01 X50.87450 Y-65.94892
G01 X50.92883 Y-65.92641
G01 X51.11684 Y-65.87089
G01 X51.31178 Y-65.85024
G01 X51.37056 Y-65.85024
G01 X51.56553 Y-65.87089
G01 X51.78128 Y-65.93632
G01 X51.95481 Y-66.02745
G01 X52.00373 Y-66.06014
G01 X52.15435 Y-66.18562
G01 X52.27983 Y-66.33624
G01 X52.31252 Y-66.38514
G01 X52.39106 Y-66.53210
G01 X52.41356 Y-66.58643
G01 X52.46908 Y-66.77444
G01 X52.48973 Y-66.96939
G01 X52.48973 Y-67.02819
G01 X52.46908 Y-67.22313
G01 X52.41356 Y-67.41114
G01 X52.39106 Y-67.46550
G01 X52.31252 Y-67.61244
G01 X52.27983 Y-67.66133
G01 X52.15435 Y-67.81195
G01 X52.00373 Y-67.93743
G01 X51.95481 Y-67.97012
G01 X51.80787 Y-68.04866
G01 X51.75354 Y-68.07116
G01 X51.56553 Y-68.12669
G01 X51.37056 Y-68.14734
G01 X51.31178 Y-68.14734
G01 X51.14595 Y-68.13100
G01 X51.08826 Y-68.11955
G01 X50.90107 Y-68.06126
G01 X50.72753 Y-67.97012
G01 X50.67864 Y-67.93743
G01 X50.54984 Y-67.83174
G01 X50.50826 Y-67.79014
G01 X50.40254 Y-67.66133
G01 X50.36985 Y-67.61244
G01 X50.30912 Y-67.49877
G01 X49.69109 Y-67.49880
G01 X49.64415 Y-67.49509
G01 X49.53655 Y-67.47431
G01 X49.43732 Y-67.42788
G01 X49.39723 Y-67.40332
G01 X49.36147 Y-67.37281
G01 X45.12064 Y-63.13538
G01 X40.31795 Y-63.13538
G01 X40.26217 Y-63.20107
G01 X40.16459 Y-63.28303
G01 X40.11569 Y-63.31570
G01 X40.02926 Y-63.36190
G01 X39.97493 Y-63.38440
G01 X39.88112 Y-63.41285
G01 X39.82344 Y-63.42433
G01 X39.72590 Y-63.43393
G01 X39.66708 Y-63.43393
G01 X39.56954 Y-63.42433
G01 X39.51186 Y-63.41285
G01 X39.41806 Y-63.38440
G01 X39.36373 Y-63.36190
G01 X39.25204 Y-63.30056
G01 X39.13081 Y-63.20107
G01 X39.04884 Y-63.10348
G01 X39.01618 Y-63.05459
G01 X38.95738 Y-62.94153
G01 X38.91186 Y-62.79147
G01 X38.89794 Y-62.66480
G04 P0 ( dwell for no time -- G64 should not smooth over this point )
G00 Z2.00000 ( retract )

G00 X38.51262 Y-67.02819 ( rapid move to begin. )
G01 F30.00000
( Mill infeed pass 1/1 )
G01 Z-0.07500
G04 P0 ( dwell for no time -- G64 should not smooth over this point )
G01 F40.00000
G01 X38.51262 Y-67.02819
G01 X38.51262 Y-66.96939
G01 X38.53327 Y-66.77444
G01 X38.58880 Y-66.58643
G01 X38.61130 Y-66.53210
G01 X38.68986 Y-66.38514
G01 X38.72253 Y-66.33624
G01 X38.84800 Y-66.18562
G01 X38.99863 Y-66.06014
G01 X39.04752 Y-66.02745
G01 X39.19449 Y-65.94892
G01 X39.24882 Y-65.92641
G01 X39.43683 Y-65.87089
G01 X39.63177 Y-65.85024
G01 X39.69060 Y-65.85024
G01 X39.85641 Y-65.86657
G01 X39.91409 Y-65.87805
G01 X40.10127 Y-65.93632
G01 X40.27485 Y-66.02745
G01 X40.32374 Y-66.06014
G01 X40.47437 Y-66.18562
G01 X40.59984 Y-66.33624
G01 X40.63251 Y-66.38514
G01 X40.71107 Y-66.53210
G01 X40.73357 Y-66.58643
G01 X40.78910 Y-66.77444
G01 X40.80975 Y-66.96939
G01 X40.80975 Y-67.02819
G01 X40.78910 Y-67.22313
G01 X40.73357 Y-67.41114
G01 X40.71107 Y-67.46550
G01 X40.63251 Y-67.61244
G01 X40.59984 Y-67.66133
G01 X40.47437 Y-67.81195
G01 X40.32374 Y-67.93743
G01 X40.27485 Y-67.97012
G01 X40.10127 Y-68.06126
G01 X39.91409 Y-68.11955
G01 X39.85641 Y-68.13100
G01 X39.69060 Y-68.14734
G01 X39.63177 Y-68.14734
G01 X39.46596 Y-68.13100
G01 X39.40828 Y-68.11955
G01 X39.22111 Y-68.06126
G01 X39.04752 Y-67.97012
G01 X38.99863 Y-67.93743
G01 X38.84800 Y-67.81195
G01 X38.72253 Y-67.66133
G01 X38.68986 Y-67.61244
G01 X38.61130 Y-67.46550
G01 X38.58880 Y-67.41114
G01 X38.53327 Y-67.22313
G01 X38.51262 Y-67.02819
G04 P0 ( dwell for no time -- G64 should not smooth over this point )
G00 Z2.00000 ( retract )

G00 X41.05118 Y-67.84878 ( rapid move to begin. )
G01 F30.00000
( Mill infeed pass 1/1 )
G01 Z-0.07500
G04 P0 ( dwell for no time -- G64 should not smooth over this point )
G01 F40.00000
G01 X41.05118 Y-67.84878
G01 X41.05118 Y-66.14879
G01 X41.05694 Y-66.09027
G01 X41.07404 Y-66.03398
G01 X41.10175 Y-65.98211
G01 X41.13906 Y-65.93665
G01 X41.18453 Y-65.89933
G01 X41.23639 Y-65.87162
G01 X41.29265 Y-65.85455
G01 X41.35120 Y-65.84879
G01 X43.05120 Y-65.84879
G01 X43.10972 Y-65.85455
G01 X43.15590 Y-65.86855
G01 X43.33237 Y-66.04729
G01 X43.34543 Y-66.09027
G01 X43.35120 Y-66.14879
G01 X43.35120 Y-67.84878
G01 X43.34543 Y-67.90731
G01 X43.32836 Y-67.96359
G01 X43.30062 Y-68.01546
G01 X43.26331 Y-68.06093
G01 X43.21785 Y-68.09824
G01 X43.16600 Y-68.12595
G01 X43.10972 Y-68.14302
G01 X43.05120 Y-68.14878
G01 X41.35120 Y-68.14878
G01 X41.29265 Y-68.14302
G01 X41.23639 Y-68.12595
G01 X41.18453 Y-68.09824
G01 X41.13906 Y-68.06093
G01 X41.10175 Y-68.01546
G01 X41.07404 Y-67.96359
G01 X41.05694 Y-67.90731
G01 X41.05118 Y-67.84878
G04 P0 ( dwell for no time -- G64 should not smooth over this point )
G00 Z2.00000 ( retract )

G00 X31.98812 Y-75.43279 ( rapid move to begin. )
G01 F30.00000
( Mill infeed pass 1/1 )
G01 Z-0.07500
G04 P0 ( dwell for no time -- G64 should not smooth over this point )
G01 F40.00000
G01 X31.98812 Y-75.43279
G01 X31.98812 Y-75.37399
G01 X32.00207 Y-75.24732
G01 X32.04759 Y-75.09723
G01 X32.10639 Y-74.98418
G01 X32.13905 Y-74.93528
G01 X32.20123 Y-74.85952
G01 X32.24281 Y-74.81794
G01 X32.34223 Y-74.73820
G01 X32.45394 Y-74.67686
G01 X32.50827 Y-74.65436
G01 X32.60207 Y-74.62591
G01 X32.65973 Y-74.61443
G01 X32.78668 Y-74.60338
G01 X32.87255 Y-74.61039
G01 X33.45642 Y-74.02652
G01 X33.50854 Y-73.98187
G01 X33.59203 Y-73.93071
G01 X33.64636 Y-73.90821
G01 X33.74156 Y-73.88537
G01 X33.80999 Y-73.88007
G01 X66.10099 Y-73.88007
G01 X68.93979 Y-71.04123
G01 X68.93278 Y-70.95538
G01 X68.94383 Y-70.82843
G01 X68.95531 Y-70.77075
G01 X68.99369 Y-70.64924
G01 X69.05247 Y-70.53618
G01 X69.08516 Y-70.48729
G01 X69.16710 Y-70.38970
G01 X69.26468 Y-70.30776
G01 X69.31358 Y-70.27507
G01 X69.42663 Y-70.21629
G01 X69.54815 Y-70.17791
G01 X69.60583 Y-70.16643
G01 X69.71947 Y-70.15604
G01 X69.85973 Y-70.16643
G01 X69.91741 Y-70.17791
G01 X70.03893 Y-70.21629
G01 X70.15198 Y-70.27507
G01 X70.20090 Y-70.30776
G01 X70.29846 Y-70.38970
G01 X70.38043 Y-70.48729
G01 X70.41309 Y-70.53618
G01 X70.47189 Y-70.64924
G01 X70.51027 Y-70.77075
G01 X70.52173 Y-70.82843
G01 X70.53136 Y-70.92599
G01 X70.53136 Y-70.98480
G01 X70.52173 Y-71.08233
G01 X70.51027 Y-71.14002
G01 X70.48180 Y-71.23382
G01 X70.45930 Y-71.28815
G01 X70.41309 Y-71.37458
G01 X70.38043 Y-71.42348
G01 X70.29846 Y-71.52107
G01 X70.20090 Y-71.60303
G01 X70.15198 Y-71.63570
G01 X70.06554 Y-71.68190
G01 X70.01121 Y-71.70440
G01 X69.91741 Y-71.73285
G01 X69.85973 Y-71.74433
G01 X69.73278 Y-71.75538
G01 X69.64688 Y-71.74837
G01 X66.66164 Y-74.73363
G01 X66.57523 Y-74.80099
G01 X66.53507 Y-74.82558
G01 X66.43207 Y-74.86294
G01 X66.38630 Y-74.87392
G01 X66.33939 Y-74.87763
G01 X34.01710 Y-74.88006
G01 X33.57969 Y-75.31748
G01 X33.58525 Y-75.37399
G01 X33.58525 Y-75.43279
G01 X33.57562 Y-75.53033
G01 X33.56417 Y-75.58801
G01 X33.53572 Y-75.68181
G01 X33.51319 Y-75.73615
G01 X33.46699 Y-75.82258
G01 X33.43432 Y-75.87150
G01 X33.35238 Y-75.96906
G01 X33.23115 Y-76.06856
G01 X33.11944 Y-76.12990
G01 X33.06511 Y-76.15240
G01 X32.97131 Y-76.18087
G01 X32.91365 Y-76.19233
G01 X32.78668 Y-76.20338
G01 X32.65973 Y-76.19233
G01 X32.60207 Y-76.18087
G01 X32.50827 Y-76.15240
G01 X32.45394 Y-76.12990
G01 X32.34223 Y-76.06856
G01 X32.22099 Y-75.96906
G01 X32.13905 Y-75.87150
G01 X32.10639 Y-75.82258
G01 X32.04759 Y-75.70953
G01 X32.00207 Y-75.55946
G01 X31.98812 Y-75.43279
G04 P0 ( dwell for no time -- G64 should not smooth over this point )
G00 Z2.00000 ( retract )

G00 X29.97454 Y-78.37609 ( rapid move to begin. )
G01 F30.00000
( Mill infeed pass 1/1 )
G01 Z-0.07500
G04 P0 ( dwell for no time -- G64 should not smooth over this point )
G01 F40.00000
G01 X29.97454 Y-78.37609
G01 X29.97454 Y-78.31729
G01 X29.98414 Y-78.21973
G01 X29.99562 Y-78.16205
G01 X30.03398 Y-78.04053
G01 X30.09278 Y-77.92748
G01 X30.12544 Y-77.87858
G01 X30.18762 Y-77.80282
G01 X30.22923 Y-77.76124
G01 X30.32864 Y-77.68151
G01 X30.44033 Y-77.62016
G01 X30.49466 Y-77.59766
G01 X30.58846 Y-77.56921
G01 X30.64614 Y-77.55773
G01 X30.77309 Y-77.54668
G01 X30.90004 Y-77.55773
G01 X30.95772 Y-77.56921
G01 X31.05153 Y-77.59766
G01 X31.10586 Y-77.62016
G01 X31.21754 Y-77.68151
G01 X31.33877 Y-77.78100
G01 X31.42071 Y-77.87858
G01 X31.45340 Y-77.92748
G01 X31.51218 Y-78.04053
G01 X31.55772 Y-78.19062
G01 X31.57164 Y-78.31729
G01 X31.57164 Y-78.37609
G01 X31.55772 Y-78.50276
G01 X31.52211 Y-78.62512
G01 X31.49961 Y-78.67945
G01 X31.45340 Y-78.76588
G01 X31.42071 Y-78.81480
G01 X31.33877 Y-78.91236
G01 X31.27306 Y-78.96817
G01 X31.27309 Y-79.43855
G01 X34.93668 Y-83.10217
G01 X79.92189 Y-83.10362
G01 X79.99004 Y-83.11180
G01 X80.08384 Y-83.14025
G01 X80.14503 Y-83.17131
G01 X80.19392 Y-83.20397
G01 X80.24604 Y-83.24863
G01 X84.20278 Y-87.20536
G01 X111.74329 Y-87.20536
G01 X114.83231 Y-84.11632
G01 X114.91872 Y-84.04896
G01 X114.95888 Y-84.02437
G01 X115.06187 Y-83.98700
G01 X115.10762 Y-83.97603
G01 X115.15453 Y-83.97232
G01 X131.38328 Y-83.96989
G01 X131.44089 Y-83.93008
G01 X131.52732 Y-83.88388
G01 X131.58165 Y-83.86138
G01 X131.70400 Y-83.82577
G01 X131.86009 Y-83.81040
G01 X132.01617 Y-83.82577
G01 X132.13852 Y-83.86138
G01 X132.19285 Y-83.88388
G01 X132.30454 Y-83.94522
G01 X132.40395 Y-84.02493
G01 X132.44553 Y-84.06651
G01 X132.50774 Y-84.14228
G01 X132.54040 Y-84.19120
G01 X132.59920 Y-84.30425
G01 X132.64472 Y-84.45431
G01 X132.65864 Y-84.58098
G01 X132.65864 Y-84.63979
G01 X132.64472 Y-84.76645
G01 X132.59920 Y-84.91654
G01 X132.54040 Y-85.02960
G01 X132.50774 Y-85.07849
G01 X132.44553 Y-85.15426
G01 X132.40395 Y-85.19584
G01 X132.30454 Y-85.27557
G01 X132.19285 Y-85.33691
G01 X132.13852 Y-85.35942
G01 X132.01617 Y-85.39500
G01 X131.86009 Y-85.41040
G01 X131.70400 Y-85.39500
G01 X131.58165 Y-85.35942
G01 X131.52732 Y-85.33691
G01 X131.41564 Y-85.27557
G01 X131.31622 Y-85.19584
G01 X131.27464 Y-85.15426
G01 X131.21244 Y-85.07849
G01 X131.17977 Y-85.02960
G01 X131.14787 Y-84.96988
G01 X115.39296 Y-84.96988
G01 X112.30394 Y-88.05893
G01 X112.21753 Y-88.12629
G01 X112.17737 Y-88.15088
G01 X112.07438 Y-88.18824
G01 X112.04021 Y-88.19716
G01 X111.97392 Y-88.20445
G01 X83.96628 Y-88.20394
G01 X83.89813 Y-88.19576
G01 X83.80433 Y-88.16731
G01 X83.74314 Y-88.13625
G01 X83.69424 Y-88.10358
G01 X83.64212 Y-88.05893
G01 X79.68539 Y-84.10219
G01 X34.72960 Y-84.10219
G01 X34.63204 Y-84.09257
G01 X34.56597 Y-84.07405
G01 X34.47705 Y-84.03306
G01 X34.42815 Y-84.00039
G01 X34.37593 Y-83.95564
G01 X30.39905 Y-79.97528
G01 X30.36852 Y-79.93952
G01 X30.31556 Y-79.84368
G01 X30.29755 Y-79.80020
G01 X30.27677 Y-79.69260
G01 X30.27307 Y-79.64566
G01 X30.27307 Y-78.96814
G01 X30.20741 Y-78.91236
G01 X30.12544 Y-78.81480
G01 X30.09278 Y-78.76588
G01 X30.04657 Y-78.67945
G01 X30.02407 Y-78.62512
G01 X29.98846 Y-78.50276
G01 X29.97454 Y-78.37609
G04 P0 ( dwell for no time -- G64 should not smooth over this point )
G00 Z2.00000 ( retract )

G00 X32.07443 Y-79.93639 ( rapid move to begin. )
G01 F30.00000
( Mill infeed pass 1/1 )
G01 Z-0.07500
G04 P0 ( dwell for no time -- G64 should not smooth over this point )
G01 F40.00000
G01 X32.07443 Y-79.93639
G01 X32.07443 Y-79.87759
G01 X32.08835 Y-79.75092
G01 X32.12396 Y-79.62857
G01 X32.14647 Y-79.57424
G01 X32.19267 Y-79.48778
G01 X32.22536 Y-79.43888
G01 X32.28754 Y-79.36311
G01 X32.32912 Y-79.32153
G01 X32.42854 Y-79.24180
G01 X32.54022 Y-79.18046
G01 X32.59455 Y-79.15796
G01 X32.68835 Y-79.12951
G01 X32.74604 Y-79.11803
G01 X32.87298 Y-79.10698
G01 X32.99993 Y-79.11803
G01 X33.05762 Y-79.12951
G01 X33.15142 Y-79.15796
G01 X33.20575 Y-79.18046
G01 X33.31743 Y-79.24180
G01 X33.41685 Y-79.32153
G01 X33.45845 Y-79.36311
G01 X33.52063 Y-79.43888
G01 X33.55330 Y-79.48778
G01 X33.61210 Y-79.60083
G01 X33.65762 Y-79.75092
G01 X33.67154 Y-79.87759
G01 X33.67154 Y-79.93639
G01 X33.66597 Y-79.99288
G01 X34.51568 Y-80.84256
G01 X78.32418 Y-80.84256
G01 X81.48853 Y-77.67820
G01 X81.54632 Y-77.60642
G01 X81.59844 Y-77.56177
G01 X81.64733 Y-77.52911
G01 X81.70852 Y-77.49804
G01 X81.77378 Y-77.47673
G01 X81.83146 Y-77.46528
G01 X81.89986 Y-77.45997
G01 X82.52435 Y-77.45997
G01 X82.57024 Y-77.37412
G01 X82.60291 Y-77.32522
G01 X82.70240 Y-77.20399
G01 X82.74398 Y-77.16241
G01 X82.86521 Y-77.06291
G01 X82.91411 Y-77.03022
G01 X83.07903 Y-76.94371
G01 X83.25683 Y-76.88829
G01 X83.31451 Y-76.87681
G01 X83.47057 Y-76.86144
G01 X83.52940 Y-76.86144
G01 X83.71459 Y-76.88113
G01 X83.89323 Y-76.93381
G01 X83.94756 Y-76.95631
G01 X84.08586 Y-77.03022
G01 X84.13476 Y-77.06291
G01 X84.25599 Y-77.16241
G01 X84.29757 Y-77.20399
G01 X84.39706 Y-77.32522
G01 X84.42973 Y-77.37412
G01 X84.51626 Y-77.53904
G01 X84.57169 Y-77.71684
G01 X84.58317 Y-77.77452
G01 X84.59854 Y-77.93058
G01 X84.59854 Y-77.98940
G01 X84.57885 Y-78.17460
G01 X84.52617 Y-78.35321
G01 X84.50367 Y-78.40756
G01 X84.42973 Y-78.54587
G01 X84.39706 Y-78.59476
G01 X84.29757 Y-78.71600
G01 X84.25599 Y-78.75758
G01 X84.13476 Y-78.85707
G01 X84.08586 Y-78.88973
G01 X83.94756 Y-78.96367
G01 X83.89323 Y-78.98618
G01 X83.74314 Y-79.03169
G01 X83.68546 Y-79.04317
G01 X83.52940 Y-79.05854
G01 X83.47057 Y-79.05854
G01 X83.31451 Y-79.04317
G01 X83.25683 Y-79.03169
G01 X83.07903 Y-78.97625
G01 X82.91411 Y-78.88973
G01 X82.86521 Y-78.85707
G01 X82.74398 Y-78.75758
G01 X82.70240 Y-78.71600
G01 X82.60291 Y-78.59476
G01 X82.57024 Y-78.54587
G01 X82.52432 Y-78.45996
G01 X82.12097 Y-78.45999
G01 X79.73949 Y-80.84147
G01 X85.10318 Y-86.20519
G01 X109.71538 Y-86.20516
G01 X112.80582 Y-83.11472
G01 X112.85794 Y-83.07006
G01 X112.94143 Y-83.01891
G01 X113.03328 Y-82.98503
G01 X113.06183 Y-82.97789
G01 X113.12997 Y-82.96971
G01 X129.08526 Y-82.96826
G01 X129.17307 Y-82.88736
G01 X129.26746 Y-82.83545
G01 X129.31094 Y-82.81744
G01 X129.35671 Y-82.80644
G01 X129.46548 Y-82.79295
G01 X132.57192 Y-82.79298
G01 X132.60794 Y-82.74911
G01 X132.64952 Y-82.70753
G01 X132.72529 Y-82.64535
G01 X132.77418 Y-82.61269
G01 X132.86062 Y-82.56646
G01 X132.91495 Y-82.54395
G01 X133.03733 Y-82.50837
G01 X133.16397 Y-82.49442
G01 X133.20674 Y-82.49364
G01 X133.34947 Y-82.50837
G01 X133.47182 Y-82.54395
G01 X133.52615 Y-82.56646
G01 X133.63783 Y-82.62780
G01 X133.73725 Y-82.70753
G01 X133.77885 Y-82.74911
G01 X133.84103 Y-82.82488
G01 X133.87370 Y-82.87377
G01 X133.93250 Y-82.98683
G01 X133.97801 Y-83.13692
G01 X133.99193 Y-83.26359
G01 X133.99193 Y-83.32239
G01 X133.97801 Y-83.44906
G01 X133.93250 Y-83.59912
G01 X133.87370 Y-83.71220
G01 X133.84103 Y-83.76110
G01 X133.77885 Y-83.83687
G01 X133.73725 Y-83.87845
G01 X133.63783 Y-83.95815
G01 X133.52615 Y-84.01949
G01 X133.47182 Y-84.04202
G01 X133.34947 Y-84.07761
G01 X133.19338 Y-84.09300
G01 X133.03733 Y-84.07761
G01 X132.91495 Y-84.04202
G01 X132.86062 Y-84.01949
G01 X132.77418 Y-83.97329
G01 X132.72529 Y-83.94062
G01 X132.64952 Y-83.87845
G01 X132.60794 Y-83.83687
G01 X132.57190 Y-83.79295
G01 X129.67040 Y-83.79295
G01 X129.58257 Y-83.87387
G01 X129.48818 Y-83.92579
G01 X129.44470 Y-83.94380
G01 X129.39893 Y-83.95480
G01 X129.29019 Y-83.96829
G01 X113.36650 Y-83.96829
G01 X110.27603 Y-87.05873
G01 X110.22391 Y-87.10338
G01 X110.14042 Y-87.15454
G01 X110.04857 Y-87.18842
G01 X110.02002 Y-87.19556
G01 X109.95188 Y-87.20374
G01 X84.89610 Y-87.20519
G01 X84.82767 Y-87.19988
G01 X84.76999 Y-87.18842
G01 X84.67814 Y-87.15454
G01 X84.59465 Y-87.10338
G01 X84.54253 Y-87.05873
G01 X79.03235 Y-81.54858
G01 X78.86301 Y-81.71589
G01 X78.78382 Y-81.77345
G01 X78.72263 Y-81.80451
G01 X78.65737 Y-81.82582
G01 X78.59969 Y-81.83728
G01 X78.53129 Y-81.84258
G01 X34.30859 Y-81.84258
G01 X34.21103 Y-81.83296
G01 X34.14497 Y-81.81444
G01 X34.05604 Y-81.77345
G01 X34.03079 Y-81.75831
G01 X33.97684 Y-81.71589
G01 X32.95889 Y-80.69997
G01 X32.87298 Y-80.70698
G01 X32.74604 Y-80.69593
G01 X32.68835 Y-80.68447
G01 X32.59455 Y-80.65600
G01 X32.54022 Y-80.63349
G01 X32.42854 Y-80.57215
G01 X32.32912 Y-80.49245
G01 X32.28754 Y-80.45087
G01 X32.22536 Y-80.37510
G01 X32.19267 Y-80.32618
G01 X32.13390 Y-80.21312
G01 X32.08835 Y-80.06306
G01 X32.07443 Y-79.93639
G04 P0 ( dwell for no time -- G64 should not smooth over this point )
G00 Z2.00000 ( retract )

G00 X37.24252 Y-80.06690 ( rapid move to begin. )
G01 F30.00000
( Mill infeed pass 1/1 )
G01 Z-0.07500
G04 P0 ( dwell for no time -- G64 should not smooth over this point )
G01 F40.00000
G01 X37.24252 Y-80.06690
G01 X37.24252 Y-80.00807
G01 X37.25647 Y-79.88143
G01 X37.30198 Y-79.73134
G01 X37.36078 Y-79.61828
G01 X37.39345 Y-79.56939
G01 X37.47541 Y-79.47180
G01 X37.59662 Y-79.37231
G01 X37.70833 Y-79.31097
G01 X37.76266 Y-79.28846
G01 X37.85646 Y-79.26001
G01 X37.91415 Y-79.24853
G01 X38.04110 Y-79.23748
G01 X38.16805 Y-79.24853
G01 X38.22573 Y-79.26001
G01 X38.31951 Y-79.28846
G01 X38.37384 Y-79.31097
G01 X38.46030 Y-79.35717
G01 X38.50919 Y-79.38986
G01 X38.60678 Y-79.47180
G01 X38.68872 Y-79.56939
G01 X38.72141 Y-79.61828
G01 X38.78019 Y-79.73134
G01 X38.81473 Y-79.84025
G01 X67.51328 Y-79.84025
G01 X75.92680 Y-71.42673
G01 X75.91763 Y-71.38073
G01 X75.90803 Y-71.28319
G01 X75.90803 Y-71.22439
G01 X75.91763 Y-71.12683
G01 X75.92911 Y-71.06915
G01 X75.95756 Y-70.97537
G01 X75.98006 Y-70.92102
G01 X76.02626 Y-70.83458
G01 X76.05895 Y-70.78569
G01 X76.12113 Y-70.70992
G01 X76.16271 Y-70.66834
G01 X76.23848 Y-70.60616
G01 X76.28738 Y-70.57347
G01 X76.40043 Y-70.51469
G01 X76.52195 Y-70.47631
G01 X76.57963 Y-70.46483
G01 X76.70658 Y-70.45378
G01 X76.83353 Y-70.46483
G01 X76.89121 Y-70.47631
G01 X76.95085 Y-70.49440
G01 X77.01272 Y-70.51469
G01 X77.12578 Y-70.57347
G01 X77.17470 Y-70.60616
G01 X77.27226 Y-70.68810
G01 X77.35423 Y-70.78569
G01 X77.38689 Y-70.83458
G01 X77.44569 Y-70.94764
G01 X77.48407 Y-71.06915
G01 X77.49553 Y-71.12683
G01 X77.50658 Y-71.25378
G01 X77.49553 Y-71.38073
G01 X77.48407 Y-71.43841
G01 X77.44569 Y-71.55993
G01 X77.38689 Y-71.67298
G01 X77.35423 Y-71.72188
G01 X77.27226 Y-71.81947
G01 X77.17470 Y-71.90143
G01 X77.12578 Y-71.93410
G01 X77.01272 Y-71.99290
G01 X76.89121 Y-72.03125
G01 X76.83353 Y-72.04273
G01 X76.71443 Y-72.05332
G01 X68.07393 Y-80.69382
G01 X68.02181 Y-80.73847
G01 X67.93832 Y-80.78963
G01 X67.88399 Y-80.81213
G01 X67.81792 Y-80.83065
G01 X67.72039 Y-80.84028
G01 X38.34389 Y-80.84028
G01 X38.27546 Y-80.83497
G01 X38.20594 Y-80.81990
G01 X38.04110 Y-80.83748
G01 X37.91415 Y-80.82643
G01 X37.85646 Y-80.81495
G01 X37.76266 Y-80.78650
G01 X37.70833 Y-80.76400
G01 X37.59662 Y-80.70266
G01 X37.47541 Y-80.60317
G01 X37.39345 Y-80.50558
G01 X37.36078 Y-80.45668
G01 X37.30198 Y-80.34363
G01 X37.25647 Y-80.19357
G01 X37.24252 Y-80.06690
G04 P0 ( dwell for no time -- G64 should not smooth over this point )
G00 Z2.00000 ( retract )

G00 X41.34724 Y-79.01490 ( rapid move to begin. )
G01 F30.00000
( Mill infeed pass 1/1 )
G01 Z-0.07500
G04 P0 ( dwell for no time -- G64 should not smooth over this point )
G01 F40.00000
G01 X41.34724 Y-79.01490
G01 X41.34724 Y-78.95608
G01 X41.36116 Y-78.82941
G01 X41.40667 Y-78.67934
G01 X41.46547 Y-78.56629
G01 X41.49814 Y-78.51739
G01 X41.58010 Y-78.41981
G01 X41.70134 Y-78.32032
G01 X41.81302 Y-78.25897
G01 X41.86735 Y-78.23647
G01 X41.96116 Y-78.20802
G01 X42.01884 Y-78.19654
G01 X42.14579 Y-78.18549
G01 X42.27274 Y-78.19654
G01 X42.33042 Y-78.20802
G01 X42.42422 Y-78.23647
G01 X42.47855 Y-78.25897
G01 X42.59024 Y-78.32032
G01 X42.68965 Y-78.40002
G01 X42.73123 Y-78.44163
G01 X42.79344 Y-78.51739
G01 X42.82610 Y-78.56629
G01 X42.88490 Y-78.67934
G01 X42.92326 Y-78.80086
G01 X42.93199 Y-78.84005
G01 X66.60027 Y-78.84005
G01 X73.80930 Y-71.63105
G01 X73.80229 Y-71.54520
G01 X73.81334 Y-71.41825
G01 X73.82482 Y-71.36056
G01 X73.86317 Y-71.23905
G01 X73.92198 Y-71.12599
G01 X73.95464 Y-71.07707
G01 X74.01682 Y-71.00131
G01 X74.05842 Y-70.95973
G01 X74.13419 Y-70.89755
G01 X74.18309 Y-70.86488
G01 X74.29614 Y-70.80608
G01 X74.41766 Y-70.76770
G01 X74.47534 Y-70.75625
G01 X74.58862 Y-70.74586
G01 X74.72924 Y-70.75625
G01 X74.78692 Y-70.76770
G01 X74.90844 Y-70.80608
G01 X75.02149 Y-70.86488
G01 X75.07039 Y-70.89755
G01 X75.16797 Y-70.97951
G01 X75.24991 Y-71.07707
G01 X75.28260 Y-71.12599
G01 X75.34138 Y-71.23905
G01 X75.37976 Y-71.36056
G01 X75.39124 Y-71.41825
G01 X75.40229 Y-71.54520
G01 X75.39124 Y-71.67215
G01 X75.37976 Y-71.72983
G01 X75.34138 Y-71.85134
G01 X75.28260 Y-71.96440
G01 X75.24991 Y-72.01329
G01 X75.16797 Y-72.11088
G01 X75.07039 Y-72.19282
G01 X75.02149 Y-72.22551
G01 X74.93505 Y-72.27171
G01 X74.88072 Y-72.29422
G01 X74.78692 Y-72.32266
G01 X74.72924 Y-72.33415
G01 X74.60229 Y-72.34519
G01 X74.51636 Y-72.33818
G01 X67.16093 Y-79.69362
G01 X67.10881 Y-79.73827
G01 X67.05991 Y-79.77094
G01 X67.02532 Y-79.78943
G01 X66.93347 Y-79.82331
G01 X66.87579 Y-79.83477
G01 X66.80738 Y-79.84007
G01 X42.50040 Y-79.84007
G01 X42.43197 Y-79.83477
G01 X42.37429 Y-79.82331
G01 X42.33677 Y-79.81193
G01 X42.25727 Y-79.77596
G01 X42.14579 Y-79.78549
G01 X42.01884 Y-79.77444
G01 X41.96116 Y-79.76296
G01 X41.86735 Y-79.73451
G01 X41.81302 Y-79.71201
G01 X41.70134 Y-79.65067
G01 X41.58010 Y-79.55117
G01 X41.49814 Y-79.45359
G01 X41.46547 Y-79.40469
G01 X41.41927 Y-79.31826
G01 X41.39677 Y-79.26393
G01 X41.36116 Y-79.14155
G01 X41.34724 Y-79.01490
G04 P0 ( dwell for no time -- G64 should not smooth over this point )
G00 Z2.00000 ( retract )

G00 X32.87804 Y-89.87508 ( rapid move to begin. )
G01 F30.00000
( Mill infeed pass 1/1 )
G01 Z-0.07500
G04 P0 ( dwell for no time -- G64 should not smooth over this point )
G01 F40.00000
G01 X32.87804 Y-89.87508
G01 X32.87804 Y-89.81628
G01 X32.88764 Y-89.71874
G01 X32.89912 Y-89.66106
G01 X32.93748 Y-89.53955
G01 X32.99628 Y-89.42649
G01 X33.02894 Y-89.37760
G01 X33.09112 Y-89.30183
G01 X33.13273 Y-89.26022
G01 X33.23214 Y-89.18052
G01 X33.34382 Y-89.11918
G01 X33.39816 Y-89.09667
G01 X33.49196 Y-89.06822
G01 X33.54964 Y-89.05674
G01 X33.67659 Y-89.04569
G01 X33.80354 Y-89.05674
G01 X33.86122 Y-89.06822
G01 X33.95502 Y-89.09667
G01 X34.00936 Y-89.11918
G01 X34.09579 Y-89.16538
G01 X34.14469 Y-89.19804
G01 X34.24227 Y-89.28001
G01 X34.32421 Y-89.37760
G01 X34.35690 Y-89.42649
G01 X34.41568 Y-89.53955
G01 X34.45406 Y-89.66106
G01 X34.46554 Y-89.71874
G01 X34.47514 Y-89.81628
G01 X34.47514 Y-89.87508
G01 X34.46958 Y-89.93160
G01 X40.90464 Y-96.36661
G01 X40.97200 Y-96.45302
G01 X40.99659 Y-96.49318
G01 X41.03395 Y-96.59617
G01 X41.04483 Y-96.64121
G01 X41.04861 Y-96.68736
G01 X41.04957 Y-96.87878
G01 X41.16911 Y-96.87878
G01 X41.22986 Y-96.76514
G01 X41.26253 Y-96.71624
G01 X41.36824 Y-96.58744
G01 X41.40982 Y-96.54583
G01 X41.53863 Y-96.44014
G01 X41.58752 Y-96.40745
G01 X41.73449 Y-96.32892
G01 X41.78882 Y-96.30641
G01 X41.97683 Y-96.25089
G01 X42.17177 Y-96.23024
G01 X42.23060 Y-96.23024
G01 X42.39641 Y-96.24657
G01 X42.45409 Y-96.25805
G01 X42.61355 Y-96.30641
G01 X42.66789 Y-96.32892
G01 X42.81485 Y-96.40745
G01 X42.86374 Y-96.44014
G01 X43.01437 Y-96.56562
G01 X43.13984 Y-96.71624
G01 X43.17251 Y-96.76514
G01 X43.25107 Y-96.91210
G01 X43.27357 Y-96.96643
G01 X43.32910 Y-97.15444
G01 X43.34975 Y-97.34939
G01 X43.34975 Y-97.40819
G01 X43.32910 Y-97.60313
G01 X43.27357 Y-97.79114
G01 X43.25107 Y-97.84550
G01 X43.17251 Y-97.99244
G01 X43.13984 Y-98.04133
G01 X43.03413 Y-98.17014
G01 X42.99255 Y-98.21174
G01 X42.86374 Y-98.31743
G01 X42.81485 Y-98.35012
G01 X42.66789 Y-98.42866
G01 X42.61355 Y-98.45116
G01 X42.45409 Y-98.49955
G01 X42.39641 Y-98.51100
G01 X42.23060 Y-98.52734
G01 X42.17177 Y-98.52734
G01 X42.00596 Y-98.51100
G01 X41.94828 Y-98.49955
G01 X41.76111 Y-98.44126
G01 X41.58752 Y-98.35012
G01 X41.53863 Y-98.31743
G01 X41.40982 Y-98.21174
G01 X41.36824 Y-98.17014
G01 X41.26253 Y-98.04133
G01 X41.22986 Y-97.99244
G01 X41.16911 Y-97.87880
G01 X40.55107 Y-97.87880
G01 X40.48267 Y-97.87349
G01 X40.42499 Y-97.86203
G01 X40.35974 Y-97.84072
G01 X40.29855 Y-97.80966
G01 X40.24965 Y-97.77700
G01 X40.19753 Y-97.73234
G01 X40.13535 Y-97.65657
G01 X40.10172 Y-97.59673
G01 X40.07922 Y-97.54240
G01 X40.06070 Y-97.47634
G01 X40.05108 Y-97.37880
G01 X40.05108 Y-96.92726
G01 X33.76247 Y-90.63868
G01 X33.67659 Y-90.64569
G01 X33.54964 Y-90.63464
G01 X33.49196 Y-90.62316
G01 X33.39816 Y-90.59471
G01 X33.34382 Y-90.57221
G01 X33.23214 Y-90.51087
G01 X33.11091 Y-90.41138
G01 X33.02894 Y-90.31379
G01 X32.99628 Y-90.26489
G01 X32.93748 Y-90.15184
G01 X32.89196 Y-90.00175
G01 X32.87804 Y-89.87508
G04 P0 ( dwell for no time -- G64 should not smooth over this point )
G00 Z2.00000 ( retract )

G00 X28.84663 Y-95.41548 ( rapid move to begin. )
G01 F30.00000
( Mill infeed pass 1/1 )
G01 Z-0.07500
G04 P0 ( dwell for no time -- G64 should not smooth over this point )
G01 F40.00000
G01 X28.84663 Y-95.41548
G01 X28.84663 Y-95.35668
G01 X28.85623 Y-95.25914
G01 X28.86771 Y-95.20146
G01 X28.90609 Y-95.07995
G01 X28.96486 Y-94.96689
G01 X28.99755 Y-94.91800
G01 X29.05973 Y-94.84223
G01 X29.10131 Y-94.80062
G01 X29.20073 Y-94.72092
G01 X29.31244 Y-94.65958
G01 X29.36677 Y-94.63707
G01 X29.46055 Y-94.60862
G01 X29.51823 Y-94.59714
G01 X29.64518 Y-94.58609
G01 X29.77213 Y-94.59714
G01 X29.82981 Y-94.60862
G01 X29.92361 Y-94.63707
G01 X29.97794 Y-94.65958
G01 X30.08965 Y-94.72092
G01 X30.18907 Y-94.80062
G01 X30.23065 Y-94.84223
G01 X30.29283 Y-94.91800
G01 X30.32549 Y-94.96689
G01 X30.38429 Y-95.07995
G01 X30.42267 Y-95.20146
G01 X30.43413 Y-95.25914
G01 X30.44375 Y-95.35668
G01 X30.44375 Y-95.41548
G01 X30.43817 Y-95.47200
G01 X42.19247 Y-107.22628
G01 X78.41435 Y-107.22625
G01 X81.45422 Y-104.18643
G01 X81.50634 Y-104.14175
G01 X81.55523 Y-104.10911
G01 X81.64416 Y-104.06812
G01 X81.73936 Y-104.04528
G01 X81.80776 Y-104.03997
G01 X82.90433 Y-104.03997
G01 X82.96537 Y-103.92885
G01 X83.08241 Y-103.78399
G01 X83.12399 Y-103.74239
G01 X83.26887 Y-103.62537
G01 X83.43242 Y-103.53632
G01 X83.48675 Y-103.51381
G01 X83.63684 Y-103.46825
G01 X83.69450 Y-103.45677
G01 X83.85058 Y-103.44142
G01 X83.90938 Y-103.44142
G01 X84.09457 Y-103.46113
G01 X84.27321 Y-103.51381
G01 X84.32754 Y-103.53632
G01 X84.49112 Y-103.62537
G01 X84.63600 Y-103.74239
G01 X84.67758 Y-103.78399
G01 X84.79460 Y-103.92885
G01 X84.89625 Y-104.11904
G01 X84.95170 Y-104.29682
G01 X84.96318 Y-104.35448
G01 X84.97999 Y-104.54000
G01 X84.96318 Y-104.72547
G01 X84.95170 Y-104.78313
G01 X84.90618 Y-104.93322
G01 X84.88368 Y-104.98755
G01 X84.79460 Y-105.15112
G01 X84.67758 Y-105.29598
G01 X84.63600 Y-105.33753
G01 X84.51477 Y-105.43708
G01 X84.46587 Y-105.46972
G01 X84.32754 Y-105.54363
G01 X84.27321 Y-105.56618
G01 X84.12315 Y-105.61170
G01 X84.06547 Y-105.62318
G01 X83.90938 Y-105.63855
G01 X83.85058 Y-105.63855
G01 X83.69450 Y-105.62318
G01 X83.63684 Y-105.61170
G01 X83.48675 Y-105.56618
G01 X83.43242 Y-105.54363
G01 X83.26887 Y-105.45460
G01 X83.12399 Y-105.33753
G01 X83.08241 Y-105.29598
G01 X82.96537 Y-105.15112
G01 X82.90433 Y-105.03997
G01 X82.01487 Y-105.03997
G01 X78.97503 Y-108.07982
G01 X78.92291 Y-108.12447
G01 X78.83942 Y-108.17563
G01 X78.74757 Y-108.20951
G01 X78.65087 Y-108.22483
G01 X41.98539 Y-108.22628
G01 X41.91696 Y-108.22097
G01 X41.85928 Y-108.20951
G01 X41.76743 Y-108.17563
G01 X41.68394 Y-108.12447
G01 X41.63182 Y-108.07982
G01 X29.73106 Y-96.17908
G01 X29.64518 Y-96.18609
G01 X29.51823 Y-96.17504
G01 X29.46055 Y-96.16356
G01 X29.36677 Y-96.13511
G01 X29.31244 Y-96.11261
G01 X29.20073 Y-96.05127
G01 X29.07949 Y-95.95178
G01 X28.99755 Y-95.85419
G01 X28.96486 Y-95.80529
G01 X28.90609 Y-95.69224
G01 X28.86055 Y-95.54215
G01 X28.84663 Y-95.41548
G04 P0 ( dwell for no time -- G64 should not smooth over this point )
G00 Z2.00000 ( retract )

G00 X25.52141 Y-98.13059 ( rapid move to begin. )
G01 F30.00000
( Mill infeed pass 1/1 )
G01 Z-0.07500
G04 P0 ( dwell for no time -- G64 should not smooth over this point )
G01 F40.00000
G01 X25.52141 Y-98.13059
G01 X25.54110 Y-97.94540
G01 X25.60368 Y-97.73905
G01 X25.69025 Y-97.57410
G01 X25.72291 Y-97.52520
G01 X25.84216 Y-97.38218
G01 X26.00886 Y-97.24537
G01 X26.19903 Y-97.14372
G01 X26.37683 Y-97.08827
G01 X26.43452 Y-97.07679
G01 X26.59057 Y-97.06143
G01 X26.64940 Y-97.06143
G01 X26.83459 Y-97.08111
G01 X27.01323 Y-97.13379
G01 X27.06756 Y-97.15630
G01 X27.23111 Y-97.24537
G01 X27.39781 Y-97.38218
G01 X27.51706 Y-97.52520
G01 X27.54973 Y-97.57410
G01 X27.63627 Y-97.73905
G01 X27.69885 Y-97.94540
G01 X27.71854 Y-98.13059
G01 X27.71854 Y-98.18939
G01 X27.69885 Y-98.37458
G01 X27.63627 Y-98.58093
G01 X27.54973 Y-98.74585
G01 X27.51706 Y-98.79477
G01 X27.41757 Y-98.91598
G01 X27.37599 Y-98.95759
G01 X27.25476 Y-99.05705
G01 X27.20586 Y-99.08974
G01 X27.06756 Y-99.16366
G01 X27.01323 Y-99.18616
G01 X26.83459 Y-99.23884
G01 X26.64940 Y-99.25855
G01 X26.59057 Y-99.25855
G01 X26.40538 Y-99.23884
G01 X26.22672 Y-99.18616
G01 X26.17241 Y-99.16366
G01 X26.03409 Y-99.08974
G01 X25.98522 Y-99.05705
G01 X25.86398 Y-98.95759
G01 X25.82238 Y-98.91598
G01 X25.72291 Y-98.79477
G01 X25.69025 Y-98.74585
G01 X25.61631 Y-98.60755
G01 X25.59380 Y-98.55322
G01 X25.54110 Y-98.37458
G01 X25.52141 Y-98.18939
G01 X25.52141 Y-95.59059
G01 X25.54110 Y-95.40540
G01 X25.59380 Y-95.22676
G01 X25.61631 Y-95.17243
G01 X25.69025 Y-95.03410
G01 X25.72291 Y-94.98520
G01 X25.84216 Y-94.84218
G01 X25.98522 Y-94.72290
G01 X26.03409 Y-94.69023
G01 X26.17241 Y-94.61630
G01 X26.22672 Y-94.59379
G01 X26.37683 Y-94.54827
G01 X26.43452 Y-94.53679
G01 X26.59057 Y-94.52143
G01 X26.64940 Y-94.52143
G01 X26.83459 Y-94.54111
G01 X27.01323 Y-94.59379
G01 X27.06756 Y-94.61630
G01 X27.20586 Y-94.69023
G01 X27.25476 Y-94.72290
G01 X27.39781 Y-94.84218
G01 X27.51706 Y-94.98520
G01 X27.54973 Y-95.03410
G01 X27.62367 Y-95.17243
G01 X27.64617 Y-95.22676
G01 X27.69885 Y-95.40540
G01 X27.71854 Y-95.59059
G01 X27.71854 Y-95.64939
G01 X27.69885 Y-95.83458
G01 X27.64617 Y-96.01322
G01 X27.62367 Y-96.06755
G01 X27.54973 Y-96.20585
G01 X27.51706 Y-96.25477
G01 X27.39781 Y-96.39780
G01 X27.23111 Y-96.53460
G01 X27.06756 Y-96.62366
G01 X27.01323 Y-96.64616
G01 X26.86314 Y-96.69170
G01 X26.80546 Y-96.70316
G01 X26.64940 Y-96.71855
G01 X26.59057 Y-96.71855
G01 X26.40538 Y-96.69884
G01 X26.22672 Y-96.64616
G01 X26.17241 Y-96.62366
G01 X26.00886 Y-96.53460
G01 X25.86398 Y-96.41759
G01 X25.82238 Y-96.37598
G01 X25.72291 Y-96.25477
G01 X25.69025 Y-96.20585
G01 X25.61631 Y-96.06755
G01 X25.59380 Y-96.01322
G01 X25.54110 Y-95.83458
G01 X25.52141 Y-95.64939
G01 X25.52141 Y-93.05059
G01 X25.54110 Y-92.86540
G01 X25.60368 Y-92.65905
G01 X25.69025 Y-92.49410
G01 X25.72291 Y-92.44520
G01 X25.82238 Y-92.32400
G01 X25.86398 Y-92.28239
G01 X26.00886 Y-92.16537
G01 X26.17241 Y-92.07630
G01 X26.22672 Y-92.05379
G01 X26.37683 Y-92.00827
G01 X26.43452 Y-91.99679
G01 X26.59057 Y-91.98143
G01 X26.64940 Y-91.98143
G01 X26.80546 Y-91.99679
G01 X26.86314 Y-92.00827
G01 X27.01323 Y-92.05379
G01 X27.06756 Y-92.07630
G01 X27.23111 Y-92.16537
G01 X27.37599 Y-92.28239
G01 X27.41757 Y-92.32400
G01 X27.51706 Y-92.44520
G01 X27.54973 Y-92.49410
G01 X27.59563 Y-92.57995
G01 X28.01297 Y-92.57995
G01 X32.97662 Y-87.61631
G01 X33.05238 Y-87.55413
G01 X33.14050 Y-87.50742
G01 X33.80184 Y-86.84814
G01 X33.83214 Y-86.82327
G01 X33.91563 Y-86.77211
G01 X34.00748 Y-86.73823
G01 X34.06516 Y-86.72678
G01 X34.13359 Y-86.72147
G01 X35.02518 Y-86.72147
G01 X36.56272 Y-85.18393
G01 X36.61484 Y-85.13928
G01 X36.66373 Y-85.10661
G01 X36.69833 Y-85.08812
G01 X36.79017 Y-85.05424
G01 X36.84786 Y-85.04278
G01 X36.91628 Y-85.03747
G01 X48.12749 Y-85.03747
G01 X48.19589 Y-85.04278
G01 X48.25357 Y-85.05424
G01 X48.34542 Y-85.08812
G01 X48.42891 Y-85.13928
G01 X48.48103 Y-85.18393
G01 X51.28245 Y-87.98530
G01 X51.74630 Y-87.52141
G01 X51.79842 Y-87.47676
G01 X51.84734 Y-87.44410
G01 X51.90851 Y-87.41303
G01 X52.00233 Y-87.38459
G01 X52.07046 Y-87.37641
G01 X52.60000 Y-87.37498
G01 X52.60000 Y-87.07498
G01 X52.60574 Y-87.01646
G01 X52.62283 Y-86.96018
G01 X52.65052 Y-86.90831
G01 X52.68785 Y-86.86284
G01 X52.73332 Y-86.82556
G01 X52.78519 Y-86.79782
G01 X52.84145 Y-86.78075
G01 X52.90000 Y-86.77499
G01 X54.49999 Y-86.77499
G01 X54.55851 Y-86.78075
G01 X54.61480 Y-86.79782
G01 X54.66667 Y-86.82556
G01 X54.71211 Y-86.86284
G01 X54.74942 Y-86.90831
G01 X54.77716 Y-86.96018
G01 X54.79423 Y-87.01646
G01 X54.79999 Y-87.07498
G01 X54.79999 Y-88.67498
G01 X54.79423 Y-88.73350
G01 X54.77716 Y-88.78979
G01 X54.74942 Y-88.84166
G01 X54.71211 Y-88.88712
G01 X54.66667 Y-88.92443
G01 X54.61480 Y-88.95215
G01 X54.55851 Y-88.96921
G01 X54.49999 Y-88.97498
G01 X52.90000 Y-88.97498
G01 X52.84145 Y-88.96921
G01 X52.78519 Y-88.95215
G01 X52.73332 Y-88.92443
G01 X52.68785 Y-88.88712
G01 X52.65052 Y-88.84166
G01 X52.62283 Y-88.78979
G01 X52.60574 Y-88.73353
G01 X52.60000 Y-88.67498
G01 X52.59997 Y-88.37498
G01 X52.30698 Y-88.37498
G01 X51.98953 Y-88.69241
G01 X52.43604 Y-89.13891
G01 X52.46662 Y-89.17470
G01 X52.52242 Y-89.25509
G01 X52.54986 Y-89.31585
G01 X52.56901 Y-89.38374
G01 X52.58250 Y-89.49248
G01 X52.58250 Y-103.59702
G01 X55.21157 Y-106.22618
G01 X62.90668 Y-106.22615
G01 X62.96124 Y-106.20581
G01 X62.99576 Y-106.19824
G01 X63.10450 Y-106.18470
G01 X75.16937 Y-106.18470
G01 X77.93030 Y-103.42382
G01 X77.93165 Y-103.27665
G01 X77.93553 Y-103.23111
G01 X77.94630 Y-103.18669
G01 X77.98366 Y-103.08369
G01 X78.00825 Y-103.04353
G01 X78.07561 Y-102.95710
G01 X81.92633 Y-99.10643
G01 X81.97845 Y-99.06178
G01 X82.06194 Y-99.01062
G01 X82.15379 Y-98.97674
G01 X82.21147 Y-98.96528
G01 X82.27987 Y-98.95997
G01 X82.90433 Y-98.95997
G01 X82.95023 Y-98.87412
G01 X82.98292 Y-98.82520
G01 X83.08241 Y-98.70399
G01 X83.12399 Y-98.66239
G01 X83.24522 Y-98.56290
G01 X83.29412 Y-98.53023
G01 X83.45904 Y-98.44372
G01 X83.66539 Y-98.38113
G01 X83.85058 Y-98.36142
G01 X83.90938 Y-98.36142
G01 X84.09457 Y-98.38113
G01 X84.30095 Y-98.44372
G01 X84.46587 Y-98.53023
G01 X84.51477 Y-98.56290
G01 X84.63600 Y-98.66239
G01 X84.67758 Y-98.70399
G01 X84.77707 Y-98.82520
G01 X84.80974 Y-98.87412
G01 X84.85563 Y-98.95997
G01 X90.52433 Y-98.95997
G01 X90.57023 Y-98.87412
G01 X90.60292 Y-98.82520
G01 X90.70241 Y-98.70399
G01 X90.74399 Y-98.66239
G01 X90.86522 Y-98.56290
G01 X90.91412 Y-98.53023
G01 X91.05242 Y-98.45632
G01 X91.10675 Y-98.43381
G01 X91.25684 Y-98.38827
G01 X91.31450 Y-98.37682
G01 X91.47058 Y-98.36142
G01 X91.52938 Y-98.36142
G01 X91.68547 Y-98.37682
G01 X91.74315 Y-98.38827
G01 X91.92095 Y-98.44372
G01 X92.08587 Y-98.53023
G01 X92.13477 Y-98.56290
G01 X92.25600 Y-98.66239
G01 X92.29758 Y-98.70399
G01 X92.39707 Y-98.82520
G01 X92.42974 Y-98.87412
G01 X92.50368 Y-99.01243
G01 X92.52618 Y-99.06676
G01 X92.57886 Y-99.24539
G01 X92.59854 Y-99.43059
G01 X92.59854 Y-99.48939
G01 X92.57886 Y-99.67458
G01 X92.51625 Y-99.88093
G01 X92.42974 Y-100.04585
G01 X92.39707 Y-100.09477
G01 X92.29758 Y-100.21598
G01 X92.25600 Y-100.25758
G01 X92.13477 Y-100.35708
G01 X92.08587 Y-100.38974
G01 X91.92095 Y-100.47625
G01 X91.71457 Y-100.53884
G01 X91.52938 Y-100.55855
G01 X91.47058 Y-100.55855
G01 X91.31450 Y-100.54318
G01 X91.25684 Y-100.53170
G01 X91.07904 Y-100.47625
G01 X90.91412 Y-100.38974
G01 X90.86522 Y-100.35708
G01 X90.74399 Y-100.25758
G01 X90.70241 Y-100.21598
G01 X90.60292 Y-100.09477
G01 X90.57023 Y-100.04585
G01 X90.52433 Y-99.96000
G01 X84.85563 Y-99.96000
G01 X84.80974 Y-100.04585
G01 X84.77707 Y-100.09477
G01 X84.67758 Y-100.21598
G01 X84.63600 Y-100.25758
G01 X84.51477 Y-100.35708
G01 X84.46587 Y-100.38974
G01 X84.32754 Y-100.46365
G01 X84.27321 Y-100.48618
G01 X84.09457 Y-100.53884
G01 X83.90938 Y-100.55855
G01 X83.85058 Y-100.55855
G01 X83.69450 Y-100.54318
G01 X83.63684 Y-100.53170
G01 X83.45904 Y-100.47625
G01 X83.29412 Y-100.38974
G01 X83.24522 Y-100.35708
G01 X83.12399 Y-100.25758
G01 X83.08241 Y-100.21598
G01 X82.98292 Y-100.09477
G01 X82.95023 Y-100.04585
G01 X82.90433 Y-99.96000
G01 X82.48698 Y-99.96000
G01 X78.92918 Y-103.51778
G01 X78.92918 Y-103.63205
G01 X78.92387 Y-103.70045
G01 X78.90104 Y-103.79565
G01 X78.86004 Y-103.88458
G01 X78.82738 Y-103.93347
G01 X78.78272 Y-103.98559
G01 X75.73002 Y-107.03832
G01 X75.64361 Y-107.10568
G01 X75.60346 Y-107.13027
G01 X75.50046 Y-107.16763
G01 X75.45471 Y-107.17860
G01 X75.40782 Y-107.18231
G01 X63.26091 Y-107.18475
G01 X63.20633 Y-107.20512
G01 X63.17181 Y-107.21269
G01 X63.06309 Y-107.22618
G01 X55.00449 Y-107.22618
G01 X54.90693 Y-107.21655
G01 X54.84086 Y-107.19803
G01 X54.78653 Y-107.17553
G01 X54.70304 Y-107.12437
G01 X54.65092 Y-107.07972
G01 X51.72893 Y-104.15773
G01 X51.68428 Y-104.10558
G01 X51.63312 Y-104.02212
G01 X51.61062 Y-103.96776
G01 X51.59207 Y-103.90172
G01 X51.58247 Y-103.80419
G01 X51.58247 Y-89.69957
G01 X47.92038 Y-86.03750
G01 X37.12337 Y-86.03750
G01 X35.58583 Y-87.57503
G01 X35.51006 Y-87.63721
G01 X35.45022 Y-87.67084
G01 X35.39589 Y-87.69335
G01 X35.32983 Y-87.71186
G01 X35.26168 Y-87.72004
G01 X34.34067 Y-87.72147
G01 X33.73872 Y-88.32342
G01 X33.68660 Y-88.36807
G01 X33.63770 Y-88.40074
G01 X33.57486 Y-88.43228
G01 X28.57363 Y-93.43352
G01 X28.52151 Y-93.47817
G01 X28.49786 Y-93.49570
G01 X28.43802 Y-93.52933
G01 X28.38369 Y-93.55183
G01 X28.31762 Y-93.57035
G01 X28.28849 Y-93.57467
G01 X28.22009 Y-93.57998
G01 X27.59565 Y-93.57998
G01 X27.54973 Y-93.66585
G01 X27.51706 Y-93.71477
G01 X27.41757 Y-93.83598
G01 X27.37599 Y-93.87759
G01 X27.23111 Y-93.99460
G01 X27.06756 Y-94.08366
G01 X27.01323 Y-94.10616
G01 X26.83459 Y-94.15884
G01 X26.64940 Y-94.17855
G01 X26.59057 Y-94.17855
G01 X26.43452 Y-94.16316
G01 X26.37683 Y-94.15170
G01 X26.22672 Y-94.10616
G01 X26.17241 Y-94.08366
G01 X26.03409 Y-94.00974
G01 X25.98522 Y-93.97705
G01 X25.84216 Y-93.85780
G01 X25.72291 Y-93.71477
G01 X25.69025 Y-93.66585
G01 X25.60368 Y-93.50093
G01 X25.54110 Y-93.29458
G01 X25.52141 Y-93.10939
G01 X25.52141 Y-90.51059
G01 X25.54110 Y-90.32540
G01 X25.60368 Y-90.11905
G01 X25.69025 Y-89.95410
G01 X25.72291 Y-89.90520
G01 X25.84216 Y-89.76218
G01 X26.00886 Y-89.62537
G01 X26.17241 Y-89.53630
G01 X26.22672 Y-89.51379
G01 X26.37683 Y-89.46827
G01 X26.43452 Y-89.45679
G01 X26.59057 Y-89.44143
G01 X26.64940 Y-89.44143
G01 X26.80546 Y-89.45679
G01 X26.86314 Y-89.46827
G01 X27.01323 Y-89.51379
G01 X27.06756 Y-89.53630
G01 X27.23111 Y-89.62537
G01 X27.37599 Y-89.74239
G01 X27.41757 Y-89.78400
G01 X27.51706 Y-89.90520
G01 X27.54973 Y-89.95410
G01 X27.59563 Y-90.03995
G01 X28.01297 Y-90.03995
G01 X33.28662 Y-84.76633
G01 X33.33874 Y-84.72167
G01 X33.42223 Y-84.67052
G01 X33.51408 Y-84.63664
G01 X33.61078 Y-84.62132
G01 X33.82404 Y-84.61987
G01 X33.87979 Y-84.55421
G01 X33.97738 Y-84.47225
G01 X34.02627 Y-84.43958
G01 X34.11273 Y-84.39338
G01 X34.16706 Y-84.37088
G01 X34.26087 Y-84.34240
G01 X34.31855 Y-84.33095
G01 X34.41609 Y-84.32132
G01 X34.47489 Y-84.32132
G01 X34.57245 Y-84.33095
G01 X34.63011 Y-84.34240
G01 X34.72391 Y-84.37088
G01 X34.77824 Y-84.39338
G01 X34.88995 Y-84.45472
G01 X35.01118 Y-84.55421
G01 X35.09312 Y-84.65177
G01 X35.12579 Y-84.70069
G01 X35.17201 Y-84.78713
G01 X35.19452 Y-84.84146
G01 X35.23010 Y-84.96381
G01 X35.24405 Y-85.09048
G01 X35.24405 Y-85.14928
G01 X35.23010 Y-85.27595
G01 X35.18459 Y-85.42604
G01 X35.12579 Y-85.53910
G01 X35.09312 Y-85.58799
G01 X35.03094 Y-85.66376
G01 X34.98936 Y-85.70534
G01 X34.88995 Y-85.78507
G01 X34.77824 Y-85.84641
