( pcb2gcode 2.5.0 )
( Software-independent Gcode )

G94 ( Millimeters per minute feed rate. )
G21 ( Units == Millimeters. )

G90 ( Absolute coordinates. )
G00 S700 ( RPM spindle speed. )
G01 F40.00000 ( Feedrate. )


G53 G00 Z0.00000 (Retract to tool change height)
T1
M5      (Spindle stop.)
G04 P1.00000 (Wait for spindle to stop)
(MSG, Change tool bit to mill diameter 0.50000mm)
M0      (Temporary machine stop.)
M3 ( Spindle on clockwise. )
G04 P1.00000 (Wait for spindle to get up to speed)
G04 P0 ( dwell for no time -- G64 should not smooth over this point )
G00 Z2.00000 ( retract )

G00 X-0.30000 Y-0.50000 ( rapid move to begin. )
G01 F30.00000
( Mill infeed pass 1/2 )
G01 Z-0.07500
G04 P0 ( dwell for no time -- G64 should not smooth over this point )
G01 F40.00000
G01 X-0.30000 Y-0.50000
G01 X-0.30000 Y0.00000
G01 X-0.29423 Y0.05852
G01 X-0.27714 Y0.11478
G01 X-0.24943 Y0.16665
G01 X-0.21212 Y0.21212
G01 X-0.16665 Y0.24943
G01 X-0.11478 Y0.27714
G01 X-0.05852 Y0.29423
G01 X0.00000 Y0.30000
G01 X0.50000 Y0.30000
G01 X0.55529 Y0.29484
G01 X0.60871 Y0.27958
G01 X0.65842 Y0.25474
G01 X0.70267 Y0.22118
G01 X0.73998 Y0.18001
G01 X0.76906 Y0.13266
G01 X0.78890 Y0.08080
G01 X0.79886 Y0.02614
G01 X0.79855 Y-0.02939
G01 X0.78892 Y-0.12695
G01 X0.77747 Y-0.18461
G01 X0.74902 Y-0.27841
G01 X0.72649 Y-0.33274
G01 X0.68029 Y-0.41920
G01 X0.64762 Y-0.46810
G01 X0.58544 Y-0.54386
G01 X0.54386 Y-0.58544
G01 X0.44445 Y-0.66518
G01 X0.30615 Y-0.73909
G01 X0.18461 Y-0.77747
G01 X0.12695 Y-0.78892
G01 X0.02939 Y-0.79855
G01 X-0.02614 Y-0.79886
G01 X-0.08080 Y-0.78890
G01 X-0.13266 Y-0.76906
G01 X-0.18001 Y-0.73998
G01 X-0.22118 Y-0.70267
G01 X-0.25474 Y-0.65842
G01 X-0.27958 Y-0.60871
G01 X-0.29484 Y-0.55529
G01 X-0.30000 Y-0.50000
( Mill infeed pass 2/2 )
G01 Z-0.15000
G04 P0 ( dwell for no time -- G64 should not smooth over this point )
G01 F40.00000
G01 X-0.30000 Y-0.50000
G01 X-0.30000 Y0.00000
G01 X-0.29423 Y0.05852
G01 X-0.27714 Y0.11478
G01 X-0.24943 Y0.16665
G01 X-0.21212 Y0.21212
G01 X-0.16665 Y0.24943
G01 X-0.11478 Y0.27714
G01 X-0.05852 Y0.29423
G01 X0.00000 Y0.30000
G01 X0.50000 Y0.30000
G01 X0.55529 Y0.29484
G01 X0.60871 Y0.27958
G01 X0.65842 Y0.25474
G01 X0.70267 Y0.22118
G01 X0.73998 Y0.18001
G01 X0.76906 Y0.13266
G01 X0.78890 Y0.08080
G01 X0.79886 Y0.02614
G01 X0.79855 Y-0.02939
G01 X0.78892 Y-0.12695
G01 X0.77747 Y-0.18461
G01 X0.74902 Y-0.27841
G01 X0.72649 Y-0.33274
G01 X0.68029 Y-0.41920
G01 X0.64762 Y-0.46810
G01 X0.58544 Y-0.54386
G01 X0.54386 Y-0.58544
G01 X0.44445 Y-0.66518
G01 X0.30615 Y-0.73909
G01 X0.18461 Y-0.77747
G01 X0.12695 Y-0.78892
G01 X0.02939 Y-0.79855
G01 X-0.02614 Y-0.79886
G01 X-0.08080 Y-0.78890
G01 X-0.13266 Y-0.76906
G01 X-0.18001 Y-0.73998
G01 X-0.22118 Y-0.70267
G01 X-0.25474 Y-0.65842
G01 X-0.27958 Y-0.60871
G01 X-0.29484 Y-0.55529
G01 X-0.30000 Y-0.50000
G04 P0 ( dwell for no time -- G64 should not smooth over this point )
G00 Z2.00000 ( retract )

G00 X2.84998 Y-4.84998 ( rapid move to begin. )
G01 F30.00000
( Mill infeed pass 1/2 )
G01 Z-0.07500
G04 P0 ( dwell for no time -- G64 should not smooth over this point )
G01 F40.00000
G01 X2.84998 Y-4.84998
G01 X2.84998 Y-3.14998
G01 X2.85575 Y-3.09146
G01 X2.87282 Y-3.03517
G01 X2.90055 Y-2.98331
G01 X2.93787 Y-2.93787
G01 X2.98331 Y-2.90055
G01 X3.03517 Y-2.87282
G01 X3.09146 Y-2.85575
G01 X3.14998 Y-2.84998
G01 X4.84998 Y-2.84998
G01 X4.90852 Y-2.85575
G01 X4.96479 Y-2.87282
G01 X5.01665 Y-2.90055
G01 X5.06212 Y-2.93787
G01 X5.09943 Y-2.98331
G01 X5.12714 Y-3.03517
G01 X5.14421 Y-3.09146
G01 X5.14998 Y-3.14998
G01 X5.14998 Y-4.84998
G01 X5.14421 Y-4.90852
G01 X5.12714 Y-4.96479
G01 X5.09943 Y-5.01665
G01 X5.06212 Y-5.06212
G01 X5.01665 Y-5.09943
G01 X4.96479 Y-5.12714
G01 X4.90852 Y-5.14421
G01 X4.84998 Y-5.14998
G01 X4.49999 Y-5.14998
G01 X4.49999 Y-5.44297
G01 X5.97418 Y-6.91924
G01 X5.99907 Y-6.94954
G01 X6.05023 Y-7.03303
G01 X6.08411 Y-7.12488
G01 X6.09943 Y-7.22158
G01 X6.10088 Y-17.79900
G01 X6.09557 Y-17.86740
G01 X6.08411 Y-17.92508
G01 X6.06280 Y-17.99034
G01 X6.05023 Y-18.01693
G01 X5.99907 Y-18.10042
G01 X5.95442 Y-18.15254
G01 X4.49999 Y-19.60697
G01 X4.49999 Y-20.02432
G01 X4.58587 Y-20.07024
G01 X4.63476 Y-20.10291
G01 X4.75600 Y-20.20240
G01 X4.79758 Y-20.24398
G01 X4.91460 Y-20.38886
G01 X5.00367 Y-20.55241
G01 X5.02618 Y-20.60677
G01 X5.07169 Y-20.75683
G01 X5.08317 Y-20.81451
G01 X5.09999 Y-20.99998
G01 X5.08317 Y-21.18545
G01 X5.07169 Y-21.24314
G01 X5.02618 Y-21.39323
G01 X5.00367 Y-21.44756
G01 X4.91460 Y-21.61111
G01 X4.79758 Y-21.75599
G01 X4.75600 Y-21.79757
G01 X4.63476 Y-21.89706
G01 X4.58587 Y-21.92975
G01 X4.42095 Y-22.01626
G01 X4.24315 Y-22.07169
G01 X4.18546 Y-22.08317
G01 X4.02938 Y-22.09853
G01 X3.97058 Y-22.09853
G01 X3.81452 Y-22.08317
G01 X3.75684 Y-22.07169
G01 X3.57904 Y-22.01626
G01 X3.41412 Y-21.92975
G01 X3.36522 Y-21.89706
G01 X3.24399 Y-21.79757
G01 X3.20241 Y-21.75599
G01 X3.08536 Y-21.61111
G01 X2.99631 Y-21.44756
G01 X2.97381 Y-21.39323
G01 X2.92826 Y-21.24314
G01 X2.91681 Y-21.18545
G01 X2.90144 Y-21.02940
G01 X2.90144 Y-20.97057
G01 X2.91681 Y-20.81451
G01 X2.92826 Y-20.75683
G01 X2.97381 Y-20.60677
G01 X2.99631 Y-20.55241
G01 X3.08536 Y-20.38886
G01 X3.20241 Y-20.24398
G01 X3.24399 Y-20.20240
G01 X3.36522 Y-20.10291
G01 X3.41412 Y-20.07024
G01 X3.49997 Y-20.02434
G01 X3.50142 Y-19.37047
G01 X3.51673 Y-19.27377
G01 X3.52811 Y-19.23626
G01 X3.53804 Y-19.20852
G01 X3.56911 Y-19.14733
G01 X3.60177 Y-19.09844
G01 X3.64642 Y-19.04632
G01 X5.10085 Y-17.59189
G01 X5.10085 Y-7.45808
G01 X3.64642 Y-6.00362
G01 X3.60177 Y-5.95150
G01 X3.55062 Y-5.86801
G01 X3.52811 Y-5.81368
G01 X3.50528 Y-5.71848
G01 X3.49997 Y-5.65008
G01 X3.49997 Y-5.15000
G01 X3.14998 Y-5.14998
G01 X3.09146 Y-5.14421
G01 X3.03517 Y-5.12714
G01 X2.98331 Y-5.09943
G01 X2.93787 Y-5.06212
G01 X2.90055 Y-5.01665
G01 X2.87282 Y-4.96479
G01 X2.85575 Y-4.90852
G01 X2.84998 Y-4.84998
( Mill infeed pass 2/2 )
G01 Z-0.15000
G04 P0 ( dwell for no time -- G64 should not smooth over this point )
G01 F40.00000
G01 X2.84998 Y-4.84998
G01 X2.84998 Y-3.14998
G01 X2.85575 Y-3.09146
G01 X2.87282 Y-3.03517
G01 X2.90055 Y-2.98331
G01 X2.93787 Y-2.93787
G01 X2.98331 Y-2.90055
G01 X3.03517 Y-2.87282
G01 X3.09146 Y-2.85575
G01 X3.14998 Y-2.84998
G01 X4.84998 Y-2.84998
G01 X4.90852 Y-2.85575
G01 X4.96479 Y-2.87282
G01 X5.01665 Y-2.90055
G01 X5.06212 Y-2.93787
G01 X5.09943 Y-2.98331
G01 X5.12714 Y-3.03517
G01 X5.14421 Y-3.09146
G01 X5.14998 Y-3.14998
G01 X5.14998 Y-4.84998
G01 X5.14421 Y-4.90852
G01 X5.12714 Y-4.96479
G01 X5.09943 Y-5.01665
G01 X5.06212 Y-5.06212
G01 X5.01665 Y-5.09943
G01 X4.96479 Y-5.12714
G01 X4.90852 Y-5.14421
G01 X4.84998 Y-5.14998
G01 X4.49999 Y-5.14998
G01 X4.49999 Y-5.44297
G01 X5.97418 Y-6.91924
G01 X5.99907 Y-6.94954
G01 X6.05023 Y-7.03303
G01 X6.08411 Y-7.12488
G01 X6.09943 Y-7.22158
G01 X6.10088 Y-17.79900
G01 X6.09557 Y-17.86740
G01 X6.08411 Y-17.92508
G01 X6.06280 Y-17.99034
G01 X6.05023 Y-18.01693
G01 X5.99907 Y-18.10042
G01 X5.95442 Y-18.15254
G01 X4.49999 Y-19.60697
G01 X4.49999 Y-20.02432
G01 X4.58587 Y-20.07024
G01 X4.63476 Y-20.10291
G01 X4.75600 Y-20.20240
G01 X4.79758 Y-20.24398
G01 X4.91460 Y-20.38886
G01 X5.00367 Y-20.55241
G01 X5.02618 Y-20.60677
G01 X5.07169 Y-20.75683
G01 X5.08317 Y-20.81451
G01 X5.09999 Y-20.99998
G01 X5.08317 Y-21.18545
G01 X5.07169 Y-21.24314
G01 X5.02618 Y-21.39323
G01 X5.00367 Y-21.44756
G01 X4.91460 Y-21.61111
G01 X4.79758 Y-21.75599
G01 X4.75600 Y-21.79757
G01 X4.63476 Y-21.89706
G01 X4.58587 Y-21.92975
G01 X4.42095 Y-22.01626
G01 X4.24315 Y-22.07169
G01 X4.18546 Y-22.08317
G01 X4.02938 Y-22.09853
G01 X3.97058 Y-22.09853
G01 X3.81452 Y-22.08317
G01 X3.75684 Y-22.07169
G01 X3.57904 Y-22.01626
G01 X3.41412 Y-21.92975
G01 X3.36522 Y-21.89706
G01 X3.24399 Y-21.79757
G01 X3.20241 Y-21.75599
G01 X3.08536 Y-21.61111
G01 X2.99631 Y-21.44756
G01 X2.97381 Y-21.39323
G01 X2.92826 Y-21.24314
G01 X2.91681 Y-21.18545
G01 X2.90144 Y-21.02940
G01 X2.90144 Y-20.97057
G01 X2.91681 Y-20.81451
G01 X2.92826 Y-20.75683
G01 X2.97381 Y-20.60677
G01 X2.99631 Y-20.55241
G01 X3.08536 Y-20.38886
G01 X3.20241 Y-20.24398
G01 X3.24399 Y-20.20240
G01 X3.36522 Y-20.10291
G01 X3.41412 Y-20.07024
G01 X3.49997 Y-20.02434
G01 X3.50142 Y-19.37047
G01 X3.51673 Y-19.27377
G01 X3.52811 Y-19.23626
G01 X3.53804 Y-19.20852
G01 X3.56911 Y-19.14733
G01 X3.60177 Y-19.09844
G01 X3.64642 Y-19.04632
G01 X5.10085 Y-17.59189
G01 X5.10085 Y-7.45808
G01 X3.64642 Y-6.00362
G01 X3.60177 Y-5.95150
G01 X3.55062 Y-5.86801
G01 X3.52811 Y-5.81368
G01 X3.50528 Y-5.71848
G01 X3.49997 Y-5.65008
G01 X3.49997 Y-5.15000
G01 X3.14998 Y-5.14998
G01 X3.09146 Y-5.14421
G01 X3.03517 Y-5.12714
G01 X2.98331 Y-5.09943
G01 X2.93787 Y-5.06212
G01 X2.90055 Y-5.01665
G01 X2.87282 Y-4.96479
G01 X2.85575 Y-4.90852
G01 X2.84998 Y-4.84998
G04 P0 ( dwell for no time -- G64 should not smooth over this point )
G00 Z2.00000 ( retract )

G00 X5.39143 Y-4.02938 ( rapid move to begin. )
G01 F30.00000
( Mill infeed pass 1/2 )
G01 Z-0.07500
G04 P0 ( dwell for no time -- G64 should not smooth over this point )
G01 F40.00000
G01 X5.39143 Y-4.02938
G01 X5.39143 Y-3.97058
G01 X5.41208 Y-3.77563
G01 X5.46760 Y-3.58762
G01 X5.49011 Y-3.53329
G01 X5.56867 Y-3.38633
G01 X5.60133 Y-3.33743
G01 X5.72681 Y-3.18681
G01 X5.87743 Y-3.06133
G01 X5.92633 Y-3.02867
G01 X6.07329 Y-2.95011
G01 X6.12762 Y-2.92760
G01 X6.31563 Y-2.87208
G01 X6.51058 Y-2.85143
G01 X6.56938 Y-2.85143
G01 X6.76435 Y-2.87208
G01 X6.98007 Y-2.93754
G01 X7.15363 Y-3.02867
G01 X7.20255 Y-3.06133
G01 X7.33135 Y-3.16705
G01 X7.37293 Y-3.20858
G01 X7.49618 Y-3.36108
G01 X7.58985 Y-3.53329
G01 X7.61235 Y-3.58762
G01 X7.66074 Y-3.74708
G01 X7.67222 Y-3.80477
G01 X7.68998 Y-3.99999
G01 X7.67222 Y-4.19522
G01 X7.66074 Y-4.25290
G01 X7.61235 Y-4.41236
G01 X7.58985 Y-4.46669
G01 X7.49618 Y-4.63890
G01 X7.37293 Y-4.79135
G01 X7.33135 Y-4.83293
G01 X7.17890 Y-4.95617
G01 X7.03999 Y-5.03207
G01 X7.03999 Y-5.44297
G01 X7.48764 Y-5.89062
G01 X7.53229 Y-5.94274
G01 X7.56496 Y-5.99163
G01 X7.59602 Y-6.05282
G01 X7.61733 Y-6.11807
G01 X7.63265 Y-6.21477
G01 X7.63410 Y-15.24627
G01 X9.66991 Y-17.28208
G01 X9.75578 Y-17.27510
G01 X9.88273 Y-17.28615
G01 X9.94042 Y-17.29760
G01 X10.03422 Y-17.32608
G01 X10.08855 Y-17.34858
G01 X10.17499 Y-17.39478
G01 X10.22388 Y-17.42745
G01 X10.32147 Y-17.50941
G01 X10.40343 Y-17.60698
G01 X10.43610 Y-17.65590
G01 X10.49490 Y-17.76895
G01 X10.53325 Y-17.89046
G01 X10.54473 Y-17.94815
G01 X10.55578 Y-18.07510
G01 X10.54473 Y-18.20205
G01 X10.53325 Y-18.25973
G01 X10.49490 Y-18.38124
G01 X10.43610 Y-18.49430
G01 X10.40343 Y-18.54319
G01 X10.34125 Y-18.61896
G01 X10.29965 Y-18.66054
G01 X10.20023 Y-18.74027
G01 X10.08855 Y-18.80161
G01 X10.03422 Y-18.82412
G01 X9.94042 Y-18.85257
G01 X9.88273 Y-18.86405
G01 X9.78520 Y-18.87365
G01 X9.72637 Y-18.87365
G01 X9.62884 Y-18.86405
G01 X9.57115 Y-18.85257
G01 X9.47735 Y-18.82412
G01 X9.42302 Y-18.80161
G01 X9.33658 Y-18.75541
G01 X9.28769 Y-18.72272
G01 X9.19010 Y-18.64078
G01 X9.10816 Y-18.54319
G01 X9.07547 Y-18.49430
G01 X9.02927 Y-18.40784
G01 X9.00676 Y-18.35351
G01 X8.97832 Y-18.25973
G01 X8.96683 Y-18.20205
G01 X8.95579 Y-18.07510
G01 X8.96280 Y-17.98922
G01 X6.78053 Y-15.80693
G01 X6.73588 Y-15.75481
G01 X6.70321 Y-15.70591
G01 X6.66222 Y-15.61699
G01 X6.63938 Y-15.52179
G01 X6.63407 Y-15.45339
G01 X6.63407 Y-6.45127
G01 X6.18642 Y-6.00362
G01 X6.14177 Y-5.95150
G01 X6.09062 Y-5.86801
G01 X6.07804 Y-5.84142
G01 X6.05673 Y-5.77616
G01 X6.04142 Y-5.67947
G01 X6.03997 Y-5.03204
G01 X5.90108 Y-4.95617
G01 X5.74863 Y-4.83293
G01 X5.70705 Y-4.79135
G01 X5.58381 Y-4.63890
G01 X5.49011 Y-4.46669
G01 X5.46760 Y-4.41236
G01 X5.41208 Y-4.22435
G01 X5.39143 Y-4.02938
( Mill infeed pass 2/2 )
G01 Z-0.15000
G04 P0 ( dwell for no time -- G64 should not smooth over this point )
G01 F40.00000
G01 X5.39143 Y-4.02938
G01 X5.39143 Y-3.97058
G01 X5.41208 Y-3.77563
G01 X5.46760 Y-3.58762
G01 X5.49011 Y-3.53329
G01 X5.56867 Y-3.38633
G01 X5.60133 Y-3.33743
G01 X5.72681 Y-3.18681
G01 X5.87743 Y-3.06133
G01 X5.92633 Y-3.02867
G01 X6.07329 Y-2.95011
G01 X6.12762 Y-2.92760
G01 X6.31563 Y-2.87208
G01 X6.51058 Y-2.85143
G01 X6.56938 Y-2.85143
G01 X6.76435 Y-2.87208
G01 X6.98007 Y-2.93754
G01 X7.15363 Y-3.02867
G01 X7.20255 Y-3.06133
G01 X7.33135 Y-3.16705
G01 X7.37293 Y-3.20858
G01 X7.49618 Y-3.36108
G01 X7.58985 Y-3.53329
G01 X7.61235 Y-3.58762
G01 X7.66074 Y-3.74708
G01 X7.67222 Y-3.80477
G01 X7.68998 Y-3.99999
G01 X7.67222 Y-4.19522
G01 X7.66074 Y-4.25290
G01 X7.61235 Y-4.41236
G01 X7.58985 Y-4.46669
G01 X7.49618 Y-4.63890
G01 X7.37293 Y-4.79135
G01 X7.33135 Y-4.83293
G01 X7.17890 Y-4.95617
G01 X7.03999 Y-5.03207
G01 X7.03999 Y-5.44297
G01 X7.48764 Y-5.89062
G01 X7.53229 Y-5.94274
G01 X7.56496 Y-5.99163
G01 X7.59602 Y-6.05282
G01 X7.61733 Y-6.11807
G01 X7.63265 Y-6.21477
G01 X7.63410 Y-15.24627
G01 X9.66991 Y-17.28208
G01 X9.75578 Y-17.27510
G01 X9.88273 Y-17.28615
G01 X9.94042 Y-17.29760
G01 X10.03422 Y-17.32608
G01 X10.08855 Y-17.34858
G01 X10.17499 Y-17.39478
G01 X10.22388 Y-17.42745
G01 X10.32147 Y-17.50941
G01 X10.40343 Y-17.60698
G01 X10.43610 Y-17.65590
G01 X10.49490 Y-17.76895
G01 X10.53325 Y-17.89046
G01 X10.54473 Y-17.94815
G01 X10.55578 Y-18.07510
G01 X10.54473 Y-18.20205
G01 X10.53325 Y-18.25973
G01 X10.49490 Y-18.38124
G01 X10.43610 Y-18.49430
G01 X10.40343 Y-18.54319
G01 X10.34125 Y-18.61896
G01 X10.29965 Y-18.66054
G01 X10.20023 Y-18.74027
G01 X10.08855 Y-18.80161
G01 X10.03422 Y-18.82412
G01 X9.94042 Y-18.85257
G01 X9.88273 Y-18.86405
G01 X9.78520 Y-18.87365
G01 X9.72637 Y-18.87365
G01 X9.62884 Y-18.86405
G01 X9.57115 Y-18.85257
G01 X9.47735 Y-18.82412
G01 X9.42302 Y-18.80161
G01 X9.33658 Y-18.75541
G01 X9.28769 Y-18.72272
G01 X9.19010 Y-18.64078
G01 X9.10816 Y-18.54319
G01 X9.07547 Y-18.49430
G01 X9.02927 Y-18.40784
G01 X9.00676 Y-18.35351
G01 X8.97832 Y-18.25973
G01 X8.96683 Y-18.20205
G01 X8.95579 Y-18.07510
G01 X8.96280 Y-17.98922
G01 X6.78053 Y-15.80693
G01 X6.73588 Y-15.75481
G01 X6.70321 Y-15.70591
G01 X6.66222 Y-15.61699
G01 X6.63938 Y-15.52179
G01 X6.63407 Y-15.45339
G01 X6.63407 Y-6.45127
G01 X6.18642 Y-6.00362
G01 X6.14177 Y-5.95150
G01 X6.09062 Y-5.86801
G01 X6.07804 Y-5.84142
G01 X6.05673 Y-5.77616
G01 X6.04142 Y-5.67947
G01 X6.03997 Y-5.03204
G01 X5.90108 Y-4.95617
G01 X5.74863 Y-4.83293
G01 X5.70705 Y-4.79135
G01 X5.58381 Y-4.63890
G01 X5.49011 Y-4.46669
G01 X5.46760 Y-4.41236
G01 X5.41208 Y-4.22435
G01 X5.39143 Y-4.02938
G04 P0 ( dwell for no time -- G64 should not smooth over this point )
G00 Z2.00000 ( retract )

G00 X7.93143 Y-4.02938 ( rapid move to begin. )
G01 F30.00000
( Mill infeed pass 1/2 )
G01 Z-0.07500
G04 P0 ( dwell for no time -- G64 should not smooth over this point )
G01 F40.00000
G01 X7.93143 Y-4.02938
G01 X7.93143 Y-3.97058
G01 X7.95208 Y-3.77563
G01 X8.00760 Y-3.58762
G01 X8.03011 Y-3.53329
G01 X8.12381 Y-3.36108
G01 X8.24705 Y-3.20858
G01 X8.28863 Y-3.16705
G01 X8.44108 Y-3.04381
G01 X8.61329 Y-2.95011
G01 X8.66762 Y-2.92760
G01 X8.85563 Y-2.87208
G01 X9.05058 Y-2.85143
G01 X9.10938 Y-2.85143
G01 X9.30435 Y-2.87208
G01 X9.52007 Y-2.93754
G01 X9.69363 Y-3.02867
G01 X9.74255 Y-3.06133
G01 X9.87135 Y-3.16705
G01 X9.91293 Y-3.20858
G01 X10.03618 Y-3.36108
G01 X10.14245 Y-3.55991
G01 X10.20074 Y-3.74708
G01 X10.21222 Y-3.80477
G01 X10.22855 Y-3.97058
G01 X10.22855 Y-4.02938
G01 X10.20788 Y-4.22435
G01 X10.15235 Y-4.41236
G01 X10.12985 Y-4.46669
G01 X10.03618 Y-4.63890
G01 X9.91293 Y-4.79135
G01 X9.87135 Y-4.83293
G01 X9.71890 Y-4.95617
G01 X9.54669 Y-5.04985
G01 X9.49236 Y-5.07235
G01 X9.30435 Y-5.12788
G01 X9.10938 Y-5.14855
G01 X9.05058 Y-5.14855
G01 X8.85563 Y-5.12788
G01 X8.63991 Y-5.06245
G01 X8.46633 Y-4.97131
G01 X8.41743 Y-4.93865
G01 X8.28863 Y-4.83293
G01 X8.24705 Y-4.79135
G01 X8.12381 Y-4.63890
G01 X8.03011 Y-4.46669
G01 X8.00760 Y-4.41236
G01 X7.95208 Y-4.22435
G01 X7.93143 Y-4.02938
( Mill infeed pass 2/2 )
G01 Z-0.15000
G04 P0 ( dwell for no time -- G64 should not smooth over this point )
G01 F40.00000
G01 X7.93143 Y-4.02938
G01 X7.93143 Y-3.97058
G01 X7.95208 Y-3.77563
G01 X8.00760 Y-3.58762
G01 X8.03011 Y-3.53329
G01 X8.12381 Y-3.36108
G01 X8.24705 Y-3.20858
G01 X8.28863 Y-3.16705
G01 X8.44108 Y-3.04381
G01 X8.61329 Y-2.95011
G01 X8.66762 Y-2.92760
G01 X8.85563 Y-2.87208
G01 X9.05058 Y-2.85143
G01 X9.10938 Y-2.85143
G01 X9.30435 Y-2.87208
G01 X9.52007 Y-2.93754
G01 X9.69363 Y-3.02867
G01 X9.74255 Y-3.06133
G01 X9.87135 Y-3.16705
G01 X9.91293 Y-3.20858
G01 X10.03618 Y-3.36108
G01 X10.14245 Y-3.55991
G01 X10.20074 Y-3.74708
G01 X10.21222 Y-3.80477
G01 X10.22855 Y-3.97058
G01 X10.22855 Y-4.02938
G01 X10.20788 Y-4.22435
G01 X10.15235 Y-4.41236
G01 X10.12985 Y-4.46669
G01 X10.03618 Y-4.63890
G01 X9.91293 Y-4.79135
G01 X9.87135 Y-4.83293
G01 X9.71890 Y-4.95617
G01 X9.54669 Y-5.04985
G01 X9.49236 Y-5.07235
G01 X9.30435 Y-5.12788
G01 X9.10938 Y-5.14855
G01 X9.05058 Y-5.14855
G01 X8.85563 Y-5.12788
G01 X8.63991 Y-5.06245
G01 X8.46633 Y-4.97131
G01 X8.41743 Y-4.93865
G01 X8.28863 Y-4.83293
G01 X8.24705 Y-4.79135
G01 X8.12381 Y-4.63890
G01 X8.03011 Y-4.46669
G01 X8.00760 Y-4.41236
G01 X7.95208 Y-4.22435
G01 X7.93143 Y-4.02938
G04 P0 ( dwell for no time -- G64 should not smooth over this point )
G00 Z2.00000 ( retract )

G00 X10.47143 Y-4.02938 ( rapid move to begin. )
G01 F30.00000
( Mill infeed pass 1/2 )
G01 Z-0.07500
G04 P0 ( dwell for no time -- G64 should not smooth over this point )
G01 F40.00000
G01 X10.47143 Y-4.02938
G01 X10.47143 Y-3.97058
G01 X10.49208 Y-3.77563
G01 X10.54760 Y-3.58762
G01 X10.57011 Y-3.53329
G01 X10.66381 Y-3.36108
G01 X10.78705 Y-3.20858
G01 X10.82863 Y-3.16705
G01 X10.98108 Y-3.04381
G01 X11.15329 Y-2.95011
G01 X11.20762 Y-2.92760
G01 X11.39563 Y-2.87208
G01 X11.59058 Y-2.85143
G01 X11.64938 Y-2.85143
G01 X11.84435 Y-2.87208
G01 X12.06007 Y-2.93754
G01 X12.23363 Y-3.02867
G01 X12.28255 Y-3.06133
G01 X12.41135 Y-3.16705
G01 X12.45293 Y-3.20858
G01 X12.57617 Y-3.36108
G01 X12.68245 Y-3.55991
G01 X12.74074 Y-3.74708
G01 X12.75220 Y-3.80477
G01 X12.76855 Y-3.97058
G01 X12.76855 Y-4.02938
G01 X12.74788 Y-4.22435
G01 X12.69235 Y-4.41236
G01 X12.66985 Y-4.46669
G01 X12.57617 Y-4.63890
G01 X12.45293 Y-4.79135
G01 X12.41135 Y-4.83293
G01 X12.25890 Y-4.95617
G01 X12.08669 Y-5.04985
G01 X12.03236 Y-5.07235
G01 X11.84435 Y-5.12788
G01 X11.64938 Y-5.14855
G01 X11.59058 Y-5.14855
G01 X11.39563 Y-5.12788
G01 X11.17991 Y-5.06245
G01 X11.00633 Y-4.97131
G01 X10.95743 Y-4.93865
G01 X10.82863 Y-4.83293
G01 X10.78705 Y-4.79135
G01 X10.66381 Y-4.63890
G01 X10.57011 Y-4.46669
G01 X10.54760 Y-4.41236
G01 X10.49208 Y-4.22435
G01 X10.47143 Y-4.02938
( Mill infeed pass 2/2 )
G01 Z-0.15000
G04 P0 ( dwell for no time -- G64 should not smooth over this point )
G01 F40.00000
G01 X10.47143 Y-4.02938
G01 X10.47143 Y-3.97058
G01 X10.49208 Y-3.77563
G01 X10.54760 Y-3.58762
G01 X10.57011 Y-3.53329
G01 X10.66381 Y-3.36108
G01 X10.78705 Y-3.20858
G01 X10.82863 Y-3.16705
G01 X10.98108 Y-3.04381
G01 X11.15329 Y-2.95011
G01 X11.20762 Y-2.92760
G01 X11.39563 Y-2.87208
G01 X11.59058 Y-2.85143
G01 X11.64938 Y-2.85143
G01 X11.84435 Y-2.87208
G01 X12.06007 Y-2.93754
G01 X12.23363 Y-3.02867
G01 X12.28255 Y-3.06133
G01 X12.41135 Y-3.16705
G01 X12.45293 Y-3.20858
G01 X12.57617 Y-3.36108
G01 X12.68245 Y-3.55991
G01 X12.74074 Y-3.74708
G01 X12.75220 Y-3.80477
G01 X12.76855 Y-3.97058
G01 X12.76855 Y-4.02938
G01 X12.74788 Y-4.22435
G01 X12.69235 Y-4.41236
G01 X12.66985 Y-4.46669
G01 X12.57617 Y-4.63890
G01 X12.45293 Y-4.79135
G01 X12.41135 Y-4.83293
G01 X12.25890 Y-4.95617
G01 X12.08669 Y-5.04985
G01 X12.03236 Y-5.07235
G01 X11.84435 Y-5.12788
G01 X11.64938 Y-5.14855
G01 X11.59058 Y-5.14855
G01 X11.39563 Y-5.12788
G01 X11.17991 Y-5.06245
G01 X11.00633 Y-4.97131
G01 X10.95743 Y-4.93865
G01 X10.82863 Y-4.83293
G01 X10.78705 Y-4.79135
G01 X10.66381 Y-4.63890
G01 X10.57011 Y-4.46669
G01 X10.54760 Y-4.41236
G01 X10.49208 Y-4.22435
G01 X10.47143 Y-4.02938
G04 P0 ( dwell for no time -- G64 should not smooth over this point )
G00 Z2.00000 ( retract )

G00 X13.00998 Y-3.99999 ( rapid move to begin. )
G01 F30.00000
( Mill infeed pass 1/2 )
G01 Z-0.07500
G04 P0 ( dwell for no time -- G64 should not smooth over this point )
G01 F40.00000
G01 X13.00998 Y-3.99999
G01 X13.03208 Y-3.77563
G01 X13.08760 Y-3.58762
G01 X13.11011 Y-3.53329
G01 X13.18867 Y-3.38633
G01 X13.22133 Y-3.33743
G01 X13.34681 Y-3.18681
G01 X13.49743 Y-3.06133
G01 X13.54633 Y-3.02867
G01 X13.71991 Y-2.93754
G01 X13.90708 Y-2.87924
G01 X13.96477 Y-2.86776
G01 X14.15999 Y-2.84998
G01 X14.35522 Y-2.86776
G01 X14.41290 Y-2.87924
G01 X14.60007 Y-2.93754
G01 X14.77363 Y-3.02867
G01 X14.82255 Y-3.06133
G01 X14.97315 Y-3.18681
G01 X15.09865 Y-3.33743
G01 X15.13131 Y-3.38633
G01 X15.20985 Y-3.53329
G01 X15.23235 Y-3.58762
G01 X15.28788 Y-3.77563
G01 X15.30998 Y-3.99999
G01 X15.28788 Y-4.22435
G01 X15.23235 Y-4.41236
G01 X15.20985 Y-4.46669
G01 X15.13131 Y-4.61363
G01 X15.09865 Y-4.66255
G01 X14.97315 Y-4.81315
G01 X14.82255 Y-4.93865
G01 X14.77363 Y-4.97131
G01 X14.60007 Y-5.06245
G01 X14.41290 Y-5.12074
G01 X14.35522 Y-5.13222
G01 X14.15999 Y-5.14998
G01 X13.96477 Y-5.13222
G01 X13.90708 Y-5.12074
G01 X13.71991 Y-5.06245
G01 X13.54633 Y-4.97131
G01 X13.49743 Y-4.93865
G01 X13.34681 Y-4.81315
G01 X13.22133 Y-4.66255
G01 X13.18867 Y-4.61363
G01 X13.11011 Y-4.46669
G01 X13.08760 Y-4.41236
G01 X13.03208 Y-4.22435
G01 X13.00998 Y-3.99999
( Mill infeed pass 2/2 )
G01 Z-0.15000
G04 P0 ( dwell for no time -- G64 should not smooth over this point )
G01 F40.00000
G01 X13.00998 Y-3.99999
G01 X13.03208 Y-3.77563
G01 X13.08760 Y-3.58762
G01 X13.11011 Y-3.53329
G01 X13.18867 Y-3.38633
G01 X13.22133 Y-3.33743
G01 X13.34681 Y-3.18681
G01 X13.49743 Y-3.06133
G01 X13.54633 Y-3.02867
G01 X13.71991 Y-2.93754
G01 X13.90708 Y-2.87924
G01 X13.96477 Y-2.86776
G01 X14.15999 Y-2.84998
G01 X14.35522 Y-2.86776
G01 X14.41290 Y-2.87924
G01 X14.60007 Y-2.93754
G01 X14.77363 Y-3.02867
G01 X14.82255 Y-3.06133
G01 X14.97315 Y-3.18681
G01 X15.09865 Y-3.33743
G01 X15.13131 Y-3.38633
G01 X15.20985 Y-3.53329
G01 X15.23235 Y-3.58762
G01 X15.28788 Y-3.77563
G01 X15.30998 Y-3.99999
G01 X15.28788 Y-4.22435
G01 X15.23235 Y-4.41236
G01 X15.20985 Y-4.46669
G01 X15.13131 Y-4.61363
G01 X15.09865 Y-4.66255
G01 X14.97315 Y-4.81315
G01 X14.82255 Y-4.93865
G01 X14.77363 Y-4.97131
G01 X14.60007 Y-5.06245
G01 X14.41290 Y-5.12074
G01 X14.35522 Y-5.13222
G01 X14.15999 Y-5.14998
G01 X13.96477 Y-5.13222
G01 X13.90708 Y-5.12074
G01 X13.71991 Y-5.06245
G01 X13.54633 Y-4.97131
G01 X13.49743 Y-4.93865
G01 X13.34681 Y-4.81315
G01 X13.22133 Y-4.66255
G01 X13.18867 Y-4.61363
G01 X13.11011 Y-4.46669
G01 X13.08760 Y-4.41236
G01 X13.03208 Y-4.22435
G01 X13.00998 Y-3.99999
G04 P0 ( dwell for no time -- G64 should not smooth over this point )
G00 Z2.00000 ( retract )

G00 X15.54998 Y-3.99999 ( rapid move to begin. )
G01 F30.00000
( Mill infeed pass 1/2 )
G01 Z-0.07500
G04 P0 ( dwell for no time -- G64 should not smooth over this point )
G01 F40.00000
G01 X15.54998 Y-3.99999
G01 X15.57208 Y-3.77563
G01 X15.62760 Y-3.58762
G01 X15.65011 Y-3.53329
G01 X15.72867 Y-3.38633
G01 X15.76133 Y-3.33743
G01 X15.88681 Y-3.18681
G01 X16.03743 Y-3.06133
G01 X16.08633 Y-3.02867
G01 X16.25991 Y-2.93754
G01 X16.44708 Y-2.87924
G01 X16.50477 Y-2.86776
G01 X16.69999 Y-2.84998
G01 X16.89522 Y-2.86776
G01 X16.95290 Y-2.87924
G01 X17.14007 Y-2.93754
G01 X17.31363 Y-3.02867
G01 X17.36255 Y-3.06133
G01 X17.51315 Y-3.18681
G01 X17.63865 Y-3.33743
G01 X17.67131 Y-3.38633
G01 X17.74985 Y-3.53329
G01 X17.77235 Y-3.58762
G01 X17.82788 Y-3.77563
G01 X17.84998 Y-3.99999
G01 X17.82788 Y-4.22435
G01 X17.77235 Y-4.41236
G01 X17.74985 Y-4.46669
G01 X17.67131 Y-4.61363
G01 X17.63865 Y-4.66255
G01 X17.51315 Y-4.81315
G01 X17.36255 Y-4.93865
G01 X17.31363 Y-4.97131
G01 X17.14007 Y-5.06245
G01 X16.95290 Y-5.12074
G01 X16.89522 Y-5.13222
G01 X16.71328 Y-5.14934
G01 X16.67058 Y-5.14855
G01 X16.50477 Y-5.13222
G01 X16.44708 Y-5.12074
G01 X16.25991 Y-5.06245
G01 X16.08633 Y-4.97131
G01 X16.03743 Y-4.93865
G01 X15.88681 Y-4.81315
G01 X15.76133 Y-4.66255
G01 X15.72867 Y-4.61363
G01 X15.65011 Y-4.46669
G01 X15.62760 Y-4.41236
G01 X15.57208 Y-4.22435
G01 X15.54998 Y-3.99999
( Mill infeed pass 2/2 )
G01 Z-0.15000
G04 P0 ( dwell for no time -- G64 should not smooth over this point )
G01 F40.00000
G01 X15.54998 Y-3.99999
G01 X15.57208 Y-3.77563
G01 X15.62760 Y-3.58762
G01 X15.65011 Y-3.53329
G01 X15.72867 Y-3.38633
G01 X15.76133 Y-3.33743
G01 X15.88681 Y-3.18681
G01 X16.03743 Y-3.06133
G01 X16.08633 Y-3.02867
G01 X16.25991 Y-2.93754
G01 X16.44708 Y-2.87924
G01 X16.50477 Y-2.86776
G01 X16.69999 Y-2.84998
G01 X16.89522 Y-2.86776
G01 X16.95290 Y-2.87924
G01 X17.14007 Y-2.93754
G01 X17.31363 Y-3.02867
G01 X17.36255 Y-3.06133
G01 X17.51315 Y-3.18681
G01 X17.63865 Y-3.33743
G01 X17.67131 Y-3.38633
G01 X17.74985 Y-3.53329
G01 X17.77235 Y-3.58762
G01 X17.82788 Y-3.77563
G01 X17.84998 Y-3.99999
G01 X17.82788 Y-4.22435
G01 X17.77235 Y-4.41236
G01 X17.74985 Y-4.46669
G01 X17.67131 Y-4.61363
G01 X17.63865 Y-4.66255
G01 X17.51315 Y-4.81315
G01 X17.36255 Y-4.93865
G01 X17.31363 Y-4.97131
G01 X17.14007 Y-5.06245
G01 X16.95290 Y-5.12074
G01 X16.89522 Y-5.13222
G01 X16.71328 Y-5.14934
G01 X16.67058 Y-5.14855
G01 X16.50477 Y-5.13222
G01 X16.44708 Y-5.12074
G01 X16.25991 Y-5.06245
G01 X16.08633 Y-4.97131
G01 X16.03743 Y-4.93865
G01 X15.88681 Y-4.81315
G01 X15.76133 Y-4.66255
G01 X15.72867 Y-4.61363
G01 X15.65011 Y-4.46669
G01 X15.62760 Y-4.41236
G01 X15.57208 Y-4.22435
G01 X15.54998 Y-3.99999
G04 P0 ( dwell for no time -- G64 should not smooth over this point )
G00 Z2.00000 ( retract )

G00 X18.08998 Y-3.99999 ( rapid move to begin. )
G01 F30.00000
( Mill infeed pass 1/2 )
G01 Z-0.07500
G04 P0 ( dwell for no time -- G64 should not smooth over this point )
G01 F40.00000
G01 X18.08998 Y-3.99999
G01 X18.11208 Y-3.77563
G01 X18.16760 Y-3.58762
G01 X18.19011 Y-3.53329
G01 X18.26867 Y-3.38633
G01 X18.30133 Y-3.33743
G01 X18.42681 Y-3.18681
G01 X18.57743 Y-3.06133
G01 X18.62633 Y-3.02867
G01 X18.79991 Y-2.93754
G01 X18.98708 Y-2.87924
G01 X19.04477 Y-2.86776
G01 X19.23999 Y-2.84998
G01 X19.43522 Y-2.86776
G01 X19.49290 Y-2.87924
G01 X19.68007 Y-2.93754
G01 X19.85363 Y-3.02867
G01 X19.90255 Y-3.06133
G01 X20.05315 Y-3.18681
G01 X20.17865 Y-3.33743
G01 X20.21131 Y-3.38633
G01 X20.28985 Y-3.53329
G01 X20.31235 Y-3.58762
G01 X20.36788 Y-3.77563
G01 X20.38998 Y-3.99999
G01 X20.36788 Y-4.22435
G01 X20.31235 Y-4.41236
G01 X20.28985 Y-4.46669
G01 X20.21131 Y-4.61363
G01 X20.17865 Y-4.66255
G01 X20.05315 Y-4.81315
G01 X19.90255 Y-4.93865
G01 X19.85363 Y-4.97131
G01 X19.68007 Y-5.06245
G01 X19.49290 Y-5.12074
G01 X19.43522 Y-5.13222
G01 X19.25323 Y-5.14934
G01 X19.21058 Y-5.14855
G01 X19.04477 Y-5.13222
G01 X18.98708 Y-5.12074
G01 X18.79991 Y-5.06245
G01 X18.62633 Y-4.97131
G01 X18.57743 Y-4.93865
G01 X18.42681 Y-4.81315
G01 X18.30133 Y-4.66255
G01 X18.26867 Y-4.61363
G01 X18.19011 Y-4.46669
G01 X18.16760 Y-4.41236
G01 X18.11208 Y-4.22435
G01 X18.08998 Y-3.99999
( Mill infeed pass 2/2 )
G01 Z-0.15000
G04 P0 ( dwell for no time -- G64 should not smooth over this point )
G01 F40.00000
G01 X18.08998 Y-3.99999
G01 X18.11208 Y-3.77563
G01 X18.16760 Y-3.58762
G01 X18.19011 Y-3.53329
G01 X18.26867 Y-3.38633
G01 X18.30133 Y-3.33743
G01 X18.42681 Y-3.18681
G01 X18.57743 Y-3.06133
G01 X18.62633 Y-3.02867
G01 X18.79991 Y-2.93754
G01 X18.98708 Y-2.87924
G01 X19.04477 Y-2.86776
G01 X19.23999 Y-2.84998
G01 X19.43522 Y-2.86776
G01 X19.49290 Y-2.87924
G01 X19.68007 Y-2.93754
G01 X19.85363 Y-3.02867
G01 X19.90255 Y-3.06133
G01 X20.05315 Y-3.18681
G01 X20.17865 Y-3.33743
G01 X20.21131 Y-3.38633
G01 X20.28985 Y-3.53329
G01 X20.31235 Y-3.58762
G01 X20.36788 Y-3.77563
G01 X20.38998 Y-3.99999
G01 X20.36788 Y-4.22435
G01 X20.31235 Y-4.41236
G01 X20.28985 Y-4.46669
G01 X20.21131 Y-4.61363
G01 X20.17865 Y-4.66255
G01 X20.05315 Y-4.81315
G01 X19.90255 Y-4.93865
G01 X19.85363 Y-4.97131
G01 X19.68007 Y-5.06245
G01 X19.49290 Y-5.12074
G01 X19.43522 Y-5.13222
G01 X19.25323 Y-5.14934
G01 X19.21058 Y-5.14855
G01 X19.04477 Y-5.13222
G01 X18.98708 Y-5.12074
G01 X18.79991 Y-5.06245
G01 X18.62633 Y-4.97131
G01 X18.57743 Y-4.93865
G01 X18.42681 Y-4.81315
G01 X18.30133 Y-4.66255
G01 X18.26867 Y-4.61363
G01 X18.19011 Y-4.46669
G01 X18.16760 Y-4.41236
G01 X18.11208 Y-4.22435
G01 X18.08998 Y-3.99999
G04 P0 ( dwell for no time -- G64 should not smooth over this point )
G00 Z2.00000 ( retract )

G00 X8.89998 Y-13.37998 ( rapid move to begin. )
G01 F30.00000
( Mill infeed pass 1/2 )
G01 Z-0.07500
G04 P0 ( dwell for no time -- G64 should not smooth over this point )
G01 F40.00000
G01 X8.89998 Y-13.37998
G01 X8.91680 Y-13.19449
G01 X8.92828 Y-13.13683
G01 X8.97379 Y-12.98677
G01 X8.99630 Y-12.93241
G01 X9.08538 Y-12.76886
G01 X9.20239 Y-12.62398
G01 X9.24397 Y-12.58240
G01 X9.36521 Y-12.48291
G01 X9.41410 Y-12.45024
G01 X9.57903 Y-12.36373
G01 X9.78538 Y-12.30112
G01 X9.97059 Y-12.28143
G01 X10.02939 Y-12.28143
G01 X10.21458 Y-12.30112
G01 X10.39322 Y-12.35380
G01 X10.44755 Y-12.37630
G01 X10.61110 Y-12.46538
G01 X10.75599 Y-12.58240
G01 X10.79757 Y-12.62398
G01 X10.91461 Y-12.76886
G01 X11.00366 Y-12.93241
G01 X11.02617 Y-12.98677
G01 X11.07171 Y-13.13683
G01 X11.08316 Y-13.19449
G01 X11.09998 Y-13.37998
G01 X11.08316 Y-13.56545
G01 X11.07171 Y-13.62314
G01 X11.02617 Y-13.77323
G01 X11.00366 Y-13.82756
G01 X10.91461 Y-13.99111
G01 X10.77780 Y-14.15781
G01 X10.63475 Y-14.27706
G01 X10.58586 Y-14.30975
G01 X10.42093 Y-14.39626
G01 X10.24313 Y-14.45169
G01 X10.18548 Y-14.46317
G01 X9.99998 Y-14.47998
G01 X9.81451 Y-14.46317
G01 X9.75683 Y-14.45169
G01 X9.60676 Y-14.40617
G01 X9.55243 Y-14.38366
G01 X9.38886 Y-14.29461
G01 X9.24397 Y-14.17757
G01 X9.20239 Y-14.13599
G01 X9.08538 Y-13.99111
G01 X8.99630 Y-13.82756
G01 X8.97379 Y-13.77323
G01 X8.92828 Y-13.62314
G01 X8.91680 Y-13.56545
G01 X8.89998 Y-13.37998
( Mill infeed pass 2/2 )
G01 Z-0.15000
G04 P0 ( dwell for no time -- G64 should not smooth over this point )
G01 F40.00000
G01 X8.89998 Y-13.37998
G01 X8.91680 Y-13.19449
G01 X8.92828 Y-13.13683
G01 X8.97379 Y-12.98677
G01 X8.99630 Y-12.93241
G01 X9.08538 Y-12.76886
G01 X9.20239 Y-12.62398
G01 X9.24397 Y-12.58240
G01 X9.36521 Y-12.48291
G01 X9.41410 Y-12.45024
G01 X9.57903 Y-12.36373
G01 X9.78538 Y-12.30112
G01 X9.97059 Y-12.28143
G01 X10.02939 Y-12.28143
G01 X10.21458 Y-12.30112
G01 X10.39322 Y-12.35380
G01 X10.44755 Y-12.37630
G01 X10.61110 Y-12.46538
G01 X10.75599 Y-12.58240
G01 X10.79757 Y-12.62398
G01 X10.91461 Y-12.76886
G01 X11.00366 Y-12.93241
G01 X11.02617 Y-12.98677
G01 X11.07171 Y-13.13683
G01 X11.08316 Y-13.19449
G01 X11.09998 Y-13.37998
G01 X11.08316 Y-13.56545
G01 X11.07171 Y-13.62314
G01 X11.02617 Y-13.77323
G01 X11.00366 Y-13.82756
G01 X10.91461 Y-13.99111
G01 X10.77780 Y-14.15781
G01 X10.63475 Y-14.27706
G01 X10.58586 Y-14.30975
G01 X10.42093 Y-14.39626
G01 X10.24313 Y-14.45169
G01 X10.18548 Y-14.46317
G01 X9.99998 Y-14.47998
G01 X9.81451 Y-14.46317
G01 X9.75683 Y-14.45169
G01 X9.60676 Y-14.40617
G01 X9.55243 Y-14.38366
G01 X9.38886 Y-14.29461
G01 X9.24397 Y-14.17757
G01 X9.20239 Y-14.13599
G01 X9.08538 Y-13.99111
G01 X8.99630 Y-13.82756
G01 X8.97379 Y-13.77323
G01 X8.92828 Y-13.62314
G01 X8.91680 Y-13.56545
G01 X8.89998 Y-13.37998
G04 P0 ( dwell for no time -- G64 should not smooth over this point )
G00 Z2.00000 ( retract )

G00 X7.73100 Y-14.96530 ( rapid move to begin. )
G01 F30.00000
( Mill infeed pass 1/2 )
G01 Z-0.07500
G04 P0 ( dwell for no time -- G64 should not smooth over this point )
G01 F40.00000
G01 X7.73100 Y-14.96530
G01 X7.74205 Y-14.83832
G01 X7.75350 Y-14.78067
G01 X7.78198 Y-14.68686
G01 X7.80448 Y-14.63253
G01 X7.85068 Y-14.54607
G01 X7.87735 Y-14.50614
G01 X7.87735 Y-12.66657
G01 X7.88266 Y-12.59817
G01 X7.90550 Y-12.50297
G01 X7.92800 Y-12.44864
G01 X7.97916 Y-12.36515
G01 X8.02381 Y-12.31303
G01 X15.04023 Y-5.29661
G01 X15.09235 Y-5.25196
G01 X15.17584 Y-5.20080
G01 X15.23017 Y-5.17830
G01 X15.32537 Y-5.15546
G01 X15.39380 Y-5.15015
G01 X19.92267 Y-5.15015
G01 X20.69663 Y-4.37619
G01 X20.65208 Y-4.22435
G01 X20.62998 Y-3.99999
G01 X20.65208 Y-3.77563
G01 X20.70760 Y-3.58762
G01 X20.73011 Y-3.53329
G01 X20.80867 Y-3.38633
G01 X20.84133 Y-3.33743
G01 X20.94705 Y-3.20858
G01 X20.98863 Y-3.16705
G01 X21.11743 Y-3.06133
G01 X21.16633 Y-3.02867
G01 X21.33991 Y-2.93754
G01 X21.52708 Y-2.87924
G01 X21.58477 Y-2.86776
G01 X21.77999 Y-2.84998
G01 X21.97522 Y-2.86776
G01 X22.03290 Y-2.87924
G01 X22.22007 Y-2.93754
G01 X22.39363 Y-3.02867
G01 X22.44255 Y-3.06133
G01 X22.59315 Y-3.18681
G01 X22.71865 Y-3.33743
G01 X22.75131 Y-3.38633
G01 X22.82985 Y-3.53329
G01 X22.85235 Y-3.58762
G01 X22.90074 Y-3.74708
G01 X22.91222 Y-3.80477
G01 X22.92855 Y-3.97058
G01 X22.92855 Y-4.02938
G01 X22.90788 Y-4.22435
G01 X22.85235 Y-4.41236
G01 X22.82985 Y-4.46669
G01 X22.75131 Y-4.61363
G01 X22.71865 Y-4.66255
G01 X22.61293 Y-4.79135
G01 X22.57135 Y-4.83293
G01 X22.44255 Y-4.93865
G01 X22.39363 Y-4.97131
G01 X22.22007 Y-5.06245
G01 X22.03290 Y-5.12074
G01 X21.97522 Y-5.13222
G01 X21.80938 Y-5.14855
G01 X21.75058 Y-5.14855
G01 X21.58477 Y-5.13222
G01 X21.52708 Y-5.12074
G01 X21.40374 Y-5.08333
G01 X20.48332 Y-6.00372
G01 X20.43120 Y-6.04838
G01 X20.38231 Y-6.08104
G01 X20.29338 Y-6.12203
G01 X20.19818 Y-6.14487
G01 X20.12975 Y-6.15018
G01 X15.60088 Y-6.15018
G01 X8.87738 Y-12.87369
G01 X8.87735 Y-14.24605
G01 X8.97545 Y-14.30012
G01 X9.07486 Y-14.37983
G01 X9.11644 Y-14.42141
G01 X9.17862 Y-14.49718
G01 X9.21131 Y-14.54607
G01 X9.25751 Y-14.63253
G01 X9.28002 Y-14.68686
G01 X9.30846 Y-14.78067
G01 X9.31995 Y-14.83832
G01 X9.32955 Y-14.93589
G01 X9.32955 Y-14.99469
G01 X9.31995 Y-15.09225
G01 X9.30846 Y-15.14991
G01 X9.27009 Y-15.27145
G01 X9.21131 Y-15.38450
G01 X9.17862 Y-15.43340
G01 X9.11644 Y-15.50916
G01 X9.07486 Y-15.55074
G01 X8.99909 Y-15.61292
G01 X8.95020 Y-15.64559
G01 X8.86374 Y-15.69182
G01 X8.80941 Y-15.71432
G01 X8.71563 Y-15.74277
G01 X8.65795 Y-15.75422
G01 X8.56038 Y-15.76385
G01 X8.50158 Y-15.76385
G01 X8.40405 Y-15.75422
G01 X8.34636 Y-15.74277
G01 X8.25256 Y-15.71432
G01 X8.19823 Y-15.69182
G01 X8.11179 Y-15.64559
G01 X8.06287 Y-15.61292
G01 X7.96531 Y-15.53098
G01 X7.88335 Y-15.43340
G01 X7.85068 Y-15.38450
G01 X7.80448 Y-15.29804
G01 X7.78198 Y-15.24371
G01 X7.75350 Y-15.14991
G01 X7.74205 Y-15.09225
G01 X7.73100 Y-14.96530
( Mill infeed pass 2/2 )
G01 Z-0.15000
G04 P0 ( dwell for no time -- G64 should not smooth over this point )
G01 F40.00000
G01 X7.73100 Y-14.96530
G01 X7.74205 Y-14.83832
G01 X7.75350 Y-14.78067
G01 X7.78198 Y-14.68686
G01 X7.80448 Y-14.63253
G01 X7.85068 Y-14.54607
G01 X7.87735 Y-14.50614
G01 X7.87735 Y-12.66657
G01 X7.88266 Y-12.59817
G01 X7.90550 Y-12.50297
G01 X7.92800 Y-12.44864
G01 X7.97916 Y-12.36515
G01 X8.02381 Y-12.31303
G01 X15.04023 Y-5.29661
G01 X15.09235 Y-5.25196
G01 X15.17584 Y-5.20080
G01 X15.23017 Y-5.17830
G01 X15.32537 Y-5.15546
G01 X15.39380 Y-5.15015
G01 X19.92267 Y-5.15015
G01 X20.69663 Y-4.37619
G01 X20.65208 Y-4.22435
G01 X20.62998 Y-3.99999
G01 X20.65208 Y-3.77563
G01 X20.70760 Y-3.58762
G01 X20.73011 Y-3.53329
G01 X20.80867 Y-3.38633
G01 X20.84133 Y-3.33743
G01 X20.94705 Y-3.20858
G01 X20.98863 Y-3.16705
G01 X21.11743 Y-3.06133
G01 X21.16633 Y-3.02867
G01 X21.33991 Y-2.93754
G01 X21.52708 Y-2.87924
G01 X21.58477 Y-2.86776
G01 X21.77999 Y-2.84998
G01 X21.97522 Y-2.86776
G01 X22.03290 Y-2.87924
G01 X22.22007 Y-2.93754
G01 X22.39363 Y-3.02867
G01 X22.44255 Y-3.06133
G01 X22.59315 Y-3.18681
G01 X22.71865 Y-3.33743
G01 X22.75131 Y-3.38633
G01 X22.82985 Y-3.53329
G01 X22.85235 Y-3.58762
G01 X22.90074 Y-3.74708
G01 X22.91222 Y-3.80477
G01 X22.92855 Y-3.97058
G01 X22.92855 Y-4.02938
G01 X22.90788 Y-4.22435
G01 X22.85235 Y-4.41236
G01 X22.82985 Y-4.46669
G01 X22.75131 Y-4.61363
G01 X22.71865 Y-4.66255
G01 X22.61293 Y-4.79135
G01 X22.57135 Y-4.83293
G01 X22.44255 Y-4.93865
G01 X22.39363 Y-4.97131
G01 X22.22007 Y-5.06245
G01 X22.03290 Y-5.12074
G01 X21.97522 Y-5.13222
G01 X21.80938 Y-5.14855
G01 X21.75058 Y-5.14855
G01 X21.58477 Y-5.13222
G01 X21.52708 Y-5.12074
G01 X21.40374 Y-5.08333
G01 X20.48332 Y-6.00372
G01 X20.43120 Y-6.04838
G01 X20.38231 Y-6.08104
G01 X20.29338 Y-6.12203
G01 X20.19818 Y-6.14487
G01 X20.12975 Y-6.15018
G01 X15.60088 Y-6.15018
G01 X8.87738 Y-12.87369
G01 X8.87735 Y-14.24605
G01 X8.97545 Y-14.30012
G01 X9.07486 Y-14.37983
G01 X9.11644 Y-14.42141
G01 X9.17862 Y-14.49718
G01 X9.21131 Y-14.54607
G01 X9.25751 Y-14.63253
G01 X9.28002 Y-14.68686
G01 X9.30846 Y-14.78067
G01 X9.31995 Y-14.83832
G01 X9.32955 Y-14.93589
G01 X9.32955 Y-14.99469
G01 X9.31995 Y-15.09225
G01 X9.30846 Y-15.14991
G01 X9.27009 Y-15.27145
G01 X9.21131 Y-15.38450
G01 X9.17862 Y-15.43340
G01 X9.11644 Y-15.50916
G01 X9.07486 Y-15.55074
G01 X8.99909 Y-15.61292
G01 X8.95020 Y-15.64559
G01 X8.86374 Y-15.69182
G01 X8.80941 Y-15.71432
G01 X8.71563 Y-15.74277
G01 X8.65795 Y-15.75422
G01 X8.56038 Y-15.76385
G01 X8.50158 Y-15.76385
G01 X8.40405 Y-15.75422
G01 X8.34636 Y-15.74277
G01 X8.25256 Y-15.71432
G01 X8.19823 Y-15.69182
G01 X8.11179 Y-15.64559
G01 X8.06287 Y-15.61292
G01 X7.96531 Y-15.53098
G01 X7.88335 Y-15.43340
G01 X7.85068 Y-15.38450
G01 X7.80448 Y-15.29804
G01 X7.78198 Y-15.24371
G01 X7.75350 Y-15.14991
G01 X7.74205 Y-15.09225
G01 X7.73100 Y-14.96530
G04 P0 ( dwell for no time -- G64 should not smooth over this point )
G00 Z2.00000 ( retract )

G00 X11.43998 Y-13.37998 ( rapid move to begin. )
G01 F30.00000
( Mill infeed pass 1/2 )
G01 Z-0.07500
G04 P0 ( dwell for no time -- G64 should not smooth over this point )
G01 F40.00000
G01 X11.43998 Y-13.37998
G01 X11.45680 Y-13.19449
G01 X11.46828 Y-13.13683
G01 X11.51379 Y-12.98677
G01 X11.53630 Y-12.93241
G01 X11.62538 Y-12.76886
G01 X11.74239 Y-12.62398
G01 X11.78397 Y-12.58240
G01 X11.90521 Y-12.48291
G01 X11.95410 Y-12.45024
G01 X12.11903 Y-12.36373
G01 X12.32538 Y-12.30112
G01 X12.51059 Y-12.28143
G01 X12.56939 Y-12.28143
G01 X12.72548 Y-12.29680
G01 X12.78311 Y-12.30828
G01 X12.93322 Y-12.35380
G01 X12.98755 Y-12.37630
G01 X13.15110 Y-12.46538
G01 X13.29599 Y-12.58240
G01 X13.33757 Y-12.62398
G01 X13.43706 Y-12.74521
G01 X13.46975 Y-12.79408
G01 X13.55626 Y-12.95903
G01 X13.61884 Y-13.16535
G01 X13.63856 Y-13.35057
G01 X13.63856 Y-13.40940
G01 X13.61884 Y-13.59459
G01 X13.58344 Y-13.71630
G01 X14.35468 Y-14.48755
G01 X35.09538 Y-14.48755
G01 X44.13997 Y-5.44297
G01 X44.13997 Y-5.03204
G01 X44.00108 Y-4.95617
G01 X43.84863 Y-4.83293
G01 X43.80705 Y-4.79135
G01 X43.70134 Y-4.66255
G01 X43.66867 Y-4.61363
G01 X43.59011 Y-4.46669
G01 X43.56760 Y-4.41236
G01 X43.51208 Y-4.22435
G01 X43.49143 Y-4.02938
G01 X43.49143 Y-3.97058
G01 X43.50776 Y-3.80477
G01 X43.51924 Y-3.74708
G01 X43.56760 Y-3.58762
G01 X43.59011 Y-3.53329
G01 X43.68381 Y-3.36108
G01 X43.80705 Y-3.20858
G01 X43.84863 Y-3.16705
G01 X44.00108 Y-3.04381
G01 X44.17329 Y-2.95011
G01 X44.22762 Y-2.92760
G01 X44.41563 Y-2.87208
G01 X44.61058 Y-2.85143
G01 X44.66938 Y-2.85143
G01 X44.83522 Y-2.86776
G01 X44.89290 Y-2.87924
G01 X45.05236 Y-2.92760
G01 X45.10669 Y-2.95011
G01 X45.25363 Y-3.02867
G01 X45.30255 Y-3.06133
G01 X45.43135 Y-3.16705
G01 X45.47293 Y-3.20858
G01 X45.57865 Y-3.33743
G01 X45.61131 Y-3.38633
G01 X45.68985 Y-3.53329
G01 X45.71235 Y-3.58762
G01 X45.76074 Y-3.74708
G01 X45.77222 Y-3.80477
G01 X45.78855 Y-3.97058
G01 X45.78855 Y-4.02938
G01 X45.77222 Y-4.19522
G01 X45.76074 Y-4.25290
G01 X45.71235 Y-4.41236
G01 X45.68985 Y-4.46669
G01 X45.59618 Y-4.63890
G01 X45.47293 Y-4.79135
G01 X45.43135 Y-4.83293
G01 X45.27890 Y-4.95617
G01 X45.13997 Y-5.03207
G01 X45.13999 Y-5.65005
G01 X45.13628 Y-5.69699
G01 X45.11551 Y-5.80459
G01 X45.09750 Y-5.84807
G01 X45.05122 Y-5.93430
G01 X45.00951 Y-5.98632
G01 X35.65604 Y-15.34112
G01 X35.60392 Y-15.38577
G01 X35.55502 Y-15.41844
G01 X35.49383 Y-15.44950
G01 X35.42858 Y-15.47081
G01 X35.37090 Y-15.48227
G01 X35.30249 Y-15.48757
G01 X14.11818 Y-15.48613
G01 X14.02149 Y-15.47081
G01 X13.92964 Y-15.43693
G01 X13.84615 Y-15.38577
G01 X13.81585 Y-15.36088
G01 X12.87633 Y-14.42344
G01 X12.78311 Y-14.45169
G01 X12.72548 Y-14.46317
G01 X12.56939 Y-14.47853
G01 X12.51059 Y-14.47853
G01 X12.35451 Y-14.46317
G01 X12.29683 Y-14.45169
G01 X12.14676 Y-14.40617
G01 X12.09243 Y-14.38366
G01 X11.95410 Y-14.30975
G01 X11.90521 Y-14.27706
G01 X11.78397 Y-14.17757
G01 X11.74239 Y-14.13599
G01 X11.62538 Y-13.99111
G01 X11.53630 Y-13.82756
G01 X11.51379 Y-13.77323
G01 X11.46828 Y-13.62314
G01 X11.45680 Y-13.56545
G01 X11.43998 Y-13.37998
( Mill infeed pass 2/2 )
G01 Z-0.15000
G04 P0 ( dwell for no time -- G64 should not smooth over this point )
G01 F40.00000
G01 X11.43998 Y-13.37998
G01 X11.45680 Y-13.19449
G01 X11.46828 Y-13.13683
G01 X11.51379 Y-12.98677
G01 X11.53630 Y-12.93241
G01 X11.62538 Y-12.76886
G01 X11.74239 Y-12.62398
G01 X11.78397 Y-12.58240
G01 X11.90521 Y-12.48291
G01 X11.95410 Y-12.45024
G01 X12.11903 Y-12.36373
G01 X12.32538 Y-12.30112
G01 X12.51059 Y-12.28143
G01 X12.56939 Y-12.28143
G01 X12.72548 Y-12.29680
G01 X12.78311 Y-12.30828
G01 X12.93322 Y-12.35380
G01 X12.98755 Y-12.37630
G01 X13.15110 Y-12.46538
G01 X13.29599 Y-12.58240
G01 X13.33757 Y-12.62398
G01 X13.43706 Y-12.74521
G01 X13.46975 Y-12.79408
G01 X13.55626 Y-12.95903
G01 X13.61884 Y-13.16535
G01 X13.63856 Y-13.35057
G01 X13.63856 Y-13.40940
G01 X13.61884 Y-13.59459
G01 X13.58344 Y-13.71630
G01 X14.35468 Y-14.48755
G01 X35.09538 Y-14.48755
G01 X44.13997 Y-5.44297
G01 X44.13997 Y-5.03204
G01 X44.00108 Y-4.95617
G01 X43.84863 Y-4.83293
G01 X43.80705 Y-4.79135
G01 X43.70134 Y-4.66255
G01 X43.66867 Y-4.61363
G01 X43.59011 Y-4.46669
G01 X43.56760 Y-4.41236
G01 X43.51208 Y-4.22435
G01 X43.49143 Y-4.02938
G01 X43.49143 Y-3.97058
G01 X43.50776 Y-3.80477
G01 X43.51924 Y-3.74708
G01 X43.56760 Y-3.58762
G01 X43.59011 Y-3.53329
G01 X43.68381 Y-3.36108
G01 X43.80705 Y-3.20858
G01 X43.84863 Y-3.16705
G01 X44.00108 Y-3.04381
G01 X44.17329 Y-2.95011
G01 X44.22762 Y-2.92760
G01 X44.41563 Y-2.87208
G01 X44.61058 Y-2.85143
G01 X44.66938 Y-2.85143
G01 X44.83522 Y-2.86776
G01 X44.89290 Y-2.87924
G01 X45.05236 Y-2.92760
G01 X45.10669 Y-2.95011
G01 X45.25363 Y-3.02867
G01 X45.30255 Y-3.06133
G01 X45.43135 Y-3.16705
G01 X45.47293 Y-3.20858
G01 X45.57865 Y-3.33743
G01 X45.61131 Y-3.38633
G01 X45.68985 Y-3.53329
G01 X45.71235 Y-3.58762
G01 X45.76074 Y-3.74708
G01 X45.77222 Y-3.80477
G01 X45.78855 Y-3.97058
G01 X45.78855 Y-4.02938
G01 X45.77222 Y-4.19522
G01 X45.76074 Y-4.25290
G01 X45.71235 Y-4.41236
G01 X45.68985 Y-4.46669
G01 X45.59618 Y-4.63890
G01 X45.47293 Y-4.79135
G01 X45.43135 Y-4.83293
G01 X45.27890 Y-4.95617
G01 X45.13997 Y-5.03207
G01 X45.13999 Y-5.65005
G01 X45.13628 Y-5.69699
G01 X45.11551 Y-5.80459
G01 X45.09750 Y-5.84807
G01 X45.05122 Y-5.93430
G01 X45.00951 Y-5.98632
G01 X35.65604 Y-15.34112
G01 X35.60392 Y-15.38577
G01 X35.55502 Y-15.41844
G01 X35.49383 Y-15.44950
G01 X35.42858 Y-15.47081
G01 X35.37090 Y-15.48227
G01 X35.30249 Y-15.48757
G01 X14.11818 Y-15.48613
G01 X14.02149 Y-15.47081
G01 X13.92964 Y-15.43693
G01 X13.84615 Y-15.38577
G01 X13.81585 Y-15.36088
G01 X12.87633 Y-14.42344
G01 X12.78311 Y-14.45169
G01 X12.72548 Y-14.46317
G01 X12.56939 Y-14.47853
G01 X12.51059 Y-14.47853
G01 X12.35451 Y-14.46317
G01 X12.29683 Y-14.45169
G01 X12.14676 Y-14.40617
G01 X12.09243 Y-14.38366
G01 X11.95410 Y-14.30975
G01 X11.90521 Y-14.27706
G01 X11.78397 Y-14.17757
G01 X11.74239 Y-14.13599
G01 X11.62538 Y-13.99111
G01 X11.53630 Y-13.82756
G01 X11.51379 Y-13.77323
G01 X11.46828 Y-13.62314
G01 X11.45680 Y-13.56545
G01 X11.43998 Y-13.37998
G04 P0 ( dwell for no time -- G64 should not smooth over this point )
G00 Z2.00000 ( retract )

G00 X13.97998 Y-13.37998 ( rapid move to begin. )
G01 F30.00000
( Mill infeed pass 1/2 )
G01 Z-0.07500
G04 P0 ( dwell for no time -- G64 should not smooth over this point )
G01 F40.00000
G01 X13.97998 Y-13.37998
G01 X13.99680 Y-13.19449
G01 X14.00828 Y-13.13683
G01 X14.06373 Y-12.95903
G01 X14.15024 Y-12.79408
G01 X14.18290 Y-12.74521
G01 X14.30218 Y-12.60216
G01 X14.44521 Y-12.48291
G01 X14.49410 Y-12.45024
G01 X14.57998 Y-12.40434
G01 X14.57996 Y-11.77988
G01 X14.58336 Y-11.72505
G01 X14.59710 Y-11.65588
G01 X14.63446 Y-11.55289
G01 X14.69583 Y-11.46211
G01 X14.72641 Y-11.42632
G01 X19.45742 Y-6.69531
G01 X19.50954 Y-6.65066
G01 X19.55843 Y-6.61797
G01 X19.61962 Y-6.58693
G01 X19.68487 Y-6.56562
G01 X19.78157 Y-6.55030
G01 X21.06397 Y-6.54883
G01 X23.23663 Y-4.37619
G01 X23.19208 Y-4.22435
G01 X23.16998 Y-3.99999
G01 X23.19208 Y-3.77563
G01 X23.24760 Y-3.58762
G01 X23.27011 Y-3.53329
G01 X23.34867 Y-3.38633
G01 X23.38133 Y-3.33743
G01 X23.48705 Y-3.20858
G01 X23.52863 Y-3.16705
G01 X23.65743 Y-3.06133
G01 X23.70633 Y-3.02867
G01 X23.87991 Y-2.93754
G01 X24.06708 Y-2.87924
G01 X24.12477 Y-2.86776
G01 X24.31999 Y-2.84998
G01 X24.51522 Y-2.86776
G01 X24.57290 Y-2.87924
G01 X24.73236 Y-2.92760
G01 X24.78669 Y-2.95011
G01 X24.93363 Y-3.02867
G01 X24.98255 Y-3.06133
G01 X25.13315 Y-3.18681
G01 X25.25865 Y-3.33743
G01 X25.29131 Y-3.38633
G01 X25.36985 Y-3.53329
G01 X25.39235 Y-3.58762
G01 X25.44785 Y-3.77563
G01 X25.46998 Y-3.99999
G01 X25.44785 Y-4.22435
G01 X25.39235 Y-4.41236
G01 X25.36985 Y-4.46669
G01 X25.29131 Y-4.61363
G01 X25.25865 Y-4.66255
G01 X25.13315 Y-4.81315
G01 X24.98255 Y-4.93865
G01 X24.93363 Y-4.97131
G01 X24.76007 Y-5.06245
G01 X24.57290 Y-5.12074
G01 X24.51522 Y-5.13222
G01 X24.34938 Y-5.14855
G01 X24.29058 Y-5.14855
G01 X24.12477 Y-5.13222
G01 X24.06708 Y-5.12074
G01 X23.94374 Y-5.08333
G01 X21.62462 Y-7.40242
G01 X21.57250 Y-7.44708
G01 X21.52360 Y-7.47974
G01 X21.48901 Y-7.49823
G01 X21.39716 Y-7.53212
G01 X21.33948 Y-7.54357
G01 X21.27108 Y-7.54888
G01 X20.01807 Y-7.54888
G01 X15.57998 Y-11.98697
G01 X15.57998 Y-12.40432
G01 X15.69110 Y-12.46538
G01 X15.83599 Y-12.58240
G01 X15.87757 Y-12.62398
G01 X15.97706 Y-12.74521
G01 X16.00975 Y-12.79408
G01 X16.09626 Y-12.95903
G01 X16.15171 Y-13.13683
G01 X16.16316 Y-13.19449
G01 X16.17856 Y-13.35057
G01 X16.17856 Y-13.40940
G01 X16.16316 Y-13.56545
G01 X16.15171 Y-13.62314
G01 X16.10617 Y-13.77323
G01 X16.08366 Y-13.82756
G01 X16.00975 Y-13.96586
G01 X15.97706 Y-14.01475
G01 X15.85780 Y-14.15781
G01 X15.71475 Y-14.27706
G01 X15.66586 Y-14.30975
G01 X15.52755 Y-14.38366
G01 X15.47322 Y-14.40617
G01 X15.32313 Y-14.45169
G01 X15.26548 Y-14.46317
G01 X15.07998 Y-14.47998
G01 X14.89451 Y-14.46317
G01 X14.83683 Y-14.45169
G01 X14.68676 Y-14.40617
G01 X14.63243 Y-14.38366
G01 X14.46886 Y-14.29461
G01 X14.32397 Y-14.17757
G01 X14.28239 Y-14.13599
G01 X14.18290 Y-14.01475
G01 X14.15024 Y-13.96586
G01 X14.06373 Y-13.80094
G01 X14.00828 Y-13.62314
G01 X13.99680 Y-13.56545
G01 X13.97998 Y-13.37998
( Mill infeed pass 2/2 )
G01 Z-0.15000
G04 P0 ( dwell for no time -- G64 should not smooth over this point )
G01 F40.00000
G01 X13.97998 Y-13.37998
G01 X13.99680 Y-13.19449
G01 X14.00828 Y-13.13683
G01 X14.06373 Y-12.95903
G01 X14.15024 Y-12.79408
G01 X14.18290 Y-12.74521
G01 X14.30218 Y-12.60216
G01 X14.44521 Y-12.48291
G01 X14.49410 Y-12.45024
G01 X14.57998 Y-12.40434
G01 X14.57996 Y-11.77988
G01 X14.58336 Y-11.72505
G01 X14.59710 Y-11.65588
G01 X14.63446 Y-11.55289
G01 X14.69583 Y-11.46211
G01 X14.72641 Y-11.42632
G01 X19.45742 Y-6.69531
G01 X19.50954 Y-6.65066
G01 X19.55843 Y-6.61797
G01 X19.61962 Y-6.58693
G01 X19.68487 Y-6.56562
G01 X19.78157 Y-6.55030
G01 X21.06397 Y-6.54883
G01 X23.23663 Y-4.37619
G01 X23.19208 Y-4.22435
G01 X23.16998 Y-3.99999
G01 X23.19208 Y-3.77563
G01 X23.24760 Y-3.58762
G01 X23.27011 Y-3.53329
G01 X23.34867 Y-3.38633
G01 X23.38133 Y-3.33743
G01 X23.48705 Y-3.20858
G01 X23.52863 Y-3.16705
G01 X23.65743 Y-3.06133
G01 X23.70633 Y-3.02867
G01 X23.87991 Y-2.93754
G01 X24.06708 Y-2.87924
G01 X24.12477 Y-2.86776
G01 X24.31999 Y-2.84998
G01 X24.51522 Y-2.86776
G01 X24.57290 Y-2.87924
G01 X24.73236 Y-2.92760
G01 X24.78669 Y-2.95011
G01 X24.93363 Y-3.02867
G01 X24.98255 Y-3.06133
G01 X25.13315 Y-3.18681
G01 X25.25865 Y-3.33743
G01 X25.29131 Y-3.38633
G01 X25.36985 Y-3.53329
G01 X25.39235 Y-3.58762
G01 X25.44785 Y-3.77563
G01 X25.46998 Y-3.99999
G01 X25.44785 Y-4.22435
G01 X25.39235 Y-4.41236
G01 X25.36985 Y-4.46669
G01 X25.29131 Y-4.61363
G01 X25.25865 Y-4.66255
G01 X25.13315 Y-4.81315
G01 X24.98255 Y-4.93865
G01 X24.93363 Y-4.97131
G01 X24.76007 Y-5.06245
G01 X24.57290 Y-5.12074
G01 X24.51522 Y-5.13222
G01 X24.34938 Y-5.14855
G01 X24.29058 Y-5.14855
G01 X24.12477 Y-5.13222
G01 X24.06708 Y-5.12074
G01 X23.94374 Y-5.08333
G01 X21.62462 Y-7.40242
G01 X21.57250 Y-7.44708
G01 X21.52360 Y-7.47974
G01 X21.48901 Y-7.49823
G01 X21.39716 Y-7.53212
G01 X21.33948 Y-7.54357
G01 X21.27108 Y-7.54888
G01 X20.01807 Y-7.54888
G01 X15.57998 Y-11.98697
G01 X15.57998 Y-12.40432
G01 X15.69110 Y-12.46538
G01 X15.83599 Y-12.58240
G01 X15.87757 Y-12.62398
G01 X15.97706 Y-12.74521
G01 X16.00975 Y-12.79408
G01 X16.09626 Y-12.95903
G01 X16.15171 Y-13.13683
G01 X16.16316 Y-13.19449
G01 X16.17856 Y-13.35057
G01 X16.17856 Y-13.40940
G01 X16.16316 Y-13.56545
G01 X16.15171 Y-13.62314
G01 X16.10617 Y-13.77323
G01 X16.08366 Y-13.82756
G01 X16.00975 Y-13.96586
G01 X15.97706 Y-14.01475
G01 X15.85780 Y-14.15781
G01 X15.71475 Y-14.27706
G01 X15.66586 Y-14.30975
G01 X15.52755 Y-14.38366
G01 X15.47322 Y-14.40617
G01 X15.32313 Y-14.45169
G01 X15.26548 Y-14.46317
G01 X15.07998 Y-14.47998
G01 X14.89451 Y-14.46317
G01 X14.83683 Y-14.45169
G01 X14.68676 Y-14.40617
G01 X14.63243 Y-14.38366
G01 X14.46886 Y-14.29461
G01 X14.32397 Y-14.17757
G01 X14.28239 Y-14.13599
G01 X14.18290 Y-14.01475
G01 X14.15024 Y-13.96586
G01 X14.06373 Y-13.80094
G01 X14.00828 Y-13.62314
G01 X13.99680 Y-13.56545
G01 X13.97998 Y-13.37998
G04 P0 ( dwell for no time -- G64 should not smooth over this point )
G00 Z2.00000 ( retract )

G00 X16.51998 Y-13.37998 ( rapid move to begin. )
G01 F30.00000
( Mill infeed pass 1/2 )
G01 Z-0.07500
G04 P0 ( dwell for no time -- G64 should not smooth over this point )
G01 F40.00000
G01 X16.51998 Y-13.37998
G01 X16.53680 Y-13.19449
G01 X16.54828 Y-13.13683
G01 X16.59379 Y-12.98677
G01 X16.61630 Y-12.93241
G01 X16.70538 Y-12.76886
G01 X16.82239 Y-12.62398
G01 X16.86397 Y-12.58240
G01 X16.98521 Y-12.48291
G01 X17.03410 Y-12.45024
G01 X17.11998 Y-12.40434
G01 X17.11996 Y-11.77988
G01 X17.12526 Y-11.71146
G01 X17.13672 Y-11.65377
G01 X17.15803 Y-11.58852
G01 X17.20423 Y-11.50209
G01 X17.24665 Y-11.44814
G01 X17.31853 Y-11.38166
G01 X17.40202 Y-11.33051
G01 X17.42862 Y-11.31794
G01 X17.49387 Y-11.29662
G01 X17.55155 Y-11.28517
G01 X17.61998 Y-11.27986
G01 X18.45427 Y-11.27986
G01 X22.53882 Y-7.19531
G01 X22.59094 Y-7.15066
G01 X22.63983 Y-7.11799
G01 X22.70102 Y-7.08693
G01 X22.76627 Y-7.06562
G01 X22.86297 Y-7.05030
G01 X23.10397 Y-7.04886
G01 X25.77663 Y-4.37619
G01 X25.73208 Y-4.22435
G01 X25.71143 Y-4.02938
G01 X25.71143 Y-3.97058
G01 X25.73208 Y-3.77563
G01 X25.78760 Y-3.58762
G01 X25.81011 Y-3.53329
G01 X25.88867 Y-3.38633
G01 X25.92131 Y-3.33743
G01 X26.02702 Y-3.20858
G01 X26.06863 Y-3.16705
G01 X26.22108 Y-3.04381
G01 X26.39329 Y-2.95011
G01 X26.44762 Y-2.92760
G01 X26.63563 Y-2.87208
G01 X26.83058 Y-2.85143
G01 X26.88938 Y-2.85143
G01 X27.08435 Y-2.87208
G01 X27.27236 Y-2.92760
G01 X27.32669 Y-2.95011
G01 X27.49890 Y-3.04381
G01 X27.65135 Y-3.16705
G01 X27.69293 Y-3.20858
G01 X27.81617 Y-3.36108
G01 X27.90985 Y-3.53329
G01 X27.93235 Y-3.58762
G01 X27.98788 Y-3.77563
G01 X28.00855 Y-3.97058
G01 X28.00855 Y-4.02938
G01 X27.98788 Y-4.22435
G01 X27.93235 Y-4.41236
G01 X27.90985 Y-4.46669
G01 X27.81617 Y-4.63890
G01 X27.69293 Y-4.79135
G01 X27.65135 Y-4.83293
G01 X27.49890 Y-4.95617
G01 X27.32669 Y-5.04985
G01 X27.27236 Y-5.07235
G01 X27.08435 Y-5.12788
G01 X26.88938 Y-5.14855
G01 X26.83058 Y-5.14855
G01 X26.63563 Y-5.12788
G01 X26.48374 Y-5.08333
G01 X23.64280 Y-7.92218
G01 X23.56361 Y-7.97974
G01 X23.52901 Y-7.99823
G01 X23.43716 Y-8.03211
G01 X23.34047 Y-8.04743
G01 X23.09947 Y-8.04888
G01 X18.99310 Y-12.15319
G01 X18.91391 Y-12.21075
G01 X18.85272 Y-12.24181
G01 X18.78747 Y-12.26312
G01 X18.72978 Y-12.27458
G01 X18.66138 Y-12.27988
G01 X18.11998 Y-12.27988
G01 X18.11998 Y-12.40432
G01 X18.23110 Y-12.46538
G01 X18.37599 Y-12.58240
G01 X18.41757 Y-12.62398
G01 X18.51706 Y-12.74521
G01 X18.54975 Y-12.79408
G01 X18.63626 Y-12.95903
G01 X18.69171 Y-13.13683
G01 X18.70316 Y-13.19449
G01 X18.71856 Y-13.35057
G01 X18.71856 Y-13.40940
G01 X18.70316 Y-13.56545
G01 X18.69171 Y-13.62314
G01 X18.64617 Y-13.77323
G01 X18.62366 Y-13.82756
G01 X18.54975 Y-13.96586
G01 X18.51706 Y-14.01475
G01 X18.39780 Y-14.15781
G01 X18.25475 Y-14.27706
G01 X18.20586 Y-14.30975
G01 X18.06755 Y-14.38366
G01 X18.01322 Y-14.40617
G01 X17.86313 Y-14.45169
G01 X17.80548 Y-14.46317
G01 X17.61998 Y-14.47998
G01 X17.43451 Y-14.46317
G01 X17.37683 Y-14.45169
G01 X17.22676 Y-14.40617
G01 X17.17243 Y-14.38366
G01 X17.00886 Y-14.29461
G01 X16.86397 Y-14.17757
G01 X16.82239 Y-14.13599
G01 X16.73995 Y-14.03553
G01 X16.69024 Y-13.96586
G01 X16.60373 Y-13.80094
G01 X16.54828 Y-13.62314
G01 X16.53680 Y-13.56545
G01 X16.51998 Y-13.37998
( Mill infeed pass 2/2 )
G01 Z-0.15000
G04 P0 ( dwell for no time -- G64 should not smooth over this point )
G01 F40.00000
G01 X16.51998 Y-13.37998
G01 X16.53680 Y-13.19449
G01 X16.54828 Y-13.13683
G01 X16.59379 Y-12.98677
G01 X16.61630 Y-12.93241
G01 X16.70538 Y-12.76886
G01 X16.82239 Y-12.62398
G01 X16.86397 Y-12.58240
G01 X16.98521 Y-12.48291
G01 X17.03410 Y-12.45024
G01 X17.11998 Y-12.40434
G01 X17.11996 Y-11.77988
G01 X17.12526 Y-11.71146
G01 X17.13672 Y-11.65377
G01 X17.15803 Y-11.58852
G01 X17.20423 Y-11.50209
G01 X17.24665 Y-11.44814
G01 X17.31853 Y-11.38166
G01 X17.40202 Y-11.33051
G01 X17.42862 Y-11.31794
G01 X17.49387 Y-11.29662
G01 X17.55155 Y-11.28517
G01 X17.61998 Y-11.27986
G01 X18.45427 Y-11.27986
G01 X22.53882 Y-7.19531
G01 X22.59094 Y-7.15066
G01 X22.63983 Y-7.11799
G01 X22.70102 Y-7.08693
G01 X22.76627 Y-7.06562
G01 X22.86297 Y-7.05030
G01 X23.10397 Y-7.04886
G01 X25.77663 Y-4.37619
G01 X25.73208 Y-4.22435
G01 X25.71143 Y-4.02938
G01 X25.71143 Y-3.97058
G01 X25.73208 Y-3.77563
G01 X25.78760 Y-3.58762
G01 X25.81011 Y-3.53329
G01 X25.88867 Y-3.38633
G01 X25.92131 Y-3.33743
G01 X26.02702 Y-3.20858
G01 X26.06863 Y-3.16705
G01 X26.22108 Y-3.04381
G01 X26.39329 Y-2.95011
G01 X26.44762 Y-2.92760
G01 X26.63563 Y-2.87208
G01 X26.83058 Y-2.85143
G01 X26.88938 Y-2.85143
G01 X27.08435 Y-2.87208
G01 X27.27236 Y-2.92760
G01 X27.32669 Y-2.95011
G01 X27.49890 Y-3.04381
G01 X27.65135 Y-3.16705
G01 X27.69293 Y-3.20858
G01 X27.81617 Y-3.36108
G01 X27.90985 Y-3.53329
G01 X27.93235 Y-3.58762
G01 X27.98788 Y-3.77563
G01 X28.00855 Y-3.97058
G01 X28.00855 Y-4.02938
G01 X27.98788 Y-4.22435
G01 X27.93235 Y-4.41236
G01 X27.90985 Y-4.46669
G01 X27.81617 Y-4.63890
G01 X27.69293 Y-4.79135
G01 X27.65135 Y-4.83293
G01 X27.49890 Y-4.95617
G01 X27.32669 Y-5.04985
G01 X27.27236 Y-5.07235
G01 X27.08435 Y-5.12788
G01 X26.88938 Y-5.14855
G01 X26.83058 Y-5.14855
G01 X26.63563 Y-5.12788
G01 X26.48374 Y-5.08333
G01 X23.64280 Y-7.92218
G01 X23.56361 Y-7.97974
G01 X23.52901 Y-7.99823
G01 X23.43716 Y-8.03211
G01 X23.34047 Y-8.04743
G01 X23.09947 Y-8.04888
G01 X18.99310 Y-12.15319
G01 X18.91391 Y-12.21075
G01 X18.85272 Y-12.24181
G01 X18.78747 Y-12.26312
G01 X18.72978 Y-12.27458
G01 X18.66138 Y-12.27988
G01 X18.11998 Y-12.27988
G01 X18.11998 Y-12.40432
G01 X18.23110 Y-12.46538
G01 X18.37599 Y-12.58240
G01 X18.41757 Y-12.62398
G01 X18.51706 Y-12.74521
G01 X18.54975 Y-12.79408
G01 X18.63626 Y-12.95903
G01 X18.69171 Y-13.13683
G01 X18.70316 Y-13.19449
G01 X18.71856 Y-13.35057
G01 X18.71856 Y-13.40940
G01 X18.70316 Y-13.56545
G01 X18.69171 Y-13.62314
G01 X18.64617 Y-13.77323
G01 X18.62366 Y-13.82756
G01 X18.54975 Y-13.96586
G01 X18.51706 Y-14.01475
G01 X18.39780 Y-14.15781
G01 X18.25475 Y-14.27706
G01 X18.20586 Y-14.30975
G01 X18.06755 Y-14.38366
G01 X18.01322 Y-14.40617
G01 X17.86313 Y-14.45169
G01 X17.80548 Y-14.46317
G01 X17.61998 Y-14.47998
G01 X17.43451 Y-14.46317
G01 X17.37683 Y-14.45169
G01 X17.22676 Y-14.40617
G01 X17.17243 Y-14.38366
G01 X17.00886 Y-14.29461
G01 X16.86397 Y-14.17757
G01 X16.82239 Y-14.13599
G01 X16.73995 Y-14.03553
G01 X16.69024 Y-13.96586
G01 X16.60373 Y-13.80094
G01 X16.54828 Y-13.62314
G01 X16.53680 Y-13.56545
G01 X16.51998 Y-13.37998
G04 P0 ( dwell for no time -- G64 should not smooth over this point )
G00 Z2.00000 ( retract )

G00 X19.05998 Y-13.37998 ( rapid move to begin. )
G01 F30.00000
( Mill infeed pass 1/2 )
G01 Z-0.07500
G04 P0 ( dwell for no time -- G64 should not smooth over this point )
G01 F40.00000
G01 X19.05998 Y-13.37998
G01 X19.07680 Y-13.19449
G01 X19.08828 Y-13.13683
G01 X19.14373 Y-12.95903
G01 X19.23024 Y-12.79408
G01 X19.26290 Y-12.74521
G01 X19.38218 Y-12.60216
G01 X19.52521 Y-12.48291
G01 X19.57410 Y-12.45024
G01 X19.65998 Y-12.40434
G01 X19.65996 Y-11.77988
G01 X19.66526 Y-11.71146
G01 X19.67672 Y-11.65377
G01 X19.69803 Y-11.58852
G01 X19.74423 Y-11.50209
G01 X19.78665 Y-11.44814
G01 X19.85853 Y-11.38166
G01 X19.94202 Y-11.33051
G01 X19.96862 Y-11.31794
G01 X20.03387 Y-11.29662
G01 X20.09155 Y-11.28517
G01 X20.15998 Y-11.27986
G01 X20.99427 Y-11.27986
G01 X24.34013 Y-7.93605
G01 X24.41933 Y-7.87850
G01 X24.48052 Y-7.84743
G01 X24.54577 Y-7.82612
G01 X24.64247 Y-7.81080
G01 X24.88347 Y-7.80936
G01 X28.31663 Y-4.37619
G01 X28.27208 Y-4.22435
G01 X28.25143 Y-4.02938
G01 X28.25143 Y-3.97058
G01 X28.27208 Y-3.77563
G01 X28.32760 Y-3.58762
G01 X28.35011 Y-3.53329
G01 X28.42867 Y-3.38633
G01 X28.46133 Y-3.33743
G01 X28.56705 Y-3.20858
G01 X28.60863 Y-3.16705
G01 X28.76108 Y-3.04381
G01 X28.93329 Y-2.95011
G01 X28.98762 Y-2.92760
G01 X29.17563 Y-2.87208
G01 X29.37058 Y-2.85143
G01 X29.42938 Y-2.85143
G01 X29.62435 Y-2.87208
G01 X29.81236 Y-2.92760
G01 X29.86669 Y-2.95011
G01 X30.03890 Y-3.04381
G01 X30.19135 Y-3.16705
G01 X30.23293 Y-3.20858
G01 X30.35617 Y-3.36108
G01 X30.44985 Y-3.53329
G01 X30.47235 Y-3.58762
G01 X30.52788 Y-3.77563
G01 X30.54855 Y-3.97058
G01 X30.54855 Y-4.02938
G01 X30.52788 Y-4.22435
G01 X30.47235 Y-4.41236
G01 X30.44985 Y-4.46669
G01 X30.35617 Y-4.63890
G01 X30.23293 Y-4.79135
G01 X30.19135 Y-4.83293
G01 X30.03890 Y-4.95617
G01 X29.86669 Y-5.04985
G01 X29.81236 Y-5.07235
G01 X29.62435 Y-5.12788
G01 X29.42938 Y-5.14855
G01 X29.37058 Y-5.14855
G01 X29.17563 Y-5.12788
G01 X29.02374 Y-5.08333
G01 X25.44412 Y-8.66292
G01 X25.39200 Y-8.70758
G01 X25.34310 Y-8.74024
G01 X25.30851 Y-8.75873
G01 X25.21666 Y-8.79262
G01 X25.11997 Y-8.80793
G01 X24.87897 Y-8.80938
G01 X21.53310 Y-12.15319
G01 X21.45391 Y-12.21075
G01 X21.39272 Y-12.24181
G01 X21.32747 Y-12.26312
G01 X21.26978 Y-12.27458
G01 X21.20138 Y-12.27988
G01 X20.65998 Y-12.27988
G01 X20.65998 Y-12.40432
G01 X20.77110 Y-12.46538
G01 X20.91599 Y-12.58240
G01 X20.95757 Y-12.62398
G01 X21.05706 Y-12.74521
G01 X21.08975 Y-12.79408
G01 X21.17626 Y-12.95903
G01 X21.23171 Y-13.13683
G01 X21.24316 Y-13.19449
G01 X21.25856 Y-13.35057
G01 X21.25856 Y-13.40940
G01 X21.24316 Y-13.56545
G01 X21.23171 Y-13.62314
G01 X21.18617 Y-13.77323
G01 X21.16366 Y-13.82756
G01 X21.08975 Y-13.96586
G01 X21.05706 Y-14.01475
G01 X20.93780 Y-14.15781
G01 X20.79475 Y-14.27706
G01 X20.74586 Y-14.30975
G01 X20.60755 Y-14.38366
G01 X20.55322 Y-14.40617
G01 X20.40313 Y-14.45169
G01 X20.34548 Y-14.46317
G01 X20.15998 Y-14.47998
G01 X19.97451 Y-14.46317
G01 X19.91683 Y-14.45169
G01 X19.76676 Y-14.40617
G01 X19.71243 Y-14.38366
G01 X19.54886 Y-14.29461
G01 X19.40397 Y-14.17757
G01 X19.36239 Y-14.13599
G01 X19.27997 Y-14.03556
G01 X19.23024 Y-13.96586
G01 X19.14373 Y-13.80094
G01 X19.08828 Y-13.62314
G01 X19.07680 Y-13.56545
G01 X19.05998 Y-13.37998
( Mill infeed pass 2/2 )
G01 Z-0.15000
G04 P0 ( dwell for no time -- G64 should not smooth over this point )
G01 F40.00000
G01 X19.05998 Y-13.37998
G01 X19.07680 Y-13.19449
G01 X19.08828 Y-13.13683
G01 X19.14373 Y-12.95903
G01 X19.23024 Y-12.79408
G01 X19.26290 Y-12.74521
G01 X19.38218 Y-12.60216
G01 X19.52521 Y-12.48291
G01 X19.57410 Y-12.45024
G01 X19.65998 Y-12.40434
G01 X19.65996 Y-11.77988
G01 X19.66526 Y-11.71146
G01 X19.67672 Y-11.65377
G01 X19.69803 Y-11.58852
G01 X19.74423 Y-11.50209
G01 X19.78665 Y-11.44814
G01 X19.85853 Y-11.38166
G01 X19.94202 Y-11.33051
G01 X19.96862 Y-11.31794
G01 X20.03387 Y-11.29662
G01 X20.09155 Y-11.28517
G01 X20.15998 Y-11.27986
G01 X20.99427 Y-11.27986
G01 X24.34013 Y-7.93605
G01 X24.41933 Y-7.87850
G01 X24.48052 Y-7.84743
G01 X24.54577 Y-7.82612
G01 X24.64247 Y-7.81080
G01 X24.88347 Y-7.80936
G01 X28.31663 Y-4.37619
G01 X28.27208 Y-4.22435
G01 X28.25143 Y-4.02938
G01 X28.25143 Y-3.97058
G01 X28.27208 Y-3.77563
G01 X28.32760 Y-3.58762
G01 X28.35011 Y-3.53329
G01 X28.42867 Y-3.38633
G01 X28.46133 Y-3.33743
G01 X28.56705 Y-3.20858
G01 X28.60863 Y-3.16705
G01 X28.76108 Y-3.04381
G01 X28.93329 Y-2.95011
G01 X28.98762 Y-2.92760
G01 X29.17563 Y-2.87208
G01 X29.37058 Y-2.85143
G01 X29.42938 Y-2.85143
G01 X29.62435 Y-2.87208
G01 X29.81236 Y-2.92760
G01 X29.86669 Y-2.95011
G01 X30.03890 Y-3.04381
G01 X30.19135 Y-3.16705
G01 X30.23293 Y-3.20858
G01 X30.35617 Y-3.36108
G01 X30.44985 Y-3.53329
G01 X30.47235 Y-3.58762
G01 X30.52788 Y-3.77563
G01 X30.54855 Y-3.97058
G01 X30.54855 Y-4.02938
G01 X30.52788 Y-4.22435
G01 X30.47235 Y-4.41236
G01 X30.44985 Y-4.46669
G01 X30.35617 Y-4.63890
G01 X30.23293 Y-4.79135
G01 X30.19135 Y-4.83293
G01 X30.03890 Y-4.95617
G01 X29.86669 Y-5.04985
G01 X29.81236 Y-5.07235
G01 X29.62435 Y-5.12788
G01 X29.42938 Y-5.14855
G01 X29.37058 Y-5.14855
G01 X29.17563 Y-5.12788
G01 X29.02374 Y-5.08333
G01 X25.44412 Y-8.66292
G01 X25.39200 Y-8.70758
G01 X25.34310 Y-8.74024
G01 X25.30851 Y-8.75873
G01 X25.21666 Y-8.79262
G01 X25.11997 Y-8.80793
G01 X24.87897 Y-8.80938
G01 X21.53310 Y-12.15319
G01 X21.45391 Y-12.21075
G01 X21.39272 Y-12.24181
G01 X21.32747 Y-12.26312
G01 X21.26978 Y-12.27458
G01 X21.20138 Y-12.27988
G01 X20.65998 Y-12.27988
G01 X20.65998 Y-12.40432
G01 X20.77110 Y-12.46538
G01 X20.91599 Y-12.58240
G01 X20.95757 Y-12.62398
G01 X21.05706 Y-12.74521
G01 X21.08975 Y-12.79408
G01 X21.17626 Y-12.95903
G01 X21.23171 Y-13.13683
G01 X21.24316 Y-13.19449
G01 X21.25856 Y-13.35057
G01 X21.25856 Y-13.40940
G01 X21.24316 Y-13.56545
G01 X21.23171 Y-13.62314
G01 X21.18617 Y-13.77323
G01 X21.16366 Y-13.82756
G01 X21.08975 Y-13.96586
G01 X21.05706 Y-14.01475
G01 X20.93780 Y-14.15781
G01 X20.79475 Y-14.27706
G01 X20.74586 Y-14.30975
G01 X20.60755 Y-14.38366
G01 X20.55322 Y-14.40617
G01 X20.40313 Y-14.45169
G01 X20.34548 Y-14.46317
G01 X20.15998 Y-14.47998
G01 X19.97451 Y-14.46317
G01 X19.91683 Y-14.45169
G01 X19.76676 Y-14.40617
G01 X19.71243 Y-14.38366
G01 X19.54886 Y-14.29461
G01 X19.40397 Y-14.17757
G01 X19.36239 Y-14.13599
G01 X19.27997 Y-14.03556
G01 X19.23024 Y-13.96586
G01 X19.14373 Y-13.80094
G01 X19.08828 Y-13.62314
G01 X19.07680 Y-13.56545
G01 X19.05998 Y-13.37998
G04 P0 ( dwell for no time -- G64 should not smooth over this point )
G00 Z2.00000 ( retract )

G00 X21.59998 Y-13.37998 ( rapid move to begin. )
G01 F30.00000
( Mill infeed pass 1/2 )
G01 Z-0.07500
G04 P0 ( dwell for no time -- G64 should not smooth over this point )
G01 F40.00000
G01 X21.59998 Y-13.37998
G01 X21.61680 Y-13.19449
G01 X21.62828 Y-13.13683
G01 X21.67379 Y-12.98677
G01 X21.69630 Y-12.93241
G01 X21.78538 Y-12.76886
G01 X21.90239 Y-12.62398
G01 X21.94397 Y-12.58240
G01 X22.06521 Y-12.48291
G01 X22.11410 Y-12.45024
G01 X22.19998 Y-12.40434
G01 X22.19996 Y-11.77988
G01 X22.20526 Y-11.71146
G01 X22.21672 Y-11.65377
G01 X22.23803 Y-11.58852
G01 X22.28423 Y-11.50209
G01 X22.32665 Y-11.44814
G01 X22.39853 Y-11.38166
G01 X22.48202 Y-11.33051
G01 X22.50862 Y-11.31794
G01 X22.57387 Y-11.29662
G01 X22.63155 Y-11.28517
G01 X22.69998 Y-11.27986
G01 X23.95299 Y-11.27986
G01 X30.85663 Y-4.37619
G01 X30.81208 Y-4.22435
G01 X30.79143 Y-4.02938
G01 X30.79143 Y-3.97058
G01 X30.81208 Y-3.77563
G01 X30.86760 Y-3.58762
G01 X30.89011 Y-3.53329
G01 X30.96867 Y-3.38633
G01 X31.00134 Y-3.33743
G01 X31.10705 Y-3.20858
G01 X31.14863 Y-3.16705
G01 X31.30108 Y-3.04381
G01 X31.47329 Y-2.95011
G01 X31.52762 Y-2.92760
G01 X31.71563 Y-2.87208
G01 X31.91058 Y-2.85143
G01 X31.96938 Y-2.85143
G01 X32.16435 Y-2.87208
G01 X32.35236 Y-2.92760
G01 X32.40669 Y-2.95011
G01 X32.57890 Y-3.04381
G01 X32.73135 Y-3.16705
G01 X32.77293 Y-3.20858
G01 X32.89617 Y-3.36108
G01 X32.98985 Y-3.53329
G01 X33.01235 Y-3.58762
G01 X33.06788 Y-3.77563
G01 X33.08855 Y-3.97058
G01 X33.08855 Y-4.02938
G01 X33.06788 Y-4.22435
G01 X33.01235 Y-4.41236
G01 X32.98985 Y-4.46669
G01 X32.89617 Y-4.63890
G01 X32.77293 Y-4.79135
G01 X32.73135 Y-4.83293
G01 X32.57890 Y-4.95617
G01 X32.40669 Y-5.04985
G01 X32.35236 Y-5.07235
G01 X32.16435 Y-5.12788
G01 X31.96938 Y-5.14855
G01 X31.91058 Y-5.14855
G01 X31.71563 Y-5.12788
G01 X31.56374 Y-5.08333
G01 X24.51364 Y-12.13343
G01 X24.46152 Y-12.17808
G01 X24.41263 Y-12.21075
G01 X24.35144 Y-12.24181
G01 X24.28618 Y-12.26312
G01 X24.18949 Y-12.27844
G01 X23.19998 Y-12.27988
G01 X23.19998 Y-12.40432
G01 X23.31110 Y-12.46538
G01 X23.45599 Y-12.58240
G01 X23.49757 Y-12.62398
G01 X23.59706 Y-12.74521
G01 X23.62975 Y-12.79408
G01 X23.71626 Y-12.95903
G01 X23.77171 Y-13.13683
G01 X23.78316 Y-13.19449
G01 X23.79856 Y-13.35057
G01 X23.79856 Y-13.40940
G01 X23.78316 Y-13.56545
G01 X23.77171 Y-13.62314
G01 X23.72617 Y-13.77323
G01 X23.70366 Y-13.82756
G01 X23.62975 Y-13.96586
G01 X23.59706 Y-14.01475
G01 X23.47780 Y-14.15781
G01 X23.33475 Y-14.27706
G01 X23.28586 Y-14.30975
G01 X23.14755 Y-14.38366
G01 X23.09322 Y-14.40617
G01 X22.94313 Y-14.45169
G01 X22.88548 Y-14.46317
G01 X22.69998 Y-14.47998
G01 X22.51451 Y-14.46317
G01 X22.45683 Y-14.45169
G01 X22.30676 Y-14.40617
G01 X22.25243 Y-14.38366
G01 X22.08886 Y-14.29461
G01 X21.94397 Y-14.17757
G01 X21.90239 Y-14.13599
G01 X21.81997 Y-14.03556
G01 X21.77024 Y-13.96586
G01 X21.68373 Y-13.80094
G01 X21.62828 Y-13.62314
G01 X21.61680 Y-13.56545
G01 X21.59998 Y-13.37998
( Mill infeed pass 2/2 )
G01 Z-0.15000
G04 P0 ( dwell for no time -- G64 should not smooth over this point )
G01 F40.00000
G01 X21.59998 Y-13.37998
G01 X21.61680 Y-13.19449
G01 X21.62828 Y-13.13683
G01 X21.67379 Y-12.98677
G01 X21.69630 Y-12.93241
G01 X21.78538 Y-12.76886
G01 X21.90239 Y-12.62398
G01 X21.94397 Y-12.58240
G01 X22.06521 Y-12.48291
G01 X22.11410 Y-12.45024
G01 X22.19998 Y-12.40434
G01 X22.19996 Y-11.77988
G01 X22.20526 Y-11.71146
G01 X22.21672 Y-11.65377
G01 X22.23803 Y-11.58852
G01 X22.28423 Y-11.50209
G01 X22.32665 Y-11.44814
G01 X22.39853 Y-11.38166
G01 X22.48202 Y-11.33051
G01 X22.50862 Y-11.31794
G01 X22.57387 Y-11.29662
G01 X22.63155 Y-11.28517
G01 X22.69998 Y-11.27986
G01 X23.95299 Y-11.27986
G01 X30.85663 Y-4.37619
G01 X30.81208 Y-4.22435
G01 X30.79143 Y-4.02938
G01 X30.79143 Y-3.97058
G01 X30.81208 Y-3.77563
G01 X30.86760 Y-3.58762
G01 X30.89011 Y-3.53329
G01 X30.96867 Y-3.38633
G01 X31.00134 Y-3.33743
G01 X31.10705 Y-3.20858
G01 X31.14863 Y-3.16705
G01 X31.30108 Y-3.04381
G01 X31.47329 Y-2.95011
G01 X31.52762 Y-2.92760
G01 X31.71563 Y-2.87208
G01 X31.91058 Y-2.85143
G01 X31.96938 Y-2.85143
G01 X32.16435 Y-2.87208
G01 X32.35236 Y-2.92760
G01 X32.40669 Y-2.95011
G01 X32.57890 Y-3.04381
G01 X32.73135 Y-3.16705
G01 X32.77293 Y-3.20858
G01 X32.89617 Y-3.36108
G01 X32.98985 Y-3.53329
G01 X33.01235 Y-3.58762
G01 X33.06788 Y-3.77563
G01 X33.08855 Y-3.97058
G01 X33.08855 Y-4.02938
G01 X33.06788 Y-4.22435
G01 X33.01235 Y-4.41236
G01 X32.98985 Y-4.46669
G01 X32.89617 Y-4.63890
G01 X32.77293 Y-4.79135
G01 X32.73135 Y-4.83293
G01 X32.57890 Y-4.95617
G01 X32.40669 Y-5.04985
G01 X32.35236 Y-5.07235
G01 X32.16435 Y-5.12788
G01 X31.96938 Y-5.14855
G01 X31.91058 Y-5.14855
G01 X31.71563 Y-5.12788
G01 X31.56374 Y-5.08333
G01 X24.51364 Y-12.13343
G01 X24.46152 Y-12.17808
G01 X24.41263 Y-12.21075
G01 X24.35144 Y-12.24181
G01 X24.28618 Y-12.26312
G01 X24.18949 Y-12.27844
G01 X23.19998 Y-12.27988
G01 X23.19998 Y-12.40432
G01 X23.31110 Y-12.46538
G01 X23.45599 Y-12.58240
G01 X23.49757 Y-12.62398
G01 X23.59706 Y-12.74521
G01 X23.62975 Y-12.79408
G01 X23.71626 Y-12.95903
G01 X23.77171 Y-13.13683
G01 X23.78316 Y-13.19449
G01 X23.79856 Y-13.35057
G01 X23.79856 Y-13.40940
G01 X23.78316 Y-13.56545
G01 X23.77171 Y-13.62314
G01 X23.72617 Y-13.77323
G01 X23.70366 Y-13.82756
G01 X23.62975 Y-13.96586
G01 X23.59706 Y-14.01475
G01 X23.47780 Y-14.15781
G01 X23.33475 Y-14.27706
G01 X23.28586 Y-14.30975
G01 X23.14755 Y-14.38366
G01 X23.09322 Y-14.40617
G01 X22.94313 Y-14.45169
G01 X22.88548 Y-14.46317
G01 X22.69998 Y-14.47998
G01 X22.51451 Y-14.46317
G01 X22.45683 Y-14.45169
G01 X22.30676 Y-14.40617
G01 X22.25243 Y-14.38366
G01 X22.08886 Y-14.29461
G01 X21.94397 Y-14.17757
G01 X21.90239 Y-14.13599
G01 X21.81997 Y-14.03556
G01 X21.77024 Y-13.96586
G01 X21.68373 Y-13.80094
G01 X21.62828 Y-13.62314
G01 X21.61680 Y-13.56545
G01 X21.59998 Y-13.37998
G04 P0 ( dwell for no time -- G64 should not smooth over this point )
G00 Z2.00000 ( retract )

G00 X24.13998 Y-13.37998 ( rapid move to begin. )
G01 F30.00000
( Mill infeed pass 1/2 )
G01 Z-0.07500
G04 P0 ( dwell for no time -- G64 should not smooth over this point )
G01 F40.00000
G01 X24.13998 Y-13.37998
G01 X24.15680 Y-13.19449
G01 X24.16828 Y-13.13683
G01 X24.22373 Y-12.95903
G01 X24.31024 Y-12.79408
G01 X24.34290 Y-12.74521
G01 X24.46218 Y-12.60216
G01 X24.60521 Y-12.48291
G01 X24.65410 Y-12.45024
G01 X24.81903 Y-12.36373
G01 X24.99683 Y-12.30828
G01 X25.05451 Y-12.29680
G01 X25.23998 Y-12.27999
G01 X25.45458 Y-12.30112
G01 X25.57630 Y-12.33653
G01 X32.63814 Y-5.27675
G01 X32.69209 Y-5.23433
G01 X32.75193 Y-5.20070
G01 X32.84377 Y-5.16682
G01 X32.94047 Y-5.15150
G01 X33.97997 Y-5.15005
G01 X33.97997 Y-5.03204
G01 X33.84108 Y-4.95617
G01 X33.68863 Y-4.83293
G01 X33.64705 Y-4.79135
G01 X33.52381 Y-4.63890
G01 X33.43011 Y-4.46669
G01 X33.40760 Y-4.41236
G01 X33.35924 Y-4.25290
G01 X33.34776 Y-4.19522
G01 X33.33143 Y-4.02938
G01 X33.33143 Y-3.97058
G01 X33.35208 Y-3.77563
G01 X33.40760 Y-3.58762
G01 X33.43011 Y-3.53329
G01 X33.52381 Y-3.36108
G01 X33.64705 Y-3.20858
G01 X33.68863 Y-3.16705
G01 X33.84108 Y-3.04381
G01 X34.01329 Y-2.95011
G01 X34.06762 Y-2.92760
G01 X34.25563 Y-2.87208
G01 X34.45058 Y-2.85143
G01 X34.50938 Y-2.85143
G01 X34.70435 Y-2.87208
G01 X34.89236 Y-2.92760
G01 X34.94669 Y-2.95011
G01 X35.11890 Y-3.04381
G01 X35.27135 Y-3.16705
G01 X35.31293 Y-3.20858
G01 X35.41865 Y-3.33743
G01 X35.45131 Y-3.38633
G01 X35.52985 Y-3.53329
G01 X35.55235 Y-3.58762
G01 X35.60074 Y-3.74708
G01 X35.61222 Y-3.80477
G01 X35.62855 Y-3.97058
G01 X35.62855 Y-4.02938
G01 X35.60788 Y-4.22435
G01 X35.55235 Y-4.41236
G01 X35.52985 Y-4.46669
G01 X35.45131 Y-4.61363
G01 X35.41865 Y-4.66255
G01 X35.31293 Y-4.79135
G01 X35.27135 Y-4.83293
G01 X35.11890 Y-4.95617
G01 X34.97999 Y-5.03207
G01 X34.97999 Y-5.65005
G01 X34.97468 Y-5.71848
G01 X34.96323 Y-5.77616
G01 X34.92934 Y-5.86801
G01 X34.89571 Y-5.92785
G01 X34.85330 Y-5.98180
G01 X34.78141 Y-6.04827
G01 X34.69792 Y-6.09943
G01 X34.60608 Y-6.13331
G01 X34.54839 Y-6.14477
G01 X34.47999 Y-6.15008
G01 X33.17697 Y-6.15008
G01 X26.28341 Y-13.04364
G01 X26.31171 Y-13.13683
G01 X26.32316 Y-13.19449
G01 X26.33856 Y-13.35057
G01 X26.33856 Y-13.40940
G01 X26.31884 Y-13.59459
G01 X26.26614 Y-13.77323
G01 X26.24366 Y-13.82756
G01 X26.16975 Y-13.96586
G01 X26.13706 Y-14.01475
G01 X26.01780 Y-14.15781
G01 X25.87475 Y-14.27706
G01 X25.82586 Y-14.30975
G01 X25.66093 Y-14.39626
G01 X25.45458 Y-14.45885
G01 X25.23998 Y-14.47998
G01 X25.05451 Y-14.46317
G01 X24.99683 Y-14.45169
G01 X24.84676 Y-14.40617
G01 X24.79243 Y-14.38366
G01 X24.62886 Y-14.29461
G01 X24.48397 Y-14.17757
G01 X24.44239 Y-14.13599
G01 X24.35997 Y-14.03556
G01 X24.31024 Y-13.96586
G01 X24.22373 Y-13.80094
G01 X24.16828 Y-13.62314
G01 X24.15680 Y-13.56545
G01 X24.13998 Y-13.37998
( Mill infeed pass 2/2 )
G01 Z-0.15000
G04 P0 ( dwell for no time -- G64 should not smooth over this point )
G01 F40.00000
G01 X24.13998 Y-13.37998
G01 X24.15680 Y-13.19449
G01 X24.16828 Y-13.13683
G01 X24.22373 Y-12.95903
G01 X24.31024 Y-12.79408
G01 X24.34290 Y-12.74521
G01 X24.46218 Y-12.60216
G01 X24.60521 Y-12.48291
G01 X24.65410 Y-12.45024
G01 X24.81903 Y-12.36373
G01 X24.99683 Y-12.30828
G01 X25.05451 Y-12.29680
G01 X25.23998 Y-12.27999
G01 X25.45458 Y-12.30112
G01 X25.57630 Y-12.33653
G01 X32.63814 Y-5.27675
G01 X32.69209 Y-5.23433
G01 X32.75193 Y-5.20070
G01 X32.84377 Y-5.16682
G01 X32.94047 Y-5.15150
G01 X33.97997 Y-5.15005
G01 X33.97997 Y-5.03204
G01 X33.84108 Y-4.95617
G01 X33.68863 Y-4.83293
G01 X33.64705 Y-4.79135
G01 X33.52381 Y-4.63890
G01 X33.43011 Y-4.46669
G01 X33.40760 Y-4.41236
G01 X33.35924 Y-4.25290
G01 X33.34776 Y-4.19522
G01 X33.33143 Y-4.02938
G01 X33.33143 Y-3.97058
G01 X33.35208 Y-3.77563
G01 X33.40760 Y-3.58762
G01 X33.43011 Y-3.53329
G01 X33.52381 Y-3.36108
G01 X33.64705 Y-3.20858
G01 X33.68863 Y-3.16705
G01 X33.84108 Y-3.04381
G01 X34.01329 Y-2.95011
G01 X34.06762 Y-2.92760
G01 X34.25563 Y-2.87208
G01 X34.45058 Y-2.85143
G01 X34.50938 Y-2.85143
G01 X34.70435 Y-2.87208
G01 X34.89236 Y-2.92760
G01 X34.94669 Y-2.95011
G01 X35.11890 Y-3.04381
G01 X35.27135 Y-3.16705
G01 X35.31293 Y-3.20858
G01 X35.41865 Y-3.33743
G01 X35.45131 Y-3.38633
G01 X35.52985 Y-3.53329
G01 X35.55235 Y-3.58762
G01 X35.60074 Y-3.74708
G01 X35.61222 Y-3.80477
G01 X35.62855 Y-3.97058
G01 X35.62855 Y-4.02938
G01 X35.60788 Y-4.22435
G01 X35.55235 Y-4.41236
G01 X35.52985 Y-4.46669
G01 X35.45131 Y-4.61363
G01 X35.41865 Y-4.66255
G01 X35.31293 Y-4.79135
G01 X35.27135 Y-4.83293
G01 X35.11890 Y-4.95617
G01 X34.97999 Y-5.03207
G01 X34.97999 Y-5.65005
G01 X34.97468 Y-5.71848
G01 X34.96323 Y-5.77616
G01 X34.92934 Y-5.86801
G01 X34.89571 Y-5.92785
G01 X34.85330 Y-5.98180
G01 X34.78141 Y-6.04827
G01 X34.69792 Y-6.09943
G01 X34.60608 Y-6.13331
G01 X34.54839 Y-6.14477
G01 X34.47999 Y-6.15008
G01 X33.17697 Y-6.15008
G01 X26.28341 Y-13.04364
G01 X26.31171 Y-13.13683
G01 X26.32316 Y-13.19449
G01 X26.33856 Y-13.35057
G01 X26.33856 Y-13.40940
G01 X26.31884 Y-13.59459
G01 X26.26614 Y-13.77323
G01 X26.24366 Y-13.82756
G01 X26.16975 Y-13.96586
G01 X26.13706 Y-14.01475
G01 X26.01780 Y-14.15781
G01 X25.87475 Y-14.27706
G01 X25.82586 Y-14.30975
G01 X25.66093 Y-14.39626
G01 X25.45458 Y-14.45885
G01 X25.23998 Y-14.47998
G01 X25.05451 Y-14.46317
G01 X24.99683 Y-14.45169
G01 X24.84676 Y-14.40617
G01 X24.79243 Y-14.38366
G01 X24.62886 Y-14.29461
G01 X24.48397 Y-14.17757
G01 X24.44239 Y-14.13599
G01 X24.35997 Y-14.03556
G01 X24.31024 Y-13.96586
G01 X24.22373 Y-13.80094
G01 X24.16828 Y-13.62314
G01 X24.15680 Y-13.56545
G01 X24.13998 Y-13.37998
G04 P0 ( dwell for no time -- G64 should not smooth over this point )
G00 Z2.00000 ( retract )

G00 X26.68143 Y-13.40940 ( rapid move to begin. )
G01 F30.00000
( Mill infeed pass 1/2 )
G01 Z-0.07500
G04 P0 ( dwell for no time -- G64 should not smooth over this point )
G01 F40.00000
G01 X26.68143 Y-13.40940
G01 X26.68143 Y-13.35057
G01 X26.69680 Y-13.19449
G01 X26.70828 Y-13.13683
G01 X26.76373 Y-12.95903
G01 X26.85024 Y-12.79408
G01 X26.88290 Y-12.74521
G01 X26.98239 Y-12.62398
G01 X27.02397 Y-12.58240
G01 X27.14521 Y-12.48291
G01 X27.19410 Y-12.45024
G01 X27.33243 Y-12.37630
G01 X27.38676 Y-12.35380
G01 X27.56538 Y-12.30112
G01 X27.75059 Y-12.28143
G01 X27.80939 Y-12.28143
G01 X27.99458 Y-12.30112
G01 X28.11630 Y-12.33653
G01 X29.29072 Y-11.16213
G01 X29.34284 Y-11.11748
G01 X29.39174 Y-11.08481
G01 X29.42633 Y-11.06632
G01 X29.51818 Y-11.03244
G01 X29.57586 Y-11.02098
G01 X29.64426 Y-11.01568
G01 X30.94728 Y-11.01568
G01 X36.51997 Y-5.44297
G01 X36.51997 Y-5.03204
G01 X36.38108 Y-4.95617
G01 X36.22863 Y-4.83293
G01 X36.18705 Y-4.79135
G01 X36.08133 Y-4.66255
G01 X36.04867 Y-4.61363
G01 X35.97011 Y-4.46669
G01 X35.94760 Y-4.41236
G01 X35.89924 Y-4.25290
G01 X35.88776 Y-4.19522
G01 X35.87143 Y-4.02938
G01 X35.87143 Y-3.97058
G01 X35.89208 Y-3.77563
G01 X35.94760 Y-3.58762
G01 X35.97011 Y-3.53329
G01 X36.06381 Y-3.36108
G01 X36.18705 Y-3.20858
G01 X36.22863 Y-3.16705
G01 X36.38108 Y-3.04381
G01 X36.55329 Y-2.95011
G01 X36.60762 Y-2.92760
G01 X36.79563 Y-2.87208
G01 X36.99058 Y-2.85143
G01 X37.04938 Y-2.85143
G01 X37.24435 Y-2.87208
G01 X37.43236 Y-2.92760
G01 X37.48669 Y-2.95011
G01 X37.65890 Y-3.04381
G01 X37.81135 Y-3.16705
G01 X37.85293 Y-3.20858
G01 X37.95865 Y-3.33743
G01 X37.99131 Y-3.38633
G01 X38.06985 Y-3.53329
G01 X38.09235 Y-3.58762
G01 X38.14074 Y-3.74708
G01 X38.15222 Y-3.80477
G01 X38.16855 Y-3.97058
G01 X38.16855 Y-4.02938
G01 X38.14788 Y-4.22435
G01 X38.09235 Y-4.41236
G01 X38.06985 Y-4.46669
G01 X37.99131 Y-4.61363
G01 X37.95865 Y-4.66255
G01 X37.85293 Y-4.79135
G01 X37.81135 Y-4.83293
G01 X37.65890 Y-4.95617
G01 X37.51999 Y-5.03207
G01 X37.51999 Y-5.65005
G01 X37.51468 Y-5.71848
G01 X37.49185 Y-5.81368
G01 X37.46934 Y-5.86801
G01 X37.41819 Y-5.95150
G01 X37.37346 Y-6.00367
G01 X31.48401 Y-11.88969
G01 X31.44825 Y-11.92022
G01 X31.40814 Y-11.94478
G01 X31.30890 Y-11.99121
G01 X31.26311 Y-12.00221
G01 X31.15440 Y-12.01570
G01 X29.85138 Y-12.01570
G01 X28.82344 Y-13.04364
G01 X28.85171 Y-13.13683
G01 X28.86316 Y-13.19449
G01 X28.87856 Y-13.35057
G01 X28.87856 Y-13.40940
G01 X28.86316 Y-13.56545
G01 X28.85171 Y-13.62314
G01 X28.80617 Y-13.77323
G01 X28.78366 Y-13.82756
G01 X28.70975 Y-13.96586
G01 X28.67706 Y-14.01475
G01 X28.55780 Y-14.15781
G01 X28.41475 Y-14.27706
G01 X28.36586 Y-14.30975
G01 X28.22755 Y-14.38366
G01 X28.17322 Y-14.40617
G01 X28.02313 Y-14.45169
G01 X27.96548 Y-14.46317
G01 X27.77998 Y-14.47998
G01 X27.59451 Y-14.46317
G01 X27.53683 Y-14.45169
G01 X27.38676 Y-14.40617
G01 X27.33243 Y-14.38366
G01 X27.16886 Y-14.29461
G01 X27.02397 Y-14.17757
G01 X26.98239 Y-14.13599
G01 X26.88290 Y-14.01475
G01 X26.85024 Y-13.96586
G01 X26.77630 Y-13.82756
G01 X26.75379 Y-13.77323
G01 X26.70828 Y-13.62314
G01 X26.69680 Y-13.56545
G01 X26.68143 Y-13.40940
( Mill infeed pass 2/2 )
G01 Z-0.15000
G04 P0 ( dwell for no time -- G64 should not smooth over this point )
G01 F40.00000
G01 X26.68143 Y-13.40940
G01 X26.68143 Y-13.35057
G01 X26.69680 Y-13.19449
G01 X26.70828 Y-13.13683
G01 X26.76373 Y-12.95903
G01 X26.85024 Y-12.79408
G01 X26.88290 Y-12.74521
G01 X26.98239 Y-12.62398
G01 X27.02397 Y-12.58240
G01 X27.14521 Y-12.48291
G01 X27.19410 Y-12.45024
G01 X27.33243 Y-12.37630
G01 X27.38676 Y-12.35380
G01 X27.56538 Y-12.30112
G01 X27.75059 Y-12.28143
G01 X27.80939 Y-12.28143
G01 X27.99458 Y-12.30112
G01 X28.11630 Y-12.33653
G01 X29.29072 Y-11.16213
G01 X29.34284 Y-11.11748
G01 X29.39174 Y-11.08481
G01 X29.42633 Y-11.06632
G01 X29.51818 Y-11.03244
G01 X29.57586 Y-11.02098
G01 X29.64426 Y-11.01568
G01 X30.94728 Y-11.01568
G01 X36.51997 Y-5.44297
G01 X36.51997 Y-5.03204
G01 X36.38108 Y-4.95617
G01 X36.22863 Y-4.83293
G01 X36.18705 Y-4.79135
G01 X36.08133 Y-4.66255
G01 X36.04867 Y-4.61363
G01 X35.97011 Y-4.46669
G01 X35.94760 Y-4.41236
G01 X35.89924 Y-4.25290
G01 X35.88776 Y-4.19522
G01 X35.87143 Y-4.02938
G01 X35.87143 Y-3.97058
G01 X35.89208 Y-3.77563
G01 X35.94760 Y-3.58762
G01 X35.97011 Y-3.53329
G01 X36.06381 Y-3.36108
G01 X36.18705 Y-3.20858
G01 X36.22863 Y-3.16705
G01 X36.38108 Y-3.04381
G01 X36.55329 Y-2.95011
G01 X36.60762 Y-2.92760
G01 X36.79563 Y-2.87208
G01 X36.99058 Y-2.85143
G01 X37.04938 Y-2.85143
G01 X37.24435 Y-2.87208
G01 X37.43236 Y-2.92760
G01 X37.48669 Y-2.95011
G01 X37.65890 Y-3.04381
G01 X37.81135 Y-3.16705
G01 X37.85293 Y-3.20858
G01 X37.95865 Y-3.33743
G01 X37.99131 Y-3.38633
G01 X38.06985 Y-3.53329
G01 X38.09235 Y-3.58762
G01 X38.14074 Y-3.74708
G01 X38.15222 Y-3.80477
G01 X38.16855 Y-3.97058
G01 X38.16855 Y-4.02938
G01 X38.14788 Y-4.22435
G01 X38.09235 Y-4.41236
G01 X38.06985 Y-4.46669
G01 X37.99131 Y-4.61363
G01 X37.95865 Y-4.66255
G01 X37.85293 Y-4.79135
G01 X37.81135 Y-4.83293
G01 X37.65890 Y-4.95617
G01 X37.51999 Y-5.03207
G01 X37.51999 Y-5.65005
G01 X37.51468 Y-5.71848
G01 X37.49185 Y-5.81368
G01 X37.46934 Y-5.86801
G01 X37.41819 Y-5.95150
G01 X37.37346 Y-6.00367
G01 X31.48401 Y-11.88969
G01 X31.44825 Y-11.92022
G01 X31.40814 Y-11.94478
G01 X31.30890 Y-11.99121
G01 X31.26311 Y-12.00221
G01 X31.15440 Y-12.01570
G01 X29.85138 Y-12.01570
G01 X28.82344 Y-13.04364
G01 X28.85171 Y-13.13683
G01 X28.86316 Y-13.19449
G01 X28.87856 Y-13.35057
G01 X28.87856 Y-13.40940
G01 X28.86316 Y-13.56545
G01 X28.85171 Y-13.62314
G01 X28.80617 Y-13.77323
G01 X28.78366 Y-13.82756
G01 X28.70975 Y-13.96586
G01 X28.67706 Y-14.01475
G01 X28.55780 Y-14.15781
G01 X28.41475 Y-14.27706
G01 X28.36586 Y-14.30975
G01 X28.22755 Y-14.38366
G01 X28.17322 Y-14.40617
G01 X28.02313 Y-14.45169
G01 X27.96548 Y-14.46317
G01 X27.77998 Y-14.47998
G01 X27.59451 Y-14.46317
G01 X27.53683 Y-14.45169
G01 X27.38676 Y-14.40617
G01 X27.33243 Y-14.38366
G01 X27.16886 Y-14.29461
G01 X27.02397 Y-14.17757
G01 X26.98239 Y-14.13599
G01 X26.88290 Y-14.01475
G01 X26.85024 Y-13.96586
G01 X26.77630 Y-13.82756
G01 X26.75379 Y-13.77323
G01 X26.70828 Y-13.62314
G01 X26.69680 Y-13.56545
G01 X26.68143 Y-13.40940
G04 P0 ( dwell for no time -- G64 should not smooth over this point )
G00 Z2.00000 ( retract )

G00 X29.22143 Y-13.40940 ( rapid move to begin. )
G01 F30.00000
( Mill infeed pass 1/2 )
G01 Z-0.07500
G04 P0 ( dwell for no time -- G64 should not smooth over this point )
G01 F40.00000
G01 X29.22143 Y-13.40940
G01 X29.22143 Y-13.35057
G01 X29.23680 Y-13.19449
G01 X29.24828 Y-13.13683
G01 X29.30373 Y-12.95903
G01 X29.39024 Y-12.79408
G01 X29.42290 Y-12.74521
G01 X29.54218 Y-12.60216
G01 X29.68521 Y-12.48291
G01 X29.73410 Y-12.45024
G01 X29.89903 Y-12.36373
G01 X30.10538 Y-12.30112
G01 X30.29059 Y-12.28143
G01 X30.34939 Y-12.28143
G01 X30.53458 Y-12.30112
G01 X30.71322 Y-12.35380
G01 X30.76755 Y-12.37630
G01 X30.93110 Y-12.46538
G01 X31.07599 Y-12.58240
G01 X31.11757 Y-12.62398
G01 X31.21706 Y-12.74521
G01 X31.24975 Y-12.79408
G01 X31.33626 Y-12.95903
G01 X31.39171 Y-13.13683
G01 X31.40316 Y-13.19449
G01 X31.41856 Y-13.35057
G01 X31.41856 Y-13.40940
G01 X31.40316 Y-13.56545
G01 X31.39171 Y-13.62314
G01 X31.33626 Y-13.80094
G01 X31.24975 Y-13.96586
G01 X31.21706 Y-14.01475
G01 X31.09780 Y-14.15781
G01 X30.95475 Y-14.27706
G01 X30.90586 Y-14.30975
G01 X30.76755 Y-14.38366
G01 X30.71322 Y-14.40617
G01 X30.56313 Y-14.45169
G01 X30.50548 Y-14.46317
G01 X30.31998 Y-14.47998
G01 X30.13451 Y-14.46317
G01 X30.07683 Y-14.45169
G01 X29.92676 Y-14.40617
G01 X29.87243 Y-14.38366
G01 X29.70886 Y-14.29461
G01 X29.56397 Y-14.17757
G01 X29.52239 Y-14.13599
G01 X29.42290 Y-14.01475
G01 X29.39024 Y-13.96586
G01 X29.30373 Y-13.80094
G01 X29.24828 Y-13.62314
G01 X29.23680 Y-13.56545
G01 X29.22143 Y-13.40940
( Mill infeed pass 2/2 )
G01 Z-0.15000
G04 P0 ( dwell for no time -- G64 should not smooth over this point )
G01 F40.00000
G01 X29.22143 Y-13.40940
G01 X29.22143 Y-13.35057
G01 X29.23680 Y-13.19449
G01 X29.24828 Y-13.13683
G01 X29.30373 Y-12.95903
G01 X29.39024 Y-12.79408
G01 X29.42290 Y-12.74521
G01 X29.54218 Y-12.60216
G01 X29.68521 Y-12.48291
G01 X29.73410 Y-12.45024
G01 X29.89903 Y-12.36373
G01 X30.10538 Y-12.30112
G01 X30.29059 Y-12.28143
G01 X30.34939 Y-12.28143
G01 X30.53458 Y-12.30112
G01 X30.71322 Y-12.35380
G01 X30.76755 Y-12.37630
G01 X30.93110 Y-12.46538
G01 X31.07599 Y-12.58240
G01 X31.11757 Y-12.62398
G01 X31.21706 Y-12.74521
G01 X31.24975 Y-12.79408
G01 X31.33626 Y-12.95903
G01 X31.39171 Y-13.13683
G01 X31.40316 Y-13.19449
G01 X31.41856 Y-13.35057
G01 X31.41856 Y-13.40940
G01 X31.40316 Y-13.56545
G01 X31.39171 Y-13.62314
G01 X31.33626 Y-13.80094
G01 X31.24975 Y-13.96586
G01 X31.21706 Y-14.01475
G01 X31.09780 Y-14.15781
G01 X30.95475 Y-14.27706
G01 X30.90586 Y-14.30975
G01 X30.76755 Y-14.38366
G01 X30.71322 Y-14.40617
G01 X30.56313 Y-14.45169
G01 X30.50548 Y-14.46317
G01 X30.31998 Y-14.47998
G01 X30.13451 Y-14.46317
G01 X30.07683 Y-14.45169
G01 X29.92676 Y-14.40617
G01 X29.87243 Y-14.38366
G01 X29.70886 Y-14.29461
G01 X29.56397 Y-14.17757
G01 X29.52239 Y-14.13599
G01 X29.42290 Y-14.01475
G01 X29.39024 Y-13.96586
G01 X29.30373 Y-13.80094
G01 X29.24828 Y-13.62314
G01 X29.23680 Y-13.56545
G01 X29.22143 Y-13.40940
G04 P0 ( dwell for no time -- G64 should not smooth over this point )
G00 Z2.00000 ( retract )

G00 X31.76143 Y-13.40940 ( rapid move to begin. )
G01 F30.00000
( Mill infeed pass 1/2 )
G01 Z-0.07500
G04 P0 ( dwell for no time -- G64 should not smooth over this point )
G01 F40.00000
G01 X31.76143 Y-13.40940
G01 X31.76143 Y-13.35057
G01 X31.77680 Y-13.19449
G01 X31.78828 Y-13.13683
G01 X31.83379 Y-12.98677
G01 X31.85630 Y-12.93241
G01 X31.93024 Y-12.79408
G01 X31.96290 Y-12.74521
G01 X32.08218 Y-12.60216
G01 X32.22521 Y-12.48291
G01 X32.27410 Y-12.45024
G01 X32.43903 Y-12.36373
G01 X32.64538 Y-12.30112
G01 X32.83059 Y-12.28143
G01 X32.88939 Y-12.28143
G01 X33.07458 Y-12.30112
G01 X33.25322 Y-12.35380
G01 X33.30755 Y-12.37630
G01 X33.47110 Y-12.46538
G01 X33.61599 Y-12.58240
G01 X33.65757 Y-12.62398
G01 X33.75706 Y-12.74521
G01 X33.78975 Y-12.79408
G01 X33.83562 Y-12.87996
G01 X34.25297 Y-12.87996
G01 X41.59997 Y-5.53298
G01 X41.59997 Y-5.03204
G01 X41.46108 Y-4.95617
G01 X41.30863 Y-4.83293
G01 X41.26705 Y-4.79135
G01 X41.16133 Y-4.66255
G01 X41.12867 Y-4.61363
G01 X41.05011 Y-4.46669
G01 X41.02760 Y-4.41236
G01 X40.97924 Y-4.25290
G01 X40.96776 Y-4.19522
G01 X40.95143 Y-4.02938
G01 X40.95143 Y-3.97058
G01 X40.97208 Y-3.77563
G01 X41.02760 Y-3.58762
G01 X41.05011 Y-3.53329
G01 X41.14381 Y-3.36108
G01 X41.26705 Y-3.20858
G01 X41.30863 Y-3.16705
G01 X41.46108 Y-3.04381
G01 X41.63329 Y-2.95011
G01 X41.68762 Y-2.92760
G01 X41.87563 Y-2.87208
G01 X42.07058 Y-2.85143
G01 X42.12938 Y-2.85143
G01 X42.32435 Y-2.87208
G01 X42.51236 Y-2.92760
G01 X42.56669 Y-2.95011
G01 X42.73890 Y-3.04381
G01 X42.89135 Y-3.16705
G01 X42.93293 Y-3.20858
G01 X43.03865 Y-3.33743
G01 X43.07131 Y-3.38633
G01 X43.14985 Y-3.53329
G01 X43.17235 Y-3.58762
G01 X43.22074 Y-3.74708
G01 X43.23222 Y-3.80477
G01 X43.24855 Y-3.97058
G01 X43.24855 Y-4.02938
G01 X43.22788 Y-4.22435
G01 X43.17235 Y-4.41236
G01 X43.14985 Y-4.46669
G01 X43.07131 Y-4.61363
G01 X43.03865 Y-4.66255
G01 X42.93293 Y-4.79135
G01 X42.89135 Y-4.83293
G01 X42.73890 Y-4.95617
G01 X42.59999 Y-5.03207
G01 X42.59999 Y-5.74007
G01 X42.59628 Y-5.78701
G01 X42.57551 Y-5.89460
G01 X42.52907 Y-5.99384
G01 X42.48991 Y-6.05246
G01 X42.45353 Y-6.09364
G01 X34.81362 Y-13.73353
G01 X34.76150 Y-13.77818
G01 X34.67801 Y-13.82933
G01 X34.58616 Y-13.86322
G01 X34.52848 Y-13.87467
G01 X34.46008 Y-13.87998
G01 X33.83564 Y-13.87998
G01 X33.78975 Y-13.96586
G01 X33.75706 Y-14.01475
G01 X33.63780 Y-14.15781
G01 X33.49475 Y-14.27706
G01 X33.44586 Y-14.30975
G01 X33.30755 Y-14.38366
G01 X33.25322 Y-14.40617
G01 X33.10313 Y-14.45169
G01 X33.04548 Y-14.46317
G01 X32.85998 Y-14.47998
G01 X32.67451 Y-14.46317
G01 X32.61683 Y-14.45169
G01 X32.46676 Y-14.40617
G01 X32.41243 Y-14.38366
G01 X32.27410 Y-14.30975
G01 X32.22521 Y-14.27706
G01 X32.10397 Y-14.17757
G01 X32.06239 Y-14.13599
G01 X31.96290 Y-14.01475
G01 X31.93024 Y-13.96586
G01 X31.84373 Y-13.80094
G01 X31.78828 Y-13.62314
G01 X31.77680 Y-13.56545
G01 X31.76143 Y-13.40940
( Mill infeed pass 2/2 )
G01 Z-0.15000
G04 P0 ( dwell for no time -- G64 should not smooth over this point )
G01 F40.00000
G01 X31.76143 Y-13.40940
G01 X31.76143 Y-13.35057
G01 X31.77680 Y-13.19449
G01 X31.78828 Y-13.13683
G01 X31.83379 Y-12.98677
G01 X31.85630 Y-12.93241
G01 X31.93024 Y-12.79408
G01 X31.96290 Y-12.74521
G01 X32.08218 Y-12.60216
G01 X32.22521 Y-12.48291
G01 X32.27410 Y-12.45024
G01 X32.43903 Y-12.36373
G01 X32.64538 Y-12.30112
G01 X32.83059 Y-12.28143
G01 X32.88939 Y-12.28143
G01 X33.07458 Y-12.30112
G01 X33.25322 Y-12.35380
G01 X33.30755 Y-12.37630
G01 X33.47110 Y-12.46538
G01 X33.61599 Y-12.58240
G01 X33.65757 Y-12.62398
G01 X33.75706 Y-12.74521
G01 X33.78975 Y-12.79408
G01 X33.83562 Y-12.87996
G01 X34.25297 Y-12.87996
G01 X41.59997 Y-5.53298
G01 X41.59997 Y-5.03204
G01 X41.46108 Y-4.95617
G01 X41.30863 Y-4.83293
G01 X41.26705 Y-4.79135
G01 X41.16133 Y-4.66255
G01 X41.12867 Y-4.61363
G01 X41.05011 Y-4.46669
G01 X41.02760 Y-4.41236
G01 X40.97924 Y-4.25290
G01 X40.96776 Y-4.19522
G01 X40.95143 Y-4.02938
G01 X40.95143 Y-3.97058
G01 X40.97208 Y-3.77563
G01 X41.02760 Y-3.58762
G01 X41.05011 Y-3.53329
G01 X41.14381 Y-3.36108
G01 X41.26705 Y-3.20858
G01 X41.30863 Y-3.16705
G01 X41.46108 Y-3.04381
G01 X41.63329 Y-2.95011
G01 X41.68762 Y-2.92760
G01 X41.87563 Y-2.87208
G01 X42.07058 Y-2.85143
G01 X42.12938 Y-2.85143
G01 X42.32435 Y-2.87208
G01 X42.51236 Y-2.92760
G01 X42.56669 Y-2.95011
G01 X42.73890 Y-3.04381
G01 X42.89135 Y-3.16705
G01 X42.93293 Y-3.20858
G01 X43.03865 Y-3.33743
G01 X43.07131 Y-3.38633
G01 X43.14985 Y-3.53329
G01 X43.17235 Y-3.58762
G01 X43.22074 Y-3.74708
G01 X43.23222 Y-3.80477
G01 X43.24855 Y-3.97058
G01 X43.24855 Y-4.02938
G01 X43.22788 Y-4.22435
G01 X43.17235 Y-4.41236
G01 X43.14985 Y-4.46669
G01 X43.07131 Y-4.61363
G01 X43.03865 Y-4.66255
G01 X42.93293 Y-4.79135
G01 X42.89135 Y-4.83293
G01 X42.73890 Y-4.95617
G01 X42.59999 Y-5.03207
G01 X42.59999 Y-5.74007
G01 X42.59628 Y-5.78701
G01 X42.57551 Y-5.89460
G01 X42.52907 Y-5.99384
G01 X42.48991 Y-6.05246
G01 X42.45353 Y-6.09364
G01 X34.81362 Y-13.73353
G01 X34.76150 Y-13.77818
G01 X34.67801 Y-13.82933
G01 X34.58616 Y-13.86322
G01 X34.52848 Y-13.87467
G01 X34.46008 Y-13.87998
G01 X33.83564 Y-13.87998
G01 X33.78975 Y-13.96586
G01 X33.75706 Y-14.01475
G01 X33.63780 Y-14.15781
G01 X33.49475 Y-14.27706
G01 X33.44586 Y-14.30975
G01 X33.30755 Y-14.38366
G01 X33.25322 Y-14.40617
G01 X33.10313 Y-14.45169
G01 X33.04548 Y-14.46317
G01 X32.85998 Y-14.47998
G01 X32.67451 Y-14.46317
G01 X32.61683 Y-14.45169
G01 X32.46676 Y-14.40617
G01 X32.41243 Y-14.38366
G01 X32.27410 Y-14.30975
G01 X32.22521 Y-14.27706
G01 X32.10397 Y-14.17757
G01 X32.06239 Y-14.13599
G01 X31.96290 Y-14.01475
G01 X31.93024 Y-13.96586
G01 X31.84373 Y-13.80094
G01 X31.78828 Y-13.62314
G01 X31.77680 Y-13.56545
G01 X31.76143 Y-13.40940
G04 P0 ( dwell for no time -- G64 should not smooth over this point )
G00 Z2.00000 ( retract )

G00 X33.18632 Y-11.53858 ( rapid move to begin. )
G01 F30.00000
( Mill infeed pass 1/2 )
G01 Z-0.07500
G04 P0 ( dwell for no time -- G64 should not smooth over this point )
G01 F40.00000
G01 X33.18632 Y-11.53858
G01 X33.18632 Y-11.47978
G01 X33.20026 Y-11.35311
G01 X33.24578 Y-11.20305
G01 X33.30458 Y-11.09000
G01 X33.33725 Y-11.04108
G01 X33.41921 Y-10.94351
G01 X33.54042 Y-10.84402
G01 X33.65213 Y-10.78268
G01 X33.70646 Y-10.76018
G01 X33.80026 Y-10.73170
G01 X33.85795 Y-10.72025
G01 X33.95548 Y-10.71062
G01 X34.01428 Y-10.71062
G01 X34.07077 Y-10.71618
G01 X39.05997 Y-5.72696
G01 X39.05997 Y-5.03204
G01 X38.92108 Y-4.95617
G01 X38.76863 Y-4.83293
G01 X38.72705 Y-4.79135
G01 X38.62133 Y-4.66255
G01 X38.58867 Y-4.61363
G01 X38.51011 Y-4.46669
G01 X38.48760 Y-4.41236
G01 X38.43924 Y-4.25290
G01 X38.42776 Y-4.19522
G01 X38.41143 Y-4.02938
G01 X38.41143 Y-3.97058
G01 X38.43208 Y-3.77563
G01 X38.48760 Y-3.58762
G01 X38.51011 Y-3.53329
G01 X38.60381 Y-3.36108
G01 X38.72705 Y-3.20858
G01 X38.76863 Y-3.16705
G01 X38.92108 Y-3.04381
G01 X39.09329 Y-2.95011
G01 X39.14762 Y-2.92760
G01 X39.33563 Y-2.87208
G01 X39.53058 Y-2.85143
G01 X39.58938 Y-2.85143
G01 X39.78435 Y-2.87208
G01 X39.97236 Y-2.92760
G01 X40.02669 Y-2.95011
G01 X40.19890 Y-3.04381
G01 X40.35135 Y-3.16705
G01 X40.39293 Y-3.20858
G01 X40.51617 Y-3.36108
G01 X40.60985 Y-3.53329
G01 X40.63235 Y-3.58762
G01 X40.68074 Y-3.74708
G01 X40.69222 Y-3.80477
G01 X40.70855 Y-3.97058
G01 X40.70855 Y-4.02938
G01 X40.69222 Y-4.19522
G01 X40.68074 Y-4.25290
G01 X40.63235 Y-4.41236
G01 X40.60985 Y-4.46669
G01 X40.53131 Y-4.61363
G01 X40.49865 Y-4.66255
G01 X40.39293 Y-4.79135
G01 X40.35135 Y-4.83293
G01 X40.19890 Y-4.95617
G01 X40.05999 Y-5.03207
G01 X40.05999 Y-5.93405
G01 X40.05468 Y-6.00248
G01 X40.04323 Y-6.06016
G01 X40.00934 Y-6.15201
G01 X39.95819 Y-6.23550
G01 X39.93330 Y-6.26580
G01 X34.77788 Y-11.42329
G01 X34.78345 Y-11.47978
G01 X34.78345 Y-11.53858
G01 X34.77384 Y-11.63615
G01 X34.76236 Y-11.69383
G01 X34.72398 Y-11.81534
G01 X34.66521 Y-11.92840
G01 X34.63252 Y-11.97729
G01 X34.55058 Y-12.07488
G01 X34.45299 Y-12.15682
G01 X34.40410 Y-12.18951
G01 X34.31766 Y-12.23571
G01 X34.26330 Y-12.25822
G01 X34.16953 Y-12.28667
G01 X34.11184 Y-12.29815
G01 X34.01428 Y-12.30775
G01 X33.95548 Y-12.30775
G01 X33.85795 Y-12.29815
G01 X33.80026 Y-12.28667
G01 X33.70646 Y-12.25822
G01 X33.65213 Y-12.23571
G01 X33.54042 Y-12.17437
G01 X33.44100 Y-12.09464
G01 X33.39943 Y-12.05306
G01 X33.33725 Y-11.97729
G01 X33.30458 Y-11.92840
G01 X33.27761 Y-11.87793
G01 X33.24578 Y-11.81534
G01 X33.23587 Y-11.78761
G01 X33.20026 Y-11.66525
G01 X33.18632 Y-11.53858
( Mill infeed pass 2/2 )
G01 Z-0.15000
G04 P0 ( dwell for no time -- G64 should not smooth over this point )
G01 F40.00000
G01 X33.18632 Y-11.53858
G01 X33.18632 Y-11.47978
G01 X33.20026 Y-11.35311
G01 X33.24578 Y-11.20305
G01 X33.30458 Y-11.09000
G01 X33.33725 Y-11.04108
G01 X33.41921 Y-10.94351
G01 X33.54042 Y-10.84402
G01 X33.65213 Y-10.78268
G01 X33.70646 Y-10.76018
G01 X33.80026 Y-10.73170
G01 X33.85795 Y-10.72025
G01 X33.95548 Y-10.71062
G01 X34.01428 Y-10.71062
G01 X34.07077 Y-10.71618
G01 X39.05997 Y-5.72696
G01 X39.05997 Y-5.03204
G01 X38.92108 Y-4.95617
G01 X38.76863 Y-4.83293
G01 X38.72705 Y-4.79135
G01 X38.62133 Y-4.66255
G01 X38.58867 Y-4.61363
G01 X38.51011 Y-4.46669
G01 X38.48760 Y-4.41236
G01 X38.43924 Y-4.25290
G01 X38.42776 Y-4.19522
G01 X38.41143 Y-4.02938
G01 X38.41143 Y-3.97058
G01 X38.43208 Y-3.77563
G01 X38.48760 Y-3.58762
G01 X38.51011 Y-3.53329
G01 X38.60381 Y-3.36108
G01 X38.72705 Y-3.20858
G01 X38.76863 Y-3.16705
G01 X38.92108 Y-3.04381
G01 X39.09329 Y-2.95011
G01 X39.14762 Y-2.92760
G01 X39.33563 Y-2.87208
G01 X39.53058 Y-2.85143
G01 X39.58938 Y-2.85143
G01 X39.78435 Y-2.87208
G01 X39.97236 Y-2.92760
G01 X40.02669 Y-2.95011
G01 X40.19890 Y-3.04381
G01 X40.35135 Y-3.16705
G01 X40.39293 Y-3.20858
G01 X40.51617 Y-3.36108
G01 X40.60985 Y-3.53329
G01 X40.63235 Y-3.58762
G01 X40.68074 Y-3.74708
G01 X40.69222 Y-3.80477
G01 X40.70855 Y-3.97058
G01 X40.70855 Y-4.02938
G01 X40.69222 Y-4.19522
G01 X40.68074 Y-4.25290
G01 X40.63235 Y-4.41236
G01 X40.60985 Y-4.46669
G01 X40.53131 Y-4.61363
G01 X40.49865 Y-4.66255
G01 X40.39293 Y-4.79135
G01 X40.35135 Y-4.83293
G01 X40.19890 Y-4.95617
G01 X40.05999 Y-5.03207
G01 X40.05999 Y-5.93405
G01 X40.05468 Y-6.00248
G01 X40.04323 Y-6.06016
G01 X40.00934 Y-6.15201
G01 X39.95819 Y-6.23550
G01 X39.93330 Y-6.26580
G01 X34.77788 Y-11.42329
G01 X34.78345 Y-11.47978
G01 X34.78345 Y-11.53858
G01 X34.77384 Y-11.63615
G01 X34.76236 Y-11.69383
G01 X34.72398 Y-11.81534
G01 X34.66521 Y-11.92840
G01 X34.63252 Y-11.97729
G01 X34.55058 Y-12.07488
G01 X34.45299 Y-12.15682
G01 X34.40410 Y-12.18951
G01 X34.31766 Y-12.23571
G01 X34.26330 Y-12.25822
G01 X34.16953 Y-12.28667
G01 X34.11184 Y-12.29815
G01 X34.01428 Y-12.30775
G01 X33.95548 Y-12.30775
G01 X33.85795 Y-12.29815
G01 X33.80026 Y-12.28667
G01 X33.70646 Y-12.25822
G01 X33.65213 Y-12.23571
G01 X33.54042 Y-12.17437
G01 X33.44100 Y-12.09464
G01 X33.39943 Y-12.05306
G01 X33.33725 Y-11.97729
G01 X33.30458 Y-11.92840
G01 X33.27761 Y-11.87793
G01 X33.24578 Y-11.81534
G01 X33.23587 Y-11.78761
G01 X33.20026 Y-11.66525
G01 X33.18632 Y-11.53858
G04 P0 ( dwell for no time -- G64 should not smooth over this point )
G00 Z2.00000 ( retract )

G00 X38.25852 Y-18.50870 ( rapid move to begin. )
G01 F30.00000
( Mill infeed pass 1/2 )
G01 Z-0.07500
G04 P0 ( dwell for no time -- G64 should not smooth over this point )
G01 F40.00000
G01 X38.25852 Y-18.50870
G01 X38.25852 Y-18.44987
G01 X38.26815 Y-18.35234
G01 X38.27960 Y-18.29465
G01 X38.31798 Y-18.17314
G01 X38.37678 Y-18.06009
G01 X38.40945 Y-18.01119
G01 X38.50071 Y-17.90515
G01 X38.58898 Y-17.83164
G01 X38.63790 Y-17.79897
G01 X38.72433 Y-17.75277
G01 X38.77866 Y-17.73027
G01 X38.87246 Y-17.70182
G01 X38.93015 Y-17.69034
G01 X39.02768 Y-17.68074
G01 X39.08649 Y-17.68074
G01 X39.21316 Y-17.69466
G01 X39.33551 Y-17.73027
G01 X39.38984 Y-17.75277
G01 X39.50155 Y-17.81411
G01 X39.60096 Y-17.89384
G01 X39.64254 Y-17.93542
G01 X39.70472 Y-18.01119
G01 X39.73741 Y-18.06009
G01 X39.79619 Y-18.17314
G01 X39.83457 Y-18.29465
G01 X39.84605 Y-18.35234
G01 X39.85565 Y-18.44987
G01 X39.85565 Y-18.50870
G01 X39.85009 Y-18.56516
G01 X43.31772 Y-22.03282
G01 X43.36237 Y-22.08494
G01 X43.39504 Y-22.13384
G01 X43.43603 Y-22.22276
G01 X43.45887 Y-22.31796
G01 X43.46418 Y-22.38639
G01 X43.46415 Y-30.23601
G01 X43.52989 Y-30.29181
G01 X43.61183 Y-30.38937
G01 X43.64449 Y-30.43829
G01 X43.70329 Y-30.55135
G01 X43.74881 Y-30.70141
G01 X43.76275 Y-30.82808
G01 X43.76275 Y-30.88688
G01 X43.74881 Y-31.01355
G01 X43.71320 Y-31.13590
G01 X43.69069 Y-31.19026
G01 X43.64449 Y-31.27670
G01 X43.61183 Y-31.32559
G01 X43.52989 Y-31.42318
G01 X43.43230 Y-31.50512
G01 X43.38340 Y-31.53781
G01 X43.27032 Y-31.59658
G01 X43.12026 Y-31.64213
G01 X42.99359 Y-31.65605
G01 X42.93479 Y-31.65605
G01 X42.80812 Y-31.64213
G01 X42.68577 Y-31.60652
G01 X42.63144 Y-31.58401
G01 X42.54497 Y-31.53781
G01 X42.49608 Y-31.50512
G01 X42.39849 Y-31.42318
G01 X42.31655 Y-31.32559
G01 X42.28389 Y-31.27670
G01 X42.23766 Y-31.19026
G01 X42.21516 Y-31.13590
G01 X42.17957 Y-31.01355
G01 X42.16563 Y-30.88688
G01 X42.16563 Y-30.82808
G01 X42.17957 Y-30.70141
G01 X42.22509 Y-30.55135
G01 X42.28389 Y-30.43829
G01 X42.31655 Y-30.38937
G01 X42.39849 Y-30.29181
G01 X42.46415 Y-30.23606
G01 X42.46415 Y-22.59348
G01 X39.14297 Y-19.27228
G01 X39.08649 Y-19.27784
G01 X39.02768 Y-19.27784
G01 X38.93015 Y-19.26824
G01 X38.87246 Y-19.25676
G01 X38.77866 Y-19.22831
G01 X38.72433 Y-19.20580
G01 X38.61262 Y-19.14446
G01 X38.49141 Y-19.04497
G01 X38.40945 Y-18.94738
G01 X38.37678 Y-18.89849
G01 X38.31798 Y-18.78543
G01 X38.27247 Y-18.63537
G01 X38.25852 Y-18.50870
( Mill infeed pass 2/2 )
G01 Z-0.15000
G04 P0 ( dwell for no time -- G64 should not smooth over this point )
G01 F40.00000
G01 X38.25852 Y-18.50870
G01 X38.25852 Y-18.44987
G01 X38.26815 Y-18.35234
G01 X38.27960 Y-18.29465
G01 X38.31798 Y-18.17314
G01 X38.37678 Y-18.06009
G01 X38.40945 Y-18.01119
G01 X38.50071 Y-17.90515
G01 X38.58898 Y-17.83164
G01 X38.63790 Y-17.79897
G01 X38.72433 Y-17.75277
G01 X38.77866 Y-17.73027
G01 X38.87246 Y-17.70182
G01 X38.93015 Y-17.69034
G01 X39.02768 Y-17.68074
G01 X39.08649 Y-17.68074
G01 X39.21316 Y-17.69466
G01 X39.33551 Y-17.73027
G01 X39.38984 Y-17.75277
G01 X39.50155 Y-17.81411
G01 X39.60096 Y-17.89384
G01 X39.64254 Y-17.93542
G01 X39.70472 Y-18.01119
G01 X39.73741 Y-18.06009
G01 X39.79619 Y-18.17314
G01 X39.83457 Y-18.29465
G01 X39.84605 Y-18.35234
G01 X39.85565 Y-18.44987
G01 X39.85565 Y-18.50870
G01 X39.85009 Y-18.56516
G01 X43.31772 Y-22.03282
G01 X43.36237 Y-22.08494
G01 X43.39504 Y-22.13384
G01 X43.43603 Y-22.22276
G01 X43.45887 Y-22.31796
G01 X43.46418 Y-22.38639
G01 X43.46415 Y-30.23601
G01 X43.52989 Y-30.29181
G01 X43.61183 Y-30.38937
G01 X43.64449 Y-30.43829
G01 X43.70329 Y-30.55135
G01 X43.74881 Y-30.70141
G01 X43.76275 Y-30.82808
G01 X43.76275 Y-30.88688
G01 X43.74881 Y-31.01355
G01 X43.71320 Y-31.13590
G01 X43.69069 Y-31.19026
G01 X43.64449 Y-31.27670
G01 X43.61183 Y-31.32559
G01 X43.52989 Y-31.42318
G01 X43.43230 Y-31.50512
G01 X43.38340 Y-31.53781
G01 X43.27032 Y-31.59658
G01 X43.12026 Y-31.64213
G01 X42.99359 Y-31.65605
G01 X42.93479 Y-31.65605
G01 X42.80812 Y-31.64213
G01 X42.68577 Y-31.60652
G01 X42.63144 Y-31.58401
G01 X42.54497 Y-31.53781
G01 X42.49608 Y-31.50512
G01 X42.39849 Y-31.42318
G01 X42.31655 Y-31.32559
G01 X42.28389 Y-31.27670
G01 X42.23766 Y-31.19026
G01 X42.21516 Y-31.13590
G01 X42.17957 Y-31.01355
G01 X42.16563 Y-30.88688
G01 X42.16563 Y-30.82808
G01 X42.17957 Y-30.70141
G01 X42.22509 Y-30.55135
G01 X42.28389 Y-30.43829
G01 X42.31655 Y-30.38937
G01 X42.39849 Y-30.29181
G01 X42.46415 Y-30.23606
G01 X42.46415 Y-22.59348
G01 X39.14297 Y-19.27228
G01 X39.08649 Y-19.27784
G01 X39.02768 Y-19.27784
G01 X38.93015 Y-19.26824
G01 X38.87246 Y-19.25676
G01 X38.77866 Y-19.22831
G01 X38.72433 Y-19.20580
G01 X38.61262 Y-19.14446
G01 X38.49141 Y-19.04497
G01 X38.40945 Y-18.94738
G01 X38.37678 Y-18.89849
G01 X38.31798 Y-18.78543
G01 X38.27247 Y-18.63537
G01 X38.25852 Y-18.50870
G04 P0 ( dwell for no time -- G64 should not smooth over this point )
G00 Z2.00000 ( retract )

G00 X31.76143 Y-21.02940 ( rapid move to begin. )
G01 F30.00000
( Mill infeed pass 1/2 )
G01 Z-0.07500
G04 P0 ( dwell for no time -- G64 should not smooth over this point )
G01 F40.00000
G01 X31.76143 Y-21.02940
G01 X31.76143 Y-20.97057
G01 X31.77680 Y-20.81451
G01 X31.78828 Y-20.75683
G01 X31.84373 Y-20.57903
G01 X31.93024 Y-20.41411
G01 X31.96290 Y-20.36521
G01 X32.08218 Y-20.22216
G01 X32.22521 Y-20.10291
G01 X32.27410 Y-20.07024
G01 X32.35998 Y-20.02434
G01 X32.35996 Y-19.39988
G01 X32.36958 Y-19.30232
G01 X32.38810 Y-19.23626
G01 X32.41060 Y-19.18193
G01 X32.46176 Y-19.09844
G01 X32.50641 Y-19.04632
G01 X46.25622 Y-5.29651
