( pcb2gcode 2.5.0 )
( Software-independent Gcode )

G94 ( Millimeters per minute feed rate. )
G21 ( Units == Millimeters. )

G90 ( Absolute coordinates. )
G00 S700 ( RPM spindle speed. )
G01 F40.00000 ( Feedrate. )


G53 G00 Z0.00000 (Retract to tool change height)
T1
M5      (Spindle stop.)
G04 P1.00000 (Wait for spindle to stop)
(MSG, Change tool bit to mill diameter 0.50000mm)
M0      (Temporary machine stop.)
M3 ( Spindle on clockwise. )
G04 P1.00000 (Wait for spindle to get up to speed)
G04 P0 ( dwell for no time -- G64 should not smooth over this point )
G00 Z2.00000 ( retract )

G00 X0.30000 Y-0.50000 ( rapid move to begin. )
G01 F30.00000
( Mill infeed pass 1/2 )
G01 Z-0.07500
G04 P0 ( dwell for no time -- G64 should not smooth over this point )
G01 F40.00000
G01 X0.30000 Y-0.50000
G01 X0.29484 Y-0.55529
G01 X0.27958 Y-0.60871
G01 X0.25474 Y-0.65842
G01 X0.22118 Y-0.70267
G01 X0.18001 Y-0.73998
G01 X0.13266 Y-0.76906
G01 X0.08080 Y-0.78890
G01 X0.02614 Y-0.79886
G01 X-0.02939 Y-0.79855
G01 X-0.12695 Y-0.78892
G01 X-0.18461 Y-0.77747
G01 X-0.30615 Y-0.73909
G01 X-0.44445 Y-0.66518
G01 X-0.54386 Y-0.58544
G01 X-0.58544 Y-0.54386
G01 X-0.64762 Y-0.46810
G01 X-0.68029 Y-0.41920
G01 X-0.72649 Y-0.33274
G01 X-0.74902 Y-0.27841
G01 X-0.77747 Y-0.18461
G01 X-0.78892 Y-0.12695
G01 X-0.79855 Y-0.02939
G01 X-0.79886 Y0.02614
G01 X-0.78890 Y0.08080
G01 X-0.76906 Y0.13266
G01 X-0.73998 Y0.18001
G01 X-0.70267 Y0.22118
G01 X-0.65842 Y0.25474
G01 X-0.60871 Y0.27958
G01 X-0.55529 Y0.29484
G01 X-0.50000 Y0.30000
G01 X-0.00000 Y0.30000
G01 X0.05852 Y0.29423
G01 X0.11478 Y0.27714
G01 X0.16665 Y0.24943
G01 X0.21212 Y0.21212
G01 X0.24943 Y0.16665
G01 X0.27714 Y0.11478
G01 X0.29423 Y0.05852
G01 X0.30000 Y0.00000
G01 X0.30000 Y-0.50000
( Mill infeed pass 2/2 )
G01 Z-0.15000
G04 P0 ( dwell for no time -- G64 should not smooth over this point )
G01 F40.00000
G01 X0.30000 Y-0.50000
G01 X0.29484 Y-0.55529
G01 X0.27958 Y-0.60871
G01 X0.25474 Y-0.65842
G01 X0.22118 Y-0.70267
G01 X0.18001 Y-0.73998
G01 X0.13266 Y-0.76906
G01 X0.08080 Y-0.78890
G01 X0.02614 Y-0.79886
G01 X-0.02939 Y-0.79855
G01 X-0.12695 Y-0.78892
G01 X-0.18461 Y-0.77747
G01 X-0.30615 Y-0.73909
G01 X-0.44445 Y-0.66518
G01 X-0.54386 Y-0.58544
G01 X-0.58544 Y-0.54386
G01 X-0.64762 Y-0.46810
G01 X-0.68029 Y-0.41920
G01 X-0.72649 Y-0.33274
G01 X-0.74902 Y-0.27841
G01 X-0.77747 Y-0.18461
G01 X-0.78892 Y-0.12695
G01 X-0.79855 Y-0.02939
G01 X-0.79886 Y0.02614
G01 X-0.78890 Y0.08080
G01 X-0.76906 Y0.13266
G01 X-0.73998 Y0.18001
G01 X-0.70267 Y0.22118
G01 X-0.65842 Y0.25474
G01 X-0.60871 Y0.27958
G01 X-0.55529 Y0.29484
G01 X-0.50000 Y0.30000
G01 X-0.00000 Y0.30000
G01 X0.05852 Y0.29423
G01 X0.11478 Y0.27714
G01 X0.16665 Y0.24943
G01 X0.21212 Y0.21212
G01 X0.24943 Y0.16665
G01 X0.27714 Y0.11478
G01 X0.29423 Y0.05852
G01 X0.30000 Y0.00000
G01 X0.30000 Y-0.50000
G04 P0 ( dwell for no time -- G64 should not smooth over this point )
G00 Z2.00000 ( retract )

G00 X-2.84998 Y-4.84998 ( rapid move to begin. )
G01 F30.00000
( Mill infeed pass 1/2 )
G01 Z-0.07500
G04 P0 ( dwell for no time -- G64 should not smooth over this point )
G01 F40.00000
G01 X-2.84998 Y-4.84998
G01 X-2.85575 Y-4.90852
G01 X-2.87282 Y-4.96479
G01 X-2.90055 Y-5.01665
G01 X-2.93787 Y-5.06212
G01 X-2.98331 Y-5.09943
G01 X-3.03517 Y-5.12714
G01 X-3.09146 Y-5.14421
G01 X-3.14998 Y-5.14998
G01 X-4.84998 Y-5.14998
G01 X-4.90852 Y-5.14421
G01 X-4.96479 Y-5.12714
G01 X-5.01665 Y-5.09943
G01 X-5.06212 Y-5.06212
G01 X-5.09943 Y-5.01665
G01 X-5.12714 Y-4.96479
G01 X-5.14421 Y-4.90852
G01 X-5.14998 Y-4.84998
G01 X-5.14998 Y-3.14998
G01 X-5.14421 Y-3.09146
G01 X-5.12714 Y-3.03517
G01 X-5.09943 Y-2.98331
G01 X-5.06212 Y-2.93787
G01 X-5.01665 Y-2.90055
G01 X-4.96479 Y-2.87282
G01 X-4.90852 Y-2.85575
G01 X-4.84998 Y-2.84998
G01 X-3.14998 Y-2.84998
G01 X-3.09146 Y-2.85575
G01 X-3.03517 Y-2.87282
G01 X-2.98331 Y-2.90055
G01 X-2.93787 Y-2.93787
G01 X-2.90055 Y-2.98331
G01 X-2.87282 Y-3.03517
G01 X-2.85575 Y-3.09146
G01 X-2.84998 Y-3.14998
G01 X-2.84998 Y-4.84998
( Mill infeed pass 2/2 )
G01 Z-0.15000
G04 P0 ( dwell for no time -- G64 should not smooth over this point )
G01 F40.00000
G01 X-2.84998 Y-4.84998
G01 X-2.85575 Y-4.90852
G01 X-2.87282 Y-4.96479
G01 X-2.90055 Y-5.01665
G01 X-2.93787 Y-5.06212
G01 X-2.98331 Y-5.09943
G01 X-3.03517 Y-5.12714
G01 X-3.09146 Y-5.14421
G01 X-3.14998 Y-5.14998
G01 X-4.84998 Y-5.14998
G01 X-4.90852 Y-5.14421
G01 X-4.96479 Y-5.12714
G01 X-5.01665 Y-5.09943
G01 X-5.06212 Y-5.06212
G01 X-5.09943 Y-5.01665
G01 X-5.12714 Y-4.96479
G01 X-5.14421 Y-4.90852
G01 X-5.14998 Y-4.84998
G01 X-5.14998 Y-3.14998
G01 X-5.14421 Y-3.09146
G01 X-5.12714 Y-3.03517
G01 X-5.09943 Y-2.98331
G01 X-5.06212 Y-2.93787
G01 X-5.01665 Y-2.90055
G01 X-4.96479 Y-2.87282
G01 X-4.90852 Y-2.85575
G01 X-4.84998 Y-2.84998
G01 X-3.14998 Y-2.84998
G01 X-3.09146 Y-2.85575
G01 X-3.03517 Y-2.87282
G01 X-2.98331 Y-2.90055
G01 X-2.93787 Y-2.93787
G01 X-2.90055 Y-2.98331
G01 X-2.87282 Y-3.03517
G01 X-2.85575 Y-3.09146
G01 X-2.84998 Y-3.14998
G01 X-2.84998 Y-4.84998
G04 P0 ( dwell for no time -- G64 should not smooth over this point )
G00 Z2.00000 ( retract )

G00 X-5.39143 Y-4.02938 ( rapid move to begin. )
G01 F30.00000
( Mill infeed pass 1/2 )
G01 Z-0.07500
G04 P0 ( dwell for no time -- G64 should not smooth over this point )
G01 F40.00000
G01 X-5.39143 Y-4.02938
G01 X-5.41208 Y-4.22435
G01 X-5.46760 Y-4.41236
G01 X-5.49011 Y-4.46669
G01 X-5.58381 Y-4.63890
G01 X-5.72681 Y-4.81315
G01 X-5.90108 Y-4.95617
G01 X-6.07329 Y-5.04985
G01 X-6.12762 Y-5.07235
G01 X-6.31563 Y-5.12788
G01 X-6.51058 Y-5.14855
G01 X-6.56938 Y-5.14855
G01 X-6.76435 Y-5.12788
G01 X-6.95236 Y-5.07235
G01 X-7.00669 Y-5.04985
G01 X-7.17890 Y-4.95617
G01 X-7.33135 Y-4.83293
G01 X-7.37293 Y-4.79135
G01 X-7.49618 Y-4.63890
G01 X-7.60245 Y-4.44007
G01 X-7.66074 Y-4.25290
G01 X-7.67222 Y-4.19522
G01 X-7.68998 Y-3.99999
G01 X-7.67222 Y-3.80477
G01 X-7.66074 Y-3.74708
G01 X-7.60245 Y-3.55991
G01 X-7.49618 Y-3.36108
G01 X-7.37293 Y-3.20858
G01 X-7.33135 Y-3.16705
G01 X-7.20255 Y-3.06133
G01 X-7.15363 Y-3.02867
G01 X-6.98007 Y-2.93754
G01 X-6.76435 Y-2.87208
G01 X-6.56938 Y-2.85143
G01 X-6.51058 Y-2.85143
G01 X-6.31563 Y-2.87208
G01 X-6.12762 Y-2.92760
G01 X-6.07329 Y-2.95011
G01 X-5.92633 Y-3.02867
G01 X-5.87743 Y-3.06133
G01 X-5.72681 Y-3.18681
G01 X-5.58381 Y-3.36108
G01 X-5.49011 Y-3.53329
G01 X-5.46760 Y-3.58762
G01 X-5.41208 Y-3.77563
G01 X-5.39143 Y-3.97058
G01 X-5.39143 Y-4.02938
( Mill infeed pass 2/2 )
G01 Z-0.15000
G04 P0 ( dwell for no time -- G64 should not smooth over this point )
G01 F40.00000
G01 X-5.39143 Y-4.02938
G01 X-5.41208 Y-4.22435
G01 X-5.46760 Y-4.41236
G01 X-5.49011 Y-4.46669
G01 X-5.58381 Y-4.63890
G01 X-5.72681 Y-4.81315
G01 X-5.90108 Y-4.95617
G01 X-6.07329 Y-5.04985
G01 X-6.12762 Y-5.07235
G01 X-6.31563 Y-5.12788
G01 X-6.51058 Y-5.14855
G01 X-6.56938 Y-5.14855
G01 X-6.76435 Y-5.12788
G01 X-6.95236 Y-5.07235
G01 X-7.00669 Y-5.04985
G01 X-7.17890 Y-4.95617
G01 X-7.33135 Y-4.83293
G01 X-7.37293 Y-4.79135
G01 X-7.49618 Y-4.63890
G01 X-7.60245 Y-4.44007
G01 X-7.66074 Y-4.25290
G01 X-7.67222 Y-4.19522
G01 X-7.68998 Y-3.99999
G01 X-7.67222 Y-3.80477
G01 X-7.66074 Y-3.74708
G01 X-7.60245 Y-3.55991
G01 X-7.49618 Y-3.36108
G01 X-7.37293 Y-3.20858
G01 X-7.33135 Y-3.16705
G01 X-7.20255 Y-3.06133
G01 X-7.15363 Y-3.02867
G01 X-6.98007 Y-2.93754
G01 X-6.76435 Y-2.87208
G01 X-6.56938 Y-2.85143
G01 X-6.51058 Y-2.85143
G01 X-6.31563 Y-2.87208
G01 X-6.12762 Y-2.92760
G01 X-6.07329 Y-2.95011
G01 X-5.92633 Y-3.02867
G01 X-5.87743 Y-3.06133
G01 X-5.72681 Y-3.18681
G01 X-5.58381 Y-3.36108
G01 X-5.49011 Y-3.53329
G01 X-5.46760 Y-3.58762
G01 X-5.41208 Y-3.77563
G01 X-5.39143 Y-3.97058
G01 X-5.39143 Y-4.02938
G04 P0 ( dwell for no time -- G64 should not smooth over this point )
G00 Z2.00000 ( retract )

G00 X-7.93143 Y-4.02938 ( rapid move to begin. )
G01 F30.00000
( Mill infeed pass 1/2 )
G01 Z-0.07500
G04 P0 ( dwell for no time -- G64 should not smooth over this point )
G01 F40.00000
G01 X-7.93143 Y-4.02938
G01 X-7.95208 Y-4.22435
G01 X-8.00760 Y-4.41236
G01 X-8.03011 Y-4.46669
G01 X-8.12381 Y-4.63890
G01 X-8.24705 Y-4.79135
G01 X-8.28863 Y-4.83293
G01 X-8.41743 Y-4.93865
G01 X-8.46633 Y-4.97131
G01 X-8.61329 Y-5.04985
G01 X-8.66762 Y-5.07235
G01 X-8.85563 Y-5.12788
G01 X-9.05058 Y-5.14855
G01 X-9.10938 Y-5.14855
G01 X-9.30435 Y-5.12788
G01 X-9.45622 Y-5.08333
G01 X-14.93553 Y-10.56264
G01 X-14.98765 Y-10.60729
G01 X-15.03655 Y-10.63996
G01 X-15.09773 Y-10.67102
G01 X-15.16299 Y-10.69233
G01 X-15.22067 Y-10.70379
G01 X-15.28910 Y-10.70910
G01 X-40.77746 Y-10.70910
G01 X-44.79793 Y-14.72954
G01 X-44.85005 Y-14.77419
G01 X-44.89894 Y-14.80685
G01 X-44.98787 Y-14.84785
G01 X-45.08307 Y-14.87068
G01 X-45.15150 Y-14.87599
G01 X-47.49808 Y-14.87454
G01 X-47.59477 Y-14.85923
G01 X-47.63229 Y-14.84785
G01 X-47.68662 Y-14.82535
G01 X-47.74646 Y-14.79172
G01 X-47.82223 Y-14.72954
G01 X-47.94557 Y-14.60619
G01 X-51.67907 Y-14.60619
G01 X-52.49654 Y-15.42364
G01 X-52.46827 Y-15.51683
G01 X-52.45677 Y-15.57452
G01 X-52.44142 Y-15.73058
G01 X-52.44142 Y-15.78940
G01 X-52.45677 Y-15.94546
G01 X-52.46827 Y-16.00314
G01 X-52.52372 Y-16.18094
G01 X-52.62535 Y-16.37111
G01 X-52.74236 Y-16.51599
G01 X-52.78399 Y-16.55757
G01 X-52.90520 Y-16.65707
G01 X-52.95412 Y-16.68973
G01 X-53.09243 Y-16.76367
G01 X-53.14673 Y-16.78617
G01 X-53.29682 Y-16.83169
G01 X-53.35450 Y-16.84317
G01 X-53.54000 Y-16.85999
G01 X-53.72547 Y-16.84317
G01 X-53.78315 Y-16.83169
G01 X-53.93322 Y-16.78617
G01 X-53.98755 Y-16.76367
G01 X-54.12585 Y-16.68973
G01 X-54.17477 Y-16.65707
G01 X-54.29598 Y-16.55757
G01 X-54.33758 Y-16.51599
G01 X-54.43708 Y-16.39476
G01 X-54.46974 Y-16.34587
G01 X-54.55625 Y-16.18094
G01 X-54.61170 Y-16.00314
G01 X-54.62318 Y-15.94546
G01 X-54.63855 Y-15.78940
G01 X-54.63855 Y-15.73058
G01 X-54.62318 Y-15.57452
G01 X-54.61170 Y-15.51683
G01 X-54.56618 Y-15.36675
G01 X-54.54366 Y-15.31242
G01 X-54.45460 Y-15.14886
G01 X-54.33758 Y-15.00398
G01 X-54.29598 Y-14.96240
G01 X-54.17477 Y-14.86291
G01 X-54.12585 Y-14.83025
G01 X-53.98755 Y-14.75631
G01 X-53.93322 Y-14.73380
G01 X-53.78315 Y-14.68829
G01 X-53.72547 Y-14.67681
G01 X-53.54000 Y-14.65999
G01 X-53.35450 Y-14.67681
G01 X-53.29682 Y-14.68829
G01 X-53.20363 Y-14.71653
G01 X-52.23972 Y-13.75263
G01 X-52.18760 Y-13.70797
G01 X-52.13871 Y-13.67531
G01 X-52.10411 Y-13.65682
G01 X-52.01227 Y-13.62293
G01 X-51.95458 Y-13.61148
G01 X-51.88618 Y-13.60617
G01 X-47.73849 Y-13.60617
G01 X-47.67006 Y-13.61148
G01 X-47.61238 Y-13.62293
G01 X-47.54712 Y-13.64424
G01 X-47.48593 Y-13.67531
G01 X-47.46069 Y-13.69045
G01 X-47.40674 Y-13.73287
G01 X-47.26158 Y-13.87597
G01 X-45.35858 Y-13.87597
G01 X-41.33812 Y-9.85553
G01 X-41.28600 Y-9.81088
G01 X-41.20251 Y-9.75972
G01 X-41.11066 Y-9.72584
G01 X-41.05298 Y-9.71438
G01 X-40.98455 Y-9.70907
G01 X-15.49618 Y-9.70907
G01 X-10.16333 Y-4.37622
G01 X-10.20788 Y-4.22435
G01 X-10.22855 Y-4.02938
G01 X-10.22855 Y-3.97058
G01 X-10.21222 Y-3.80477
G01 X-10.20074 Y-3.74708
G01 X-10.15235 Y-3.58762
G01 X-10.12985 Y-3.53329
G01 X-10.05131 Y-3.38633
G01 X-10.01865 Y-3.33743
G01 X-9.91293 Y-3.20858
G01 X-9.87135 Y-3.16705
G01 X-9.74255 Y-3.06133
G01 X-9.69363 Y-3.02867
G01 X-9.52007 Y-2.93754
G01 X-9.33290 Y-2.87924
G01 X-9.27522 Y-2.86776
G01 X-9.10938 Y-2.85143
G01 X-9.05058 Y-2.85143
G01 X-8.88477 Y-2.86776
G01 X-8.82708 Y-2.87924
G01 X-8.66762 Y-2.92760
G01 X-8.61329 Y-2.95011
G01 X-8.44108 Y-3.04381
G01 X-8.28863 Y-3.16705
G01 X-8.24705 Y-3.20858
G01 X-8.12381 Y-3.36108
G01 X-8.03011 Y-3.53329
G01 X-8.00760 Y-3.58762
G01 X-7.95924 Y-3.74708
G01 X-7.94776 Y-3.80477
G01 X-7.93143 Y-3.97058
G01 X-7.93143 Y-4.02938
( Mill infeed pass 2/2 )
G01 Z-0.15000
G04 P0 ( dwell for no time -- G64 should not smooth over this point )
G01 F40.00000
G01 X-7.93143 Y-4.02938
G01 X-7.95208 Y-4.22435
G01 X-8.00760 Y-4.41236
G01 X-8.03011 Y-4.46669
G01 X-8.12381 Y-4.63890
G01 X-8.24705 Y-4.79135
G01 X-8.28863 Y-4.83293
G01 X-8.41743 Y-4.93865
G01 X-8.46633 Y-4.97131
G01 X-8.61329 Y-5.04985
G01 X-8.66762 Y-5.07235
G01 X-8.85563 Y-5.12788
G01 X-9.05058 Y-5.14855
G01 X-9.10938 Y-5.14855
G01 X-9.30435 Y-5.12788
G01 X-9.45622 Y-5.08333
G01 X-14.93553 Y-10.56264
G01 X-14.98765 Y-10.60729
G01 X-15.03655 Y-10.63996
G01 X-15.09773 Y-10.67102
G01 X-15.16299 Y-10.69233
G01 X-15.22067 Y-10.70379
G01 X-15.28910 Y-10.70910
G01 X-40.77746 Y-10.70910
G01 X-44.79793 Y-14.72954
G01 X-44.85005 Y-14.77419
G01 X-44.89894 Y-14.80685
G01 X-44.98787 Y-14.84785
G01 X-45.08307 Y-14.87068
G01 X-45.15150 Y-14.87599
G01 X-47.49808 Y-14.87454
G01 X-47.59477 Y-14.85923
G01 X-47.63229 Y-14.84785
G01 X-47.68662 Y-14.82535
G01 X-47.74646 Y-14.79172
G01 X-47.82223 Y-14.72954
G01 X-47.94557 Y-14.60619
G01 X-51.67907 Y-14.60619
G01 X-52.49654 Y-15.42364
G01 X-52.46827 Y-15.51683
G01 X-52.45677 Y-15.57452
G01 X-52.44142 Y-15.73058
G01 X-52.44142 Y-15.78940
G01 X-52.45677 Y-15.94546
G01 X-52.46827 Y-16.00314
G01 X-52.52372 Y-16.18094
G01 X-52.62535 Y-16.37111
G01 X-52.74236 Y-16.51599
G01 X-52.78399 Y-16.55757
G01 X-52.90520 Y-16.65707
G01 X-52.95412 Y-16.68973
G01 X-53.09243 Y-16.76367
G01 X-53.14673 Y-16.78617
G01 X-53.29682 Y-16.83169
G01 X-53.35450 Y-16.84317
G01 X-53.54000 Y-16.85999
G01 X-53.72547 Y-16.84317
G01 X-53.78315 Y-16.83169
G01 X-53.93322 Y-16.78617
G01 X-53.98755 Y-16.76367
G01 X-54.12585 Y-16.68973
G01 X-54.17477 Y-16.65707
G01 X-54.29598 Y-16.55757
G01 X-54.33758 Y-16.51599
G01 X-54.43708 Y-16.39476
G01 X-54.46974 Y-16.34587
G01 X-54.55625 Y-16.18094
G01 X-54.61170 Y-16.00314
G01 X-54.62318 Y-15.94546
G01 X-54.63855 Y-15.78940
G01 X-54.63855 Y-15.73058
G01 X-54.62318 Y-15.57452
G01 X-54.61170 Y-15.51683
G01 X-54.56618 Y-15.36675
G01 X-54.54366 Y-15.31242
G01 X-54.45460 Y-15.14886
G01 X-54.33758 Y-15.00398
G01 X-54.29598 Y-14.96240
G01 X-54.17477 Y-14.86291
G01 X-54.12585 Y-14.83025
G01 X-53.98755 Y-14.75631
G01 X-53.93322 Y-14.73380
G01 X-53.78315 Y-14.68829
G01 X-53.72547 Y-14.67681
G01 X-53.54000 Y-14.65999
G01 X-53.35450 Y-14.67681
G01 X-53.29682 Y-14.68829
G01 X-53.20363 Y-14.71653
G01 X-52.23972 Y-13.75263
G01 X-52.18760 Y-13.70797
G01 X-52.13871 Y-13.67531
G01 X-52.10411 Y-13.65682
G01 X-52.01227 Y-13.62293
G01 X-51.95458 Y-13.61148
G01 X-51.88618 Y-13.60617
G01 X-47.73849 Y-13.60617
G01 X-47.67006 Y-13.61148
G01 X-47.61238 Y-13.62293
G01 X-47.54712 Y-13.64424
G01 X-47.48593 Y-13.67531
G01 X-47.46069 Y-13.69045
G01 X-47.40674 Y-13.73287
G01 X-47.26158 Y-13.87597
G01 X-45.35858 Y-13.87597
G01 X-41.33812 Y-9.85553
G01 X-41.28600 Y-9.81088
G01 X-41.20251 Y-9.75972
G01 X-41.11066 Y-9.72584
G01 X-41.05298 Y-9.71438
G01 X-40.98455 Y-9.70907
G01 X-15.49618 Y-9.70907
G01 X-10.16333 Y-4.37622
G01 X-10.20788 Y-4.22435
G01 X-10.22855 Y-4.02938
G01 X-10.22855 Y-3.97058
G01 X-10.21222 Y-3.80477
G01 X-10.20074 Y-3.74708
G01 X-10.15235 Y-3.58762
G01 X-10.12985 Y-3.53329
G01 X-10.05131 Y-3.38633
G01 X-10.01865 Y-3.33743
G01 X-9.91293 Y-3.20858
G01 X-9.87135 Y-3.16705
G01 X-9.74255 Y-3.06133
G01 X-9.69363 Y-3.02867
G01 X-9.52007 Y-2.93754
G01 X-9.33290 Y-2.87924
G01 X-9.27522 Y-2.86776
G01 X-9.10938 Y-2.85143
G01 X-9.05058 Y-2.85143
G01 X-8.88477 Y-2.86776
G01 X-8.82708 Y-2.87924
G01 X-8.66762 Y-2.92760
G01 X-8.61329 Y-2.95011
G01 X-8.44108 Y-3.04381
G01 X-8.28863 Y-3.16705
G01 X-8.24705 Y-3.20858
G01 X-8.12381 Y-3.36108
G01 X-8.03011 Y-3.53329
G01 X-8.00760 Y-3.58762
G01 X-7.95924 Y-3.74708
G01 X-7.94776 Y-3.80477
G01 X-7.93143 Y-3.97058
G01 X-7.93143 Y-4.02938
G04 P0 ( dwell for no time -- G64 should not smooth over this point )
G00 Z2.00000 ( retract )

G00 X-10.47143 Y-4.02938 ( rapid move to begin. )
G01 F30.00000
( Mill infeed pass 1/2 )
G01 Z-0.07500
G04 P0 ( dwell for no time -- G64 should not smooth over this point )
G01 F40.00000
G01 X-10.47143 Y-4.02938
G01 X-10.49208 Y-4.22435
G01 X-10.54760 Y-4.41236
G01 X-10.57011 Y-4.46669
G01 X-10.66381 Y-4.63890
G01 X-10.78705 Y-4.79135
G01 X-10.82863 Y-4.83293
G01 X-10.95743 Y-4.93865
G01 X-11.00633 Y-4.97131
G01 X-11.15329 Y-5.04985
G01 X-11.20762 Y-5.07235
G01 X-11.39563 Y-5.12788
G01 X-11.59058 Y-5.14855
G01 X-11.64938 Y-5.14855
G01 X-11.84435 Y-5.12788
G01 X-11.99622 Y-5.08333
G01 X-16.47543 Y-9.56254
G01 X-16.52755 Y-9.60719
G01 X-16.57645 Y-9.63986
G01 X-16.63763 Y-9.67092
G01 X-16.70289 Y-9.69223
G01 X-16.76057 Y-9.70369
G01 X-16.82900 Y-9.70900
G01 X-42.34238 Y-9.70900
G01 X-45.62330 Y-12.98992
G01 X-45.61774 Y-13.04638
G01 X-45.61774 Y-13.10516
G01 X-45.62734 Y-13.20272
G01 X-45.63882 Y-13.26043
G01 X-45.67718 Y-13.38194
G01 X-45.73598 Y-13.49499
G01 X-45.76864 Y-13.54389
G01 X-45.83082 Y-13.61966
G01 X-45.87243 Y-13.66124
G01 X-45.97184 Y-13.74097
G01 X-46.08352 Y-13.80231
G01 X-46.13786 Y-13.82481
G01 X-46.23166 Y-13.85326
G01 X-46.28934 Y-13.86474
G01 X-46.38688 Y-13.87434
G01 X-46.44570 Y-13.87434
G01 X-46.54324 Y-13.86474
G01 X-46.60092 Y-13.85326
G01 X-46.69472 Y-13.82481
G01 X-46.74906 Y-13.80231
G01 X-46.86074 Y-13.74097
G01 X-46.96015 Y-13.66124
G01 X-47.00173 Y-13.61966
G01 X-47.06391 Y-13.54389
G01 X-47.09660 Y-13.49499
G01 X-47.15538 Y-13.38194
G01 X-47.19376 Y-13.26043
G01 X-47.20524 Y-13.20272
G01 X-47.21484 Y-13.10516
G01 X-47.21484 Y-13.04638
G01 X-47.20524 Y-12.94882
G01 X-47.19376 Y-12.89116
G01 X-47.15538 Y-12.76965
G01 X-47.09660 Y-12.65659
G01 X-47.06391 Y-12.60770
G01 X-46.98197 Y-12.51011
G01 X-46.88439 Y-12.42814
G01 X-46.83549 Y-12.39548
G01 X-46.74906 Y-12.34928
G01 X-46.69472 Y-12.32677
G01 X-46.60092 Y-12.29832
G01 X-46.54324 Y-12.28684
G01 X-46.44570 Y-12.27724
G01 X-46.38688 Y-12.27724
G01 X-46.33039 Y-12.28280
G01 X-42.90304 Y-8.85543
G01 X-42.85092 Y-8.81078
G01 X-42.80202 Y-8.77811
G01 X-42.74083 Y-8.74705
G01 X-42.67558 Y-8.72574
G01 X-42.61790 Y-8.71428
G01 X-42.54950 Y-8.70897
G01 X-17.03608 Y-8.70897
G01 X-12.70333 Y-4.37622
G01 X-12.74788 Y-4.22435
G01 X-12.76855 Y-4.02938
G01 X-12.76855 Y-3.97058
G01 X-12.75220 Y-3.80477
G01 X-12.74074 Y-3.74708
G01 X-12.69235 Y-3.58762
G01 X-12.66985 Y-3.53329
G01 X-12.59131 Y-3.38633
G01 X-12.55865 Y-3.33743
G01 X-12.45293 Y-3.20858
G01 X-12.41135 Y-3.16705
G01 X-12.28255 Y-3.06133
G01 X-12.23363 Y-3.02867
G01 X-12.06007 Y-2.93754
G01 X-11.87290 Y-2.87924
G01 X-11.81522 Y-2.86776
G01 X-11.64938 Y-2.85143
G01 X-11.59058 Y-2.85143
G01 X-11.42477 Y-2.86776
G01 X-11.36708 Y-2.87924
G01 X-11.20762 Y-2.92760
G01 X-11.15329 Y-2.95011
G01 X-10.98108 Y-3.04381
G01 X-10.82863 Y-3.16705
G01 X-10.78705 Y-3.20858
G01 X-10.66381 Y-3.36108
G01 X-10.57011 Y-3.53329
G01 X-10.54760 Y-3.58762
G01 X-10.49924 Y-3.74708
G01 X-10.48776 Y-3.80477
G01 X-10.47143 Y-3.97058
G01 X-10.47143 Y-4.02938
( Mill infeed pass 2/2 )
G01 Z-0.15000
G04 P0 ( dwell for no time -- G64 should not smooth over this point )
G01 F40.00000
G01 X-10.47143 Y-4.02938
G01 X-10.49208 Y-4.22435
G01 X-10.54760 Y-4.41236
G01 X-10.57011 Y-4.46669
G01 X-10.66381 Y-4.63890
G01 X-10.78705 Y-4.79135
G01 X-10.82863 Y-4.83293
G01 X-10.95743 Y-4.93865
G01 X-11.00633 Y-4.97131
G01 X-11.15329 Y-5.04985
G01 X-11.20762 Y-5.07235
G01 X-11.39563 Y-5.12788
G01 X-11.59058 Y-5.14855
G01 X-11.64938 Y-5.14855
G01 X-11.84435 Y-5.12788
G01 X-11.99622 Y-5.08333
G01 X-16.47543 Y-9.56254
G01 X-16.52755 Y-9.60719
G01 X-16.57645 Y-9.63986
G01 X-16.63763 Y-9.67092
G01 X-16.70289 Y-9.69223
G01 X-16.76057 Y-9.70369
G01 X-16.82900 Y-9.70900
G01 X-42.34238 Y-9.70900
G01 X-45.62330 Y-12.98992
G01 X-45.61774 Y-13.04638
G01 X-45.61774 Y-13.10516
G01 X-45.62734 Y-13.20272
G01 X-45.63882 Y-13.26043
G01 X-45.67718 Y-13.38194
G01 X-45.73598 Y-13.49499
G01 X-45.76864 Y-13.54389
G01 X-45.83082 Y-13.61966
G01 X-45.87243 Y-13.66124
G01 X-45.97184 Y-13.74097
G01 X-46.08352 Y-13.80231
G01 X-46.13786 Y-13.82481
G01 X-46.23166 Y-13.85326
G01 X-46.28934 Y-13.86474
G01 X-46.38688 Y-13.87434
G01 X-46.44570 Y-13.87434
G01 X-46.54324 Y-13.86474
G01 X-46.60092 Y-13.85326
G01 X-46.69472 Y-13.82481
G01 X-46.74906 Y-13.80231
G01 X-46.86074 Y-13.74097
G01 X-46.96015 Y-13.66124
G01 X-47.00173 Y-13.61966
G01 X-47.06391 Y-13.54389
G01 X-47.09660 Y-13.49499
G01 X-47.15538 Y-13.38194
G01 X-47.19376 Y-13.26043
G01 X-47.20524 Y-13.20272
G01 X-47.21484 Y-13.10516
G01 X-47.21484 Y-13.04638
G01 X-47.20524 Y-12.94882
G01 X-47.19376 Y-12.89116
G01 X-47.15538 Y-12.76965
G01 X-47.09660 Y-12.65659
G01 X-47.06391 Y-12.60770
G01 X-46.98197 Y-12.51011
G01 X-46.88439 Y-12.42814
G01 X-46.83549 Y-12.39548
G01 X-46.74906 Y-12.34928
G01 X-46.69472 Y-12.32677
G01 X-46.60092 Y-12.29832
G01 X-46.54324 Y-12.28684
G01 X-46.44570 Y-12.27724
G01 X-46.38688 Y-12.27724
G01 X-46.33039 Y-12.28280
G01 X-42.90304 Y-8.85543
G01 X-42.85092 Y-8.81078
G01 X-42.80202 Y-8.77811
G01 X-42.74083 Y-8.74705
G01 X-42.67558 Y-8.72574
G01 X-42.61790 Y-8.71428
G01 X-42.54950 Y-8.70897
G01 X-17.03608 Y-8.70897
G01 X-12.70333 Y-4.37622
G01 X-12.74788 Y-4.22435
G01 X-12.76855 Y-4.02938
G01 X-12.76855 Y-3.97058
G01 X-12.75220 Y-3.80477
G01 X-12.74074 Y-3.74708
G01 X-12.69235 Y-3.58762
G01 X-12.66985 Y-3.53329
G01 X-12.59131 Y-3.38633
G01 X-12.55865 Y-3.33743
G01 X-12.45293 Y-3.20858
G01 X-12.41135 Y-3.16705
G01 X-12.28255 Y-3.06133
G01 X-12.23363 Y-3.02867
G01 X-12.06007 Y-2.93754
G01 X-11.87290 Y-2.87924
G01 X-11.81522 Y-2.86776
G01 X-11.64938 Y-2.85143
G01 X-11.59058 Y-2.85143
G01 X-11.42477 Y-2.86776
G01 X-11.36708 Y-2.87924
G01 X-11.20762 Y-2.92760
G01 X-11.15329 Y-2.95011
G01 X-10.98108 Y-3.04381
G01 X-10.82863 Y-3.16705
G01 X-10.78705 Y-3.20858
G01 X-10.66381 Y-3.36108
G01 X-10.57011 Y-3.53329
G01 X-10.54760 Y-3.58762
G01 X-10.49924 Y-3.74708
G01 X-10.48776 Y-3.80477
G01 X-10.47143 Y-3.97058
G01 X-10.47143 Y-4.02938
G04 P0 ( dwell for no time -- G64 should not smooth over this point )
G00 Z2.00000 ( retract )

G00 X-13.00998 Y-3.99999 ( rapid move to begin. )
G01 F30.00000
( Mill infeed pass 1/2 )
G01 Z-0.07500
G04 P0 ( dwell for no time -- G64 should not smooth over this point )
G01 F40.00000
G01 X-13.00998 Y-3.99999
G01 X-13.03208 Y-4.22435
G01 X-13.08760 Y-4.41236
G01 X-13.11011 Y-4.46669
G01 X-13.18867 Y-4.61363
G01 X-13.22133 Y-4.66255
G01 X-13.32705 Y-4.79135
G01 X-13.36863 Y-4.83293
G01 X-13.49743 Y-4.93865
G01 X-13.54633 Y-4.97131
G01 X-13.71991 Y-5.06245
G01 X-13.90708 Y-5.12074
G01 X-13.96477 Y-5.13222
G01 X-14.13058 Y-5.14855
G01 X-14.18938 Y-5.14855
G01 X-14.35522 Y-5.13222
G01 X-14.41290 Y-5.12074
G01 X-14.53622 Y-5.08333
G01 X-18.01533 Y-8.56244
G01 X-18.06745 Y-8.60709
G01 X-18.15094 Y-8.65825
G01 X-18.17754 Y-8.67082
G01 X-18.24279 Y-8.69213
G01 X-18.30047 Y-8.70359
G01 X-18.36890 Y-8.70890
G01 X-47.53767 Y-8.70890
G01 X-48.15533 Y-9.32449
G01 X-48.23452 Y-9.38205
G01 X-48.29571 Y-9.41311
G01 X-48.36096 Y-9.43442
G01 X-48.41865 Y-9.44588
G01 X-48.48708 Y-9.45119
G01 X-51.60406 Y-9.45119
G01 X-57.57654 Y-15.42364
G01 X-57.54827 Y-15.51683
G01 X-57.53679 Y-15.57452
G01 X-57.52142 Y-15.73058
G01 X-57.52142 Y-15.78940
G01 X-57.53679 Y-15.94546
G01 X-57.54827 Y-16.00314
G01 X-57.59381 Y-16.15323
G01 X-57.61632 Y-16.20756
G01 X-57.69023 Y-16.34587
G01 X-57.72290 Y-16.39476
G01 X-57.82239 Y-16.51599
G01 X-57.86399 Y-16.55757
G01 X-57.98520 Y-16.65707
G01 X-58.03412 Y-16.68973
G01 X-58.19905 Y-16.77624
G01 X-58.37682 Y-16.83169
G01 X-58.43450 Y-16.84317
G01 X-58.62000 Y-16.85999
G01 X-58.80547 Y-16.84317
G01 X-58.86315 Y-16.83169
G01 X-59.04093 Y-16.77624
G01 X-59.20585 Y-16.68973
G01 X-59.25477 Y-16.65707
G01 X-59.37598 Y-16.55757
G01 X-59.41759 Y-16.51599
G01 X-59.51708 Y-16.39476
G01 X-59.54974 Y-16.34587
G01 X-59.63625 Y-16.18094
G01 X-59.69170 Y-16.00314
G01 X-59.70318 Y-15.94546
G01 X-59.71855 Y-15.78940
G01 X-59.71855 Y-15.73058
G01 X-59.70318 Y-15.57452
G01 X-59.69170 Y-15.51683
G01 X-59.64619 Y-15.36675
G01 X-59.62366 Y-15.31242
G01 X-59.53460 Y-15.14886
G01 X-59.41759 Y-15.00398
G01 X-59.37598 Y-14.96240
G01 X-59.25477 Y-14.86291
G01 X-59.20585 Y-14.83025
G01 X-59.06755 Y-14.75631
G01 X-59.01322 Y-14.73380
G01 X-58.86315 Y-14.68829
G01 X-58.80547 Y-14.67681
G01 X-58.62000 Y-14.65999
G01 X-58.43450 Y-14.67681
G01 X-58.37682 Y-14.68829
G01 X-58.28365 Y-14.71653
G01 X-52.16472 Y-8.59762
G01 X-52.11260 Y-8.55297
G01 X-52.06368 Y-8.52030
G01 X-52.02911 Y-8.50181
G01 X-51.93723 Y-8.46793
G01 X-51.87958 Y-8.45647
G01 X-51.81115 Y-8.45116
G01 X-48.69416 Y-8.45116
G01 X-48.09833 Y-7.85533
G01 X-48.04621 Y-7.81068
G01 X-47.96272 Y-7.75952
G01 X-47.90839 Y-7.73702
G01 X-47.81319 Y-7.71418
G01 X-47.74479 Y-7.70887
G01 X-18.57599 Y-7.70887
G01 X-15.24333 Y-4.37622
G01 X-15.28788 Y-4.22435
G01 X-15.30998 Y-3.99999
G01 X-15.28788 Y-3.77563
G01 X-15.23235 Y-3.58762
G01 X-15.20985 Y-3.53329
G01 X-15.13131 Y-3.38633
G01 X-15.09865 Y-3.33743
G01 X-14.99293 Y-3.20858
G01 X-14.95135 Y-3.16705
G01 X-14.82255 Y-3.06133
G01 X-14.77363 Y-3.02867
G01 X-14.60007 Y-2.93754
G01 X-14.41290 Y-2.87924
G01 X-14.35522 Y-2.86776
G01 X-14.15999 Y-2.84998
G01 X-13.96477 Y-2.86776
G01 X-13.90708 Y-2.87924
G01 X-13.71991 Y-2.93754
G01 X-13.54633 Y-3.02867
G01 X-13.49743 Y-3.06133
G01 X-13.34681 Y-3.18681
G01 X-13.22133 Y-3.33743
G01 X-13.18867 Y-3.38633
G01 X-13.11011 Y-3.53329
G01 X-13.08760 Y-3.58762
G01 X-13.03924 Y-3.74708
G01 X-13.02776 Y-3.80477
G01 X-13.00998 Y-3.99999
( Mill infeed pass 2/2 )
G01 Z-0.15000
G04 P0 ( dwell for no time -- G64 should not smooth over this point )
G01 F40.00000
G01 X-13.00998 Y-3.99999
G01 X-13.03208 Y-4.22435
G01 X-13.08760 Y-4.41236
G01 X-13.11011 Y-4.46669
G01 X-13.18867 Y-4.61363
G01 X-13.22133 Y-4.66255
G01 X-13.32705 Y-4.79135
G01 X-13.36863 Y-4.83293
G01 X-13.49743 Y-4.93865
G01 X-13.54633 Y-4.97131
G01 X-13.71991 Y-5.06245
G01 X-13.90708 Y-5.12074
G01 X-13.96477 Y-5.13222
G01 X-14.13058 Y-5.14855
G01 X-14.18938 Y-5.14855
G01 X-14.35522 Y-5.13222
G01 X-14.41290 Y-5.12074
G01 X-14.53622 Y-5.08333
G01 X-18.01533 Y-8.56244
G01 X-18.06745 Y-8.60709
G01 X-18.15094 Y-8.65825
G01 X-18.17754 Y-8.67082
G01 X-18.24279 Y-8.69213
G01 X-18.30047 Y-8.70359
G01 X-18.36890 Y-8.70890
G01 X-47.53767 Y-8.70890
G01 X-48.15533 Y-9.32449
G01 X-48.23452 Y-9.38205
G01 X-48.29571 Y-9.41311
G01 X-48.36096 Y-9.43442
G01 X-48.41865 Y-9.44588
G01 X-48.48708 Y-9.45119
G01 X-51.60406 Y-9.45119
G01 X-57.57654 Y-15.42364
G01 X-57.54827 Y-15.51683
G01 X-57.53679 Y-15.57452
G01 X-57.52142 Y-15.73058
G01 X-57.52142 Y-15.78940
G01 X-57.53679 Y-15.94546
G01 X-57.54827 Y-16.00314
G01 X-57.59381 Y-16.15323
G01 X-57.61632 Y-16.20756
G01 X-57.69023 Y-16.34587
G01 X-57.72290 Y-16.39476
G01 X-57.82239 Y-16.51599
G01 X-57.86399 Y-16.55757
G01 X-57.98520 Y-16.65707
G01 X-58.03412 Y-16.68973
G01 X-58.19905 Y-16.77624
G01 X-58.37682 Y-16.83169
G01 X-58.43450 Y-16.84317
G01 X-58.62000 Y-16.85999
G01 X-58.80547 Y-16.84317
G01 X-58.86315 Y-16.83169
G01 X-59.04093 Y-16.77624
G01 X-59.20585 Y-16.68973
G01 X-59.25477 Y-16.65707
G01 X-59.37598 Y-16.55757
G01 X-59.41759 Y-16.51599
G01 X-59.51708 Y-16.39476
G01 X-59.54974 Y-16.34587
G01 X-59.63625 Y-16.18094
G01 X-59.69170 Y-16.00314
G01 X-59.70318 Y-15.94546
G01 X-59.71855 Y-15.78940
G01 X-59.71855 Y-15.73058
G01 X-59.70318 Y-15.57452
G01 X-59.69170 Y-15.51683
G01 X-59.64619 Y-15.36675
G01 X-59.62366 Y-15.31242
G01 X-59.53460 Y-15.14886
G01 X-59.41759 Y-15.00398
G01 X-59.37598 Y-14.96240
G01 X-59.25477 Y-14.86291
G01 X-59.20585 Y-14.83025
G01 X-59.06755 Y-14.75631
G01 X-59.01322 Y-14.73380
G01 X-58.86315 Y-14.68829
G01 X-58.80547 Y-14.67681
G01 X-58.62000 Y-14.65999
G01 X-58.43450 Y-14.67681
G01 X-58.37682 Y-14.68829
G01 X-58.28365 Y-14.71653
G01 X-52.16472 Y-8.59762
G01 X-52.11260 Y-8.55297
G01 X-52.06368 Y-8.52030
G01 X-52.02911 Y-8.50181
G01 X-51.93723 Y-8.46793
G01 X-51.87958 Y-8.45647
G01 X-51.81115 Y-8.45116
G01 X-48.69416 Y-8.45116
G01 X-48.09833 Y-7.85533
G01 X-48.04621 Y-7.81068
G01 X-47.96272 Y-7.75952
G01 X-47.90839 Y-7.73702
G01 X-47.81319 Y-7.71418
G01 X-47.74479 Y-7.70887
G01 X-18.57599 Y-7.70887
G01 X-15.24333 Y-4.37622
G01 X-15.28788 Y-4.22435
G01 X-15.30998 Y-3.99999
G01 X-15.28788 Y-3.77563
G01 X-15.23235 Y-3.58762
G01 X-15.20985 Y-3.53329
G01 X-15.13131 Y-3.38633
G01 X-15.09865 Y-3.33743
G01 X-14.99293 Y-3.20858
G01 X-14.95135 Y-3.16705
G01 X-14.82255 Y-3.06133
G01 X-14.77363 Y-3.02867
G01 X-14.60007 Y-2.93754
G01 X-14.41290 Y-2.87924
G01 X-14.35522 Y-2.86776
G01 X-14.15999 Y-2.84998
G01 X-13.96477 Y-2.86776
G01 X-13.90708 Y-2.87924
G01 X-13.71991 Y-2.93754
G01 X-13.54633 Y-3.02867
G01 X-13.49743 Y-3.06133
G01 X-13.34681 Y-3.18681
G01 X-13.22133 Y-3.33743
G01 X-13.18867 Y-3.38633
G01 X-13.11011 Y-3.53329
G01 X-13.08760 Y-3.58762
G01 X-13.03924 Y-3.74708
G01 X-13.02776 Y-3.80477
G01 X-13.00998 Y-3.99999
G04 P0 ( dwell for no time -- G64 should not smooth over this point )
G00 Z2.00000 ( retract )

G00 X-15.54998 Y-3.99999 ( rapid move to begin. )
G01 F30.00000
( Mill infeed pass 1/2 )
G01 Z-0.07500
G04 P0 ( dwell for no time -- G64 should not smooth over this point )
G01 F40.00000
G01 X-15.54998 Y-3.99999
G01 X-15.57208 Y-4.22435
G01 X-15.62760 Y-4.41236
G01 X-15.65011 Y-4.46669
G01 X-15.72867 Y-4.61363
G01 X-15.76133 Y-4.66255
G01 X-15.86705 Y-4.79135
G01 X-15.90863 Y-4.83293
G01 X-16.03743 Y-4.93865
G01 X-16.08633 Y-4.97131
G01 X-16.25991 Y-5.06245
G01 X-16.44708 Y-5.12074
G01 X-16.50477 Y-5.13222
G01 X-16.67058 Y-5.14855
G01 X-16.72938 Y-5.14855
G01 X-16.89522 Y-5.13222
G01 X-16.95290 Y-5.12074
G01 X-17.07622 Y-5.08333
G01 X-19.55523 Y-7.56234
G01 X-19.60735 Y-7.60700
G01 X-19.69084 Y-7.65815
G01 X-19.71744 Y-7.67072
G01 X-19.78269 Y-7.69203
G01 X-19.84037 Y-7.70349
G01 X-19.90880 Y-7.70880
G01 X-47.95187 Y-7.70880
G01 X-48.56955 Y-8.32442
G01 X-48.59985 Y-8.34928
G01 X-48.68334 Y-8.40044
G01 X-48.77519 Y-8.43432
G01 X-48.83287 Y-8.44578
G01 X-48.90130 Y-8.45109
G01 X-53.18448 Y-8.45106
G01 X-54.24279 Y-9.50940
G01 X-54.23578 Y-9.59528
G01 X-54.24683 Y-9.72223
G01 X-54.25831 Y-9.77991
G01 X-54.28676 Y-9.87372
G01 X-54.30926 Y-9.92805
G01 X-54.35547 Y-10.01448
G01 X-54.38816 Y-10.06338
G01 X-54.45034 Y-10.13915
G01 X-54.49192 Y-10.18075
G01 X-54.56768 Y-10.24293
G01 X-54.61658 Y-10.27560
G01 X-54.72963 Y-10.33440
G01 X-54.85115 Y-10.37275
G01 X-54.90883 Y-10.38423
G01 X-55.03578 Y-10.39528
G01 X-55.16273 Y-10.38423
G01 X-55.22041 Y-10.37275
G01 X-55.34193 Y-10.33440
G01 X-55.45498 Y-10.27560
G01 X-55.50390 Y-10.24293
G01 X-55.60146 Y-10.16097
G01 X-55.68343 Y-10.06338
G01 X-55.71609 Y-10.01448
G01 X-55.76230 Y-9.92805
G01 X-55.78480 Y-9.87372
G01 X-55.81327 Y-9.77991
G01 X-55.82473 Y-9.72223
G01 X-55.83578 Y-9.59528
G01 X-55.82473 Y-9.46833
G01 X-55.81327 Y-9.41065
G01 X-55.78480 Y-9.31687
G01 X-55.76230 Y-9.26252
G01 X-55.71609 Y-9.17608
G01 X-55.68343 Y-9.12719
G01 X-55.60146 Y-9.02960
G01 X-55.50390 Y-8.94766
G01 X-55.45498 Y-8.91497
G01 X-55.36855 Y-8.86877
G01 X-55.31421 Y-8.84626
G01 X-55.22041 Y-8.81781
G01 X-55.16273 Y-8.80633
G01 X-55.03578 Y-8.79528
G01 X-54.94990 Y-8.80229
G01 X-53.74513 Y-7.59752
G01 X-53.65872 Y-7.53016
G01 X-53.62895 Y-7.51114
G01 X-53.56819 Y-7.48370
G01 X-53.50030 Y-7.46455
G01 X-53.39159 Y-7.45106
G01 X-49.10839 Y-7.45106
G01 X-48.51253 Y-6.85523
G01 X-48.46041 Y-6.81058
G01 X-48.37692 Y-6.75942
G01 X-48.32259 Y-6.73692
G01 X-48.28507 Y-6.72554
G01 X-48.18837 Y-6.71022
G01 X-20.11589 Y-6.70877
G01 X-17.78333 Y-4.37622
G01 X-17.82788 Y-4.22435
G01 X-17.84998 Y-3.99999
G01 X-17.82788 Y-3.77563
G01 X-17.77235 Y-3.58762
G01 X-17.74985 Y-3.53329
G01 X-17.67131 Y-3.38633
G01 X-17.63865 Y-3.33743
G01 X-17.53293 Y-3.20858
G01 X-17.49135 Y-3.16705
G01 X-17.36255 Y-3.06133
G01 X-17.31363 Y-3.02867
G01 X-17.14007 Y-2.93754
G01 X-16.95290 Y-2.87924
G01 X-16.89522 Y-2.86776
G01 X-16.69999 Y-2.84998
G01 X-16.50477 Y-2.86776
G01 X-16.44708 Y-2.87924
G01 X-16.25991 Y-2.93754
G01 X-16.08633 Y-3.02867
G01 X-16.03743 Y-3.06133
G01 X-15.88681 Y-3.18681
G01 X-15.76133 Y-3.33743
G01 X-15.72867 Y-3.38633
G01 X-15.65011 Y-3.53329
G01 X-15.62760 Y-3.58762
G01 X-15.57924 Y-3.74708
G01 X-15.56776 Y-3.80477
G01 X-15.54998 Y-3.99999
( Mill infeed pass 2/2 )
G01 Z-0.15000
G04 P0 ( dwell for no time -- G64 should not smooth over this point )
G01 F40.00000
G01 X-15.54998 Y-3.99999
G01 X-15.57208 Y-4.22435
G01 X-15.62760 Y-4.41236
G01 X-15.65011 Y-4.46669
G01 X-15.72867 Y-4.61363
G01 X-15.76133 Y-4.66255
G01 X-15.86705 Y-4.79135
G01 X-15.90863 Y-4.83293
G01 X-16.03743 Y-4.93865
G01 X-16.08633 Y-4.97131
G01 X-16.25991 Y-5.06245
G01 X-16.44708 Y-5.12074
G01 X-16.50477 Y-5.13222
G01 X-16.67058 Y-5.14855
G01 X-16.72938 Y-5.14855
G01 X-16.89522 Y-5.13222
G01 X-16.95290 Y-5.12074
G01 X-17.07622 Y-5.08333
G01 X-19.55523 Y-7.56234
G01 X-19.60735 Y-7.60700
G01 X-19.69084 Y-7.65815
G01 X-19.71744 Y-7.67072
G01 X-19.78269 Y-7.69203
G01 X-19.84037 Y-7.70349
G01 X-19.90880 Y-7.70880
G01 X-47.95187 Y-7.70880
G01 X-48.56955 Y-8.32442
G01 X-48.59985 Y-8.34928
G01 X-48.68334 Y-8.40044
G01 X-48.77519 Y-8.43432
G01 X-48.83287 Y-8.44578
G01 X-48.90130 Y-8.45109
G01 X-53.18448 Y-8.45106
G01 X-54.24279 Y-9.50940
G01 X-54.23578 Y-9.59528
G01 X-54.24683 Y-9.72223
G01 X-54.25831 Y-9.77991
G01 X-54.28676 Y-9.87372
G01 X-54.30926 Y-9.92805
G01 X-54.35547 Y-10.01448
G01 X-54.38816 Y-10.06338
G01 X-54.45034 Y-10.13915
G01 X-54.49192 Y-10.18075
G01 X-54.56768 Y-10.24293
G01 X-54.61658 Y-10.27560
G01 X-54.72963 Y-10.33440
G01 X-54.85115 Y-10.37275
G01 X-54.90883 Y-10.38423
G01 X-55.03578 Y-10.39528
G01 X-55.16273 Y-10.38423
G01 X-55.22041 Y-10.37275
G01 X-55.34193 Y-10.33440
G01 X-55.45498 Y-10.27560
G01 X-55.50390 Y-10.24293
G01 X-55.60146 Y-10.16097
G01 X-55.68343 Y-10.06338
G01 X-55.71609 Y-10.01448
G01 X-55.76230 Y-9.92805
G01 X-55.78480 Y-9.87372
G01 X-55.81327 Y-9.77991
G01 X-55.82473 Y-9.72223
G01 X-55.83578 Y-9.59528
G01 X-55.82473 Y-9.46833
G01 X-55.81327 Y-9.41065
G01 X-55.78480 Y-9.31687
G01 X-55.76230 Y-9.26252
G01 X-55.71609 Y-9.17608
G01 X-55.68343 Y-9.12719
G01 X-55.60146 Y-9.02960
G01 X-55.50390 Y-8.94766
G01 X-55.45498 Y-8.91497
G01 X-55.36855 Y-8.86877
G01 X-55.31421 Y-8.84626
G01 X-55.22041 Y-8.81781
G01 X-55.16273 Y-8.80633
G01 X-55.03578 Y-8.79528
G01 X-54.94990 Y-8.80229
G01 X-53.74513 Y-7.59752
G01 X-53.65872 Y-7.53016
G01 X-53.62895 Y-7.51114
G01 X-53.56819 Y-7.48370
G01 X-53.50030 Y-7.46455
G01 X-53.39159 Y-7.45106
G01 X-49.10839 Y-7.45106
G01 X-48.51253 Y-6.85523
G01 X-48.46041 Y-6.81058
G01 X-48.37692 Y-6.75942
G01 X-48.32259 Y-6.73692
G01 X-48.28507 Y-6.72554
G01 X-48.18837 Y-6.71022
G01 X-20.11589 Y-6.70877
G01 X-17.78333 Y-4.37622
G01 X-17.82788 Y-4.22435
G01 X-17.84998 Y-3.99999
G01 X-17.82788 Y-3.77563
G01 X-17.77235 Y-3.58762
G01 X-17.74985 Y-3.53329
G01 X-17.67131 Y-3.38633
G01 X-17.63865 Y-3.33743
G01 X-17.53293 Y-3.20858
G01 X-17.49135 Y-3.16705
G01 X-17.36255 Y-3.06133
G01 X-17.31363 Y-3.02867
G01 X-17.14007 Y-2.93754
G01 X-16.95290 Y-2.87924
G01 X-16.89522 Y-2.86776
G01 X-16.69999 Y-2.84998
G01 X-16.50477 Y-2.86776
G01 X-16.44708 Y-2.87924
G01 X-16.25991 Y-2.93754
G01 X-16.08633 Y-3.02867
G01 X-16.03743 Y-3.06133
G01 X-15.88681 Y-3.18681
G01 X-15.76133 Y-3.33743
G01 X-15.72867 Y-3.38633
G01 X-15.65011 Y-3.53329
G01 X-15.62760 Y-3.58762
G01 X-15.57924 Y-3.74708
G01 X-15.56776 Y-3.80477
G01 X-15.54998 Y-3.99999
G04 P0 ( dwell for no time -- G64 should not smooth over this point )
G00 Z2.00000 ( retract )

G00 X-18.08998 Y-3.99999 ( rapid move to begin. )
G01 F30.00000
( Mill infeed pass 1/2 )
G01 Z-0.07500
G04 P0 ( dwell for no time -- G64 should not smooth over this point )
G01 F40.00000
G01 X-18.08998 Y-3.99999
G01 X-18.11208 Y-4.22435
G01 X-18.16760 Y-4.41236
G01 X-18.19011 Y-4.46669
G01 X-18.26867 Y-4.61363
G01 X-18.30133 Y-4.66255
G01 X-18.42681 Y-4.81315
G01 X-18.57743 Y-4.93865
G01 X-18.62633 Y-4.97131
G01 X-18.79991 Y-5.06245
G01 X-18.98708 Y-5.12074
G01 X-19.04477 Y-5.13222
G01 X-19.21058 Y-5.14855
G01 X-19.26938 Y-5.14855
G01 X-19.43522 Y-5.13222
G01 X-19.49290 Y-5.12074
G01 X-19.61622 Y-5.08333
G01 X-21.11695 Y-6.58198
G01 X-21.19615 Y-6.63956
G01 X-21.25734 Y-6.67062
G01 X-21.35114 Y-6.69907
G01 X-21.41929 Y-6.70725
G01 X-48.64402 Y-6.70870
G01 X-48.65515 Y-6.80705
G01 X-48.70069 Y-6.95714
G01 X-48.75947 Y-7.07019
G01 X-48.79216 Y-7.11909
G01 X-48.88436 Y-7.22597
G01 X-48.99533 Y-7.31617
G01 X-49.10704 Y-7.37751
G01 X-49.16137 Y-7.40001
G01 X-49.28372 Y-7.43562
G01 X-49.41039 Y-7.44954
G01 X-49.46919 Y-7.44954
G01 X-49.59586 Y-7.43562
G01 X-49.71821 Y-7.40001
G01 X-49.77254 Y-7.37751
G01 X-49.85898 Y-7.33130
G01 X-49.90790 Y-7.29861
G01 X-50.00546 Y-7.21667
G01 X-50.06124 Y-7.15099
G01 X-62.00386 Y-7.15099
G01 X-70.27654 Y-15.42364
G01 X-70.24827 Y-15.51683
G01 X-70.23679 Y-15.57452
G01 X-70.22142 Y-15.73058
G01 X-70.22142 Y-15.78940
G01 X-70.23679 Y-15.94546
G01 X-70.24827 Y-16.00314
G01 X-70.30372 Y-16.18094
G01 X-70.39023 Y-16.34587
G01 X-70.42290 Y-16.39476
G01 X-70.52239 Y-16.51599
G01 X-70.56399 Y-16.55757
G01 X-70.68520 Y-16.65707
G01 X-70.73412 Y-16.68973
G01 X-70.87243 Y-16.76367
G01 X-70.92676 Y-16.78617
G01 X-71.07682 Y-16.83169
G01 X-71.13450 Y-16.84317
G01 X-71.32000 Y-16.85999
G01 X-71.50547 Y-16.84317
G01 X-71.56315 Y-16.83169
G01 X-71.71322 Y-16.78617
G01 X-71.76755 Y-16.76367
G01 X-71.90585 Y-16.68973
G01 X-71.95477 Y-16.65707
G01 X-72.07598 Y-16.55757
G01 X-72.11759 Y-16.51599
G01 X-72.21708 Y-16.39476
G01 X-72.24974 Y-16.34587
G01 X-72.33625 Y-16.18094
G01 X-72.39170 Y-16.00314
G01 X-72.40318 Y-15.94546
G01 X-72.41855 Y-15.78940
G01 X-72.41855 Y-15.73058
G01 X-72.40318 Y-15.57452
G01 X-72.39170 Y-15.51683
G01 X-72.34619 Y-15.36675
G01 X-72.32366 Y-15.31242
G01 X-72.23460 Y-15.14886
G01 X-72.11759 Y-15.00398
G01 X-72.07598 Y-14.96240
G01 X-71.95477 Y-14.86291
G01 X-71.90585 Y-14.83025
G01 X-71.76755 Y-14.75631
G01 X-71.71322 Y-14.73380
G01 X-71.56315 Y-14.68829
G01 X-71.50547 Y-14.67681
G01 X-71.32000 Y-14.65999
G01 X-71.13450 Y-14.67681
G01 X-71.07682 Y-14.68829
G01 X-70.98365 Y-14.71653
G01 X-62.56452 Y-6.29742
G01 X-62.51240 Y-6.25277
G01 X-62.46350 Y-6.22010
G01 X-62.42891 Y-6.20161
G01 X-62.33706 Y-6.16773
G01 X-62.27938 Y-6.15627
G01 X-62.21095 Y-6.15097
G01 X-50.06124 Y-6.15099
G01 X-50.00546 Y-6.08531
G01 X-49.90790 Y-6.00334
G01 X-49.85898 Y-5.97068
G01 X-49.77254 Y-5.92447
G01 X-49.71821 Y-5.90197
G01 X-49.59586 Y-5.86636
G01 X-49.46919 Y-5.85244
G01 X-49.41039 Y-5.85244
G01 X-49.35388 Y-5.85800
G01 X-49.27526 Y-5.79295
G01 X-49.21542 Y-5.75932
G01 X-49.12357 Y-5.72544
G01 X-49.06589 Y-5.71398
G01 X-48.99749 Y-5.70868
G01 X-21.65579 Y-5.70868
G01 X-20.32333 Y-4.37622
G01 X-20.36788 Y-4.22435
G01 X-20.38998 Y-3.99999
G01 X-20.36788 Y-3.77563
G01 X-20.31235 Y-3.58762
G01 X-20.28985 Y-3.53329
G01 X-20.21131 Y-3.38633
G01 X-20.17865 Y-3.33743
G01 X-20.05315 Y-3.18681
G01 X-19.90255 Y-3.06133
G01 X-19.85363 Y-3.02867
G01 X-19.70669 Y-2.95011
G01 X-19.65236 Y-2.92760
G01 X-19.49290 Y-2.87924
G01 X-19.43522 Y-2.86776
G01 X-19.26938 Y-2.85143
G01 X-19.21058 Y-2.85143
G01 X-19.04477 Y-2.86776
G01 X-18.98708 Y-2.87924
G01 X-18.82762 Y-2.92760
G01 X-18.77329 Y-2.95011
G01 X-18.62633 Y-3.02867
G01 X-18.57743 Y-3.06133
G01 X-18.42681 Y-3.18681
G01 X-18.30133 Y-3.33743
G01 X-18.26867 Y-3.38633
G01 X-18.19011 Y-3.53329
G01 X-18.16760 Y-3.58762
G01 X-18.11924 Y-3.74708
G01 X-18.10776 Y-3.80477
G01 X-18.08998 Y-3.99999
( Mill infeed pass 2/2 )
G01 Z-0.15000
G04 P0 ( dwell for no time -- G64 should not smooth over this point )
G01 F40.00000
G01 X-18.08998 Y-3.99999
G01 X-18.11208 Y-4.22435
G01 X-18.16760 Y-4.41236
G01 X-18.19011 Y-4.46669
G01 X-18.26867 Y-4.61363
G01 X-18.30133 Y-4.66255
G01 X-18.42681 Y-4.81315
G01 X-18.57743 Y-4.93865
G01 X-18.62633 Y-4.97131
G01 X-18.79991 Y-5.06245
G01 X-18.98708 Y-5.12074
G01 X-19.04477 Y-5.13222
G01 X-19.21058 Y-5.14855
G01 X-19.26938 Y-5.14855
G01 X-19.43522 Y-5.13222
G01 X-19.49290 Y-5.12074
G01 X-19.61622 Y-5.08333
G01 X-21.11695 Y-6.58198
G01 X-21.19615 Y-6.63956
G01 X-21.25734 Y-6.67062
G01 X-21.35114 Y-6.69907
G01 X-21.41929 Y-6.70725
G01 X-48.64402 Y-6.70870
G01 X-48.65515 Y-6.80705
G01 X-48.70069 Y-6.95714
G01 X-48.75947 Y-7.07019
G01 X-48.79216 Y-7.11909
G01 X-48.88436 Y-7.22597
G01 X-48.99533 Y-7.31617
G01 X-49.10704 Y-7.37751
G01 X-49.16137 Y-7.40001
G01 X-49.28372 Y-7.43562
G01 X-49.41039 Y-7.44954
G01 X-49.46919 Y-7.44954
G01 X-49.59586 Y-7.43562
G01 X-49.71821 Y-7.40001
G01 X-49.77254 Y-7.37751
G01 X-49.85898 Y-7.33130
G01 X-49.90790 Y-7.29861
G01 X-50.00546 Y-7.21667
G01 X-50.06124 Y-7.15099
G01 X-62.00386 Y-7.15099
G01 X-70.27654 Y-15.42364
G01 X-70.24827 Y-15.51683
G01 X-70.23679 Y-15.57452
G01 X-70.22142 Y-15.73058
G01 X-70.22142 Y-15.78940
G01 X-70.23679 Y-15.94546
G01 X-70.24827 Y-16.00314
G01 X-70.30372 Y-16.18094
G01 X-70.39023 Y-16.34587
G01 X-70.42290 Y-16.39476
G01 X-70.52239 Y-16.51599
G01 X-70.56399 Y-16.55757
G01 X-70.68520 Y-16.65707
G01 X-70.73412 Y-16.68973
G01 X-70.87243 Y-16.76367
G01 X-70.92676 Y-16.78617
G01 X-71.07682 Y-16.83169
G01 X-71.13450 Y-16.84317
G01 X-71.32000 Y-16.85999
G01 X-71.50547 Y-16.84317
G01 X-71.56315 Y-16.83169
G01 X-71.71322 Y-16.78617
G01 X-71.76755 Y-16.76367
G01 X-71.90585 Y-16.68973
G01 X-71.95477 Y-16.65707
G01 X-72.07598 Y-16.55757
G01 X-72.11759 Y-16.51599
G01 X-72.21708 Y-16.39476
G01 X-72.24974 Y-16.34587
G01 X-72.33625 Y-16.18094
G01 X-72.39170 Y-16.00314
G01 X-72.40318 Y-15.94546
G01 X-72.41855 Y-15.78940
G01 X-72.41855 Y-15.73058
G01 X-72.40318 Y-15.57452
G01 X-72.39170 Y-15.51683
G01 X-72.34619 Y-15.36675
G01 X-72.32366 Y-15.31242
G01 X-72.23460 Y-15.14886
G01 X-72.11759 Y-15.00398
G01 X-72.07598 Y-14.96240
G01 X-71.95477 Y-14.86291
G01 X-71.90585 Y-14.83025
G01 X-71.76755 Y-14.75631
G01 X-71.71322 Y-14.73380
G01 X-71.56315 Y-14.68829
G01 X-71.50547 Y-14.67681
G01 X-71.32000 Y-14.65999
G01 X-71.13450 Y-14.67681
G01 X-71.07682 Y-14.68829
G01 X-70.98365 Y-14.71653
G01 X-62.56452 Y-6.29742
G01 X-62.51240 Y-6.25277
G01 X-62.46350 Y-6.22010
G01 X-62.42891 Y-6.20161
G01 X-62.33706 Y-6.16773
G01 X-62.27938 Y-6.15627
G01 X-62.21095 Y-6.15097
G01 X-50.06124 Y-6.15099
G01 X-50.00546 Y-6.08531
G01 X-49.90790 Y-6.00334
G01 X-49.85898 Y-5.97068
G01 X-49.77254 Y-5.92447
G01 X-49.71821 Y-5.90197
G01 X-49.59586 Y-5.86636
G01 X-49.46919 Y-5.85244
G01 X-49.41039 Y-5.85244
G01 X-49.35388 Y-5.85800
G01 X-49.27526 Y-5.79295
G01 X-49.21542 Y-5.75932
G01 X-49.12357 Y-5.72544
G01 X-49.06589 Y-5.71398
G01 X-48.99749 Y-5.70868
G01 X-21.65579 Y-5.70868
G01 X-20.32333 Y-4.37622
G01 X-20.36788 Y-4.22435
G01 X-20.38998 Y-3.99999
G01 X-20.36788 Y-3.77563
G01 X-20.31235 Y-3.58762
G01 X-20.28985 Y-3.53329
G01 X-20.21131 Y-3.38633
G01 X-20.17865 Y-3.33743
G01 X-20.05315 Y-3.18681
G01 X-19.90255 Y-3.06133
G01 X-19.85363 Y-3.02867
G01 X-19.70669 Y-2.95011
G01 X-19.65236 Y-2.92760
G01 X-19.49290 Y-2.87924
G01 X-19.43522 Y-2.86776
G01 X-19.26938 Y-2.85143
G01 X-19.21058 Y-2.85143
G01 X-19.04477 Y-2.86776
G01 X-18.98708 Y-2.87924
G01 X-18.82762 Y-2.92760
G01 X-18.77329 Y-2.95011
G01 X-18.62633 Y-3.02867
G01 X-18.57743 Y-3.06133
G01 X-18.42681 Y-3.18681
G01 X-18.30133 Y-3.33743
G01 X-18.26867 Y-3.38633
G01 X-18.19011 Y-3.53329
G01 X-18.16760 Y-3.58762
G01 X-18.11924 Y-3.74708
G01 X-18.10776 Y-3.80477
G01 X-18.08998 Y-3.99999
G04 P0 ( dwell for no time -- G64 should not smooth over this point )
G00 Z2.00000 ( retract )

G00 X-20.62998 Y-3.99999 ( rapid move to begin. )
G01 F30.00000
( Mill infeed pass 1/2 )
G01 Z-0.07500
G04 P0 ( dwell for no time -- G64 should not smooth over this point )
G01 F40.00000
G01 X-20.62998 Y-3.99999
G01 X-20.65208 Y-4.22435
G01 X-20.70760 Y-4.41236
G01 X-20.73011 Y-4.46669
G01 X-20.80867 Y-4.61363
G01 X-20.84133 Y-4.66255
G01 X-20.96681 Y-4.81315
G01 X-21.11743 Y-4.93865
G01 X-21.16633 Y-4.97131
G01 X-21.33991 Y-5.06245
G01 X-21.52708 Y-5.12074
G01 X-21.58477 Y-5.13222
G01 X-21.77999 Y-5.14998
G01 X-21.97522 Y-5.13222
G01 X-22.03290 Y-5.12074
G01 X-22.22007 Y-5.06245
G01 X-22.39363 Y-4.97131
G01 X-22.44255 Y-4.93865
G01 X-22.59315 Y-4.81315
G01 X-22.71865 Y-4.66255
G01 X-22.75131 Y-4.61363
G01 X-22.82985 Y-4.46669
G01 X-22.85235 Y-4.41236
G01 X-22.90788 Y-4.22435
G01 X-22.92998 Y-3.99999
G01 X-22.90788 Y-3.77563
G01 X-22.85235 Y-3.58762
G01 X-22.82985 Y-3.53329
G01 X-22.75131 Y-3.38633
G01 X-22.71865 Y-3.33743
G01 X-22.59315 Y-3.18681
G01 X-22.44255 Y-3.06133
G01 X-22.39363 Y-3.02867
G01 X-22.22007 Y-2.93754
G01 X-22.03290 Y-2.87924
G01 X-21.97522 Y-2.86776
G01 X-21.77999 Y-2.84998
G01 X-21.58477 Y-2.86776
G01 X-21.52708 Y-2.87924
G01 X-21.33991 Y-2.93754
G01 X-21.16633 Y-3.02867
G01 X-21.11743 Y-3.06133
G01 X-20.96681 Y-3.18681
G01 X-20.84133 Y-3.33743
G01 X-20.80867 Y-3.38633
G01 X-20.73011 Y-3.53329
G01 X-20.70760 Y-3.58762
G01 X-20.65208 Y-3.77563
G01 X-20.62998 Y-3.99999
( Mill infeed pass 2/2 )
G01 Z-0.15000
G04 P0 ( dwell for no time -- G64 should not smooth over this point )
G01 F40.00000
G01 X-20.62998 Y-3.99999
G01 X-20.65208 Y-4.22435
G01 X-20.70760 Y-4.41236
G01 X-20.73011 Y-4.46669
G01 X-20.80867 Y-4.61363
G01 X-20.84133 Y-4.66255
G01 X-20.96681 Y-4.81315
G01 X-21.11743 Y-4.93865
G01 X-21.16633 Y-4.97131
G01 X-21.33991 Y-5.06245
G01 X-21.52708 Y-5.12074
G01 X-21.58477 Y-5.13222
G01 X-21.77999 Y-5.14998
G01 X-21.97522 Y-5.13222
G01 X-22.03290 Y-5.12074
G01 X-22.22007 Y-5.06245
G01 X-22.39363 Y-4.97131
G01 X-22.44255 Y-4.93865
G01 X-22.59315 Y-4.81315
G01 X-22.71865 Y-4.66255
G01 X-22.75131 Y-4.61363
G01 X-22.82985 Y-4.46669
G01 X-22.85235 Y-4.41236
G01 X-22.90788 Y-4.22435
G01 X-22.92998 Y-3.99999
G01 X-22.90788 Y-3.77563
G01 X-22.85235 Y-3.58762
G01 X-22.82985 Y-3.53329
G01 X-22.75131 Y-3.38633
G01 X-22.71865 Y-3.33743
G01 X-22.59315 Y-3.18681
G01 X-22.44255 Y-3.06133
G01 X-22.39363 Y-3.02867
G01 X-22.22007 Y-2.93754
G01 X-22.03290 Y-2.87924
G01 X-21.97522 Y-2.86776
G01 X-21.77999 Y-2.84998
G01 X-21.58477 Y-2.86776
G01 X-21.52708 Y-2.87924
G01 X-21.33991 Y-2.93754
G01 X-21.16633 Y-3.02867
G01 X-21.11743 Y-3.06133
G01 X-20.96681 Y-3.18681
G01 X-20.84133 Y-3.33743
G01 X-20.80867 Y-3.38633
G01 X-20.73011 Y-3.53329
G01 X-20.70760 Y-3.58762
G01 X-20.65208 Y-3.77563
G01 X-20.62998 Y-3.99999
G04 P0 ( dwell for no time -- G64 should not smooth over this point )
G00 Z2.00000 ( retract )

G00 X-23.16998 Y-3.99999 ( rapid move to begin. )
G01 F30.00000
( Mill infeed pass 1/2 )
G01 Z-0.07500
G04 P0 ( dwell for no time -- G64 should not smooth over this point )
G01 F40.00000
G01 X-23.16998 Y-3.99999
G01 X-23.19208 Y-4.22435
G01 X-23.24760 Y-4.41236
G01 X-23.27011 Y-4.46669
G01 X-23.34867 Y-4.61363
G01 X-23.38133 Y-4.66255
G01 X-23.50681 Y-4.81315
G01 X-23.65743 Y-4.93865
G01 X-23.70633 Y-4.97131
G01 X-23.87991 Y-5.06245
G01 X-24.06708 Y-5.12074
G01 X-24.12477 Y-5.13222
G01 X-24.31999 Y-5.14998
G01 X-24.51522 Y-5.13222
G01 X-24.57290 Y-5.12074
G01 X-24.76007 Y-5.06245
G01 X-24.93363 Y-4.97131
G01 X-24.98255 Y-4.93865
G01 X-25.13315 Y-4.81315
G01 X-25.25865 Y-4.66255
G01 X-25.29131 Y-4.61363
G01 X-25.36985 Y-4.46669
G01 X-25.39235 Y-4.41236
G01 X-25.44785 Y-4.22435
G01 X-25.46998 Y-3.99999
G01 X-25.44785 Y-3.77563
G01 X-25.39235 Y-3.58762
G01 X-25.36985 Y-3.53329
G01 X-25.29131 Y-3.38633
G01 X-25.25865 Y-3.33743
G01 X-25.13315 Y-3.18681
G01 X-24.98255 Y-3.06133
G01 X-24.93363 Y-3.02867
G01 X-24.76007 Y-2.93754
G01 X-24.57290 Y-2.87924
G01 X-24.51522 Y-2.86776
G01 X-24.31999 Y-2.84998
G01 X-24.12477 Y-2.86776
G01 X-24.06708 Y-2.87924
G01 X-23.87991 Y-2.93754
G01 X-23.70633 Y-3.02867
G01 X-23.65743 Y-3.06133
G01 X-23.50681 Y-3.18681
G01 X-23.38133 Y-3.33743
G01 X-23.34867 Y-3.38633
G01 X-23.27011 Y-3.53329
G01 X-23.24760 Y-3.58762
G01 X-23.19208 Y-3.77563
G01 X-23.16998 Y-3.99999
( Mill infeed pass 2/2 )
G01 Z-0.15000
G04 P0 ( dwell for no time -- G64 should not smooth over this point )
G01 F40.00000
G01 X-23.16998 Y-3.99999
G01 X-23.19208 Y-4.22435
G01 X-23.24760 Y-4.41236
G01 X-23.27011 Y-4.46669
G01 X-23.34867 Y-4.61363
G01 X-23.38133 Y-4.66255
G01 X-23.50681 Y-4.81315
G01 X-23.65743 Y-4.93865
G01 X-23.70633 Y-4.97131
G01 X-23.87991 Y-5.06245
G01 X-24.06708 Y-5.12074
G01 X-24.12477 Y-5.13222
G01 X-24.31999 Y-5.14998
G01 X-24.51522 Y-5.13222
G01 X-24.57290 Y-5.12074
G01 X-24.76007 Y-5.06245
G01 X-24.93363 Y-4.97131
G01 X-24.98255 Y-4.93865
G01 X-25.13315 Y-4.81315
G01 X-25.25865 Y-4.66255
G01 X-25.29131 Y-4.61363
G01 X-25.36985 Y-4.46669
G01 X-25.39235 Y-4.41236
G01 X-25.44785 Y-4.22435
G01 X-25.46998 Y-3.99999
G01 X-25.44785 Y-3.77563
G01 X-25.39235 Y-3.58762
G01 X-25.36985 Y-3.53329
G01 X-25.29131 Y-3.38633
G01 X-25.25865 Y-3.33743
G01 X-25.13315 Y-3.18681
G01 X-24.98255 Y-3.06133
G01 X-24.93363 Y-3.02867
G01 X-24.76007 Y-2.93754
G01 X-24.57290 Y-2.87924
G01 X-24.51522 Y-2.86776
G01 X-24.31999 Y-2.84998
G01 X-24.12477 Y-2.86776
G01 X-24.06708 Y-2.87924
G01 X-23.87991 Y-2.93754
G01 X-23.70633 Y-3.02867
G01 X-23.65743 Y-3.06133
G01 X-23.50681 Y-3.18681
G01 X-23.38133 Y-3.33743
G01 X-23.34867 Y-3.38633
G01 X-23.27011 Y-3.53329
G01 X-23.24760 Y-3.58762
G01 X-23.19208 Y-3.77563
G01 X-23.16998 Y-3.99999
G04 P0 ( dwell for no time -- G64 should not smooth over this point )
G00 Z2.00000 ( retract )

G00 X-25.71143 Y-4.02938 ( rapid move to begin. )
G01 F30.00000
( Mill infeed pass 1/2 )
G01 Z-0.07500
G04 P0 ( dwell for no time -- G64 should not smooth over this point )
G01 F40.00000
G01 X-25.71143 Y-4.02938
G01 X-25.73208 Y-4.22435
G01 X-25.78760 Y-4.41236
G01 X-25.81011 Y-4.46669
G01 X-25.90381 Y-4.63890
G01 X-26.02702 Y-4.79135
G01 X-26.06863 Y-4.83293
G01 X-26.22108 Y-4.95617
G01 X-26.39329 Y-5.04985
G01 X-26.44762 Y-5.07235
G01 X-26.63563 Y-5.12788
G01 X-26.83058 Y-5.14855
G01 X-26.88938 Y-5.14855
G01 X-27.08435 Y-5.12788
G01 X-27.27236 Y-5.07235
G01 X-27.32669 Y-5.04985
G01 X-27.49890 Y-4.95617
G01 X-27.65135 Y-4.83293
G01 X-27.69293 Y-4.79135
G01 X-27.81617 Y-4.63890
G01 X-27.90985 Y-4.46669
G01 X-27.93235 Y-4.41236
G01 X-27.98788 Y-4.22435
G01 X-28.00855 Y-4.02938
G01 X-28.00855 Y-3.97058
G01 X-27.98788 Y-3.77563
G01 X-27.93235 Y-3.58762
G01 X-27.90985 Y-3.53329
G01 X-27.81617 Y-3.36108
G01 X-27.69293 Y-3.20858
G01 X-27.65135 Y-3.16705
G01 X-27.49890 Y-3.04381
G01 X-27.32669 Y-2.95011
G01 X-27.27236 Y-2.92760
G01 X-27.08435 Y-2.87208
G01 X-26.88938 Y-2.85143
G01 X-26.83058 Y-2.85143
G01 X-26.63563 Y-2.87208
G01 X-26.44762 Y-2.92760
G01 X-26.39329 Y-2.95011
G01 X-26.22108 Y-3.04381
G01 X-26.06863 Y-3.16705
G01 X-26.02702 Y-3.20858
G01 X-25.90381 Y-3.36108
G01 X-25.81011 Y-3.53329
G01 X-25.78760 Y-3.58762
G01 X-25.73208 Y-3.77563
G01 X-25.71143 Y-3.97058
G01 X-25.71143 Y-4.02938
( Mill infeed pass 2/2 )
G01 Z-0.15000
G04 P0 ( dwell for no time -- G64 should not smooth over this point )
G01 F40.00000
G01 X-25.71143 Y-4.02938
G01 X-25.73208 Y-4.22435
G01 X-25.78760 Y-4.41236
G01 X-25.81011 Y-4.46669
G01 X-25.90381 Y-4.63890
G01 X-26.02702 Y-4.79135
G01 X-26.06863 Y-4.83293
G01 X-26.22108 Y-4.95617
G01 X-26.39329 Y-5.04985
G01 X-26.44762 Y-5.07235
G01 X-26.63563 Y-5.12788
G01 X-26.83058 Y-5.14855
G01 X-26.88938 Y-5.14855
G01 X-27.08435 Y-5.12788
G01 X-27.27236 Y-5.07235
G01 X-27.32669 Y-5.04985
G01 X-27.49890 Y-4.95617
G01 X-27.65135 Y-4.83293
G01 X-27.69293 Y-4.79135
G01 X-27.81617 Y-4.63890
G01 X-27.90985 Y-4.46669
G01 X-27.93235 Y-4.41236
G01 X-27.98788 Y-4.22435
G01 X-28.00855 Y-4.02938
G01 X-28.00855 Y-3.97058
G01 X-27.98788 Y-3.77563
G01 X-27.93235 Y-3.58762
G01 X-27.90985 Y-3.53329
G01 X-27.81617 Y-3.36108
G01 X-27.69293 Y-3.20858
G01 X-27.65135 Y-3.16705
G01 X-27.49890 Y-3.04381
G01 X-27.32669 Y-2.95011
G01 X-27.27236 Y-2.92760
G01 X-27.08435 Y-2.87208
G01 X-26.88938 Y-2.85143
G01 X-26.83058 Y-2.85143
G01 X-26.63563 Y-2.87208
G01 X-26.44762 Y-2.92760
G01 X-26.39329 Y-2.95011
G01 X-26.22108 Y-3.04381
G01 X-26.06863 Y-3.16705
G01 X-26.02702 Y-3.20858
G01 X-25.90381 Y-3.36108
G01 X-25.81011 Y-3.53329
G01 X-25.78760 Y-3.58762
G01 X-25.73208 Y-3.77563
G01 X-25.71143 Y-3.97058
G01 X-25.71143 Y-4.02938
G04 P0 ( dwell for no time -- G64 should not smooth over this point )
G00 Z2.00000 ( retract )

G00 X-28.25143 Y-4.02938 ( rapid move to begin. )
G01 F30.00000
( Mill infeed pass 1/2 )
G01 Z-0.07500
G04 P0 ( dwell for no time -- G64 should not smooth over this point )
G01 F40.00000
G01 X-28.25143 Y-4.02938
G01 X-28.27208 Y-4.22435
G01 X-28.32760 Y-4.41236
G01 X-28.35011 Y-4.46669
G01 X-28.44381 Y-4.63890
G01 X-28.56705 Y-4.79135
G01 X-28.60863 Y-4.83293
G01 X-28.76108 Y-4.95617
G01 X-28.93329 Y-5.04985
G01 X-28.98762 Y-5.07235
G01 X-29.17563 Y-5.12788
G01 X-29.37058 Y-5.14855
G01 X-29.42938 Y-5.14855
G01 X-29.62435 Y-5.12788
G01 X-29.81236 Y-5.07235
G01 X-29.86669 Y-5.04985
G01 X-30.03890 Y-4.95617
G01 X-30.19135 Y-4.83293
G01 X-30.23293 Y-4.79135
G01 X-30.35617 Y-4.63890
G01 X-30.44985 Y-4.46669
G01 X-30.47235 Y-4.41236
G01 X-30.52788 Y-4.22435
G01 X-30.54855 Y-4.02938
G01 X-30.54855 Y-3.97058
G01 X-30.52788 Y-3.77563
G01 X-30.47235 Y-3.58762
G01 X-30.44985 Y-3.53329
G01 X-30.35617 Y-3.36108
G01 X-30.23293 Y-3.20858
G01 X-30.19135 Y-3.16705
G01 X-30.03890 Y-3.04381
G01 X-29.86669 Y-2.95011
G01 X-29.81236 Y-2.92760
G01 X-29.62435 Y-2.87208
G01 X-29.42938 Y-2.85143
G01 X-29.37058 Y-2.85143
G01 X-29.17563 Y-2.87208
G01 X-28.98762 Y-2.92760
G01 X-28.93329 Y-2.95011
G01 X-28.76108 Y-3.04381
G01 X-28.60863 Y-3.16705
G01 X-28.56705 Y-3.20858
G01 X-28.44381 Y-3.36108
G01 X-28.35011 Y-3.53329
G01 X-28.32760 Y-3.58762
G01 X-28.27208 Y-3.77563
G01 X-28.25143 Y-3.97058
G01 X-28.25143 Y-4.02938
( Mill infeed pass 2/2 )
G01 Z-0.15000
G04 P0 ( dwell for no time -- G64 should not smooth over this point )
G01 F40.00000
G01 X-28.25143 Y-4.02938
G01 X-28.27208 Y-4.22435
G01 X-28.32760 Y-4.41236
G01 X-28.35011 Y-4.46669
G01 X-28.44381 Y-4.63890
G01 X-28.56705 Y-4.79135
G01 X-28.60863 Y-4.83293
G01 X-28.76108 Y-4.95617
G01 X-28.93329 Y-5.04985
G01 X-28.98762 Y-5.07235
G01 X-29.17563 Y-5.12788
G01 X-29.37058 Y-5.14855
G01 X-29.42938 Y-5.14855
G01 X-29.62435 Y-5.12788
G01 X-29.81236 Y-5.07235
G01 X-29.86669 Y-5.04985
G01 X-30.03890 Y-4.95617
G01 X-30.19135 Y-4.83293
G01 X-30.23293 Y-4.79135
G01 X-30.35617 Y-4.63890
G01 X-30.44985 Y-4.46669
G01 X-30.47235 Y-4.41236
G01 X-30.52788 Y-4.22435
G01 X-30.54855 Y-4.02938
G01 X-30.54855 Y-3.97058
G01 X-30.52788 Y-3.77563
G01 X-30.47235 Y-3.58762
G01 X-30.44985 Y-3.53329
G01 X-30.35617 Y-3.36108
G01 X-30.23293 Y-3.20858
G01 X-30.19135 Y-3.16705
G01 X-30.03890 Y-3.04381
G01 X-29.86669 Y-2.95011
G01 X-29.81236 Y-2.92760
G01 X-29.62435 Y-2.87208
G01 X-29.42938 Y-2.85143
G01 X-29.37058 Y-2.85143
G01 X-29.17563 Y-2.87208
G01 X-28.98762 Y-2.92760
G01 X-28.93329 Y-2.95011
G01 X-28.76108 Y-3.04381
G01 X-28.60863 Y-3.16705
G01 X-28.56705 Y-3.20858
G01 X-28.44381 Y-3.36108
G01 X-28.35011 Y-3.53329
G01 X-28.32760 Y-3.58762
G01 X-28.27208 Y-3.77563
G01 X-28.25143 Y-3.97058
G01 X-28.25143 Y-4.02938
G04 P0 ( dwell for no time -- G64 should not smooth over this point )
G00 Z2.00000 ( retract )

G00 X-30.79143 Y-4.02938 ( rapid move to begin. )
G01 F30.00000
( Mill infeed pass 1/2 )
G01 Z-0.07500
G04 P0 ( dwell for no time -- G64 should not smooth over this point )
G01 F40.00000
G01 X-30.79143 Y-4.02938
G01 X-30.81208 Y-4.22435
G01 X-30.86760 Y-4.41236
G01 X-30.89011 Y-4.46669
G01 X-30.98381 Y-4.63890
G01 X-31.10705 Y-4.79135
G01 X-31.14863 Y-4.83293
G01 X-31.30108 Y-4.95617
G01 X-31.47329 Y-5.04985
G01 X-31.52762 Y-5.07235
G01 X-31.71563 Y-5.12788
G01 X-31.91058 Y-5.14855
G01 X-31.96938 Y-5.14855
G01 X-32.16435 Y-5.12788
G01 X-32.35236 Y-5.07235
G01 X-32.40669 Y-5.04985
G01 X-32.57890 Y-4.95617
G01 X-32.73135 Y-4.83293
G01 X-32.77293 Y-4.79135
G01 X-32.89617 Y-4.63890
G01 X-32.98985 Y-4.46669
G01 X-33.01235 Y-4.41236
G01 X-33.06788 Y-4.22435
G01 X-33.08855 Y-4.02938
G01 X-33.08855 Y-3.97058
G01 X-33.06788 Y-3.77563
G01 X-33.01235 Y-3.58762
G01 X-32.98985 Y-3.53329
G01 X-32.89617 Y-3.36108
G01 X-32.77293 Y-3.20858
G01 X-32.73135 Y-3.16705
G01 X-32.57890 Y-3.04381
G01 X-32.40669 Y-2.95011
G01 X-32.35236 Y-2.92760
G01 X-32.16435 Y-2.87208
G01 X-31.96938 Y-2.85143
G01 X-31.91058 Y-2.85143
G01 X-31.71563 Y-2.87208
G01 X-31.52762 Y-2.92760
G01 X-31.47329 Y-2.95011
G01 X-31.30108 Y-3.04381
G01 X-31.14863 Y-3.16705
G01 X-31.10705 Y-3.20858
G01 X-30.98381 Y-3.36108
G01 X-30.89011 Y-3.53329
G01 X-30.86760 Y-3.58762
G01 X-30.81208 Y-3.77563
G01 X-30.79143 Y-3.97058
G01 X-30.79143 Y-4.02938
( Mill infeed pass 2/2 )
G01 Z-0.15000
G04 P0 ( dwell for no time -- G64 should not smooth over this point )
G01 F40.00000
G01 X-30.79143 Y-4.02938
G01 X-30.81208 Y-4.22435
G01 X-30.86760 Y-4.41236
G01 X-30.89011 Y-4.46669
G01 X-30.98381 Y-4.63890
G01 X-31.10705 Y-4.79135
G01 X-31.14863 Y-4.83293
G01 X-31.30108 Y-4.95617
G01 X-31.47329 Y-5.04985
G01 X-31.52762 Y-5.07235
G01 X-31.71563 Y-5.12788
G01 X-31.91058 Y-5.14855
G01 X-31.96938 Y-5.14855
G01 X-32.16435 Y-5.12788
G01 X-32.35236 Y-5.07235
G01 X-32.40669 Y-5.04985
G01 X-32.57890 Y-4.95617
G01 X-32.73135 Y-4.83293
G01 X-32.77293 Y-4.79135
G01 X-32.89617 Y-4.63890
G01 X-32.98985 Y-4.46669
G01 X-33.01235 Y-4.41236
G01 X-33.06788 Y-4.22435
G01 X-33.08855 Y-4.02938
G01 X-33.08855 Y-3.97058
G01 X-33.06788 Y-3.77563
G01 X-33.01235 Y-3.58762
G01 X-32.98985 Y-3.53329
G01 X-32.89617 Y-3.36108
G01 X-32.77293 Y-3.20858
G01 X-32.73135 Y-3.16705
G01 X-32.57890 Y-3.04381
G01 X-32.40669 Y-2.95011
G01 X-32.35236 Y-2.92760
G01 X-32.16435 Y-2.87208
G01 X-31.96938 Y-2.85143
G01 X-31.91058 Y-2.85143
G01 X-31.71563 Y-2.87208
G01 X-31.52762 Y-2.92760
G01 X-31.47329 Y-2.95011
G01 X-31.30108 Y-3.04381
G01 X-31.14863 Y-3.16705
G01 X-31.10705 Y-3.20858
G01 X-30.98381 Y-3.36108
G01 X-30.89011 Y-3.53329
G01 X-30.86760 Y-3.58762
G01 X-30.81208 Y-3.77563
G01 X-30.79143 Y-3.97058
G01 X-30.79143 Y-4.02938
G04 P0 ( dwell for no time -- G64 should not smooth over this point )
G00 Z2.00000 ( retract )

G00 X-33.33143 Y-4.02938 ( rapid move to begin. )
G01 F30.00000
( Mill infeed pass 1/2 )
G01 Z-0.07500
G04 P0 ( dwell for no time -- G64 should not smooth over this point )
G01 F40.00000
G01 X-33.33143 Y-4.02938
G01 X-33.35208 Y-4.22435
G01 X-33.40760 Y-4.41236
G01 X-33.43011 Y-4.46669
G01 X-33.52381 Y-4.63890
G01 X-33.64705 Y-4.79135
G01 X-33.68863 Y-4.83293
G01 X-33.84108 Y-4.95617
G01 X-34.01329 Y-5.04985
G01 X-34.06762 Y-5.07235
G01 X-34.25563 Y-5.12788
G01 X-34.45058 Y-5.14855
G01 X-34.50938 Y-5.14855
G01 X-34.70435 Y-5.12788
G01 X-34.89236 Y-5.07235
G01 X-34.94669 Y-5.04985
G01 X-35.11890 Y-4.95617
G01 X-35.27135 Y-4.83293
G01 X-35.31293 Y-4.79135
G01 X-35.43617 Y-4.63890
G01 X-35.52985 Y-4.46669
G01 X-35.55235 Y-4.41236
G01 X-35.60788 Y-4.22435
G01 X-35.62855 Y-4.02938
G01 X-35.62855 Y-3.97058
G01 X-35.60788 Y-3.77563
G01 X-35.55235 Y-3.58762
G01 X-35.52985 Y-3.53329
G01 X-35.43617 Y-3.36108
G01 X-35.31293 Y-3.20858
G01 X-35.27135 Y-3.16705
G01 X-35.11890 Y-3.04381
G01 X-34.94669 Y-2.95011
G01 X-34.89236 Y-2.92760
G01 X-34.70435 Y-2.87208
G01 X-34.50938 Y-2.85143
G01 X-34.45058 Y-2.85143
G01 X-34.25563 Y-2.87208
G01 X-34.06762 Y-2.92760
G01 X-34.01329 Y-2.95011
G01 X-33.84108 Y-3.04381
G01 X-33.68863 Y-3.16705
G01 X-33.64705 Y-3.20858
G01 X-33.52381 Y-3.36108
G01 X-33.43011 Y-3.53329
G01 X-33.40760 Y-3.58762
G01 X-33.35208 Y-3.77563
G01 X-33.33143 Y-3.97058
G01 X-33.33143 Y-4.02938
( Mill infeed pass 2/2 )
G01 Z-0.15000
G04 P0 ( dwell for no time -- G64 should not smooth over this point )
G01 F40.00000
G01 X-33.33143 Y-4.02938
G01 X-33.35208 Y-4.22435
G01 X-33.40760 Y-4.41236
G01 X-33.43011 Y-4.46669
G01 X-33.52381 Y-4.63890
G01 X-33.64705 Y-4.79135
G01 X-33.68863 Y-4.83293
G01 X-33.84108 Y-4.95617
G01 X-34.01329 Y-5.04985
G01 X-34.06762 Y-5.07235
G01 X-34.25563 Y-5.12788
G01 X-34.45058 Y-5.14855
G01 X-34.50938 Y-5.14855
G01 X-34.70435 Y-5.12788
G01 X-34.89236 Y-5.07235
G01 X-34.94669 Y-5.04985
G01 X-35.11890 Y-4.95617
G01 X-35.27135 Y-4.83293
G01 X-35.31293 Y-4.79135
G01 X-35.43617 Y-4.63890
G01 X-35.52985 Y-4.46669
G01 X-35.55235 Y-4.41236
G01 X-35.60788 Y-4.22435
G01 X-35.62855 Y-4.02938
G01 X-35.62855 Y-3.97058
G01 X-35.60788 Y-3.77563
G01 X-35.55235 Y-3.58762
G01 X-35.52985 Y-3.53329
G01 X-35.43617 Y-3.36108
G01 X-35.31293 Y-3.20858
G01 X-35.27135 Y-3.16705
G01 X-35.11890 Y-3.04381
G01 X-34.94669 Y-2.95011
G01 X-34.89236 Y-2.92760
G01 X-34.70435 Y-2.87208
G01 X-34.50938 Y-2.85143
G01 X-34.45058 Y-2.85143
G01 X-34.25563 Y-2.87208
G01 X-34.06762 Y-2.92760
G01 X-34.01329 Y-2.95011
G01 X-33.84108 Y-3.04381
G01 X-33.68863 Y-3.16705
G01 X-33.64705 Y-3.20858
G01 X-33.52381 Y-3.36108
G01 X-33.43011 Y-3.53329
G01 X-33.40760 Y-3.58762
G01 X-33.35208 Y-3.77563
G01 X-33.33143 Y-3.97058
G01 X-33.33143 Y-4.02938
G04 P0 ( dwell for no time -- G64 should not smooth over this point )
G00 Z2.00000 ( retract )

G00 X-35.87143 Y-4.02938 ( rapid move to begin. )
G01 F30.00000
( Mill infeed pass 1/2 )
G01 Z-0.07500
G04 P0 ( dwell for no time -- G64 should not smooth over this point )
G01 F40.00000
G01 X-35.87143 Y-4.02938
G01 X-35.89208 Y-4.22435
G01 X-35.94760 Y-4.41236
G01 X-35.97011 Y-4.46669
G01 X-36.06381 Y-4.63890
G01 X-36.18705 Y-4.79135
G01 X-36.22863 Y-4.83293
G01 X-36.38108 Y-4.95617
G01 X-36.55329 Y-5.04985
G01 X-36.60762 Y-5.07235
G01 X-36.79563 Y-5.12788
G01 X-36.99058 Y-5.14855
G01 X-37.04938 Y-5.14855
G01 X-37.24435 Y-5.12788
G01 X-37.43236 Y-5.07235
G01 X-37.48669 Y-5.04985
G01 X-37.65890 Y-4.95617
G01 X-37.81135 Y-4.83293
G01 X-37.85293 Y-4.79135
G01 X-37.97617 Y-4.63890
G01 X-38.06985 Y-4.46669
G01 X-38.09235 Y-4.41236
G01 X-38.14788 Y-4.22435
G01 X-38.16855 Y-4.02938
G01 X-38.16855 Y-3.97058
G01 X-38.14788 Y-3.77563
G01 X-38.09235 Y-3.58762
G01 X-38.06985 Y-3.53329
G01 X-37.97617 Y-3.36108
G01 X-37.85293 Y-3.20858
G01 X-37.81135 Y-3.16705
G01 X-37.65890 Y-3.04381
G01 X-37.48669 Y-2.95011
G01 X-37.43236 Y-2.92760
G01 X-37.24435 Y-2.87208
G01 X-37.04938 Y-2.85143
G01 X-36.99058 Y-2.85143
G01 X-36.79563 Y-2.87208
G01 X-36.60762 Y-2.92760
G01 X-36.55329 Y-2.95011
G01 X-36.38108 Y-3.04381
G01 X-36.22863 Y-3.16705
G01 X-36.18705 Y-3.20858
G01 X-36.06381 Y-3.36108
G01 X-35.97011 Y-3.53329
G01 X-35.94760 Y-3.58762
G01 X-35.89208 Y-3.77563
G01 X-35.87143 Y-3.97058
G01 X-35.87143 Y-4.02938
( Mill infeed pass 2/2 )
G01 Z-0.15000
G04 P0 ( dwell for no time -- G64 should not smooth over this point )
G01 F40.00000
G01 X-35.87143 Y-4.02938
G01 X-35.89208 Y-4.22435
G01 X-35.94760 Y-4.41236
G01 X-35.97011 Y-4.46669
G01 X-36.06381 Y-4.63890
G01 X-36.18705 Y-4.79135
G01 X-36.22863 Y-4.83293
G01 X-36.38108 Y-4.95617
G01 X-36.55329 Y-5.04985
G01 X-36.60762 Y-5.07235
G01 X-36.79563 Y-5.12788
G01 X-36.99058 Y-5.14855
G01 X-37.04938 Y-5.14855
G01 X-37.24435 Y-5.12788
G01 X-37.43236 Y-5.07235
G01 X-37.48669 Y-5.04985
G01 X-37.65890 Y-4.95617
G01 X-37.81135 Y-4.83293
G01 X-37.85293 Y-4.79135
G01 X-37.97617 Y-4.63890
G01 X-38.06985 Y-4.46669
G01 X-38.09235 Y-4.41236
G01 X-38.14788 Y-4.22435
G01 X-38.16855 Y-4.02938
G01 X-38.16855 Y-3.97058
G01 X-38.14788 Y-3.77563
G01 X-38.09235 Y-3.58762
G01 X-38.06985 Y-3.53329
G01 X-37.97617 Y-3.36108
G01 X-37.85293 Y-3.20858
G01 X-37.81135 Y-3.16705
G01 X-37.65890 Y-3.04381
G01 X-37.48669 Y-2.95011
G01 X-37.43236 Y-2.92760
G01 X-37.24435 Y-2.87208
G01 X-37.04938 Y-2.85143
G01 X-36.99058 Y-2.85143
G01 X-36.79563 Y-2.87208
G01 X-36.60762 Y-2.92760
G01 X-36.55329 Y-2.95011
G01 X-36.38108 Y-3.04381
G01 X-36.22863 Y-3.16705
G01 X-36.18705 Y-3.20858
G01 X-36.06381 Y-3.36108
G01 X-35.97011 Y-3.53329
G01 X-35.94760 Y-3.58762
G01 X-35.89208 Y-3.77563
G01 X-35.87143 Y-3.97058
G01 X-35.87143 Y-4.02938
G04 P0 ( dwell for no time -- G64 should not smooth over this point )
G00 Z2.00000 ( retract )

G00 X-38.41143 Y-4.02938 ( rapid move to begin. )
G01 F30.00000
( Mill infeed pass 1/2 )
G01 Z-0.07500
G04 P0 ( dwell for no time -- G64 should not smooth over this point )
G01 F40.00000
G01 X-38.41143 Y-4.02938
G01 X-38.43208 Y-4.22435
G01 X-38.48760 Y-4.41236
G01 X-38.51011 Y-4.46669
G01 X-38.60381 Y-4.63890
G01 X-38.72705 Y-4.79135
G01 X-38.76863 Y-4.83293
G01 X-38.92108 Y-4.95617
G01 X-39.09329 Y-5.04985
G01 X-39.14762 Y-5.07235
G01 X-39.33563 Y-5.12788
G01 X-39.53058 Y-5.14855
G01 X-39.58938 Y-5.14855
G01 X-39.78435 Y-5.12788
G01 X-39.97236 Y-5.07235
G01 X-40.02669 Y-5.04985
G01 X-40.19890 Y-4.95617
G01 X-40.35135 Y-4.83293
G01 X-40.39293 Y-4.79135
G01 X-40.51617 Y-4.63890
G01 X-40.60985 Y-4.46669
G01 X-40.63235 Y-4.41236
G01 X-40.68788 Y-4.22435
G01 X-40.70855 Y-4.02938
G01 X-40.70855 Y-3.97058
G01 X-40.68788 Y-3.77563
G01 X-40.63235 Y-3.58762
G01 X-40.60985 Y-3.53329
G01 X-40.51617 Y-3.36108
G01 X-40.39293 Y-3.20858
G01 X-40.35135 Y-3.16705
G01 X-40.19890 Y-3.04381
G01 X-40.02669 Y-2.95011
G01 X-39.97236 Y-2.92760
G01 X-39.78435 Y-2.87208
G01 X-39.58938 Y-2.85143
G01 X-39.53058 Y-2.85143
G01 X-39.33563 Y-2.87208
G01 X-39.14762 Y-2.92760
G01 X-39.09329 Y-2.95011
G01 X-38.92108 Y-3.04381
G01 X-38.76863 Y-3.16705
G01 X-38.72705 Y-3.20858
G01 X-38.60381 Y-3.36108
G01 X-38.51011 Y-3.53329
G01 X-38.48760 Y-3.58762
G01 X-38.43208 Y-3.77563
G01 X-38.41143 Y-3.97058
G01 X-38.41143 Y-4.02938
( Mill infeed pass 2/2 )
G01 Z-0.15000
G04 P0 ( dwell for no time -- G64 should not smooth over this point )
G01 F40.00000
G01 X-38.41143 Y-4.02938
G01 X-38.43208 Y-4.22435
G01 X-38.48760 Y-4.41236
G01 X-38.51011 Y-4.46669
G01 X-38.60381 Y-4.63890
G01 X-38.72705 Y-4.79135
G01 X-38.76863 Y-4.83293
G01 X-38.92108 Y-4.95617
G01 X-39.09329 Y-5.04985
G01 X-39.14762 Y-5.07235
G01 X-39.33563 Y-5.12788
G01 X-39.53058 Y-5.14855
G01 X-39.58938 Y-5.14855
G01 X-39.78435 Y-5.12788
G01 X-39.97236 Y-5.07235
G01 X-40.02669 Y-5.04985
G01 X-40.19890 Y-4.95617
G01 X-40.35135 Y-4.83293
G01 X-40.39293 Y-4.79135
G01 X-40.51617 Y-4.63890
G01 X-40.60985 Y-4.46669
G01 X-40.63235 Y-4.41236
G01 X-40.68788 Y-4.22435
G01 X-40.70855 Y-4.02938
G01 X-40.70855 Y-3.97058
G01 X-40.68788 Y-3.77563
G01 X-40.63235 Y-3.58762
G01 X-40.60985 Y-3.53329
G01 X-40.51617 Y-3.36108
G01 X-40.39293 Y-3.20858
G01 X-40.35135 Y-3.16705
G01 X-40.19890 Y-3.04381
G01 X-40.02669 Y-2.95011
G01 X-39.97236 Y-2.92760
G01 X-39.78435 Y-2.87208
G01 X-39.58938 Y-2.85143
G01 X-39.53058 Y-2.85143
G01 X-39.33563 Y-2.87208
G01 X-39.14762 Y-2.92760
G01 X-39.09329 Y-2.95011
G01 X-38.92108 Y-3.04381
G01 X-38.76863 Y-3.16705
G01 X-38.72705 Y-3.20858
G01 X-38.60381 Y-3.36108
G01 X-38.51011 Y-3.53329
G01 X-38.48760 Y-3.58762
G01 X-38.43208 Y-3.77563
G01 X-38.41143 Y-3.97058
G01 X-38.41143 Y-4.02938
G04 P0 ( dwell for no time -- G64 should not smooth over this point )
G00 Z2.00000 ( retract )

G00 X-40.95143 Y-4.02938 ( rapid move to begin. )
G01 F30.00000
( Mill infeed pass 1/2 )
G01 Z-0.07500
G04 P0 ( dwell for no time -- G64 should not smooth over this point )
G01 F40.00000
G01 X-40.95143 Y-4.02938
G01 X-40.97208 Y-4.22435
G01 X-41.02760 Y-4.41236
G01 X-41.05011 Y-4.46669
G01 X-41.14381 Y-4.63890
G01 X-41.26705 Y-4.79135
G01 X-41.30863 Y-4.83293
G01 X-41.46108 Y-4.95617
G01 X-41.63329 Y-5.04985
G01 X-41.68762 Y-5.07235
G01 X-41.87563 Y-5.12788
G01 X-42.07058 Y-5.14855
G01 X-42.12938 Y-5.14855
G01 X-42.32435 Y-5.12788
G01 X-42.51236 Y-5.07235
G01 X-42.56669 Y-5.04985
G01 X-42.73890 Y-4.95617
G01 X-42.89135 Y-4.83293
G01 X-42.93293 Y-4.79135
G01 X-43.05617 Y-4.63890
G01 X-43.14985 Y-4.46669
G01 X-43.17235 Y-4.41236
G01 X-43.22788 Y-4.22435
G01 X-43.24855 Y-4.02938
G01 X-43.24855 Y-3.97058
G01 X-43.22788 Y-3.77563
G01 X-43.17235 Y-3.58762
G01 X-43.14985 Y-3.53329
G01 X-43.05617 Y-3.36108
G01 X-42.93293 Y-3.20858
G01 X-42.89135 Y-3.16705
G01 X-42.73890 Y-3.04381
G01 X-42.56669 Y-2.95011
G01 X-42.51236 Y-2.92760
G01 X-42.32435 Y-2.87208
G01 X-42.12938 Y-2.85143
G01 X-42.07058 Y-2.85143
G01 X-41.87563 Y-2.87208
G01 X-41.68762 Y-2.92760
G01 X-41.63329 Y-2.95011
G01 X-41.46108 Y-3.04381
G01 X-41.30863 Y-3.16705
G01 X-41.26705 Y-3.20858
G01 X-41.14381 Y-3.36108
G01 X-41.05011 Y-3.53329
G01 X-41.02760 Y-3.58762
G01 X-40.97208 Y-3.77563
G01 X-40.95143 Y-3.97058
G01 X-40.95143 Y-4.02938
( Mill infeed pass 2/2 )
G01 Z-0.15000
G04 P0 ( dwell for no time -- G64 should not smooth over this point )
G01 F40.00000
G01 X-40.95143 Y-4.02938
G01 X-40.97208 Y-4.22435
G01 X-41.02760 Y-4.41236
G01 X-41.05011 Y-4.46669
G01 X-41.14381 Y-4.63890
G01 X-41.26705 Y-4.79135
G01 X-41.30863 Y-4.83293
G01 X-41.46108 Y-4.95617
G01 X-41.63329 Y-5.04985
G01 X-41.68762 Y-5.07235
G01 X-41.87563 Y-5.12788
G01 X-42.07058 Y-5.14855
G01 X-42.12938 Y-5.14855
G01 X-42.32435 Y-5.12788
G01 X-42.51236 Y-5.07235
G01 X-42.56669 Y-5.04985
G01 X-42.73890 Y-4.95617
G01 X-42.89135 Y-4.83293
G01 X-42.93293 Y-4.79135
G01 X-43.05617 Y-4.63890
G01 X-43.14985 Y-4.46669
G01 X-43.17235 Y-4.41236
G01 X-43.22788 Y-4.22435
G01 X-43.24855 Y-4.02938
G01 X-43.24855 Y-3.97058
G01 X-43.22788 Y-3.77563
G01 X-43.17235 Y-3.58762
G01 X-43.14985 Y-3.53329
G01 X-43.05617 Y-3.36108
G01 X-42.93293 Y-3.20858
G01 X-42.89135 Y-3.16705
G01 X-42.73890 Y-3.04381
G01 X-42.56669 Y-2.95011
G01 X-42.51236 Y-2.92760
G01 X-42.32435 Y-2.87208
G01 X-42.12938 Y-2.85143
G01 X-42.07058 Y-2.85143
G01 X-41.87563 Y-2.87208
G01 X-41.68762 Y-2.92760
G01 X-41.63329 Y-2.95011
G01 X-41.46108 Y-3.04381
G01 X-41.30863 Y-3.16705
G01 X-41.26705 Y-3.20858
G01 X-41.14381 Y-3.36108
G01 X-41.05011 Y-3.53329
G01 X-41.02760 Y-3.58762
G01 X-40.97208 Y-3.77563
G01 X-40.95143 Y-3.97058
G01 X-40.95143 Y-4.02938
G04 P0 ( dwell for no time -- G64 should not smooth over this point )
G00 Z2.00000 ( retract )

G00 X-43.49143 Y-4.02938 ( rapid move to begin. )
G01 F30.00000
( Mill infeed pass 1/2 )
G01 Z-0.07500
G04 P0 ( dwell for no time -- G64 should not smooth over this point )
G01 F40.00000
G01 X-43.49143 Y-4.02938
G01 X-43.51208 Y-4.22435
G01 X-43.56760 Y-4.41236
G01 X-43.59011 Y-4.46669
G01 X-43.68381 Y-4.63890
G01 X-43.80705 Y-4.79135
G01 X-43.84863 Y-4.83293
G01 X-44.00108 Y-4.95617
G01 X-44.17329 Y-5.04985
G01 X-44.22762 Y-5.07235
G01 X-44.41563 Y-5.12788
G01 X-44.61058 Y-5.14855
G01 X-44.66938 Y-5.14855
G01 X-44.86435 Y-5.12788
G01 X-45.05236 Y-5.07235
G01 X-45.10669 Y-5.04985
G01 X-45.27890 Y-4.95617
G01 X-45.43135 Y-4.83293
G01 X-45.47293 Y-4.79135
G01 X-45.59618 Y-4.63890
G01 X-45.68985 Y-4.46669
G01 X-45.71235 Y-4.41236
G01 X-45.76788 Y-4.22435
G01 X-45.78855 Y-4.02938
G01 X-45.78855 Y-3.97058
G01 X-45.76788 Y-3.77563
G01 X-45.71235 Y-3.58762
G01 X-45.68985 Y-3.53329
G01 X-45.59618 Y-3.36108
G01 X-45.47293 Y-3.20858
G01 X-45.43135 Y-3.16705
G01 X-45.27890 Y-3.04381
G01 X-45.10669 Y-2.95011
G01 X-45.05236 Y-2.92760
G01 X-44.86435 Y-2.87208
G01 X-44.66938 Y-2.85143
G01 X-44.61058 Y-2.85143
G01 X-44.41563 Y-2.87208
G01 X-44.22762 Y-2.92760
G01 X-44.17329 Y-2.95011
G01 X-44.00108 Y-3.04381
G01 X-43.84863 Y-3.16705
G01 X-43.80705 Y-3.20858
G01 X-43.68381 Y-3.36108
G01 X-43.59011 Y-3.53329
G01 X-43.56760 Y-3.58762
G01 X-43.51208 Y-3.77563
G01 X-43.49143 Y-3.97058
G01 X-43.49143 Y-4.02938
( Mill infeed pass 2/2 )
G01 Z-0.15000
G04 P0 ( dwell for no time -- G64 should not smooth over this point )
G01 F40.00000
G01 X-43.49143 Y-4.02938
G01 X-43.51208 Y-4.22435
G01 X-43.56760 Y-4.41236
G01 X-43.59011 Y-4.46669
G01 X-43.68381 Y-4.63890
G01 X-43.80705 Y-4.79135
G01 X-43.84863 Y-4.83293
G01 X-44.00108 Y-4.95617
G01 X-44.17329 Y-5.04985
G01 X-44.22762 Y-5.07235
G01 X-44.41563 Y-5.12788
G01 X-44.61058 Y-5.14855
G01 X-44.66938 Y-5.14855
G01 X-44.86435 Y-5.12788
G01 X-45.05236 Y-5.07235
G01 X-45.10669 Y-5.04985
G01 X-45.27890 Y-4.95617
G01 X-45.43135 Y-4.83293
G01 X-45.47293 Y-4.79135
G01 X-45.59618 Y-4.63890
G01 X-45.68985 Y-4.46669
G01 X-45.71235 Y-4.41236
G01 X-45.76788 Y-4.22435
G01 X-45.78855 Y-4.02938
G01 X-45.78855 Y-3.97058
G01 X-45.76788 Y-3.77563
G01 X-45.71235 Y-3.58762
G01 X-45.68985 Y-3.53329
G01 X-45.59618 Y-3.36108
G01 X-45.47293 Y-3.20858
G01 X-45.43135 Y-3.16705
G01 X-45.27890 Y-3.04381
G01 X-45.10669 Y-2.95011
G01 X-45.05236 Y-2.92760
G01 X-44.86435 Y-2.87208
G01 X-44.66938 Y-2.85143
G01 X-44.61058 Y-2.85143
G01 X-44.41563 Y-2.87208
G01 X-44.22762 Y-2.92760
G01 X-44.17329 Y-2.95011
G01 X-44.00108 Y-3.04381
G01 X-43.84863 Y-3.16705
G01 X-43.80705 Y-3.20858
G01 X-43.68381 Y-3.36108
G01 X-43.59011 Y-3.53329
G01 X-43.56760 Y-3.58762
G01 X-43.51208 Y-3.77563
G01 X-43.49143 Y-3.97058
G01 X-43.49143 Y-4.02938
G04 P0 ( dwell for no time -- G64 should not smooth over this point )
G00 Z2.00000 ( retract )

G00 X-46.03143 Y-4.02938 ( rapid move to begin. )
G01 F30.00000
( Mill infeed pass 1/2 )
G01 Z-0.07500
G04 P0 ( dwell for no time -- G64 should not smooth over this point )
G01 F40.00000
G01 X-46.03143 Y-4.02938
G01 X-46.05208 Y-4.22435
G01 X-46.10760 Y-4.41236
G01 X-46.13011 Y-4.46669
G01 X-46.22381 Y-4.63890
G01 X-46.34705 Y-4.79135
G01 X-46.38863 Y-4.83293
G01 X-46.54108 Y-4.95617
G01 X-46.71329 Y-5.04985
G01 X-46.76762 Y-5.07235
G01 X-46.95563 Y-5.12788
G01 X-47.15058 Y-5.14855
G01 X-47.20938 Y-5.14855
G01 X-47.40435 Y-5.12788
G01 X-47.59236 Y-5.07235
G01 X-47.64669 Y-5.04985
G01 X-47.81890 Y-4.95617
G01 X-47.97135 Y-4.83293
G01 X-48.01293 Y-4.79135
G01 X-48.13617 Y-4.63890
G01 X-48.22985 Y-4.46669
G01 X-48.25235 Y-4.41236
G01 X-48.30788 Y-4.22435
G01 X-48.32855 Y-4.02938
G01 X-48.32855 Y-3.97058
G01 X-48.30788 Y-3.77563
G01 X-48.25235 Y-3.58762
G01 X-48.22985 Y-3.53329
G01 X-48.13617 Y-3.36108
G01 X-48.01293 Y-3.20858
G01 X-47.97135 Y-3.16705
G01 X-47.81890 Y-3.04381
G01 X-47.64669 Y-2.95011
G01 X-47.59236 Y-2.92760
G01 X-47.40435 Y-2.87208
G01 X-47.20938 Y-2.85143
G01 X-47.15058 Y-2.85143
G01 X-46.95563 Y-2.87208
G01 X-46.76762 Y-2.92760
G01 X-46.71329 Y-2.95011
G01 X-46.54108 Y-3.04381
G01 X-46.38863 Y-3.16705
G01 X-46.34705 Y-3.20858
G01 X-46.22381 Y-3.36108
G01 X-46.13011 Y-3.53329
G01 X-46.10760 Y-3.58762
G01 X-46.05208 Y-3.77563
G01 X-46.03143 Y-3.97058
G01 X-46.03143 Y-4.02938
( Mill infeed pass 2/2 )
G01 Z-0.15000
G04 P0 ( dwell for no time -- G64 should not smooth over this point )
G01 F40.00000
G01 X-46.03143 Y-4.02938
G01 X-46.05208 Y-4.22435
G01 X-46.10760 Y-4.41236
G01 X-46.13011 Y-4.46669
G01 X-46.22381 Y-4.63890
G01 X-46.34705 Y-4.79135
G01 X-46.38863 Y-4.83293
G01 X-46.54108 Y-4.95617
G01 X-46.71329 Y-5.04985
G01 X-46.76762 Y-5.07235
G01 X-46.95563 Y-5.12788
G01 X-47.15058 Y-5.14855
G01 X-47.20938 Y-5.14855
G01 X-47.40435 Y-5.12788
G01 X-47.59236 Y-5.07235
G01 X-47.64669 Y-5.04985
G01 X-47.81890 Y-4.95617
G01 X-47.97135 Y-4.83293
G01 X-48.01293 Y-4.79135
G01 X-48.13617 Y-4.63890
G01 X-48.22985 Y-4.46669
G01 X-48.25235 Y-4.41236
G01 X-48.30788 Y-4.22435
G01 X-48.32855 Y-4.02938
G01 X-48.32855 Y-3.97058
G01 X-48.30788 Y-3.77563
G01 X-48.25235 Y-3.58762
G01 X-48.22985 Y-3.53329
G01 X-48.13617 Y-3.36108
G01 X-48.01293 Y-3.20858
G01 X-47.97135 Y-3.16705
G01 X-47.81890 Y-3.04381
G01 X-47.64669 Y-2.95011
G01 X-47.59236 Y-2.92760
G01 X-47.40435 Y-2.87208
G01 X-47.20938 Y-2.85143
G01 X-47.15058 Y-2.85143
G01 X-46.95563 Y-2.87208
G01 X-46.76762 Y-2.92760
G01 X-46.71329 Y-2.95011
G01 X-46.54108 Y-3.04381
G01 X-46.38863 Y-3.16705
G01 X-46.34705 Y-3.20858
G01 X-46.22381 Y-3.36108
G01 X-46.13011 Y-3.53329
G01 X-46.10760 Y-3.58762
G01 X-46.05208 Y-3.77563
G01 X-46.03143 Y-3.97058
G01 X-46.03143 Y-4.02938
G04 P0 ( dwell for no time -- G64 should not smooth over this point )
G00 Z2.00000 ( retract )

G00 X-49.90142 Y-11.78938 ( rapid move to begin. )
G01 F30.00000
( Mill infeed pass 1/2 )
G01 Z-0.07500
G04 P0 ( dwell for no time -- G64 should not smooth over this point )
G01 F40.00000
G01 X-49.90142 Y-11.78938
G01 X-49.91679 Y-11.94547
G01 X-49.92827 Y-12.00315
G01 X-49.98372 Y-12.18095
G01 X-50.07023 Y-12.34587
G01 X-50.10290 Y-12.39477
G01 X-50.22218 Y-12.53780
G01 X-50.38885 Y-12.67460
G01 X-50.55243 Y-12.76368
G01 X-50.60676 Y-12.78618
G01 X-50.75682 Y-12.83170
G01 X-50.81448 Y-12.84318
G01 X-51.00000 Y-12.85999
G01 X-51.18545 Y-12.84318
G01 X-51.24315 Y-12.83170
G01 X-51.42093 Y-12.77623
G01 X-51.58585 Y-12.68974
G01 X-51.63477 Y-12.65707
G01 X-51.75598 Y-12.55758
G01 X-51.79758 Y-12.51600
G01 X-51.91460 Y-12.37112
G01 X-52.01623 Y-12.18095
G01 X-52.07168 Y-12.00315
G01 X-52.08318 Y-11.94547
G01 X-52.09855 Y-11.78938
G01 X-52.09855 Y-11.73058
G01 X-52.08318 Y-11.57450
G01 X-52.07168 Y-11.51682
G01 X-52.01623 Y-11.33904
G01 X-51.91460 Y-11.14885
G01 X-51.79758 Y-11.00399
G01 X-51.75598 Y-10.96241
G01 X-51.63477 Y-10.86292
G01 X-51.58585 Y-10.83023
G01 X-51.42093 Y-10.74372
G01 X-51.24315 Y-10.68827
G01 X-51.18545 Y-10.67681
G01 X-51.00000 Y-10.66000
G01 X-50.81448 Y-10.67681
G01 X-50.75682 Y-10.68827
G01 X-50.57905 Y-10.74372
G01 X-50.41412 Y-10.83023
G01 X-50.36520 Y-10.86292
G01 X-50.22218 Y-10.98217
G01 X-50.10290 Y-11.12523
G01 X-50.07023 Y-11.17412
G01 X-49.98372 Y-11.33904
G01 X-49.92827 Y-11.51682
G01 X-49.91679 Y-11.57450
G01 X-49.90142 Y-11.73058
G01 X-49.90142 Y-11.78938
( Mill infeed pass 2/2 )
G01 Z-0.15000
G04 P0 ( dwell for no time -- G64 should not smooth over this point )
G01 F40.00000
G01 X-49.90142 Y-11.78938
G01 X-49.91679 Y-11.94547
G01 X-49.92827 Y-12.00315
G01 X-49.98372 Y-12.18095
G01 X-50.07023 Y-12.34587
G01 X-50.10290 Y-12.39477
G01 X-50.22218 Y-12.53780
G01 X-50.38885 Y-12.67460
G01 X-50.55243 Y-12.76368
G01 X-50.60676 Y-12.78618
G01 X-50.75682 Y-12.83170
G01 X-50.81448 Y-12.84318
G01 X-51.00000 Y-12.85999
G01 X-51.18545 Y-12.84318
G01 X-51.24315 Y-12.83170
G01 X-51.42093 Y-12.77623
G01 X-51.58585 Y-12.68974
G01 X-51.63477 Y-12.65707
G01 X-51.75598 Y-12.55758
G01 X-51.79758 Y-12.51600
G01 X-51.91460 Y-12.37112
G01 X-52.01623 Y-12.18095
G01 X-52.07168 Y-12.00315
G01 X-52.08318 Y-11.94547
G01 X-52.09855 Y-11.78938
G01 X-52.09855 Y-11.73058
G01 X-52.08318 Y-11.57450
G01 X-52.07168 Y-11.51682
G01 X-52.01623 Y-11.33904
G01 X-51.91460 Y-11.14885
G01 X-51.79758 Y-11.00399
G01 X-51.75598 Y-10.96241
G01 X-51.63477 Y-10.86292
G01 X-51.58585 Y-10.83023
G01 X-51.42093 Y-10.74372
G01 X-51.24315 Y-10.68827
G01 X-51.18545 Y-10.67681
G01 X-51.00000 Y-10.66000
G01 X-50.81448 Y-10.67681
G01 X-50.75682 Y-10.68827
G01 X-50.57905 Y-10.74372
G01 X-50.41412 Y-10.83023
G01 X-50.36520 Y-10.86292
G01 X-50.22218 Y-10.98217
G01 X-50.10290 Y-11.12523
G01 X-50.07023 Y-11.17412
G01 X-49.98372 Y-11.33904
G01 X-49.92827 Y-11.51682
G01 X-49.91679 Y-11.57450
G01 X-49.90142 Y-11.73058
G01 X-49.90142 Y-11.78938
G04 P0 ( dwell for no time -- G64 should not smooth over this point )
G00 Z2.00000 ( retract )

G00 X-54.98142 Y-15.78940 ( rapid move to begin. )
G01 F30.00000
( Mill infeed pass 1/2 )
G01 Z-0.07500
G04 P0 ( dwell for no time -- G64 should not smooth over this point )
G01 F40.00000
G01 X-54.98142 Y-15.78940
G01 X-54.99679 Y-15.94546
G01 X-55.00827 Y-16.00314
G01 X-55.06372 Y-16.18094
G01 X-55.16537 Y-16.37111
G01 X-55.28239 Y-16.51599
G01 X-55.32399 Y-16.55757
G01 X-55.44520 Y-16.65707
G01 X-55.49412 Y-16.68973
G01 X-55.65905 Y-16.77624
G01 X-55.83682 Y-16.83169
G01 X-55.89450 Y-16.84317
G01 X-56.08000 Y-16.85999
G01 X-56.26547 Y-16.84317
G01 X-56.32315 Y-16.83169
G01 X-56.50093 Y-16.77624
G01 X-56.66585 Y-16.68973
G01 X-56.71477 Y-16.65707
G01 X-56.85780 Y-16.53781
G01 X-56.99460 Y-16.37111
G01 X-57.09625 Y-16.18094
G01 X-57.15170 Y-16.00314
G01 X-57.16318 Y-15.94546
G01 X-57.17855 Y-15.78940
G01 X-57.17855 Y-15.73058
G01 X-57.16318 Y-15.57452
G01 X-57.15170 Y-15.51683
G01 X-57.09625 Y-15.33903
G01 X-56.99460 Y-15.14886
G01 X-56.87759 Y-15.00398
G01 X-56.83598 Y-14.96240
G01 X-56.71477 Y-14.86291
G01 X-56.66585 Y-14.83025
G01 X-56.50093 Y-14.74371
G01 X-56.32315 Y-14.68829
G01 X-56.26547 Y-14.67681
G01 X-56.08000 Y-14.65999
G01 X-55.89450 Y-14.67681
G01 X-55.83682 Y-14.68829
G01 X-55.65905 Y-14.74371
G01 X-55.49412 Y-14.83025
G01 X-55.44520 Y-14.86291
G01 X-55.30218 Y-14.98216
G01 X-55.16537 Y-15.14886
G01 X-55.06372 Y-15.33903
G01 X-55.00827 Y-15.51683
G01 X-54.99679 Y-15.57452
G01 X-54.98142 Y-15.73058
G01 X-54.98142 Y-15.78940
( Mill infeed pass 2/2 )
G01 Z-0.15000
G04 P0 ( dwell for no time -- G64 should not smooth over this point )
G01 F40.00000
G01 X-54.98142 Y-15.78940
G01 X-54.99679 Y-15.94546
G01 X-55.00827 Y-16.00314
G01 X-55.06372 Y-16.18094
G01 X-55.16537 Y-16.37111
G01 X-55.28239 Y-16.51599
G01 X-55.32399 Y-16.55757
G01 X-55.44520 Y-16.65707
G01 X-55.49412 Y-16.68973
G01 X-55.65905 Y-16.77624
G01 X-55.83682 Y-16.83169
G01 X-55.89450 Y-16.84317
G01 X-56.08000 Y-16.85999
G01 X-56.26547 Y-16.84317
G01 X-56.32315 Y-16.83169
G01 X-56.50093 Y-16.77624
G01 X-56.66585 Y-16.68973
G01 X-56.71477 Y-16.65707
G01 X-56.85780 Y-16.53781
G01 X-56.99460 Y-16.37111
G01 X-57.09625 Y-16.18094
G01 X-57.15170 Y-16.00314
G01 X-57.16318 Y-15.94546
G01 X-57.17855 Y-15.78940
G01 X-57.17855 Y-15.73058
G01 X-57.16318 Y-15.57452
G01 X-57.15170 Y-15.51683
G01 X-57.09625 Y-15.33903
G01 X-56.99460 Y-15.14886
G01 X-56.87759 Y-15.00398
G01 X-56.83598 Y-14.96240
G01 X-56.71477 Y-14.86291
G01 X-56.66585 Y-14.83025
G01 X-56.50093 Y-14.74371
G01 X-56.32315 Y-14.68829
G01 X-56.26547 Y-14.67681
G01 X-56.08000 Y-14.65999
G01 X-55.89450 Y-14.67681
G01 X-55.83682 Y-14.68829
G01 X-55.65905 Y-14.74371
G01 X-55.49412 Y-14.83025
G01 X-55.44520 Y-14.86291
G01 X-55.30218 Y-14.98216
G01 X-55.16537 Y-15.14886
G01 X-55.06372 Y-15.33903
G01 X-55.00827 Y-15.51683
G01 X-54.99679 Y-15.57452
G01 X-54.98142 Y-15.73058
G01 X-54.98142 Y-15.78940
G04 P0 ( dwell for no time -- G64 should not smooth over this point )
G00 Z2.00000 ( retract )

G00 X-60.06142 Y-15.78940 ( rapid move to begin. )
G01 F30.00000
( Mill infeed pass 1/2 )
G01 Z-0.07500
G04 P0 ( dwell for no time -- G64 should not smooth over this point )
G01 F40.00000
G01 X-60.06142 Y-15.78940
G01 X-60.07679 Y-15.94546
G01 X-60.08827 Y-16.00314
G01 X-60.14372 Y-16.18094
G01 X-60.24537 Y-16.37111
G01 X-60.36239 Y-16.51599
G01 X-60.40399 Y-16.55757
G01 X-60.52520 Y-16.65707
G01 X-60.57412 Y-16.68973
G01 X-60.73905 Y-16.77624
G01 X-60.91682 Y-16.83169
G01 X-60.97450 Y-16.84317
G01 X-61.16000 Y-16.85999
G01 X-61.34547 Y-16.84317
G01 X-61.40315 Y-16.83169
G01 X-61.58093 Y-16.77624
G01 X-61.74585 Y-16.68973
G01 X-61.79477 Y-16.65707
G01 X-61.93780 Y-16.53781
G01 X-62.07460 Y-16.37111
G01 X-62.17625 Y-16.18094
G01 X-62.23170 Y-16.00314
G01 X-62.24318 Y-15.94546
G01 X-62.25855 Y-15.78940
G01 X-62.25855 Y-15.73058
G01 X-62.24318 Y-15.57452
G01 X-62.23170 Y-15.51683
G01 X-62.17625 Y-15.33903
G01 X-62.07460 Y-15.14886
G01 X-61.95758 Y-15.00398
G01 X-61.91598 Y-14.96240
G01 X-61.79477 Y-14.86291
G01 X-61.74585 Y-14.83025
G01 X-61.58093 Y-14.74371
G01 X-61.40315 Y-14.68829
G01 X-61.34547 Y-14.67681
G01 X-61.16000 Y-14.65999
G01 X-60.97450 Y-14.67681
G01 X-60.91682 Y-14.68829
G01 X-60.73905 Y-14.74371
G01 X-60.57412 Y-14.83025
G01 X-60.52520 Y-14.86291
G01 X-60.38218 Y-14.98216
G01 X-60.24537 Y-15.14886
G01 X-60.14372 Y-15.33903
G01 X-60.08827 Y-15.51683
G01 X-60.07679 Y-15.57452
G01 X-60.06142 Y-15.73058
G01 X-60.06142 Y-15.78940
( Mill infeed pass 2/2 )
G01 Z-0.15000
G04 P0 ( dwell for no time -- G64 should not smooth over this point )
G01 F40.00000
G01 X-60.06142 Y-15.78940
G01 X-60.07679 Y-15.94546
G01 X-60.08827 Y-16.00314
G01 X-60.14372 Y-16.18094
G01 X-60.24537 Y-16.37111
G01 X-60.36239 Y-16.51599
G01 X-60.40399 Y-16.55757
G01 X-60.52520 Y-16.65707
G01 X-60.57412 Y-16.68973
G01 X-60.73905 Y-16.77624
G01 X-60.91682 Y-16.83169
G01 X-60.97450 Y-16.84317
G01 X-61.16000 Y-16.85999
G01 X-61.34547 Y-16.84317
G01 X-61.40315 Y-16.83169
G01 X-61.58093 Y-16.77624
G01 X-61.74585 Y-16.68973
G01 X-61.79477 Y-16.65707
G01 X-61.93780 Y-16.53781
G01 X-62.07460 Y-16.37111
G01 X-62.17625 Y-16.18094
G01 X-62.23170 Y-16.00314
G01 X-62.24318 Y-15.94546
G01 X-62.25855 Y-15.78940
G01 X-62.25855 Y-15.73058
G01 X-62.24318 Y-15.57452
G01 X-62.23170 Y-15.51683
G01 X-62.17625 Y-15.33903
G01 X-62.07460 Y-15.14886
G01 X-61.95758 Y-15.00398
G01 X-61.91598 Y-14.96240
G01 X-61.79477 Y-14.86291
G01 X-61.74585 Y-14.83025
G01 X-61.58093 Y-14.74371
G01 X-61.40315 Y-14.68829
G01 X-61.34547 Y-14.67681
G01 X-61.16000 Y-14.65999
G01 X-60.97450 Y-14.67681
G01 X-60.91682 Y-14.68829
G01 X-60.73905 Y-14.74371
G01 X-60.57412 Y-14.83025
G01 X-60.52520 Y-14.86291
G01 X-60.38218 Y-14.98216
G01 X-60.24537 Y-15.14886
G01 X-60.14372 Y-15.33903
G01 X-60.08827 Y-15.51683
G01 X-60.07679 Y-15.57452
G01 X-60.06142 Y-15.73058
G01 X-60.06142 Y-15.78940
G04 P0 ( dwell for no time -- G64 should not smooth over this point )
G00 Z2.00000 ( retract )

G00 X-62.60142 Y-15.78940 ( rapid move to begin. )
G01 F30.00000
( Mill infeed pass 1/2 )
G01 Z-0.07500
G04 P0 ( dwell for no time -- G64 should not smooth over this point )
G01 F40.00000
G01 X-62.60142 Y-15.78940
G01 X-62.61679 Y-15.94546
G01 X-62.62827 Y-16.00314
G01 X-62.68372 Y-16.18094
G01 X-62.78537 Y-16.37111
G01 X-62.90239 Y-16.51599
G01 X-62.94399 Y-16.55757
G01 X-63.06520 Y-16.65707
G01 X-63.11412 Y-16.68973
G01 X-63.27905 Y-16.77624
G01 X-63.45682 Y-16.83169
G01 X-63.51450 Y-16.84317
G01 X-63.70000 Y-16.85999
G01 X-63.88547 Y-16.84317
G01 X-63.94315 Y-16.83169
G01 X-64.12093 Y-16.77624
G01 X-64.28585 Y-16.68973
G01 X-64.33477 Y-16.65707
G01 X-64.47780 Y-16.53781
G01 X-64.61460 Y-16.37111
G01 X-64.71625 Y-16.18094
G01 X-64.77170 Y-16.00314
G01 X-64.78318 Y-15.94546
G01 X-64.79855 Y-15.78940
G01 X-64.79855 Y-15.73058
G01 X-64.78318 Y-15.57452
G01 X-64.77170 Y-15.51683
G01 X-64.71625 Y-15.33903
G01 X-64.61460 Y-15.14886
G01 X-64.49759 Y-15.00398
G01 X-64.45598 Y-14.96240
G01 X-64.33477 Y-14.86291
G01 X-64.28585 Y-14.83025
G01 X-64.12093 Y-14.74371
G01 X-63.94315 Y-14.68829
G01 X-63.88547 Y-14.67681
G01 X-63.70000 Y-14.65999
G01 X-63.51450 Y-14.67681
G01 X-63.45682 Y-14.68829
G01 X-63.27905 Y-14.74371
G01 X-63.11412 Y-14.83025
G01 X-63.06520 Y-14.86291
G01 X-62.92218 Y-14.98216
G01 X-62.78537 Y-15.14886
G01 X-62.68372 Y-15.33903
G01 X-62.62827 Y-15.51683
G01 X-62.61679 Y-15.57452
G01 X-62.60142 Y-15.73058
G01 X-62.60142 Y-15.78940
( Mill infeed pass 2/2 )
G01 Z-0.15000
G04 P0 ( dwell for no time -- G64 should not smooth over this point )
G01 F40.00000
G01 X-62.60142 Y-15.78940
G01 X-62.61679 Y-15.94546
G01 X-62.62827 Y-16.00314
G01 X-62.68372 Y-16.18094
G01 X-62.78537 Y-16.37111
G01 X-62.90239 Y-16.51599
G01 X-62.94399 Y-16.55757
G01 X-63.06520 Y-16.65707
G01 X-63.11412 Y-16.68973
G01 X-63.27905 Y-16.77624
G01 X-63.45682 Y-16.83169
G01 X-63.51450 Y-16.84317
G01 X-63.70000 Y-16.85999
G01 X-63.88547 Y-16.84317
G01 X-63.94315 Y-16.83169
G01 X-64.12093 Y-16.77624
G01 X-64.28585 Y-16.68973
G01 X-64.33477 Y-16.65707
G01 X-64.47780 Y-16.53781
G01 X-64.61460 Y-16.37111
G01 X-64.71625 Y-16.18094
G01 X-64.77170 Y-16.00314
G01 X-64.78318 Y-15.94546
G01 X-64.79855 Y-15.78940
G01 X-64.79855 Y-15.73058
G01 X-64.78318 Y-15.57452
G01 X-64.77170 Y-15.51683
G01 X-64.71625 Y-15.33903
G01 X-64.61460 Y-15.14886
G01 X-64.49759 Y-15.00398
G01 X-64.45598 Y-14.96240
G01 X-64.33477 Y-14.86291
G01 X-64.28585 Y-14.83025
G01 X-64.12093 Y-14.74371
G01 X-63.94315 Y-14.68829
G01 X-63.88547 Y-14.67681
G01 X-63.70000 Y-14.65999
G01 X-63.51450 Y-14.67681
G01 X-63.45682 Y-14.68829
G01 X-63.27905 Y-14.74371
G01 X-63.11412 Y-14.83025
G01 X-63.06520 Y-14.86291
G01 X-62.92218 Y-14.98216
G01 X-62.78537 Y-15.14886
G01 X-62.68372 Y-15.33903
G01 X-62.62827 Y-15.51683
G01 X-62.61679 Y-15.57452
G01 X-62.60142 Y-15.73058
G01 X-62.60142 Y-15.78940
G04 P0 ( dwell for no time -- G64 should not smooth over this point )
G00 Z2.00000 ( retract )

G00 X-65.14142 Y-15.78940 ( rapid move to begin. )
G01 F30.00000
( Mill infeed pass 1/2 )
G01 Z-0.07500
G04 P0 ( dwell for no time -- G64 should not smooth over this point )
G01 F40.00000
G01 X-65.14142 Y-15.78940
G01 X-65.15679 Y-15.94546
G01 X-65.16827 Y-16.00314
G01 X-65.22372 Y-16.18094
G01 X-65.32537 Y-16.37111
G01 X-65.44239 Y-16.51599
G01 X-65.48399 Y-16.55757
G01 X-65.60520 Y-16.65707
G01 X-65.65412 Y-16.68973
G01 X-65.81905 Y-16.77624
G01 X-65.99682 Y-16.83169
G01 X-66.05450 Y-16.84317
G01 X-66.24000 Y-16.85999
G01 X-66.42547 Y-16.84317
G01 X-66.48315 Y-16.83169
G01 X-66.66093 Y-16.77624
G01 X-66.82585 Y-16.68973
G01 X-66.87477 Y-16.65707
G01 X-67.01780 Y-16.53781
G01 X-67.15460 Y-16.37111
G01 X-67.25625 Y-16.18094
G01 X-67.31170 Y-16.00314
G01 X-67.32318 Y-15.94546
G01 X-67.33855 Y-15.78940
G01 X-67.33855 Y-15.73058
G01 X-67.32318 Y-15.57452
G01 X-67.31170 Y-15.51683
G01 X-67.25625 Y-15.33903
G01 X-67.15460 Y-15.14886
G01 X-67.03758 Y-15.00398
G01 X-66.99598 Y-14.96240
G01 X-66.87477 Y-14.86291
G01 X-66.82585 Y-14.83025
G01 X-66.66093 Y-14.74371
G01 X-66.48315 Y-14.68829
G01 X-66.42547 Y-14.67681
G01 X-66.24000 Y-14.65999
G01 X-66.05450 Y-14.67681
G01 X-65.99682 Y-14.68829
G01 X-65.81905 Y-14.74371
G01 X-65.65412 Y-14.83025
G01 X-65.60520 Y-14.86291
G01 X-65.46218 Y-14.98216
G01 X-65.32537 Y-15.14886
G01 X-65.22372 Y-15.33903
G01 X-65.16827 Y-15.51683
G01 X-65.15679 Y-15.57452
G01 X-65.14142 Y-15.73058
G01 X-65.14142 Y-15.78940
( Mill infeed pass 2/2 )
G01 Z-0.15000
G04 P0 ( dwell for no time -- G64 should not smooth over this point )
G01 F40.00000
G01 X-65.14142 Y-15.78940
G01 X-65.15679 Y-15.94546
G01 X-65.16827 Y-16.00314
G01 X-65.22372 Y-16.18094
G01 X-65.32537 Y-16.37111
G01 X-65.44239 Y-16.51599
G01 X-65.48399 Y-16.55757
G01 X-65.60520 Y-16.65707
G01 X-65.65412 Y-16.68973
G01 X-65.81905 Y-16.77624
G01 X-65.99682 Y-16.83169
G01 X-66.05450 Y-16.84317
G01 X-66.24000 Y-16.85999
G01 X-66.42547 Y-16.84317
G01 X-66.48315 Y-16.83169
G01 X-66.66093 Y-16.77624
G01 X-66.82585 Y-16.68973
G01 X-66.87477 Y-16.65707
G01 X-67.01780 Y-16.53781
G01 X-67.15460 Y-16.37111
G01 X-67.25625 Y-16.18094
G01 X-67.31170 Y-16.00314
G01 X-67.32318 Y-15.94546
G01 X-67.33855 Y-15.78940
G01 X-67.33855 Y-15.73058
G01 X-67.32318 Y-15.57452
G01 X-67.31170 Y-15.51683
G01 X-67.25625 Y-15.33903
G01 X-67.15460 Y-15.14886
G01 X-67.03758 Y-15.00398
G01 X-66.99598 Y-14.96240
G01 X-66.87477 Y-14.86291
G01 X-66.82585 Y-14.83025
G01 X-66.66093 Y-14.74371
G01 X-66.48315 Y-14.68829
G01 X-66.42547 Y-14.67681
G01 X-66.24000 Y-14.65999
G01 X-66.05450 Y-14.67681
G01 X-65.99682 Y-14.68829
G01 X-65.81905 Y-14.74371
G01 X-65.65412 Y-14.83025
G01 X-65.60520 Y-14.86291
G01 X-65.46218 Y-14.98216
G01 X-65.32537 Y-15.14886
G01 X-65.22372 Y-15.33903
G01 X-65.16827 Y-15.51683
G01 X-65.15679 Y-15.57452
G01 X-65.14142 Y-15.73058
G01 X-65.14142 Y-15.78940
G04 P0 ( dwell for no time -- G64 should not smooth over this point )
G00 Z2.00000 ( retract )

G00 X-67.68142 Y-15.78940 ( rapid move to begin. )
G01 F30.00000
( Mill infeed pass 1/2 )
G01 Z-0.07500
G04 P0 ( dwell for no time -- G64 should not smooth over this point )
G01 F40.00000
G01 X-67.68142 Y-15.78940
G01 X-67.69679 Y-15.94546
G01 X-67.70827 Y-16.00314
G01 X-67.75381 Y-16.15323
G01 X-67.77632 Y-16.20756
G01 X-67.86537 Y-16.37111
G01 X-67.98239 Y-16.51599
G01 X-68.02399 Y-16.55757
G01 X-68.14520 Y-16.65707
G01 X-68.19412 Y-16.68973
G01 X-68.27998 Y-16.73563
G01 X-68.27998 Y-18.29783
G01 X-68.22056 Y-18.40403
G01 X-68.19806 Y-18.45836
G01 X-68.16961 Y-18.55216
G01 X-68.15813 Y-18.60984
G01 X-68.14708 Y-18.73679
G01 X-68.15813 Y-18.86374
G01 X-68.16961 Y-18.92143
G01 X-68.19806 Y-19.01520
G01 X-68.22056 Y-19.06956
G01 X-68.26677 Y-19.15599
G01 X-68.29946 Y-19.20489
G01 X-68.39113 Y-19.31129
G01 X-68.47898 Y-19.38442
G01 X-68.52788 Y-19.41711
G01 X-68.64093 Y-19.47588
G01 X-68.76245 Y-19.51426
G01 X-68.82013 Y-19.52574
G01 X-68.93319 Y-19.53611
G01 X-69.07403 Y-19.52574
G01 X-69.13171 Y-19.51426
G01 X-69.25323 Y-19.47588
G01 X-69.36628 Y-19.41711
G01 X-69.41520 Y-19.38442
G01 X-69.51276 Y-19.30248
G01 X-69.59473 Y-19.20489
G01 X-69.62739 Y-19.15599
G01 X-69.67360 Y-19.06956
G01 X-69.69610 Y-19.01520
G01 X-69.72455 Y-18.92143
G01 X-69.73603 Y-18.86374
G01 X-69.74708 Y-18.73679
G01 X-69.73603 Y-18.60984
G01 X-69.72455 Y-18.55216
G01 X-69.69610 Y-18.45836
G01 X-69.67360 Y-18.40403
G01 X-69.62739 Y-18.31759
G01 X-69.59473 Y-18.26870
G01 X-69.51276 Y-18.17111
G01 X-69.41520 Y-18.08914
G01 X-69.36628 Y-18.05648
G01 X-69.28000 Y-18.01035
G01 X-69.27997 Y-16.73565
G01 X-69.36585 Y-16.68973
G01 X-69.41477 Y-16.65707
G01 X-69.55780 Y-16.53781
G01 X-69.69460 Y-16.37111
G01 X-69.79625 Y-16.18094
G01 X-69.85170 Y-16.00314
G01 X-69.86318 Y-15.94546
G01 X-69.87855 Y-15.78940
G01 X-69.87855 Y-15.73058
G01 X-69.86318 Y-15.57452
G01 X-69.85170 Y-15.51683
G01 X-69.79625 Y-15.33903
G01 X-69.69460 Y-15.14886
G01 X-69.57758 Y-15.00398
G01 X-69.53598 Y-14.96240
G01 X-69.41477 Y-14.86291
G01 X-69.36585 Y-14.83025
G01 X-69.22755 Y-14.75631
G01 X-69.17322 Y-14.73380
G01 X-69.02315 Y-14.68829
G01 X-68.96547 Y-14.67681
G01 X-68.78000 Y-14.65999
G01 X-68.59450 Y-14.67681
G01 X-68.53682 Y-14.68829
G01 X-68.35905 Y-14.74371
G01 X-68.19412 Y-14.83025
G01 X-68.14520 Y-14.86291
G01 X-68.00218 Y-14.98216
G01 X-67.88290 Y-15.12522
G01 X-67.85023 Y-15.17411
G01 X-67.76372 Y-15.33903
G01 X-67.70827 Y-15.51683
G01 X-67.69679 Y-15.57452
G01 X-67.68142 Y-15.73058
G01 X-67.68142 Y-15.78940
( Mill infeed pass 2/2 )
G01 Z-0.15000
G04 P0 ( dwell for no time -- G64 should not smooth over this point )
G01 F40.00000
G01 X-67.68142 Y-15.78940
G01 X-67.69679 Y-15.94546
G01 X-67.70827 Y-16.00314
G01 X-67.75381 Y-16.15323
G01 X-67.77632 Y-16.20756
G01 X-67.86537 Y-16.37111
G01 X-67.98239 Y-16.51599
G01 X-68.02399 Y-16.55757
G01 X-68.14520 Y-16.65707
G01 X-68.19412 Y-16.68973
G01 X-68.27998 Y-16.73563
G01 X-68.27998 Y-18.29783
G01 X-68.22056 Y-18.40403
G01 X-68.19806 Y-18.45836
G01 X-68.16961 Y-18.55216
G01 X-68.15813 Y-18.60984
G01 X-68.14708 Y-18.73679
G01 X-68.15813 Y-18.86374
G01 X-68.16961 Y-18.92143
G01 X-68.19806 Y-19.01520
G01 X-68.22056 Y-19.06956
G01 X-68.26677 Y-19.15599
G01 X-68.29946 Y-19.20489
G01 X-68.39113 Y-19.31129
G01 X-68.47898 Y-19.38442
G01 X-68.52788 Y-19.41711
G01 X-68.64093 Y-19.47588
G01 X-68.76245 Y-19.51426
G01 X-68.82013 Y-19.52574
G01 X-68.93319 Y-19.53611
G01 X-69.07403 Y-19.52574
G01 X-69.13171 Y-19.51426
G01 X-69.25323 Y-19.47588
G01 X-69.36628 Y-19.41711
G01 X-69.41520 Y-19.38442
G01 X-69.51276 Y-19.30248
G01 X-69.59473 Y-19.20489
G01 X-69.62739 Y-19.15599
G01 X-69.67360 Y-19.06956
G01 X-69.69610 Y-19.01520
G01 X-69.72455 Y-18.92143
G01 X-69.73603 Y-18.86374
G01 X-69.74708 Y-18.73679
G01 X-69.73603 Y-18.60984
G01 X-69.72455 Y-18.55216
G01 X-69.69610 Y-18.45836
G01 X-69.67360 Y-18.40403
G01 X-69.62739 Y-18.31759
G01 X-69.59473 Y-18.26870
G01 X-69.51276 Y-18.17111
G01 X-69.41520 Y-18.08914
G01 X-69.36628 Y-18.05648
G01 X-69.28000 Y-18.01035
G01 X-69.27997 Y-16.73565
G01 X-69.36585 Y-16.68973
G01 X-69.41477 Y-16.65707
G01 X-69.55780 Y-16.53781
G01 X-69.69460 Y-16.37111
G01 X-69.79625 Y-16.18094
G01 X-69.85170 Y-16.00314
G01 X-69.86318 Y-15.94546
G01 X-69.87855 Y-15.78940
G01 X-69.87855 Y-15.73058
G01 X-69.86318 Y-15.57452
G01 X-69.85170 Y-15.51683
G01 X-69.79625 Y-15.33903
G01 X-69.69460 Y-15.14886
G01 X-69.57758 Y-15.00398
G01 X-69.53598 Y-14.96240
G01 X-69.41477 Y-14.86291
G01 X-69.36585 Y-14.83025
G01 X-69.22755 Y-14.75631
G01 X-69.17322 Y-14.73380
G01 X-69.02315 Y-14.68829
G01 X-68.96547 Y-14.67681
G01 X-68.78000 Y-14.65999
G01 X-68.59450 Y-14.67681
G01 X-68.53682 Y-14.68829
G01 X-68.35905 Y-14.74371
G01 X-68.19412 Y-14.83025
G01 X-68.14520 Y-14.86291
G01 X-68.00218 Y-14.98216
G01 X-67.88290 Y-15.12522
G01 X-67.85023 Y-15.17411
G01 X-67.76372 Y-15.33903
G01 X-67.70827 Y-15.51683
G01 X-67.69679 Y-15.57452
G01 X-67.68142 Y-15.73058
G01 X-67.68142 Y-15.78940
G04 P0 ( dwell for no time -- G64 should not smooth over this point )
G00 Z2.00000 ( retract )

G00 X-72.76142 Y-15.78940 ( rapid move to begin. )
G01 F30.00000
( Mill infeed pass 1/2 )
G01 Z-0.07500
G04 P0 ( dwell for no time -- G64 should not smooth over this point )
G01 F40.00000
G01 X-72.76142 Y-15.78940
G01 X-72.77679 Y-15.94546
G01 X-72.78827 Y-16.00314
G01 X-72.84372 Y-16.18094
G01 X-72.94537 Y-16.37111
G01 X-73.06239 Y-16.51599
G01 X-73.10399 Y-16.55757
G01 X-73.22520 Y-16.65707
G01 X-73.27412 Y-16.68973
G01 X-73.43905 Y-16.77624
G01 X-73.61682 Y-16.83169
G01 X-73.67450 Y-16.84317
G01 X-73.86000 Y-16.85999
G01 X-74.04547 Y-16.84317
G01 X-74.10315 Y-16.83169
G01 X-74.28093 Y-16.77624
G01 X-74.44585 Y-16.68973
G01 X-74.49477 Y-16.65707
G01 X-74.63780 Y-16.53781
G01 X-74.77460 Y-16.37111
G01 X-74.87625 Y-16.18094
G01 X-74.93170 Y-16.00314
G01 X-74.94318 Y-15.94546
G01 X-74.95855 Y-15.78940
G01 X-74.95855 Y-15.73058
G01 X-74.94318 Y-15.57452
G01 X-74.93170 Y-15.51683
G01 X-74.87625 Y-15.33903
G01 X-74.77460 Y-15.14886
G01 X-74.65758 Y-15.00398
G01 X-74.61598 Y-14.96240
G01 X-74.49477 Y-14.86291
G01 X-74.44585 Y-14.83025
G01 X-74.28093 Y-14.74371
G01 X-74.10315 Y-14.68829
G01 X-74.04547 Y-14.67681
G01 X-73.88939 Y-14.66144
G01 X-73.84649 Y-14.66065
G01 X-73.67450 Y-14.67681
G01 X-73.61682 Y-14.68829
G01 X-73.43905 Y-14.74371
G01 X-73.27412 Y-14.83025
G01 X-73.22520 Y-14.86291
G01 X-73.08218 Y-14.98216
G01 X-72.94537 Y-15.14886
G01 X-72.84372 Y-15.33903
G01 X-72.78827 Y-15.51683
G01 X-72.77679 Y-15.57452
G01 X-72.76142 Y-15.73058
G01 X-72.76142 Y-15.78940
( Mill infeed pass 2/2 )
G01 Z-0.15000
G04 P0 ( dwell for no time -- G64 should not smooth over this point )
G01 F40.00000
G01 X-72.76142 Y-15.78940
G01 X-72.77679 Y-15.94546
G01 X-72.78827 Y-16.00314
G01 X-72.84372 Y-16.18094
G01 X-72.94537 Y-16.37111
G01 X-73.06239 Y-16.51599
G01 X-73.10399 Y-16.55757
G01 X-73.22520 Y-16.65707
G01 X-73.27412 Y-16.68973
G01 X-73.43905 Y-16.77624
G01 X-73.61682 Y-16.83169
G01 X-73.67450 Y-16.84317
G01 X-73.86000 Y-16.85999
G01 X-74.04547 Y-16.84317
G01 X-74.10315 Y-16.83169
G01 X-74.28093 Y-16.77624
G01 X-74.44585 Y-16.68973
G01 X-74.49477 Y-16.65707
G01 X-74.63780 Y-16.53781
G01 X-74.77460 Y-16.37111
G01 X-74.87625 Y-16.18094
G01 X-74.93170 Y-16.00314
G01 X-74.94318 Y-15.94546
G01 X-74.95855 Y-15.78940
G01 X-74.95855 Y-15.73058
G01 X-74.94318 Y-15.57452
G01 X-74.93170 Y-15.51683
G01 X-74.87625 Y-15.33903
G01 X-74.77460 Y-15.14886
G01 X-74.65758 Y-15.00398
G01 X-74.61598 Y-14.96240
G01 X-74.49477 Y-14.86291
G01 X-74.44585 Y-14.83025
G01 X-74.28093 Y-14.74371
G01 X-74.10315 Y-14.68829
G01 X-74.04547 Y-14.67681
G01 X-73.88939 Y-14.66144
G01 X-73.84649 Y-14.66065
G01 X-73.67450 Y-14.67681
G01 X-73.61682 Y-14.68829
G01 X-73.43905 Y-14.74371
G01 X-73.27412 Y-14.83025
G01 X-73.22520 Y-14.86291
G01 X-73.08218 Y-14.98216
G01 X-72.94537 Y-15.14886
G01 X-72.84372 Y-15.33903
G01 X-72.78827 Y-15.51683
G01 X-72.77679 Y-15.57452
G01 X-72.76142 Y-15.73058
G01 X-72.76142 Y-15.78940
G04 P0 ( dwell for no time -- G64 should not smooth over this point )
G00 Z2.00000 ( retract )

G00 X-75.30142 Y-15.78940 ( rapid move to begin. )
G01 F30.00000
( Mill infeed pass 1/2 )
G01 Z-0.07500
G04 P0 ( dwell for no time -- G64 should not smooth over this point )
G01 F40.00000
G01 X-75.30142 Y-15.78940
G01 X-75.31679 Y-15.94546
G01 X-75.32827 Y-16.00314
G01 X-75.38372 Y-16.18094
G01 X-75.48537 Y-16.37111
G01 X-75.60239 Y-16.51599
G01 X-75.64399 Y-16.55757
G01 X-75.76520 Y-16.65707
G01 X-75.81412 Y-16.68973
G01 X-75.97905 Y-16.77624
G01 X-76.15682 Y-16.83169
G01 X-76.21450 Y-16.84317
G01 X-76.40000 Y-16.85999
G01 X-76.58547 Y-16.84317
G01 X-76.64315 Y-16.83169
G01 X-76.82093 Y-16.77624
G01 X-76.98585 Y-16.68973
G01 X-77.03477 Y-16.65707
G01 X-77.17780 Y-16.53781
G01 X-77.31460 Y-16.37111
G01 X-77.41625 Y-16.18094
G01 X-77.47170 Y-16.00314
G01 X-77.48318 Y-15.94546
G01 X-77.49855 Y-15.78940
G01 X-77.49855 Y-15.73058
G01 X-77.48318 Y-15.57452
G01 X-77.47170 Y-15.51683
G01 X-77.41625 Y-15.33903
G01 X-77.31460 Y-15.14886
G01 X-77.19758 Y-15.00398
G01 X-77.15598 Y-14.96240
G01 X-77.03477 Y-14.86291
G01 X-76.98585 Y-14.83025
G01 X-76.82093 Y-14.74371
G01 X-76.64315 Y-14.68829
G01 X-76.58547 Y-14.67681
G01 X-76.42939 Y-14.66144
G01 X-76.38649 Y-14.66065
G01 X-76.21450 Y-14.67681
G01 X-76.15682 Y-14.68829
G01 X-75.97905 Y-14.74371
G01 X-75.81412 Y-14.83025
G01 X-75.76520 Y-14.86291
G01 X-75.62218 Y-14.98216
G01 X-75.48537 Y-15.14886
G01 X-75.38372 Y-15.33903
G01 X-75.32827 Y-15.51683
G01 X-75.31679 Y-15.57452
G01 X-75.30142 Y-15.73058
G01 X-75.30142 Y-15.78940
( Mill infeed pass 2/2 )
G01 Z-0.15000
G04 P0 ( dwell for no time -- G64 should not smooth over this point )
G01 F40.00000
G01 X-75.30142 Y-15.78940
G01 X-75.31679 Y-15.94546
G01 X-75.32827 Y-16.00314
G01 X-75.38372 Y-16.18094
G01 X-75.48537 Y-16.37111
G01 X-75.60239 Y-16.51599
G01 X-75.64399 Y-16.55757
G01 X-75.76520 Y-16.65707
G01 X-75.81412 Y-16.68973
G01 X-75.97905 Y-16.77624
G01 X-76.15682 Y-16.83169
G01 X-76.21450 Y-16.84317
G01 X-76.40000 Y-16.85999
G01 X-76.58547 Y-16.84317
G01 X-76.64315 Y-16.83169
G01 X-76.82093 Y-16.77624
G01 X-76.98585 Y-16.68973
G01 X-77.03477 Y-16.65707
G01 X-77.17780 Y-16.53781
G01 X-77.31460 Y-16.37111
G01 X-77.41625 Y-16.18094
G01 X-77.47170 Y-16.00314
G01 X-77.48318 Y-15.94546
G01 X-77.49855 Y-15.78940
G01 X-77.49855 Y-15.73058
G01 X-77.48318 Y-15.57452
G01 X-77.47170 Y-15.51683
G01 X-77.41625 Y-15.33903
G01 X-77.31460 Y-15.14886
G01 X-77.19758 Y-15.00398
G01 X-77.15598 Y-14.96240
G01 X-77.03477 Y-14.86291
G01 X-76.98585 Y-14.83025
G01 X-76.82093 Y-14.74371
G01 X-76.64315 Y-14.68829
G01 X-76.58547 Y-14.67681
G01 X-76.42939 Y-14.66144
G01 X-76.38649 Y-14.66065
G01 X-76.21450 Y-14.67681
G01 X-76.15682 Y-14.68829
G01 X-75.97905 Y-14.74371
G01 X-75.81412 Y-14.83025
G01 X-75.76520 Y-14.86291
G01 X-75.62218 Y-14.98216
G01 X-75.48537 Y-15.14886
G01 X-75.38372 Y-15.33903
G01 X-75.32827 Y-15.51683
G01 X-75.31679 Y-15.57452
G01 X-75.30142 Y-15.73058
G01 X-75.30142 Y-15.78940
