( pcb2gcode 2.5.0 )
( Software-independent Gcode )

G94 
G21 ( Units == Millimeters. )

G90 ( Absolute coordinates. )
G00 S600 ( RPM spindle speed. )
G01 F40.00000 ( Feedrate. )


G53 G00 Z0.00000 (Retract to tool change height)
T1
M5      (Spindle stop.)
G04 P1.00000 (Wait for spindle to stop)
(MSG, Change tool bit to mill diameter 0.50000mm)
M0      (Temporary machine stop.)
M3 ( Spindle on clockwise. )
G04 P1.00000 (Wait for spindle to get up to speed)
G04 P0 
G00 Z2.00000 M3 ; restart from line 21

G00 X0.30000 Y-0.50000 
G01 F30.00000

G01 Z-0.07500
G04 P0 
G01 F40.00000
G01 X0.30000 Y-0.50000
G01 X0.29484 Y-0.55529
G01 X0.27958 Y-0.60871
G01 X0.25474 Y-0.65842
G01 X0.22118 Y-0.70267
G01 X0.18001 Y-0.73998
G01 X0.13266 Y-0.76906
G01 X0.08080 Y-0.78890
G01 X0.02614 Y-0.79886
G01 X-0.02939 Y-0.79855
G01 X-0.12695 Y-0.78892
G01 X-0.18461 Y-0.77747
G01 X-0.30615 Y-0.73909
G01 X-0.44445 Y-0.66518
G01 X-0.54386 Y-0.58544
G01 X-0.58544 Y-0.54386
G01 X-0.64762 Y-0.46810
G01 X-0.68029 Y-0.41920
G01 X-0.72649 Y-0.33274
G01 X-0.74902 Y-0.27841
G01 X-0.77747 Y-0.18461
G01 X-0.78892 Y-0.12695
G01 X-0.79855 Y-0.02939
G01 X-0.79886 Y0.02614
G01 X-0.78890 Y0.08080
G01 X-0.76906 Y0.13266
G01 X-0.73998 Y0.18001
G01 X-0.70267 Y0.22118
G01 X-0.65842 Y0.25474
G01 X-0.60871 Y0.27958
G01 X-0.55529 Y0.29484
G01 X-0.50000 Y0.30000
G01 X-0.00000 Y0.30000
G01 X0.05852 Y0.29423
G01 X0.11478 Y0.27714
G01 X0.16665 Y0.24943
G01 X0.21212 Y0.21212
G01 X0.24943 Y0.16665
G01 X0.27714 Y0.11478
G01 X0.29423 Y0.05852
G01 X0.30000 Y0.00000
G01 X0.30000 Y-0.50000
G04 P0 
G00 Z2.00000 M3 ; restart from line 72

G00 X-5.34998 Y-18.29999 
G01 F30.00000

G01 Z-0.07500
G04 P0 
G01 F40.00000
G01 X-5.34998 Y-18.29999
G01 X-5.36776 Y-18.49521
G01 X-5.37924 Y-18.55290
G01 X-5.43753 Y-18.74007
G01 X-5.52867 Y-18.91365
G01 X-5.56133 Y-18.96255
G01 X-5.68681 Y-19.11317
G01 X-5.83743 Y-19.23865
G01 X-5.88632 Y-19.27131
G01 X-6.03329 Y-19.34987
G01 X-6.08762 Y-19.37238
G01 X-6.27563 Y-19.42790
G01 X-6.49999 Y-19.45000
G01 X-6.72435 Y-19.42790
G01 X-6.91236 Y-19.37238
G01 X-6.96669 Y-19.34987
G01 X-7.13890 Y-19.25617
G01 X-7.31317 Y-19.11317
G01 X-7.43864 Y-18.96255
G01 X-7.47131 Y-18.91365
G01 X-7.56244 Y-18.74007
G01 X-7.62790 Y-18.52435
G01 X-7.64855 Y-18.32940
G01 X-7.64855 Y-18.27058
G01 X-7.63222 Y-18.10476
G01 X-7.62074 Y-18.04708
G01 X-7.56244 Y-17.85991
G01 X-7.47131 Y-17.68632
G01 X-7.43864 Y-17.63743
G01 X-7.33293 Y-17.50863
G01 X-7.29135 Y-17.46705
G01 X-7.16255 Y-17.36133
G01 X-7.11365 Y-17.32867
G01 X-6.96669 Y-17.25011
G01 X-6.91236 Y-17.22760
G01 X-6.72435 Y-17.17208
G01 X-6.49999 Y-17.14998
G01 X-6.30476 Y-17.16776
G01 X-6.24708 Y-17.17924
G01 X-6.08762 Y-17.22760
G01 X-6.03329 Y-17.25011
G01 X-5.88632 Y-17.32867
G01 X-5.83743 Y-17.36133
G01 X-5.68681 Y-17.48681
G01 X-5.56133 Y-17.63743
G01 X-5.52867 Y-17.68632
G01 X-5.43753 Y-17.85991
G01 X-5.37924 Y-18.04708
G01 X-5.36776 Y-18.10476
G01 X-5.34998 Y-18.29999
G01 X-5.34998 Y-20.83999
G01 X-5.36776 Y-21.03521
G01 X-5.37924 Y-21.09290
G01 X-5.42760 Y-21.25236
G01 X-5.45010 Y-21.30669
G01 X-5.52867 Y-21.45365
G01 X-5.56133 Y-21.50255
G01 X-5.68681 Y-21.65317
G01 X-5.83743 Y-21.77865
G01 X-5.88632 Y-21.81131
G01 X-6.03329 Y-21.88987
G01 X-6.08762 Y-21.91238
G01 X-6.27563 Y-21.96790
G01 X-6.49999 Y-21.99000
G01 X-6.72435 Y-21.96790
G01 X-6.91236 Y-21.91238
G01 X-6.96669 Y-21.88987
G01 X-7.11365 Y-21.81131
G01 X-7.16255 Y-21.77865
G01 X-7.31317 Y-21.65317
G01 X-7.43864 Y-21.50255
G01 X-7.47131 Y-21.45365
G01 X-7.54987 Y-21.30669
G01 X-7.57237 Y-21.25236
G01 X-7.62790 Y-21.06435
G01 X-7.64855 Y-20.86940
G01 X-7.64855 Y-20.81058
G01 X-7.63222 Y-20.64476
G01 X-7.62074 Y-20.58708
G01 X-7.57237 Y-20.42762
G01 X-7.54987 Y-20.37329
G01 X-7.47131 Y-20.22632
G01 X-7.43864 Y-20.17743
G01 X-7.31317 Y-20.02681
G01 X-7.16255 Y-19.90133
G01 X-7.11365 Y-19.86867
G01 X-6.96669 Y-19.79011
G01 X-6.91236 Y-19.76760
G01 X-6.75289 Y-19.71924
G01 X-6.69521 Y-19.70776
G01 X-6.52940 Y-19.69143
G01 X-6.47057 Y-19.69143
G01 X-6.27563 Y-19.71208
G01 X-6.08762 Y-19.76760
G01 X-6.03329 Y-19.79011
G01 X-5.88632 Y-19.86867
G01 X-5.83743 Y-19.90133
G01 X-5.68681 Y-20.02681
G01 X-5.56133 Y-20.17743
G01 X-5.52867 Y-20.22632
G01 X-5.45010 Y-20.37329
G01 X-5.42760 Y-20.42762
G01 X-5.37924 Y-20.58708
G01 X-5.36776 Y-20.64476
G01 X-5.35142 Y-20.81058
G01 X-5.34998 Y-23.37999
G01 X-5.36776 Y-23.57521
G01 X-5.37924 Y-23.63290
G01 X-5.42760 Y-23.79236
G01 X-5.45010 Y-23.84669
G01 X-5.52867 Y-23.99365
G01 X-5.56133 Y-24.04255
G01 X-5.68681 Y-24.19317
G01 X-5.83743 Y-24.31865
G01 X-5.88632 Y-24.35131
G01 X-6.03329 Y-24.42987
G01 X-6.08762 Y-24.45238
G01 X-6.27563 Y-24.50790
G01 X-6.49999 Y-24.53000
G01 X-6.72435 Y-24.50790
G01 X-6.87621 Y-24.46332
G01 X-18.91375 Y-36.50087
G01 X-18.91375 Y-53.64958
G01 X-18.91746 Y-53.69649
G01 X-18.93481 Y-53.79281
G01 X-18.97383 Y-53.88694
G01 X-19.02963 Y-53.96733
G01 X-19.06021 Y-54.00312
G01 X-27.02789 Y-61.97079
G01 X-27.02232 Y-62.02728
G01 X-27.02232 Y-62.08608
G01 X-27.03195 Y-62.18364
G01 X-27.04341 Y-62.24133
G01 X-27.08178 Y-62.36284
G01 X-27.14059 Y-62.47590
G01 X-27.17325 Y-62.52479
G01 X-27.23543 Y-62.60056
G01 X-27.27701 Y-62.64214
G01 X-27.37642 Y-62.72187
G01 X-27.48813 Y-62.78321
G01 X-27.54246 Y-62.80572
G01 X-27.63627 Y-62.83416
G01 X-27.69392 Y-62.84565
G01 X-27.82090 Y-62.85669
G01 X-27.94785 Y-62.84565
G01 X-28.00551 Y-62.83416
G01 X-28.09931 Y-62.80572
G01 X-28.15364 Y-62.78321
G01 X-28.26535 Y-62.72187
G01 X-28.36476 Y-62.64214
G01 X-28.42204 Y-62.58143
G01 X-28.46852 Y-62.52479
G01 X-28.50119 Y-62.47590
G01 X-28.55999 Y-62.36284
G01 X-28.59837 Y-62.24133
G01 X-28.60982 Y-62.18364
G01 X-28.61945 Y-62.08608
G01 X-28.61945 Y-62.02728
G01 X-28.60551 Y-61.90061
G01 X-28.56992 Y-61.77826
G01 X-28.54742 Y-61.72393
G01 X-28.50119 Y-61.63749
G01 X-28.46852 Y-61.58857
G01 X-28.38658 Y-61.49101
G01 X-28.26535 Y-61.39152
G01 X-28.15364 Y-61.33018
G01 X-28.09931 Y-61.30768
G01 X-28.00551 Y-61.27920
G01 X-27.94785 Y-61.26775
G01 X-27.82090 Y-61.25670
G01 X-27.73502 Y-61.26368
G01 X-19.91378 Y-53.44246
G01 X-19.91378 Y-36.29376
G01 X-19.90847 Y-36.22535
G01 X-19.89701 Y-36.16767
G01 X-19.87570 Y-36.10242
G01 X-19.84464 Y-36.04123
G01 X-19.81197 Y-35.99233
G01 X-19.76732 Y-35.94021
G01 X-7.58332 Y-23.75621
G01 X-7.62790 Y-23.60435
G01 X-7.64855 Y-23.40940
G01 X-7.64855 Y-23.35058
G01 X-7.63222 Y-23.18476
G01 X-7.62074 Y-23.12708
G01 X-7.56244 Y-22.93991
G01 X-7.47131 Y-22.76632
G01 X-7.43864 Y-22.71743
G01 X-7.31317 Y-22.56681
G01 X-7.16255 Y-22.44133
G01 X-7.11365 Y-22.40867
G01 X-6.96669 Y-22.33011
G01 X-6.91236 Y-22.30760
G01 X-6.72435 Y-22.25208
G01 X-6.52940 Y-22.23143
G01 X-6.47057 Y-22.23143
G01 X-6.27563 Y-22.25208
G01 X-6.08762 Y-22.30760
G01 X-6.03329 Y-22.33011
G01 X-5.88632 Y-22.40867
G01 X-5.83743 Y-22.44133
G01 X-5.68681 Y-22.56681
G01 X-5.56133 Y-22.71743
G01 X-5.52867 Y-22.76632
G01 X-5.45010 Y-22.91329
G01 X-5.42760 Y-22.96762
G01 X-5.37924 Y-23.12708
G01 X-5.36776 Y-23.18476
G01 X-5.34998 Y-23.37999
G01 X-5.35142 Y-25.94940
G01 X-5.37207 Y-26.14432
G01 X-5.42760 Y-26.33236
G01 X-5.45010 Y-26.38666
G01 X-5.54380 Y-26.55890
G01 X-5.66704 Y-26.71135
G01 X-5.70862 Y-26.75293
G01 X-5.83743 Y-26.85865
G01 X-5.88632 Y-26.89131
G01 X-5.97736 Y-26.93998
G01 X-6.03329 Y-26.96987
G01 X-6.08762 Y-26.99238
G01 X-6.27563 Y-27.04790
G01 X-6.47057 Y-27.06855
G01 X-6.52940 Y-27.06855
G01 X-6.72435 Y-27.04790
G01 X-6.87624 Y-27.00332
G01 X-17.63870 Y-37.76576
G01 X-17.63875 Y-54.27889
G01 X-17.64406 Y-54.34729
G01 X-17.65551 Y-54.40497
G01 X-17.68940 Y-54.49682
G01 X-17.74055 Y-54.58031
G01 X-17.78521 Y-54.63243
G01 X-25.01750 Y-61.86470
G01 X-25.01049 Y-61.95060
G01 X-25.02154 Y-62.07755
G01 X-25.03302 Y-62.13521
G01 X-25.07137 Y-62.25675
G01 X-25.13018 Y-62.36980
G01 X-25.16284 Y-62.41870
G01 X-25.22502 Y-62.49446
G01 X-25.26662 Y-62.53604
G01 X-25.34239 Y-62.59822
G01 X-25.39129 Y-62.63089
G01 X-25.47772 Y-62.67709
G01 X-25.53205 Y-62.69962
G01 X-25.62583 Y-62.72807
G01 X-25.68354 Y-62.73952
G01 X-25.78108 Y-62.74915
G01 X-25.83990 Y-62.74915
G01 X-25.93741 Y-62.73952
G01 X-25.99512 Y-62.72807
G01 X-26.08892 Y-62.69962
G01 X-26.14323 Y-62.67709
G01 X-26.25494 Y-62.61578
G01 X-26.35435 Y-62.53604
G01 X-26.39593 Y-62.49446
G01 X-26.45811 Y-62.41870
G01 X-26.49080 Y-62.36980
G01 X-26.53701 Y-62.28334
G01 X-26.55951 Y-62.22901
G01 X-26.58796 Y-62.13521
G01 X-26.59944 Y-62.07755
G01 X-26.60904 Y-61.97999
G01 X-26.60904 Y-61.92119
G01 X-26.59944 Y-61.82363
G01 X-26.58796 Y-61.76597
G01 X-26.55951 Y-61.67217
G01 X-26.53701 Y-61.61783
G01 X-26.49080 Y-61.53137
G01 X-26.45811 Y-61.48248
G01 X-26.37617 Y-61.38489
G01 X-26.25494 Y-61.28540
G01 X-26.14323 Y-61.22408
G01 X-26.08892 Y-61.20155
G01 X-25.99512 Y-61.17311
G01 X-25.93741 Y-61.16165
G01 X-25.81049 Y-61.15058
G01 X-25.72459 Y-61.15759
G01 X-18.63875 Y-54.07177
G01 X-18.63870 Y-37.55865
G01 X-18.63339 Y-37.49025
G01 X-18.62193 Y-37.43256
G01 X-18.58805 Y-37.34072
G01 X-18.56956 Y-37.30612
G01 X-18.53689 Y-37.25723
G01 X-18.49224 Y-37.20511
G01 X-7.58332 Y-26.29621
G01 X-7.62790 Y-26.14432
G01 X-7.64855 Y-25.94940
G01 X-7.64855 Y-25.89058
G01 X-7.62790 Y-25.69563
G01 X-7.57237 Y-25.50762
G01 X-7.54987 Y-25.45326
G01 X-7.45617 Y-25.28108
G01 X-7.33293 Y-25.12863
G01 X-7.29135 Y-25.08705
G01 X-7.16255 Y-24.98133
G01 X-7.11365 Y-24.94867
G01 X-6.96669 Y-24.87011
G01 X-6.91236 Y-24.84760
G01 X-6.72435 Y-24.79208
G01 X-6.52940 Y-24.77143
G01 X-6.47057 Y-24.77143
G01 X-6.27563 Y-24.79208
G01 X-6.08762 Y-24.84760
G01 X-6.03329 Y-24.87011
G01 X-5.88632 Y-24.94867
G01 X-5.83743 Y-24.98133
G01 X-5.68681 Y-25.10681
G01 X-5.54380 Y-25.28108
G01 X-5.45010 Y-25.45326
G01 X-5.42760 Y-25.50762
G01 X-5.37207 Y-25.69563
G01 X-5.35142 Y-25.89058
G01 X-5.35142 Y-28.48940
G01 X-5.37207 Y-28.68435
G01 X-5.42760 Y-28.87236
G01 X-5.45010 Y-28.92669
G01 X-5.54380 Y-29.09890
G01 X-5.66704 Y-29.25135
G01 X-5.70862 Y-29.29293
G01 X-5.83743 Y-29.39865
G01 X-5.88632 Y-29.43131
G01 X-6.03329 Y-29.50987
G01 X-6.08762 Y-29.53238
G01 X-6.27563 Y-29.58790
G01 X-6.47057 Y-29.60855
G01 X-6.52940 Y-29.60855
G01 X-6.72435 Y-29.58790
G01 X-6.87621 Y-29.54332
G01 X-12.86253 Y-35.52967
G01 X-12.86253 Y-60.32439
G01 X-12.87076 Y-60.41418
G01 X-12.89906 Y-60.50788
G01 X-12.91707 Y-60.55136
G01 X-12.94166 Y-60.59152
G01 X-13.00902 Y-60.67793
G01 X-30.16341 Y-77.83233
G01 X-30.12544 Y-77.87858
G01 X-30.09278 Y-77.92748
G01 X-30.04657 Y-78.01392
G01 X-30.02407 Y-78.06827
G01 X-29.98846 Y-78.19062
G01 X-29.97454 Y-78.31729
G01 X-29.97454 Y-78.37609
G01 X-29.98846 Y-78.50276
G01 X-30.03398 Y-78.65283
G01 X-30.09278 Y-78.76588
G01 X-30.12544 Y-78.81480
G01 X-30.20741 Y-78.91236
G01 X-30.32864 Y-79.01186
G01 X-30.44033 Y-79.07320
G01 X-30.49466 Y-79.09570
G01 X-30.58846 Y-79.12415
G01 X-30.64614 Y-79.13563
G01 X-30.77309 Y-79.14668
G01 X-30.90004 Y-79.13563
G01 X-30.95772 Y-79.12415
G01 X-31.05153 Y-79.09570
G01 X-31.10586 Y-79.07320
G01 X-31.21754 Y-79.01186
G01 X-31.33877 Y-78.91236
G01 X-31.42071 Y-78.81480
G01 X-31.45340 Y-78.76588
G01 X-31.49961 Y-78.67945
G01 X-31.52211 Y-78.62512
G01 X-31.55056 Y-78.53131
G01 X-31.56204 Y-78.47363
G01 X-31.57164 Y-78.37609
G01 X-31.57164 Y-78.31729
G01 X-31.56204 Y-78.21973
G01 X-31.55056 Y-78.16205
G01 X-31.52211 Y-78.06827
G01 X-31.49961 Y-78.01392
G01 X-31.45340 Y-77.92748
G01 X-31.42071 Y-77.87858
G01 X-31.33877 Y-77.78100
G01 X-31.27091 Y-77.72344
G01 X-31.26661 Y-77.65471
G01 X-31.23659 Y-77.55138
G01 X-31.21858 Y-77.50790
G01 X-31.19399 Y-77.46774
G01 X-31.12663 Y-77.38133
G01 X-13.86258 Y-60.11728
G01 X-13.86258 Y-35.32256
G01 X-13.85727 Y-35.25416
G01 X-13.84582 Y-35.19648
G01 X-13.82451 Y-35.13122
G01 X-13.79344 Y-35.07003
G01 X-13.76078 Y-35.02114
G01 X-13.71613 Y-34.96902
G01 X-7.58332 Y-28.83621
G01 X-7.62790 Y-28.68435
G01 X-7.64855 Y-28.48940
G01 X-7.64855 Y-28.43058
G01 X-7.62790 Y-28.23563
G01 X-7.57237 Y-28.04762
G01 X-7.54987 Y-27.99329
G01 X-7.45617 Y-27.82108
G01 X-7.33293 Y-27.66863
G01 X-7.29135 Y-27.62705
G01 X-7.13890 Y-27.50381
G01 X-6.96669 Y-27.41011
G01 X-6.91236 Y-27.38760
G01 X-6.72435 Y-27.33208
G01 X-6.52940 Y-27.31143
G01 X-6.47057 Y-27.31143
G01 X-6.27563 Y-27.33208
G01 X-6.08762 Y-27.38760
G01 X-6.03329 Y-27.41011
G01 X-5.88632 Y-27.48867
G01 X-5.83743 Y-27.52133
G01 X-5.70862 Y-27.62705
G01 X-5.66704 Y-27.66863
G01 X-5.54380 Y-27.82108
G01 X-5.45010 Y-27.99329
G01 X-5.42760 Y-28.04762
G01 X-5.37207 Y-28.23563
G01 X-5.35142 Y-28.43058
G01 X-5.35142 Y-31.02940
G01 X-5.37207 Y-31.22435
G01 X-5.42760 Y-31.41236
G01 X-5.45010 Y-31.46669
G01 X-5.52867 Y-31.61365
G01 X-5.56133 Y-31.66255
G01 X-5.66704 Y-31.79135
G01 X-5.70862 Y-31.83293
G01 X-5.86108 Y-31.95617
G01 X-6.03329 Y-32.04987
G01 X-6.08762 Y-32.07238
G01 X-6.24708 Y-32.12074
G01 X-6.30476 Y-32.13222
G01 X-6.47057 Y-32.14855
G01 X-6.52940 Y-32.14855
G01 X-6.72435 Y-32.12790
G01 X-6.91236 Y-32.07238
G01 X-6.96669 Y-32.04987
G01 X-7.13890 Y-31.95617
G01 X-7.29135 Y-31.83293
G01 X-7.33293 Y-31.79135
G01 X-7.45617 Y-31.63890
G01 X-7.54987 Y-31.46669
G01 X-7.57237 Y-31.41236
G01 X-7.62074 Y-31.25290
G01 X-7.63222 Y-31.19521
G01 X-7.64855 Y-31.02940
G01 X-7.64855 Y-30.97058
G01 X-7.62790 Y-30.77563
G01 X-7.57237 Y-30.58762
G01 X-7.54987 Y-30.53329
G01 X-7.47131 Y-30.38632
G01 X-7.43864 Y-30.33743
G01 X-7.33293 Y-30.20863
G01 X-7.29135 Y-30.16705
G01 X-7.16255 Y-30.06133
G01 X-7.11365 Y-30.02867
G01 X-6.96669 Y-29.95011
G01 X-6.91236 Y-29.92760
G01 X-6.72435 Y-29.87208
G01 X-6.52940 Y-29.85143
G01 X-6.47057 Y-29.85143
G01 X-6.27563 Y-29.87208
G01 X-6.08762 Y-29.92760
G01 X-6.03329 Y-29.95011
G01 X-5.88632 Y-30.02867
G01 X-5.83743 Y-30.06133
G01 X-5.70862 Y-30.16705
G01 X-5.66704 Y-30.20863
G01 X-5.56133 Y-30.33743
G01 X-5.52867 Y-30.38632
G01 X-5.45010 Y-30.53329
G01 X-5.42760 Y-30.58762
G01 X-5.37207 Y-30.77563
G01 X-5.35142 Y-30.97058
G01 X-5.35142 Y-33.56940
G01 X-5.37207 Y-33.76435
G01 X-5.42760 Y-33.95236
G01 X-5.45010 Y-34.00669
G01 X-5.54380 Y-34.17890
G01 X-5.66704 Y-34.33135
G01 X-5.70862 Y-34.37293
G01 X-5.86108 Y-34.49617
G01 X-6.03329 Y-34.58987
G01 X-6.08762 Y-34.61238
G01 X-6.27563 Y-34.66790
G01 X-6.47057 Y-34.68855
G01 X-6.52940 Y-34.68855
G01 X-6.72435 Y-34.66790
G01 X-6.87624 Y-34.62332
G01 X-11.86236 Y-39.60947
G01 X-11.86236 Y-60.73849
G01 X-11.87059 Y-60.82828
G01 X-11.89886 Y-60.92198
G01 X-11.91687 Y-60.96546
G01 X-11.94145 Y-61.00562
G01 X-12.00882 Y-61.09203
G01 X-25.70137 Y-74.78461
G01 X-25.70137 Y-75.62507
G01 X-25.70508 Y-75.67201
G01 X-25.72586 Y-75.77960
G01 X-25.77226 Y-75.87884
G01 X-25.79685 Y-75.91892
G01 X-25.82736 Y-75.95469
G01 X-30.15153 Y-80.28028
G01 X-30.20548 Y-80.32270
G01 X-30.26532 Y-80.35633
G01 X-30.35717 Y-80.39021
G01 X-30.38572 Y-80.39735
G01 X-30.45386 Y-80.40553
G01 X-32.25150 Y-80.40695
G01 X-32.30730 Y-80.47266
G01 X-32.42854 Y-80.57215
G01 X-32.54022 Y-80.63349
G01 X-32.59455 Y-80.65600
G01 X-32.68835 Y-80.68447
G01 X-32.74604 Y-80.69593
G01 X-32.84357 Y-80.70555
G01 X-32.90240 Y-80.70555
G01 X-32.99993 Y-80.69593
G01 X-33.05762 Y-80.68447
G01 X-33.15142 Y-80.65600
G01 X-33.20575 Y-80.63349
G01 X-33.31743 Y-80.57215
G01 X-33.42866 Y-80.48175
G01 X-33.52063 Y-80.37510
G01 X-33.55330 Y-80.32618
G01 X-33.61210 Y-80.21312
G01 X-33.65762 Y-80.06306
G01 X-33.67154 Y-79.93639
G01 X-33.67154 Y-79.87759
G01 X-33.66193 Y-79.78003
G01 X-33.65045 Y-79.72235
G01 X-33.61210 Y-79.60083
G01 X-33.55330 Y-79.48778
G01 X-33.52063 Y-79.43888
G01 X-33.43867 Y-79.34129
G01 X-33.31743 Y-79.24180
G01 X-33.20575 Y-79.18046
G01 X-33.15142 Y-79.15796
G01 X-33.05762 Y-79.12951
G01 X-32.99993 Y-79.11803
G01 X-32.87298 Y-79.10698
G01 X-32.74604 Y-79.11803
G01 X-32.68835 Y-79.12951
G01 X-32.59455 Y-79.15796
G01 X-32.54022 Y-79.18046
G01 X-32.42854 Y-79.24180
G01 X-32.30730 Y-79.34129
G01 X-32.25155 Y-79.40695
G01 X-30.69036 Y-79.40695
G01 X-26.70139 Y-75.41798
G01 X-26.70139 Y-74.57750
G01 X-26.69769 Y-74.53056
G01 X-26.68034 Y-74.43424
G01 X-26.65674 Y-74.37189
G01 X-26.62230 Y-74.31034
G01 X-26.55491 Y-74.22393
G01 X-12.86233 Y-60.53138
G01 X-12.86238 Y-39.40238
G01 X-12.85705 Y-39.33396
G01 X-12.84562 Y-39.27627
G01 X-12.82428 Y-39.21102
G01 X-12.79324 Y-39.14983
G01 X-12.76055 Y-39.10094
G01 X-12.71593 Y-39.04882
G01 X-7.58332 Y-33.91621
G01 X-7.62790 Y-33.76435
G01 X-7.64855 Y-33.56940
G01 X-7.64855 Y-33.51058
G01 X-7.62790 Y-33.31563
G01 X-7.57237 Y-33.12762
G01 X-7.54987 Y-33.07329
G01 X-7.47131 Y-32.92632
G01 X-7.43864 Y-32.87743
G01 X-7.33293 Y-32.74863
G01 X-7.29135 Y-32.70705
G01 X-7.13890 Y-32.58381
G01 X-6.96669 Y-32.49011
G01 X-6.91236 Y-32.46760
G01 X-6.72435 Y-32.41208
G01 X-6.52940 Y-32.39143
G01 X-6.47057 Y-32.39143
G01 X-6.30476 Y-32.40776
G01 X-6.24708 Y-32.41924
G01 X-6.08762 Y-32.46760
G01 X-6.03329 Y-32.49011
G01 X-5.88632 Y-32.56867
G01 X-5.83743 Y-32.60133
G01 X-5.70862 Y-32.70705
G01 X-5.66704 Y-32.74863
G01 X-5.56133 Y-32.87743
G01 X-5.52867 Y-32.92632
G01 X-5.45010 Y-33.07329
G01 X-5.42760 Y-33.12762
G01 X-5.37207 Y-33.31563
G01 X-5.35142 Y-33.51058
G01 X-5.35142 Y-36.10940
G01 X-5.37207 Y-36.30435
G01 X-5.42760 Y-36.49236
G01 X-5.45010 Y-36.54669
G01 X-5.52867 Y-36.69365
G01 X-5.56133 Y-36.74255
G01 X-5.66704 Y-36.87135
G01 X-5.70862 Y-36.91293
G01 X-5.83743 Y-37.01865
G01 X-5.88632 Y-37.05131
G01 X-5.97736 Y-37.09998
G01 X-6.03329 Y-37.12987
G01 X-6.08762 Y-37.15238
G01 X-6.27563 Y-37.20790
G01 X-6.47057 Y-37.22855
G01 X-6.52940 Y-37.22855
G01 X-6.72435 Y-37.20790
G01 X-6.87624 Y-37.16332
G01 X-10.86216 Y-41.14927
G01 X-10.86216 Y-67.41358
G01 X-10.87564 Y-67.52229
G01 X-10.89480 Y-67.59019
G01 X-10.92223 Y-67.65094
G01 X-10.94125 Y-67.68071
G01 X-11.00861 Y-67.76712
G01 X-29.14515 Y-85.90366
G01 X-29.14518 Y-94.76463
G01 X-29.07949 Y-94.82041
G01 X-28.99755 Y-94.91800
G01 X-28.96486 Y-94.96689
G01 X-28.90609 Y-95.07995
G01 X-28.86055 Y-95.23001
G01 X-28.84663 Y-95.35668
G01 X-28.84663 Y-95.41548
G01 X-28.86055 Y-95.54215
G01 X-28.90609 Y-95.69224
G01 X-28.96486 Y-95.80529
G01 X-28.99755 Y-95.85419
G01 X-29.07949 Y-95.95178
G01 X-29.20073 Y-96.05127
G01 X-29.31244 Y-96.11261
G01 X-29.36677 Y-96.13511
G01 X-29.46055 Y-96.16356
G01 X-29.51823 Y-96.17504
G01 X-29.64518 Y-96.18609
G01 X-29.77213 Y-96.17504
G01 X-29.82981 Y-96.16356
G01 X-29.92361 Y-96.13511
G01 X-29.97794 Y-96.11261
G01 X-30.08965 Y-96.05127
G01 X-30.21086 Y-95.95178
G01 X-30.29283 Y-95.85419
G01 X-30.32549 Y-95.80529
G01 X-30.38429 Y-95.69224
G01 X-30.42981 Y-95.54215
G01 X-30.44375 Y-95.41548
G01 X-30.44375 Y-95.35668
G01 X-30.42981 Y-95.23001
G01 X-30.38429 Y-95.07995
G01 X-30.32549 Y-94.96689
G01 X-30.29283 Y-94.91800
G01 X-30.21086 Y-94.82041
G01 X-30.14515 Y-94.76461
G01 X-30.14518 Y-85.69658
G01 X-30.13169 Y-85.58784
G01 X-30.12069 Y-85.54204
G01 X-30.07426 Y-85.44281
G01 X-30.04967 Y-85.40267
G01 X-30.01912 Y-85.36689
G01 X-11.86218 Y-67.20650
G01 X-11.86218 Y-40.94216
G01 X-11.85687 Y-40.87376
G01 X-11.84542 Y-40.81607
G01 X-11.82411 Y-40.75082
G01 X-11.81153 Y-40.72423
G01 X-11.76038 Y-40.64074
G01 X-11.71572 Y-40.58862
G01 X-7.58332 Y-36.45621
G01 X-7.62790 Y-36.30435
G01 X-7.64855 Y-36.10940
G01 X-7.64855 Y-36.05058
G01 X-7.62790 Y-35.85563
G01 X-7.57237 Y-35.66762
G01 X-7.54987 Y-35.61329
G01 X-7.45617 Y-35.44108
G01 X-7.33293 Y-35.28863
G01 X-7.29135 Y-35.24705
G01 X-7.16255 Y-35.14133
G01 X-7.11365 Y-35.10867
G01 X-6.96669 Y-35.03011
G01 X-6.91236 Y-35.00760
G01 X-6.72435 Y-34.95208
G01 X-6.52940 Y-34.93143
G01 X-6.47057 Y-34.93143
G01 X-6.30476 Y-34.94776
G01 X-6.24708 Y-34.95924
G01 X-6.08762 Y-35.00760
G01 X-6.03329 Y-35.03011
G01 X-5.88632 Y-35.10867
G01 X-5.83743 Y-35.14133
G01 X-5.70862 Y-35.24705
G01 X-5.66704 Y-35.28863
G01 X-5.56133 Y-35.41743
G01 X-5.52867 Y-35.46632
G01 X-5.45010 Y-35.61329
G01 X-5.42760 Y-35.66762
G01 X-5.37924 Y-35.82708
G01 X-5.36776 Y-35.88476
G01 X-5.35142 Y-36.05058
G01 X-5.35142 Y-38.64940
G01 X-5.37207 Y-38.84435
G01 X-5.42760 Y-39.03236
G01 X-5.45010 Y-39.08669
G01 X-5.54380 Y-39.25890
G01 X-5.66704 Y-39.41135
G01 X-5.70862 Y-39.45293
G01 X-5.86108 Y-39.57617
G01 X-6.03329 Y-39.66987
G01 X-6.08762 Y-39.69238
G01 X-6.27563 Y-39.74790
G01 X-6.47057 Y-39.76855
G01 X-6.52940 Y-39.76855
G01 X-6.72435 Y-39.74790
G01 X-6.87621 Y-39.70332
G01 X-9.75337 Y-42.58048
G01 X-9.75337 Y-67.71930
G01 X-9.75708 Y-67.76621
G01 X-9.77443 Y-67.86253
G01 X-9.81344 Y-67.95666
G01 X-9.86925 Y-68.03705
G01 X-9.89983 Y-68.07284
G01 X-23.48227 Y-81.65528
G01 X-23.48227 Y-92.98229
G01 X-23.48758 Y-93.05069
G01 X-23.49904 Y-93.10837
G01 X-23.53292 Y-93.20022
G01 X-23.55141 Y-93.23481
G01 X-23.58408 Y-93.28371
G01 X-23.62873 Y-93.33583
G01 X-25.57653 Y-95.28365
G01 X-25.54110 Y-95.40540
G01 X-25.52141 Y-95.59059
G01 X-25.52141 Y-95.64939
G01 X-25.54110 Y-95.83458
G01 X-25.59380 Y-96.01322
G01 X-25.61631 Y-96.06755
G01 X-25.69025 Y-96.20585
G01 X-25.72291 Y-96.25477
G01 X-25.84216 Y-96.39780
G01 X-26.00886 Y-96.53460
G01 X-26.17241 Y-96.62366
G01 X-26.22672 Y-96.64616
G01 X-26.40538 Y-96.69884
G01 X-26.59057 Y-96.71855
G01 X-26.64940 Y-96.71855
G01 X-26.80546 Y-96.70316
G01 X-26.86314 Y-96.69170
G01 X-27.01323 Y-96.64616
G01 X-27.06756 Y-96.62366
G01 X-27.23111 Y-96.53460
G01 X-27.39781 Y-96.39780
G01 X-27.51706 Y-96.25477
G01 X-27.54973 Y-96.20585
G01 X-27.63627 Y-96.04093
G01 X-27.69885 Y-95.83458
G01 X-27.71854 Y-95.64939
G01 X-27.71854 Y-95.59059
G01 X-27.69885 Y-95.40540
G01 X-27.63627 Y-95.19905
G01 X-27.54973 Y-95.03410
G01 X-27.51706 Y-94.98520
G01 X-27.39781 Y-94.84218
G01 X-27.25476 Y-94.72290
G01 X-27.20586 Y-94.69023
G01 X-27.06756 Y-94.61630
G01 X-27.01323 Y-94.59379
G01 X-26.83459 Y-94.54111
G01 X-26.64940 Y-94.52143
G01 X-26.59057 Y-94.52143
G01 X-26.43452 Y-94.53679
G01 X-26.37683 Y-94.54827
G01 X-26.28364 Y-94.57654
G01 X-24.48230 Y-92.77518
G01 X-24.48230 Y-81.44820
G01 X-24.47407 Y-81.35838
G01 X-24.44580 Y-81.26468
G01 X-24.42779 Y-81.22120
G01 X-24.40320 Y-81.18104
G01 X-24.33584 Y-81.09463
G01 X-10.75339 Y-67.51218
G01 X-10.75339 Y-42.37337
G01 X-10.74809 Y-42.30497
G01 X-10.73663 Y-42.24729
G01 X-10.71532 Y-42.18203
G01 X-10.70275 Y-42.15544
G01 X-10.65159 Y-42.07195
G01 X-10.60694 Y-42.01983
G01 X-7.58332 Y-38.99621
G01 X-7.62790 Y-38.84435
G01 X-7.64855 Y-38.64940
G01 X-7.64855 Y-38.59058
G01 X-7.62790 Y-38.39563
G01 X-7.57237 Y-38.20762
G01 X-7.54987 Y-38.15329
G01 X-7.45617 Y-37.98108
G01 X-7.33293 Y-37.82863
G01 X-7.29135 Y-37.78705
G01 X-7.13890 Y-37.66381
G01 X-6.96669 Y-37.57011
G01 X-6.91236 Y-37.54760
G01 X-6.72435 Y-37.49208
G01 X-6.52940 Y-37.47143
G01 X-6.47057 Y-37.47143
G01 X-6.27563 Y-37.49208
G01 X-6.08762 Y-37.54760
G01 X-6.03329 Y-37.57011
G01 X-5.88632 Y-37.64867
G01 X-5.83743 Y-37.68133
G01 X-5.70862 Y-37.78705
G01 X-5.66704 Y-37.82863
G01 X-5.54380 Y-37.98108
G01 X-5.45010 Y-38.15329
G01 X-5.42760 Y-38.20762
G01 X-5.37924 Y-38.36708
G01 X-5.36776 Y-38.42476
G01 X-5.35142 Y-38.59058
G01 X-5.35142 Y-41.18940
G01 X-5.37207 Y-41.38435
G01 X-5.42760 Y-41.57236
G01 X-5.45010 Y-41.62669
G01 X-5.54380 Y-41.79890
G01 X-5.66704 Y-41.95135
G01 X-5.70862 Y-41.99293
G01 X-5.86108 Y-42.11617
G01 X-6.03329 Y-42.20987
G01 X-6.08762 Y-42.23238
G01 X-6.27563 Y-42.28790
G01 X-6.47057 Y-42.30855
G01 X-6.52940 Y-42.30855
G01 X-6.72435 Y-42.28790
G01 X-6.87624 Y-42.24332
G01 X-8.75317 Y-44.12028
G01 X-8.75317 Y-69.64129
G01 X-8.75688 Y-69.68820
G01 X-8.77423 Y-69.78452
G01 X-8.81324 Y-69.87865
G01 X-8.86904 Y-69.95904
G01 X-8.89963 Y-69.99483
G01 X-18.24157 Y-79.33677
G01 X-18.24157 Y-80.83568
G01 X-18.25506 Y-80.94439
G01 X-18.26605 Y-80.99019
G01 X-18.28406 Y-81.03367
G01 X-18.33702 Y-81.12948
G01 X-18.36753 Y-81.16522
G01 X-21.15167 Y-83.95277
G01 X-21.15167 Y-99.87178
G01 X-21.15538 Y-99.91870
G01 X-21.17273 Y-100.01501
G01 X-21.21174 Y-100.10915
G01 X-21.26755 Y-100.18954
G01 X-21.29813 Y-100.22533
G01 X-24.66632 Y-103.59349
G01 X-24.71844 Y-103.63817
G01 X-24.76734 Y-103.67079
G01 X-24.82853 Y-103.70190
G01 X-24.89378 Y-103.72321
G01 X-24.95146 Y-103.73467
G01 X-25.01989 Y-103.73998
G01 X-25.64432 Y-103.73995
G01 X-25.69025 Y-103.82585
G01 X-25.72291 Y-103.87477
G01 X-25.82238 Y-103.99598
G01 X-25.86398 Y-104.03759
G01 X-25.98522 Y-104.13705
G01 X-26.03409 Y-104.16974
G01 X-26.17241 Y-104.24366
G01 X-26.22672 Y-104.26616
G01 X-26.37683 Y-104.31170
G01 X-26.43452 Y-104.32316
G01 X-26.59057 Y-104.33855
G01 X-26.64940 Y-104.33855
G01 X-26.83459 Y-104.31879
G01 X-27.01323 Y-104.26616
G01 X-27.06756 Y-104.24366
G01 X-27.20586 Y-104.16974
G01 X-27.25476 Y-104.13705
G01 X-27.37599 Y-104.03759
G01 X-27.41757 Y-103.99598
G01 X-27.51706 Y-103.87477
G01 X-27.54973 Y-103.82585
G01 X-27.63627 Y-103.66093
G01 X-27.69169 Y-103.48316
G01 X-27.70317 Y-103.42547
G01 X-27.71999 Y-103.23998
G01 X-27.70317 Y-103.05451
G01 X-27.69169 Y-102.99680
G01 X-27.64617 Y-102.84676
G01 X-27.62367 Y-102.79243
G01 X-27.54973 Y-102.65410
G01 X-27.51706 Y-102.60520
G01 X-27.41757 Y-102.48400
G01 X-27.37599 Y-102.44239
G01 X-27.23111 Y-102.32537
G01 X-27.06756 Y-102.23630
G01 X-27.01323 Y-102.21379
G01 X-26.83459 Y-102.16109
G01 X-26.64940 Y-102.14140
G01 X-26.59057 Y-102.14140
G01 X-26.43452 Y-102.15679
G01 X-26.37683 Y-102.16827
G01 X-26.19903 Y-102.22370
G01 X-26.00886 Y-102.32537
G01 X-25.86398 Y-102.44239
G01 X-25.82238 Y-102.48400
G01 X-25.72291 Y-102.60520
G01 X-25.69025 Y-102.65410
G01 X-25.64435 Y-102.73998
G01 X-25.22698 Y-102.73998
G01 X-22.15170 Y-99.66467
G01 X-22.15170 Y-83.74578
G01 X-22.14347 Y-83.65597
G01 X-22.11520 Y-83.56227
G01 X-22.09719 Y-83.51878
G01 X-22.07260 Y-83.47862
G01 X-22.00524 Y-83.39221
G01 X-19.24159 Y-80.62857
G01 X-19.24159 Y-79.12969
G01 X-19.23819 Y-79.07485
G01 X-19.22445 Y-79.00568
G01 X-19.18708 Y-78.90269
G01 X-19.16250 Y-78.86253
G01 X-19.09514 Y-78.77612
G01 X-9.75319 Y-69.43418
G01 X-9.75319 Y-43.91317
G01 X-9.74788 Y-43.84477
G01 X-9.73643 Y-43.78709
G01 X-9.71512 Y-43.72183
G01 X-9.70255 Y-43.69524
G01 X-9.65139 Y-43.61175
G01 X-9.60674 Y-43.55963
G01 X-7.58332 Y-41.53621
G01 X-7.62790 Y-41.38435
G01 X-7.64855 Y-41.18940
G01 X-7.64855 Y-41.13058
G01 X-7.62790 Y-40.93563
G01 X-7.57237 Y-40.74762
G01 X-7.54987 Y-40.69329
G01 X-7.47131 Y-40.54632
G01 X-7.43864 Y-40.49743
G01 X-7.33293 Y-40.36863
G01 X-7.29135 Y-40.32705
G01 X-7.13890 Y-40.20381
G01 X-6.96669 Y-40.11011
G01 X-6.91236 Y-40.08760
G01 X-6.72435 Y-40.03208
G01 X-6.52940 Y-40.01143
G01 X-6.47057 Y-40.01143
G01 X-6.27563 Y-40.03208
G01 X-6.08762 Y-40.08760
G01 X-6.03329 Y-40.11011
G01 X-5.86108 Y-40.20381
G01 X-5.70862 Y-40.32705
G01 X-5.66704 Y-40.36863
G01 X-5.54380 Y-40.52108
G01 X-5.45010 Y-40.69329
G01 X-5.42760 Y-40.74762
G01 X-5.37207 Y-40.93563
G01 X-5.35142 Y-41.13058
G04 P0 
G00 Z2.00000 M3 ; restart from line 1047

G00 X-4.34978 Y-45.35020 
G01 F30.00000

G01 Z-0.07500
G04 P0 
G01 F40.00000
G01 X-4.34978 Y-45.35020
G01 X-4.35224 Y-70.75018
G01 X-4.35595 Y-70.79709
G01 X-4.36692 Y-70.84286
G01 X-4.40428 Y-70.94586
G01 X-4.42887 Y-70.98601
G01 X-4.49623 Y-71.07243
G01 X-10.00747 Y-76.58367
G01 X-10.00747 Y-81.46720
G01 X-10.02096 Y-81.57591
G01 X-10.03196 Y-81.62171
G01 X-10.04997 Y-81.66519
G01 X-10.10295 Y-81.76105
G01 X-10.13348 Y-81.79681
G01 X-15.70759 Y-87.37435
G01 X-15.71003 Y-99.53902
G01 X-15.71374 Y-99.58591
G01 X-15.72471 Y-99.63165
G01 X-15.76207 Y-99.73465
G01 X-15.78666 Y-99.77481
G01 X-15.85402 Y-99.86122
G01 X-17.04632 Y-101.05352
G01 X-17.12209 Y-101.11570
G01 X-17.18193 Y-101.14933
G01 X-17.23626 Y-101.17183
G01 X-17.30233 Y-101.19035
G01 X-17.37048 Y-101.19853
G01 X-18.02432 Y-101.19995
G01 X-18.07025 Y-101.28585
G01 X-18.10291 Y-101.33477
G01 X-18.22216 Y-101.47780
G01 X-18.38886 Y-101.61461
G01 X-18.57903 Y-101.71626
G01 X-18.78538 Y-101.77884
G01 X-18.97057 Y-101.79855
G01 X-19.02940 Y-101.79855
G01 X-19.18546 Y-101.78316
G01 X-19.24314 Y-101.77170
G01 X-19.42094 Y-101.71626
G01 X-19.58586 Y-101.62974
G01 X-19.63476 Y-101.59705
G01 X-19.77781 Y-101.47780
G01 X-19.89706 Y-101.33477
G01 X-19.92973 Y-101.28585
G01 X-20.01627 Y-101.12093
G01 X-20.07169 Y-100.94316
G01 X-20.08317 Y-100.88547
G01 X-20.09999 Y-100.69998
G01 X-20.08317 Y-100.51451
G01 X-20.07169 Y-100.45682
G01 X-20.01627 Y-100.27905
G01 X-19.92973 Y-100.11410
G01 X-19.89706 Y-100.06520
G01 X-19.77781 Y-99.92218
G01 X-19.61111 Y-99.78537
G01 X-19.44756 Y-99.69630
G01 X-19.39323 Y-99.67379
G01 X-19.24314 Y-99.62827
G01 X-19.18546 Y-99.61679
G01 X-19.02940 Y-99.60143
G01 X-18.97057 Y-99.60143
G01 X-18.81452 Y-99.61679
G01 X-18.75683 Y-99.62827
G01 X-18.57903 Y-99.68372
G01 X-18.38886 Y-99.78537
G01 X-18.24398 Y-99.90239
G01 X-18.20240 Y-99.94400
G01 X-18.10291 Y-100.06520
G01 X-18.07025 Y-100.11410
G01 X-18.02435 Y-100.19998
G01 X-17.60700 Y-100.19995
G01 X-16.70759 Y-99.30056
G01 X-16.70759 Y-87.16729
G01 X-16.69936 Y-87.07747
G01 X-16.67109 Y-86.98377
G01 X-16.65308 Y-86.94029
G01 X-16.62849 Y-86.90013
G01 X-16.56113 Y-86.81372
G01 X-11.00750 Y-81.26009
G01 X-11.00750 Y-76.37658
G01 X-10.99927 Y-76.28677
G01 X-10.97100 Y-76.19307
G01 X-10.95299 Y-76.14958
G01 X-10.92840 Y-76.10942
G01 X-10.86104 Y-76.02301
G01 X-5.34980 Y-70.51177
G01 X-5.34980 Y-45.55726
G01 X-6.12374 Y-44.78332
G01 X-6.27563 Y-44.82790
G01 X-6.47057 Y-44.84855
G01 X-6.52940 Y-44.84855
G01 X-6.72435 Y-44.82790
G01 X-6.91236 Y-44.77238
G01 X-6.96669 Y-44.74987
G01 X-7.11365 Y-44.67131
G01 X-7.16255 Y-44.63865
G01 X-7.29135 Y-44.53293
G01 X-7.33293 Y-44.49135
G01 X-7.45617 Y-44.33890
G01 X-7.54987 Y-44.16669
G01 X-7.57237 Y-44.11236
G01 X-7.62790 Y-43.92435
G01 X-7.64855 Y-43.72940
G01 X-7.64855 Y-43.67058
G01 X-7.62790 Y-43.47563
G01 X-7.57237 Y-43.28762
G01 X-7.54987 Y-43.23329
G01 X-7.47131 Y-43.08632
G01 X-7.43864 Y-43.03743
G01 X-7.33293 Y-42.90863
G01 X-7.29135 Y-42.86705
G01 X-7.13890 Y-42.74381
G01 X-6.96669 Y-42.65011
G01 X-6.91236 Y-42.62760
G01 X-6.72435 Y-42.57208
G01 X-6.52940 Y-42.55143
G01 X-6.47057 Y-42.55143
G01 X-6.27563 Y-42.57208
G01 X-6.08762 Y-42.62760
G01 X-6.03329 Y-42.65011
G01 X-5.88632 Y-42.72867
G01 X-5.83743 Y-42.76133
G01 X-5.70862 Y-42.86705
G01 X-5.66704 Y-42.90863
G01 X-5.56133 Y-43.03743
G01 X-5.52867 Y-43.08632
G01 X-5.45010 Y-43.23329
G01 X-5.42760 Y-43.28762
G01 X-5.37207 Y-43.47563
G01 X-5.35142 Y-43.67058
G01 X-5.35142 Y-43.72940
G01 X-5.37207 Y-43.92435
G01 X-5.41665 Y-44.07619
G01 X-4.47647 Y-45.01843
G01 X-4.43405 Y-45.07238
G01 X-4.41891 Y-45.09762
G01 X-4.37792 Y-45.18655
G01 X-4.35508 Y-45.28175
G01 X-4.34978 Y-45.35020
G04 P0 
G00 Z2.00000 M3 ; restart from line 1195

G00 X-5.35142 Y-46.26940 
G01 F30.00000

G01 Z-0.07500
G04 P0 
G01 F40.00000
G01 X-5.35142 Y-46.26940
G01 X-5.37207 Y-46.46435
G01 X-5.42760 Y-46.65236
G01 X-5.45010 Y-46.70669
G01 X-5.54380 Y-46.87890
G01 X-5.66704 Y-47.03135
G01 X-5.70862 Y-47.07293
G01 X-5.83743 Y-47.17865
G01 X-5.88632 Y-47.21131
G01 X-6.03329 Y-47.28987
G01 X-6.08762 Y-47.31238
G01 X-6.27563 Y-47.36790
G01 X-6.47057 Y-47.38855
G01 X-6.52940 Y-47.38855
G01 X-6.69521 Y-47.37222
G01 X-6.75289 Y-47.36074
G01 X-6.91236 Y-47.31238
G01 X-6.96669 Y-47.28987
G01 X-7.13890 Y-47.19617
G01 X-7.29135 Y-47.07293
G01 X-7.33293 Y-47.03135
G01 X-7.45617 Y-46.87890
G01 X-7.53207 Y-46.73999
G01 X-7.65007 Y-46.73999
G01 X-7.65007 Y-69.95269
G01 X-7.65378 Y-69.99961
G01 X-7.67113 Y-70.09592
G01 X-7.71014 Y-70.19006
G01 X-7.76595 Y-70.27045
G01 X-7.79653 Y-70.30623
G01 X-11.39269 Y-73.90237
G01 X-11.39266 Y-81.43806
G01 X-11.40615 Y-81.54680
G01 X-11.42530 Y-81.61470
G01 X-11.45273 Y-81.67545
G01 X-11.47176 Y-81.70522
G01 X-11.53912 Y-81.79163
G01 X-16.70787 Y-86.96038
G01 X-16.70787 Y-91.28788
G01 X-16.72135 Y-91.39659
G01 X-16.74050 Y-91.46449
G01 X-16.76794 Y-91.52524
G01 X-16.78696 Y-91.55501
G01 X-16.85432 Y-91.64142
G01 X-17.95656 Y-92.74365
G01 X-17.92829 Y-92.83682
G01 X-17.91680 Y-92.89451
G01 X-17.89999 Y-93.07998
G01 X-17.91680 Y-93.26547
G01 X-17.92829 Y-93.32316
G01 X-17.98371 Y-93.50093
G01 X-18.07025 Y-93.66585
G01 X-18.10291 Y-93.71477
G01 X-18.22216 Y-93.85780
G01 X-18.36522 Y-93.97705
G01 X-18.41411 Y-94.00974
G01 X-18.57903 Y-94.09626
G01 X-18.75683 Y-94.15170
G01 X-18.81452 Y-94.16316
G01 X-18.97057 Y-94.17855
G01 X-19.02940 Y-94.17855
G01 X-19.18546 Y-94.16316
G01 X-19.24314 Y-94.15170
G01 X-19.42094 Y-94.09626
G01 X-19.61111 Y-93.99460
G01 X-19.77781 Y-93.85780
G01 X-19.89706 Y-93.71477
G01 X-19.92973 Y-93.66585
G01 X-20.01627 Y-93.50093
G01 X-20.07169 Y-93.32316
G01 X-20.08317 Y-93.26547
G01 X-20.09999 Y-93.07998
G01 X-20.08317 Y-92.89451
G01 X-20.07169 Y-92.83682
G01 X-20.01627 Y-92.65905
G01 X-19.92973 Y-92.49410
G01 X-19.89706 Y-92.44520
G01 X-19.77781 Y-92.30218
G01 X-19.63476 Y-92.18290
G01 X-19.58586 Y-92.15023
G01 X-19.42094 Y-92.06372
G01 X-19.24314 Y-92.00827
G01 X-19.18546 Y-91.99679
G01 X-19.02940 Y-91.98143
G01 X-18.97057 Y-91.98143
G01 X-18.81452 Y-91.99679
G01 X-18.75683 Y-92.00827
G01 X-18.66367 Y-92.03654
G01 X-17.70789 Y-91.08077
G01 X-17.70789 Y-86.75329
G01 X-17.69966 Y-86.66348
G01 X-17.67139 Y-86.56978
G01 X-17.65338 Y-86.52629
G01 X-17.62879 Y-86.48614
G01 X-17.56143 Y-86.39973
G01 X-12.39269 Y-81.23098
G01 X-12.39269 Y-73.69528
G01 X-12.38446 Y-73.60547
G01 X-12.35619 Y-73.51177
G01 X-12.33818 Y-73.46828
G01 X-12.31359 Y-73.42812
G01 X-12.24623 Y-73.34171
G01 X-8.65010 Y-69.74558
G01 X-8.65010 Y-46.23999
G01 X-8.64479 Y-46.17156
G01 X-8.63333 Y-46.11388
G01 X-8.61202 Y-46.04863
G01 X-8.58096 Y-45.98744
G01 X-8.54829 Y-45.93854
G01 X-8.50364 Y-45.88642
G01 X-8.45152 Y-45.84177
G01 X-8.42787 Y-45.82424
G01 X-8.36803 Y-45.79061
G01 X-8.27618 Y-45.75673
G01 X-8.24763 Y-45.74959
G01 X-8.17949 Y-45.74141
G01 X-7.53207 Y-45.73996
G01 X-7.45617 Y-45.60108
G01 X-7.33293 Y-45.44863
G01 X-7.29135 Y-45.40705
G01 X-7.13890 Y-45.28381
G01 X-6.96669 Y-45.19011
G01 X-6.91236 Y-45.16760
G01 X-6.75289 Y-45.11924
G01 X-6.69521 Y-45.10776
G01 X-6.52940 Y-45.09143
G01 X-6.47057 Y-45.09143
G01 X-6.27563 Y-45.11208
G01 X-6.08762 Y-45.16760
G01 X-6.03329 Y-45.19011
G01 X-5.86108 Y-45.28381
G01 X-5.70862 Y-45.40705
G01 X-5.66704 Y-45.44863
G01 X-5.54380 Y-45.60108
G01 X-5.45010 Y-45.77329
G01 X-5.42760 Y-45.82762
G01 X-5.37207 Y-46.01563
G01 X-5.35142 Y-46.21058
G01 X-5.35142 Y-46.26940
G04 P0 
G00 Z2.00000 M3 ; restart from line 1343

G00 X-5.34998 Y-49.63000 
G01 F30.00000

G01 Z-0.07500
G04 P0 
G01 F40.00000
G01 X-5.34998 Y-49.63000
G01 X-5.46852 Y-49.86729
G01 X-5.48333 Y-49.87943
G01 X-5.53519 Y-49.90714
G01 X-5.59145 Y-49.92423
G01 X-5.64998 Y-49.93000
G01 X-7.35000 Y-49.93000
G01 X-7.40852 Y-49.92423
G01 X-7.46478 Y-49.90714
G01 X-7.51665 Y-49.87943
G01 X-7.53133 Y-49.86739
G01 X-7.64997 Y-49.63008
G01 X-7.64997 Y-47.92988
G01 X-7.54014 Y-47.69983
G01 X-7.51665 Y-47.68055
G01 X-7.46478 Y-47.65281
G01 X-7.40852 Y-47.63574
G01 X-7.35000 Y-47.62998
G01 X-5.64998 Y-47.62998
G01 X-5.59145 Y-47.63574
G01 X-5.53519 Y-47.65281
G01 X-5.48333 Y-47.68055
G01 X-5.45968 Y-47.69996
G01 X-5.34998 Y-47.92998
G01 X-5.34998 Y-49.63000
G04 P0 
G00 Z2.00000 M3 ; restart from line 1377

G00 X-24.24016 Y-52.62768 
G01 F30.00000

G01 Z-0.07500
G04 P0 
G01 F40.00000
G01 X-24.24016 Y-52.62768
G01 X-24.25365 Y-52.73639
G01 X-24.27280 Y-52.80429
G01 X-24.30023 Y-52.86502
G01 X-24.31926 Y-52.89479
G01 X-24.38662 Y-52.98123
G01 X-31.89488 Y-60.48946
G01 X-31.89486 Y-61.32076
G01 X-31.89856 Y-61.36770
G01 X-31.91934 Y-61.47529
G01 X-31.93735 Y-61.51877
G01 X-31.99028 Y-61.61458
G01 X-32.02079 Y-61.65030
G01 X-34.29081 Y-63.92365
G01 X-34.28522 Y-63.98029
G01 X-34.28522 Y-64.03909
G01 X-34.29485 Y-64.13663
G01 X-34.30631 Y-64.19431
G01 X-34.33475 Y-64.28811
G01 X-34.35726 Y-64.34244
G01 X-34.40349 Y-64.42890
G01 X-34.43615 Y-64.47780
G01 X-34.51809 Y-64.57539
G01 X-34.63933 Y-64.67485
G01 X-34.75104 Y-64.73619
G01 X-34.80537 Y-64.75870
G01 X-34.89917 Y-64.78717
G01 X-34.95683 Y-64.79863
G01 X-35.08378 Y-64.80967
G01 X-35.21075 Y-64.79863
G01 X-35.26841 Y-64.78717
G01 X-35.36221 Y-64.75870
G01 X-35.41654 Y-64.73619
G01 X-35.52825 Y-64.67485
G01 X-35.64948 Y-64.57539
G01 X-35.73142 Y-64.47780
G01 X-35.76409 Y-64.42890
G01 X-35.81029 Y-64.34244
G01 X-35.83282 Y-64.28811
G01 X-35.86127 Y-64.19431
G01 X-35.87272 Y-64.13663
G01 X-35.88235 Y-64.03909
G01 X-35.88235 Y-63.98029
G01 X-35.86841 Y-63.85362
G01 X-35.82289 Y-63.70353
G01 X-35.76409 Y-63.59047
G01 X-35.73142 Y-63.54158
G01 X-35.66925 Y-63.46581
G01 X-35.62767 Y-63.42423
G01 X-35.52825 Y-63.34450
G01 X-35.41654 Y-63.28316
G01 X-35.36221 Y-63.26066
G01 X-35.26841 Y-63.23221
G01 X-35.21075 Y-63.22073
G01 X-35.08378 Y-63.20968
G01 X-34.99790 Y-63.21669
G01 X-32.89488 Y-61.11367
G01 X-32.89488 Y-60.28238
G01 X-32.89117 Y-60.23544
G01 X-32.87039 Y-60.12785
G01 X-32.85239 Y-60.08436
G01 X-32.79940 Y-59.98850
G01 X-32.76884 Y-59.95274
G01 X-25.24016 Y-52.42060
G01 X-25.24016 Y-23.30917
G01 X-41.89900 Y-6.65033
G01 X-54.50093 Y-6.64792
G01 X-54.54782 Y-6.64421
G01 X-54.59357 Y-6.63324
G01 X-54.69656 Y-6.59587
G01 X-54.73672 Y-6.57128
G01 X-54.82313 Y-6.50392
G01 X-56.74373 Y-4.58333
G01 X-56.89564 Y-4.62788
G01 X-57.11998 Y-4.64998
G01 X-57.34434 Y-4.62788
G01 X-57.53235 Y-4.57236
G01 X-57.58668 Y-4.54985
G01 X-57.73364 Y-4.47131
G01 X-57.78254 Y-4.43865
G01 X-57.93316 Y-4.31315
G01 X-58.05863 Y-4.16255
G01 X-58.09132 Y-4.11363
G01 X-58.18246 Y-3.94007
G01 X-58.24073 Y-3.75290
G01 X-58.25221 Y-3.69522
G01 X-58.26854 Y-3.52938
G01 X-58.26854 Y-3.47058
G01 X-58.24789 Y-3.27563
G01 X-58.19237 Y-3.08762
G01 X-58.16986 Y-3.03329
G01 X-58.09132 Y-2.88633
G01 X-58.05863 Y-2.83743
G01 X-57.93316 Y-2.68681
G01 X-57.78254 Y-2.56134
G01 X-57.73364 Y-2.52867
G01 X-57.58668 Y-2.45011
G01 X-57.53235 Y-2.42760
G01 X-57.34434 Y-2.37208
G01 X-57.14939 Y-2.35143
G01 X-57.09059 Y-2.35143
G01 X-56.89564 Y-2.37208
G01 X-56.70763 Y-2.42760
G01 X-56.65328 Y-2.45011
G01 X-56.50634 Y-2.52867
G01 X-56.45744 Y-2.56134
G01 X-56.32864 Y-2.66705
G01 X-56.28704 Y-2.70863
G01 X-56.18135 Y-2.83743
G01 X-56.14866 Y-2.88633
G01 X-56.05752 Y-3.05991
G01 X-55.99923 Y-3.24709
G01 X-55.98777 Y-3.30474
G01 X-55.97144 Y-3.47058
G01 X-55.97144 Y-3.52938
G01 X-55.98777 Y-3.69522
G01 X-55.99923 Y-3.75290
G01 X-56.03664 Y-3.87619
G01 X-54.26248 Y-5.65036
G01 X-41.69189 Y-5.65036
G01 X-41.62346 Y-5.65567
G01 X-41.52826 Y-5.67850
G01 X-41.47393 Y-5.70100
G01 X-41.41409 Y-5.73463
G01 X-41.33832 Y-5.79681
G01 X-24.38662 Y-22.74852
G01 X-24.34196 Y-22.80064
G01 X-24.29081 Y-22.88413
G01 X-24.26830 Y-22.93846
G01 X-24.24547 Y-23.03366
G01 X-24.24016 Y-23.10209
G01 X-24.24016 Y-52.62768
G04 P0 
G00 Z2.00000 M3 ; restart from line 1518

G00 X-26.24056 Y-51.52817 
G01 F30.00000

G01 Z-0.07500
G04 P0 
G01 F40.00000
G01 X-26.24056 Y-51.52817
G01 X-26.24587 Y-51.59657
G01 X-26.26868 Y-51.69174
G01 X-26.30968 Y-51.78067
G01 X-26.34237 Y-51.82959
G01 X-26.38702 Y-51.88171
G01 X-35.28405 Y-60.77877
G01 X-35.28405 Y-61.42749
G01 X-35.28776 Y-61.47440
G01 X-35.30854 Y-61.58200
G01 X-35.32655 Y-61.62548
G01 X-35.37948 Y-61.72126
G01 X-35.40996 Y-61.75700
G01 X-37.45621 Y-63.80653
G01 X-37.45062 Y-63.86319
G01 X-37.45062 Y-63.92200
G01 X-37.46025 Y-64.01953
G01 X-37.47171 Y-64.07721
G01 X-37.50015 Y-64.17102
G01 X-37.52268 Y-64.22535
G01 X-37.56889 Y-64.31178
G01 X-37.60155 Y-64.36068
G01 X-37.68349 Y-64.45827
G01 X-37.80472 Y-64.55776
G01 X-37.91643 Y-64.61910
G01 X-37.97076 Y-64.64160
G01 X-38.06457 Y-64.67005
G01 X-38.12223 Y-64.68153
G01 X-38.24920 Y-64.69258
G01 X-38.37615 Y-64.68153
G01 X-38.43381 Y-64.67005
G01 X-38.52761 Y-64.64160
G01 X-38.58194 Y-64.61910
G01 X-38.69365 Y-64.55776
G01 X-38.81488 Y-64.45827
G01 X-38.89682 Y-64.36068
G01 X-38.92949 Y-64.31178
G01 X-38.97572 Y-64.22535
G01 X-38.99822 Y-64.17102
G01 X-39.02667 Y-64.07721
G01 X-39.03812 Y-64.01953
G01 X-39.04775 Y-63.92200
G01 X-39.04775 Y-63.86319
G01 X-39.03381 Y-63.73652
G01 X-38.98829 Y-63.58644
G01 X-38.92949 Y-63.47338
G01 X-38.89682 Y-63.42449
G01 X-38.83464 Y-63.34872
G01 X-38.79306 Y-63.30714
G01 X-38.69365 Y-63.22741
G01 X-38.58194 Y-63.16607
G01 X-38.52761 Y-63.14356
G01 X-38.43381 Y-63.11511
G01 X-38.37615 Y-63.10363
G01 X-38.24920 Y-63.09258
G01 X-38.16330 Y-63.09959
G01 X-36.28408 Y-61.22038
G01 X-36.28408 Y-60.57168
G01 X-36.27877 Y-60.50326
G01 X-36.26731 Y-60.44557
G01 X-36.23343 Y-60.35373
G01 X-36.18227 Y-60.27024
G01 X-36.15738 Y-60.23994
G01 X-27.24056 Y-51.32100
G01 X-27.24056 Y-24.16051
G01 X-41.01648 Y-10.38459
G01 X-58.35538 Y-10.38459
G01 X-58.40230 Y-10.38088
G01 X-58.49861 Y-10.36353
G01 X-58.59275 Y-10.32452
G01 X-58.67314 Y-10.26871
G01 X-58.70892 Y-10.23813
G01 X-64.36373 Y-4.58333
G01 X-64.51564 Y-4.62788
G01 X-64.71059 Y-4.64853
G01 X-64.76939 Y-4.64853
G01 X-64.96434 Y-4.62788
G01 X-65.15235 Y-4.57236
G01 X-65.20668 Y-4.54985
G01 X-65.35364 Y-4.47131
G01 X-65.40254 Y-4.43865
G01 X-65.53134 Y-4.33294
G01 X-65.57292 Y-4.29136
G01 X-65.67863 Y-4.16255
G01 X-65.71132 Y-4.11363
G01 X-65.78986 Y-3.96669
G01 X-65.81237 Y-3.91236
G01 X-65.86073 Y-3.75290
G01 X-65.87221 Y-3.69522
G01 X-65.88854 Y-3.52938
G01 X-65.88854 Y-3.47058
G01 X-65.87221 Y-3.30474
G01 X-65.86073 Y-3.24709
G01 X-65.81237 Y-3.08762
G01 X-65.78986 Y-3.03329
G01 X-65.71132 Y-2.88633
G01 X-65.67863 Y-2.83743
G01 X-65.55316 Y-2.68681
G01 X-65.40254 Y-2.56134
G01 X-65.35364 Y-2.52867
G01 X-65.20668 Y-2.45011
G01 X-65.15235 Y-2.42760
G01 X-64.96434 Y-2.37208
G01 X-64.76939 Y-2.35143
G01 X-64.71059 Y-2.35143
G01 X-64.51564 Y-2.37208
G01 X-64.32763 Y-2.42760
G01 X-64.27328 Y-2.45011
G01 X-64.12634 Y-2.52867
G01 X-64.07744 Y-2.56134
G01 X-63.92682 Y-2.68681
G01 X-63.80135 Y-2.83743
G01 X-63.76866 Y-2.88633
G01 X-63.67752 Y-3.05991
G01 X-63.61923 Y-3.24709
G01 X-63.60777 Y-3.30474
G01 X-63.59144 Y-3.47058
G01 X-63.59144 Y-3.52938
G01 X-63.60777 Y-3.69522
G01 X-63.61923 Y-3.75290
G01 X-63.65664 Y-3.87619
G01 X-58.14827 Y-9.38456
G01 X-40.80937 Y-9.38456
G01 X-40.74096 Y-9.38987
G01 X-40.68328 Y-9.40133
G01 X-40.61803 Y-9.42264
G01 X-40.55684 Y-9.45370
G01 X-40.50795 Y-9.48637
G01 X-40.45582 Y-9.53102
G01 X-26.38702 Y-23.59983
G01 X-26.34237 Y-23.65195
G01 X-26.30968 Y-23.70084
G01 X-26.26868 Y-23.78977
G01 X-26.25019 Y-23.85583
G01 X-26.24056 Y-23.95339
G01 X-26.24056 Y-51.52817
G04 P0 
G00 Z2.00000 M3 ; restart from line 1663

G00 X-27.27767 Y-51.15088 
G01 F30.00000

G01 Z-0.07500
G04 P0 
G01 F40.00000
G01 X-27.27767 Y-51.15088
G01 X-27.29116 Y-51.25959
G01 X-27.31031 Y-51.32748
G01 X-27.33774 Y-51.38824
G01 X-27.35677 Y-51.41801
G01 X-27.42413 Y-51.50442
G01 X-37.08194 Y-61.16223
G01 X-37.02878 Y-61.26475
G01 X-36.98326 Y-61.41481
G01 X-36.96934 Y-61.54148
G01 X-36.96934 Y-61.60028
G01 X-36.97895 Y-61.69784
G01 X-36.99040 Y-61.75553
G01 X-37.01887 Y-61.84930
G01 X-37.04138 Y-61.90364
G01 X-37.08758 Y-61.99010
G01 X-37.12025 Y-62.03899
G01 X-37.20285 Y-62.13716
G01 X-37.32342 Y-62.23607
G01 X-37.43513 Y-62.29741
G01 X-37.48946 Y-62.31992
G01 X-37.58326 Y-62.34836
G01 X-37.64095 Y-62.35984
G01 X-37.76789 Y-62.37089
G01 X-37.89484 Y-62.35984
G01 X-37.95253 Y-62.34836
G01 X-38.04630 Y-62.31992
G01 X-38.10066 Y-62.29741
G01 X-38.21234 Y-62.23607
G01 X-38.33358 Y-62.13658
G01 X-38.41552 Y-62.03899
G01 X-38.44821 Y-61.99010
G01 X-38.50698 Y-61.87704
G01 X-38.55253 Y-61.72695
G01 X-38.56645 Y-61.60028
G01 X-38.56645 Y-61.54148
G01 X-38.55253 Y-61.41481
G01 X-38.50698 Y-61.26475
G01 X-38.44821 Y-61.15169
G01 X-38.41552 Y-61.10277
G01 X-38.35334 Y-61.02701
G01 X-38.31176 Y-60.98543
G01 X-38.20838 Y-60.90478
G01 X-38.15202 Y-60.82330
G01 X-38.12144 Y-60.78751
G01 X-28.27767 Y-50.94374
G01 X-28.27767 Y-24.66851
G01 X-41.28226 Y-11.66388
G01 X-59.61609 Y-11.66388
G01 X-59.66300 Y-11.66017
G01 X-59.75932 Y-11.64283
G01 X-59.85345 Y-11.60381
G01 X-59.93384 Y-11.54801
G01 X-59.96963 Y-11.51743
G01 X-66.90373 Y-4.58333
G01 X-67.05564 Y-4.62788
G01 X-67.25059 Y-4.64853
G01 X-67.30939 Y-4.64853
G01 X-67.50434 Y-4.62788
G01 X-67.69235 Y-4.57236
G01 X-67.74668 Y-4.54985
G01 X-67.89364 Y-4.47131
G01 X-67.94254 Y-4.43865
G01 X-68.09316 Y-4.31315
G01 X-68.21863 Y-4.16255
G01 X-68.25132 Y-4.11363
G01 X-68.34246 Y-3.94007
G01 X-68.40073 Y-3.75290
G01 X-68.41221 Y-3.69522
G01 X-68.42854 Y-3.52938
G01 X-68.42854 Y-3.47058
G01 X-68.40789 Y-3.27563
G01 X-68.35237 Y-3.08762
G01 X-68.32986 Y-3.03329
G01 X-68.25132 Y-2.88633
G01 X-68.21863 Y-2.83743
G01 X-68.11292 Y-2.70863
G01 X-68.07134 Y-2.66705
G01 X-67.94254 Y-2.56134
G01 X-67.89364 Y-2.52867
G01 X-67.74668 Y-2.45011
G01 X-67.69235 Y-2.42760
G01 X-67.50434 Y-2.37208
G01 X-67.27998 Y-2.34998
G01 X-67.05564 Y-2.37208
G01 X-66.86763 Y-2.42760
G01 X-66.81328 Y-2.45011
G01 X-66.66634 Y-2.52867
G01 X-66.61744 Y-2.56134
G01 X-66.46682 Y-2.68681
G01 X-66.34135 Y-2.83743
G01 X-66.30866 Y-2.88633
G01 X-66.21752 Y-3.05991
G01 X-66.15923 Y-3.24709
G01 X-66.14777 Y-3.30474
G01 X-66.13144 Y-3.47058
G01 X-66.13144 Y-3.52938
G01 X-66.14777 Y-3.69522
G01 X-66.15923 Y-3.75290
G01 X-66.19664 Y-3.87622
G01 X-59.40895 Y-10.66389
G01 X-41.07518 Y-10.66386
G01 X-41.02824 Y-10.66757
G01 X-40.93192 Y-10.68492
G01 X-40.83779 Y-10.72393
G01 X-40.75740 Y-10.77973
G01 X-40.72161 Y-10.81032
G01 X-27.40436 Y-24.12964
G01 X-27.34681 Y-24.20884
G01 X-27.30581 Y-24.29777
G01 X-27.28298 Y-24.39297
G01 X-27.27767 Y-24.46139
G01 X-27.27767 Y-51.15088
G04 P0 
G00 Z2.00000 M3 ; restart from line 1785

G00 X-28.30807 Y-50.76678 
G01 F30.00000

G01 Z-0.07500
G04 P0 
G01 F40.00000
G01 X-28.30807 Y-50.76678
G01 X-28.31338 Y-50.83518
G01 X-28.32484 Y-50.89284
G01 X-28.35872 Y-50.98471
G01 X-28.40987 Y-51.06820
G01 X-28.45453 Y-51.12032
G01 X-39.19647 Y-61.86228
G01 X-39.19647 Y-62.01395
G01 X-39.13081 Y-62.06970
G01 X-39.04884 Y-62.16729
G01 X-39.01618 Y-62.21618
G01 X-38.96998 Y-62.30262
G01 X-38.94747 Y-62.35695
G01 X-38.91186 Y-62.47933
G01 X-38.89794 Y-62.60597
G01 X-38.89794 Y-62.66480
G01 X-38.91186 Y-62.79147
G01 X-38.95738 Y-62.94153
G01 X-39.01618 Y-63.05459
G01 X-39.04884 Y-63.10348
G01 X-39.13081 Y-63.20107
G01 X-39.25204 Y-63.30056
G01 X-39.36373 Y-63.36190
G01 X-39.41806 Y-63.38440
G01 X-39.51186 Y-63.41285
G01 X-39.56954 Y-63.42433
G01 X-39.69649 Y-63.43538
G01 X-39.82344 Y-63.42433
G01 X-39.88112 Y-63.41285
G01 X-39.97493 Y-63.38440
G01 X-40.02926 Y-63.36190
G01 X-40.14094 Y-63.30056
G01 X-40.26217 Y-63.20107
G01 X-40.34412 Y-63.10348
G01 X-40.37681 Y-63.05459
G01 X-40.42301 Y-62.96815
G01 X-40.44551 Y-62.91382
G01 X-40.47396 Y-62.82002
G01 X-40.48544 Y-62.76233
G01 X-40.49504 Y-62.66480
G01 X-40.49504 Y-62.60597
G01 X-40.48544 Y-62.50843
G01 X-40.47396 Y-62.45075
G01 X-40.43558 Y-62.32924
G01 X-40.37681 Y-62.21618
G01 X-40.34412 Y-62.16729
G01 X-40.28194 Y-62.09152
G01 X-40.26217 Y-62.06970
G01 X-40.19649 Y-62.01392
G01 X-40.19649 Y-61.65517
G01 X-40.19118 Y-61.58677
G01 X-40.17973 Y-61.52909
G01 X-40.14584 Y-61.43724
G01 X-40.09469 Y-61.35375
G01 X-40.06980 Y-61.32345
G01 X-29.30807 Y-50.55967
G01 X-29.30809 Y-25.05268
G01 X-41.57558 Y-12.78517
G01 X-63.57475 Y-12.78517
G01 X-63.62169 Y-12.78148
G01 X-63.71801 Y-12.76413
G01 X-63.81214 Y-12.72512
G01 X-63.89253 Y-12.66932
G01 X-63.92832 Y-12.63874
G01 X-71.98373 Y-4.58333
G01 X-72.13564 Y-4.62788
G01 X-72.33059 Y-4.64853
G01 X-72.38939 Y-4.64853
G01 X-72.58434 Y-4.62788
G01 X-72.77235 Y-4.57236
G01 X-72.82668 Y-4.54985
G01 X-72.97364 Y-4.47131
G01 X-73.02254 Y-4.43865
G01 X-73.17316 Y-4.31315
G01 X-73.29863 Y-4.16255
G01 X-73.33132 Y-4.11363
G01 X-73.42246 Y-3.94007
G01 X-73.48073 Y-3.75290
G01 X-73.49221 Y-3.69522
G01 X-73.50854 Y-3.52938
G01 X-73.50854 Y-3.47058
G01 X-73.48789 Y-3.27563
G01 X-73.43237 Y-3.08762
G01 X-73.40986 Y-3.03329
G01 X-73.33132 Y-2.88633
G01 X-73.29863 Y-2.83743
G01 X-73.17316 Y-2.68681
G01 X-73.02254 Y-2.56134
G01 X-72.97364 Y-2.52867
G01 X-72.82668 Y-2.45011
G01 X-72.77235 Y-2.42760
G01 X-72.58434 Y-2.37208
G01 X-72.35998 Y-2.34998
G01 X-72.13564 Y-2.37208
G01 X-71.94763 Y-2.42760
G01 X-71.89328 Y-2.45011
G01 X-71.74634 Y-2.52867
G01 X-71.69744 Y-2.56134
G01 X-71.54682 Y-2.68681
G01 X-71.42135 Y-2.83743
G01 X-71.38866 Y-2.88633
G01 X-71.29752 Y-3.05991
G01 X-71.23923 Y-3.24709
G01 X-71.22777 Y-3.30474
G01 X-71.21144 Y-3.47058
G01 X-71.21144 Y-3.52938
G01 X-71.22777 Y-3.69522
G01 X-71.23923 Y-3.75290
G01 X-71.27664 Y-3.87619
G01 X-63.36767 Y-11.78517
G01 X-41.36847 Y-11.78517
G01 X-41.30007 Y-11.79048
G01 X-41.24239 Y-11.80193
G01 X-41.17713 Y-11.82324
G01 X-41.15054 Y-11.83582
G01 X-41.06705 Y-11.88697
G01 X-41.01493 Y-11.93162
G01 X-28.45453 Y-24.49203
G01 X-28.40987 Y-24.54415
G01 X-28.35872 Y-24.62764
G01 X-28.33621 Y-24.68197
G01 X-28.31770 Y-24.74803
G01 X-28.30807 Y-24.84559
G01 X-28.30807 Y-50.76678
G04 P0 
G00 Z2.00000 M3 ; restart from line 1918

G00 X-29.33847 Y-50.38278 
G01 F30.00000

G01 Z-0.07500
G04 P0 
G01 F40.00000
G01 X-29.33847 Y-50.38278
G01 X-29.34810 Y-50.48032
G01 X-29.36662 Y-50.54638
G01 X-29.38912 Y-50.60071
G01 X-29.42275 Y-50.66055
G01 X-29.48493 Y-50.73632
G01 X-43.35440 Y-64.60576
G01 X-43.35437 Y-87.89848
G01 X-42.57741 Y-88.67544
G01 X-42.45409 Y-88.63805
G01 X-42.39641 Y-88.62657
G01 X-42.23060 Y-88.61024
G01 X-42.17177 Y-88.61024
G01 X-42.00596 Y-88.62657
G01 X-41.94828 Y-88.63805
G01 X-41.78882 Y-88.68641
G01 X-41.73449 Y-88.70892
G01 X-41.58752 Y-88.78745
G01 X-41.53863 Y-88.82014
G01 X-41.38800 Y-88.94562
G01 X-41.26253 Y-89.09624
G01 X-41.22986 Y-89.14514
G01 X-41.15130 Y-89.29210
G01 X-41.12880 Y-89.34643
G01 X-41.07327 Y-89.53444
G01 X-41.05262 Y-89.72939
G01 X-41.05262 Y-89.78819
G01 X-41.07327 Y-89.98313
G01 X-41.12880 Y-90.17114
G01 X-41.15130 Y-90.22550
G01 X-41.22986 Y-90.37244
G01 X-41.26253 Y-90.42133
G01 X-41.38800 Y-90.57195
G01 X-41.53863 Y-90.69743
G01 X-41.58752 Y-90.73012
G01 X-41.76111 Y-90.82126
G01 X-41.94828 Y-90.87955
G01 X-42.00596 Y-90.89100
G01 X-42.17177 Y-90.90734
G01 X-42.23060 Y-90.90734
G01 X-42.39641 Y-90.89100
G01 X-42.45409 Y-90.87955
G01 X-42.61355 Y-90.83116
G01 X-42.66789 Y-90.80866
G01 X-42.81485 Y-90.73012
G01 X-42.86374 Y-90.69743
G01 X-43.01437 Y-90.57195
G01 X-43.13984 Y-90.42133
G01 X-43.17251 Y-90.37244
G01 X-43.25107 Y-90.22550
G01 X-43.27357 Y-90.17114
G01 X-43.32910 Y-89.98313
G01 X-43.34975 Y-89.78819
G01 X-43.34975 Y-89.72939
G01 X-43.32910 Y-89.53444
G01 X-43.28452 Y-89.38255
G01 X-44.20794 Y-88.45913
G01 X-44.27530 Y-88.37272
G01 X-44.29989 Y-88.33256
G01 X-44.33725 Y-88.22957
G01 X-44.34822 Y-88.18380
G01 X-44.35193 Y-88.13686
G01 X-44.35193 Y-64.36738
G01 X-44.34822 Y-64.32045
G01 X-44.33725 Y-64.27467
G01 X-44.29989 Y-64.17168
G01 X-44.27530 Y-64.13152
G01 X-44.20794 Y-64.04511
G01 X-30.33847 Y-50.17567
G01 X-30.33847 Y-38.10866
G01 X-33.61352 Y-34.83364
G01 X-33.67570 Y-34.75787
G01 X-33.70933 Y-34.69803
G01 X-33.73183 Y-34.64370
G01 X-33.75035 Y-34.57763
G01 X-33.75853 Y-34.50948
G01 X-33.75998 Y-33.85563
G01 X-33.84586 Y-33.80974
G01 X-33.89475 Y-33.77707
G01 X-34.01598 Y-33.67758
G01 X-34.05756 Y-33.63600
G01 X-34.15706 Y-33.51477
G01 X-34.18975 Y-33.46587
G01 X-34.26366 Y-33.32754
G01 X-34.28616 Y-33.27321
G01 X-34.33171 Y-33.12315
G01 X-34.34316 Y-33.06547
G01 X-34.35855 Y-32.90938
G01 X-34.35855 Y-32.85058
G01 X-34.34316 Y-32.69450
G01 X-34.33171 Y-32.63684
G01 X-34.30344 Y-32.54362
G01 X-38.11067 Y-28.73639
G01 X-55.24116 Y-28.73639
G01 X-57.73318 Y-31.22839
G01 X-57.73316 Y-37.01448
G01 X-57.74665 Y-37.12319
G01 X-57.75764 Y-37.16899
G01 X-57.77565 Y-37.21247
G01 X-57.82864 Y-37.30833
G01 X-57.85919 Y-37.34412
G01 X-67.55996 Y-47.04824
G01 X-67.55999 Y-47.74791
G01 X-67.44632 Y-47.80867
G01 X-67.39743 Y-47.84133
G01 X-67.26862 Y-47.94705
G01 X-67.22704 Y-47.98863
G01 X-67.12133 Y-48.11743
G01 X-67.08866 Y-48.16632
G01 X-66.99753 Y-48.33991
G01 X-66.93924 Y-48.52708
G01 X-66.92776 Y-48.58476
G01 X-66.91142 Y-48.75058
G01 X-66.91142 Y-48.80940
G01 X-66.92776 Y-48.97521
G01 X-66.93924 Y-49.03290
G01 X-66.98760 Y-49.19236
G01 X-67.01010 Y-49.24669
G01 X-67.08866 Y-49.39365
G01 X-67.12133 Y-49.44255
G01 X-67.24680 Y-49.59317
G01 X-67.39743 Y-49.71865
G01 X-67.44632 Y-49.75131
G01 X-67.59329 Y-49.82987
G01 X-67.64762 Y-49.85238
G01 X-67.80708 Y-49.90074
G01 X-67.86476 Y-49.91222
G01 X-68.03057 Y-49.92855
G01 X-68.08940 Y-49.92855
G01 X-68.28434 Y-49.90790
G01 X-68.47235 Y-49.85238
G01 X-68.52669 Y-49.82987
G01 X-68.67365 Y-49.75131
G01 X-68.72254 Y-49.71865
G01 X-68.87317 Y-49.59317
G01 X-68.99864 Y-49.44255
G01 X-69.03131 Y-49.39365
G01 X-69.10987 Y-49.24669
G01 X-69.13237 Y-49.19236
G01 X-69.18074 Y-49.03290
G01 X-69.19222 Y-48.97521
G01 X-69.20855 Y-48.80940
G01 X-69.20855 Y-48.75058
G01 X-69.18790 Y-48.55563
G01 X-69.13237 Y-48.36762
G01 X-69.10987 Y-48.31329
G01 X-69.03131 Y-48.16632
G01 X-68.99864 Y-48.11743
G01 X-68.87317 Y-47.96681
G01 X-68.72254 Y-47.84133
G01 X-68.67365 Y-47.80867
G01 X-68.55998 Y-47.74791
G01 X-68.55998 Y-46.84116
G01 X-68.55628 Y-46.79424
G01 X-68.53550 Y-46.68665
G01 X-68.51749 Y-46.64316
G01 X-68.46451 Y-46.54730
G01 X-68.43395 Y-46.51151
G01 X-58.73316 Y-36.80739
G01 X-58.73318 Y-31.02130
G01 X-58.72356 Y-30.92374
G01 X-58.70504 Y-30.85767
G01 X-58.68253 Y-30.80334
G01 X-58.64890 Y-30.74350
G01 X-58.58673 Y-30.66773
G01 X-55.80182 Y-27.88282
G01 X-55.71541 Y-27.81546
G01 X-55.67525 Y-27.79088
G01 X-55.57225 Y-27.75351
G01 X-55.52651 Y-27.74254
G01 X-55.47959 Y-27.73883
G01 X-37.87417 Y-27.73782
G01 X-37.80602 Y-27.74599
G01 X-37.77747 Y-27.75313
G01 X-37.68562 Y-27.78702
G01 X-37.62578 Y-27.82065
G01 X-37.55001 Y-27.88282
G01 X-33.59630 Y-31.83654
G01 X-33.47458 Y-31.80113
G01 X-33.28939 Y-31.78142
G01 X-33.23059 Y-31.78142
G01 X-33.07451 Y-31.79681
G01 X-33.01682 Y-31.80827
G01 X-32.83902 Y-31.86372
G01 X-32.67410 Y-31.95023
G01 X-32.62521 Y-31.98292
G01 X-32.50397 Y-32.08241
G01 X-32.46239 Y-32.12399
G01 X-32.36290 Y-32.24522
G01 X-32.33024 Y-32.29412
G01 X-32.25630 Y-32.43242
G01 X-32.23379 Y-32.48675
G01 X-32.18828 Y-32.63684
G01 X-32.17680 Y-32.69450
G01 X-32.16143 Y-32.85058
G01 X-32.16143 Y-32.90938
G01 X-32.17680 Y-33.06547
G01 X-32.18828 Y-33.12315
G01 X-32.23379 Y-33.27321
G01 X-32.25630 Y-33.32754
G01 X-32.33024 Y-33.46587
G01 X-32.36290 Y-33.51477
G01 X-32.46239 Y-33.63600
G01 X-32.50397 Y-33.67758
G01 X-32.62521 Y-33.77707
G01 X-32.67410 Y-33.80974
G01 X-32.75998 Y-33.85563
G01 X-32.75995 Y-34.27298
G01 X-29.48493 Y-37.54801
G01 X-29.42275 Y-37.62378
G01 X-29.38912 Y-37.68362
G01 X-29.36662 Y-37.73795
G01 X-29.34810 Y-37.80401
G01 X-29.33847 Y-37.90158
G01 X-29.33847 Y-50.38278
G04 P0 
G00 Z2.00000 M3 ; restart from line 2142

G00 X-30.34767 Y-49.97767 
G01 F30.00000

G01 Z-0.07500
G04 P0 
G01 F40.00000
G01 X-30.34767 Y-49.97767
G01 X-30.35729 Y-50.07521
G01 X-30.37581 Y-50.14128
G01 X-30.39831 Y-50.19561
G01 X-30.43194 Y-50.25545
G01 X-30.49412 Y-50.33122
G01 X-44.38627 Y-64.22337
G01 X-44.38627 Y-89.40658
G01 X-42.57741 Y-91.21544
G01 X-42.45409 Y-91.17805
G01 X-42.39641 Y-91.16657
G01 X-42.23060 Y-91.15024
G01 X-42.17177 Y-91.15024
G01 X-41.97683 Y-91.17089
G01 X-41.78882 Y-91.22641
G01 X-41.73449 Y-91.24892
G01 X-41.58752 Y-91.32745
G01 X-41.53863 Y-91.36014
G01 X-41.38800 Y-91.48562
G01 X-41.26253 Y-91.63624
G01 X-41.22986 Y-91.68514
G01 X-41.15130 Y-91.83210
G01 X-41.12880 Y-91.88643
G01 X-41.08044 Y-92.04587
G01 X-41.06896 Y-92.10355
G01 X-41.05262 Y-92.26939
G01 X-41.05262 Y-92.32819
G01 X-41.06896 Y-92.49402
G01 X-41.08044 Y-92.55171
G01 X-41.12880 Y-92.71114
G01 X-41.15130 Y-92.76550
G01 X-41.22986 Y-92.91244
G01 X-41.26253 Y-92.96133
G01 X-41.38800 Y-93.11195
G01 X-41.53863 Y-93.23743
G01 X-41.58752 Y-93.27012
G01 X-41.76111 Y-93.36126
G01 X-41.94828 Y-93.41955
G01 X-42.00596 Y-93.43100
G01 X-42.17177 Y-93.44734
G01 X-42.23060 Y-93.44734
G01 X-42.39641 Y-93.43100
G01 X-42.45409 Y-93.41955
G01 X-42.64127 Y-93.36126
G01 X-42.81485 Y-93.27012
G01 X-42.86374 Y-93.23743
G01 X-43.01437 Y-93.11195
G01 X-43.13984 Y-92.96133
G01 X-43.17251 Y-92.91244
G01 X-43.25107 Y-92.76550
G01 X-43.27357 Y-92.71114
G01 X-43.32194 Y-92.55171
G01 X-43.33342 Y-92.49402
G01 X-43.34975 Y-92.32819
G01 X-43.34975 Y-92.26939
G01 X-43.32910 Y-92.07444
G01 X-43.28452 Y-91.92252
G01 X-45.23984 Y-89.96723
G01 X-45.30720 Y-89.88082
G01 X-45.33179 Y-89.84066
G01 X-45.36915 Y-89.73767
G01 X-45.38012 Y-89.69190
G01 X-45.38383 Y-89.64496
G01 X-45.38383 Y-63.98499
G01 X-45.38012 Y-63.93805
G01 X-45.36915 Y-63.89228
G01 X-45.33179 Y-63.78928
G01 X-45.30720 Y-63.74912
G01 X-45.23984 Y-63.66271
G01 X-31.34766 Y-49.77056
G01 X-31.34766 Y-39.63947
G01 X-36.17328 Y-34.81182
G01 X-36.21570 Y-34.75787
G01 X-36.24933 Y-34.69803
G01 X-36.28321 Y-34.60618
G01 X-36.29467 Y-34.54850
G01 X-36.29998 Y-34.48007
G01 X-36.29995 Y-33.85566
G01 X-36.38586 Y-33.80974
G01 X-36.43475 Y-33.77707
G01 X-36.55598 Y-33.67758
G01 X-36.59756 Y-33.63600
G01 X-36.69706 Y-33.51477
G01 X-36.72975 Y-33.46587
G01 X-36.80366 Y-33.32754
G01 X-36.82616 Y-33.27321
G01 X-36.87171 Y-33.12315
G01 X-36.88316 Y-33.06547
G01 X-36.89855 Y-32.90938
G01 X-36.89855 Y-32.85058
G01 X-36.88316 Y-32.69450
G01 X-36.87171 Y-32.63684
G01 X-36.84344 Y-32.54362
G01 X-39.65057 Y-29.73649
G01 X-54.82697 Y-29.73649
G01 X-56.73306 Y-31.64258
G01 X-56.73306 Y-37.42868
G01 X-56.74269 Y-37.52621
G01 X-56.76120 Y-37.59228
G01 X-56.78371 Y-37.64661
G01 X-56.81734 Y-37.70645
G01 X-56.87952 Y-37.78222
G01 X-59.88418 Y-40.78689
G01 X-59.88571 Y-42.02359
G01 X-59.90105 Y-42.12029
G01 X-59.93493 Y-42.21213
G01 X-59.95340 Y-42.24670
G01 X-60.01095 Y-42.32590
G01 X-65.01996 Y-47.33696
G01 X-65.01996 Y-47.74794
G01 X-64.90632 Y-47.80867
G01 X-64.85743 Y-47.84133
G01 X-64.72862 Y-47.94705
G01 X-64.68704 Y-47.98863
G01 X-64.58133 Y-48.11743
G01 X-64.54866 Y-48.16632
G01 X-64.45753 Y-48.33991
G01 X-64.39924 Y-48.52708
G01 X-64.38776 Y-48.58476
G01 X-64.37142 Y-48.75058
G01 X-64.37142 Y-48.80940
G01 X-64.38776 Y-48.97521
G01 X-64.39924 Y-49.03290
G01 X-64.44760 Y-49.19236
G01 X-64.47010 Y-49.24669
G01 X-64.54866 Y-49.39365
G01 X-64.58133 Y-49.44255
G01 X-64.70680 Y-49.59317
G01 X-64.85743 Y-49.71865
G01 X-64.90632 Y-49.75131
G01 X-65.05329 Y-49.82987
G01 X-65.10762 Y-49.85238
G01 X-65.26708 Y-49.90074
G01 X-65.32476 Y-49.91222
G01 X-65.49057 Y-49.92855
G01 X-65.54940 Y-49.92855
G01 X-65.74434 Y-49.90790
G01 X-65.93235 Y-49.85238
G01 X-65.98669 Y-49.82987
G01 X-66.13365 Y-49.75131
G01 X-66.18254 Y-49.71865
G01 X-66.31135 Y-49.61293
G01 X-66.35293 Y-49.57135
G01 X-66.45864 Y-49.44255
G01 X-66.49131 Y-49.39365
G01 X-66.58244 Y-49.22007
G01 X-66.64074 Y-49.03290
G01 X-66.65222 Y-48.97521
G01 X-66.66855 Y-48.80940
G01 X-66.66855 Y-48.75058
G01 X-66.65222 Y-48.58476
G01 X-66.64074 Y-48.52708
G01 X-66.59237 Y-48.36762
G01 X-66.56987 Y-48.31329
G01 X-66.49131 Y-48.16632
G01 X-66.45864 Y-48.11743
G01 X-66.35293 Y-47.98863
G01 X-66.31135 Y-47.94705
G01 X-66.18254 Y-47.84133
G01 X-66.13365 Y-47.80867
G01 X-66.01998 Y-47.74791
G01 X-66.01998 Y-47.12985
G01 X-66.01468 Y-47.06145
G01 X-66.00322 Y-47.00377
G01 X-65.96934 Y-46.91192
G01 X-65.93571 Y-46.85208
G01 X-65.89329 Y-46.79813
G01 X-60.88426 Y-41.78704
G01 X-60.88273 Y-40.55034
G01 X-60.86739 Y-40.45364
G01 X-60.85601 Y-40.41612
G01 X-60.81504 Y-40.32722
G01 X-60.78235 Y-40.27833
G01 X-60.73772 Y-40.22621
G01 X-57.73308 Y-37.22157
G01 X-57.73308 Y-31.43547
G01 X-57.72777 Y-31.36707
G01 X-57.71632 Y-31.30939
G01 X-57.68243 Y-31.21754
G01 X-57.66394 Y-31.18295
G01 X-57.63128 Y-31.13405
G01 X-57.58663 Y-31.08193
G01 X-55.38762 Y-28.88292
G01 X-55.35183 Y-28.85234
G01 X-55.26105 Y-28.79098
G01 X-55.21757 Y-28.77297
G01 X-55.11231 Y-28.74264
G01 X-55.06540 Y-28.73893
G01 X-39.44351 Y-28.73647
G01 X-39.34592 Y-28.74609
G01 X-39.27986 Y-28.76461
G01 X-39.22552 Y-28.78712
G01 X-39.16568 Y-28.82075
G01 X-39.08991 Y-28.88292
G01 X-36.13630 Y-31.83654
G01 X-36.01458 Y-31.80113
G01 X-35.82939 Y-31.78142
G01 X-35.77059 Y-31.78142
G01 X-35.61451 Y-31.79681
G01 X-35.55682 Y-31.80827
G01 X-35.37902 Y-31.86372
G01 X-35.21410 Y-31.95023
G01 X-35.16521 Y-31.98292
G01 X-35.04397 Y-32.08241
G01 X-35.00239 Y-32.12399
G01 X-34.90290 Y-32.24522
G01 X-34.87024 Y-32.29412
G01 X-34.79630 Y-32.43242
G01 X-34.77379 Y-32.48675
G01 X-34.72828 Y-32.63684
G01 X-34.71680 Y-32.69450
G01 X-34.70143 Y-32.85058
G01 X-34.70143 Y-32.90938
G01 X-34.71680 Y-33.06547
G01 X-34.72828 Y-33.12315
G01 X-34.77379 Y-33.27321
G01 X-34.79630 Y-33.32754
G01 X-34.87024 Y-33.46587
G01 X-34.90290 Y-33.51477
G01 X-35.00239 Y-33.63600
G01 X-35.04397 Y-33.67758
G01 X-35.16521 Y-33.77707
G01 X-35.21410 Y-33.80974
G01 X-35.29998 Y-33.85563
G01 X-35.29998 Y-34.27296
G01 X-30.49412 Y-39.07881
G01 X-30.43194 Y-39.15458
G01 X-30.39831 Y-39.21442
G01 X-30.37581 Y-39.26876
G01 X-30.35729 Y-39.33482
G01 X-30.34767 Y-39.43238
G01 X-30.34767 Y-49.97767
G04 P0 
G00 Z2.00000 M3 ; restart from line 2383

G00 X-31.34998 Y-49.63000 
G01 F30.00000

G01 Z-0.07500
G04 P0 
G01 F40.00000
G01 X-31.34998 Y-49.63000
G01 X-31.35574 Y-49.68852
G01 X-31.37284 Y-49.74478
G01 X-31.39707 Y-49.79015
G01 X-31.55239 Y-49.91237
G01 X-31.59145 Y-49.92423
G01 X-31.64997 Y-49.93000
G01 X-33.35000 Y-49.93000
G01 X-33.40852 Y-49.92423
G01 X-33.46480 Y-49.90714
G01 X-33.51665 Y-49.87943
G01 X-33.56211 Y-49.84212
G01 X-33.59942 Y-49.79665
G01 X-33.62716 Y-49.74478
G01 X-33.64423 Y-49.68852
G01 X-33.65000 Y-49.63000
G01 X-33.65000 Y-47.92998
G01 X-33.64423 Y-47.87146
G01 X-33.62716 Y-47.81517
G01 X-33.59942 Y-47.76333
G01 X-33.56211 Y-47.71786
G01 X-33.51665 Y-47.68055
G01 X-33.46480 Y-47.65281
G01 X-33.40852 Y-47.63574
G01 X-33.35000 Y-47.62998
G01 X-31.64997 Y-47.62998
G01 X-31.59145 Y-47.63574
G01 X-31.53519 Y-47.65281
G01 X-31.48333 Y-47.68055
G01 X-31.46671 Y-47.69416
G01 X-31.34998 Y-47.92998
G01 X-31.34998 Y-49.63000
G04 P0 
G00 Z2.00000 M3 ; restart from line 2424

G00 X-33.89142 Y-48.80940 
G01 F30.00000

G01 Z-0.07500
G04 P0 
G01 F40.00000
G01 X-33.89142 Y-48.80940
G01 X-33.91207 Y-49.00435
G01 X-33.96760 Y-49.19236
G01 X-33.99010 Y-49.24669
G01 X-34.08380 Y-49.41890
G01 X-34.20704 Y-49.57135
G01 X-34.24862 Y-49.61293
G01 X-34.40107 Y-49.73617
G01 X-34.57329 Y-49.82987
G01 X-34.62762 Y-49.85238
G01 X-34.81563 Y-49.90790
G01 X-35.01057 Y-49.92855
G01 X-35.06940 Y-49.92855
G01 X-35.26434 Y-49.90790
G01 X-35.45235 Y-49.85238
G01 X-35.50669 Y-49.82987
G01 X-35.67890 Y-49.73617
G01 X-35.83135 Y-49.61293
G01 X-35.87293 Y-49.57135
G01 X-35.99617 Y-49.41890
G01 X-36.08987 Y-49.24669
G01 X-36.11237 Y-49.19236
G01 X-36.16790 Y-49.00435
G01 X-36.18855 Y-48.80940
G01 X-36.18855 Y-48.75058
G01 X-36.16790 Y-48.55563
G01 X-36.11237 Y-48.36762
G01 X-36.08987 Y-48.31329
G01 X-35.99617 Y-48.14108
G01 X-35.87293 Y-47.98863
G01 X-35.83135 Y-47.94705
G01 X-35.67890 Y-47.82381
G01 X-35.50669 Y-47.73011
G01 X-35.45235 Y-47.70760
G01 X-35.26434 Y-47.65208
G01 X-35.06940 Y-47.63143
G01 X-35.01057 Y-47.63143
G01 X-34.81563 Y-47.65208
G01 X-34.62762 Y-47.70760
G01 X-34.57329 Y-47.73011
G01 X-34.40107 Y-47.82381
G01 X-34.24862 Y-47.94705
G01 X-34.20704 Y-47.98863
G01 X-34.08380 Y-48.14108
G01 X-33.99010 Y-48.31329
G01 X-33.96760 Y-48.36762
G01 X-33.91207 Y-48.55563
G01 X-33.89142 Y-48.75058
G01 X-33.89142 Y-48.80940
G04 P0 
G00 Z2.00000 M3 ; restart from line 2482

G00 X-36.43142 Y-48.80940 
G01 F30.00000

G01 Z-0.07500
G04 P0 
G01 F40.00000
G01 X-36.43142 Y-48.80940
G01 X-36.45207 Y-49.00435
G01 X-36.50760 Y-49.19236
G01 X-36.53010 Y-49.24669
G01 X-36.62380 Y-49.41890
G01 X-36.74704 Y-49.57135
G01 X-36.78862 Y-49.61293
G01 X-36.94107 Y-49.73617
G01 X-37.11329 Y-49.82987
G01 X-37.16762 Y-49.85238
G01 X-37.35563 Y-49.90790
G01 X-37.55057 Y-49.92855
G01 X-37.60940 Y-49.92855
G01 X-37.80434 Y-49.90790
G01 X-37.99235 Y-49.85238
G01 X-38.04669 Y-49.82987
G01 X-38.21890 Y-49.73617
G01 X-38.37135 Y-49.61293
G01 X-38.41293 Y-49.57135
G01 X-38.53617 Y-49.41890
G01 X-38.62987 Y-49.24669
G01 X-38.65237 Y-49.19236
G01 X-38.70790 Y-49.00435
G01 X-38.72855 Y-48.80940
G01 X-38.72855 Y-48.75058
G01 X-38.70790 Y-48.55563
G01 X-38.65237 Y-48.36762
G01 X-38.62987 Y-48.31329
G01 X-38.53617 Y-48.14108
G01 X-38.41293 Y-47.98863
G01 X-38.37135 Y-47.94705
G01 X-38.21890 Y-47.82381
G01 X-38.04669 Y-47.73011
G01 X-37.99235 Y-47.70760
G01 X-37.80434 Y-47.65208
G01 X-37.60940 Y-47.63143
G01 X-37.55057 Y-47.63143
G01 X-37.35563 Y-47.65208
G01 X-37.16762 Y-47.70760
G01 X-37.11329 Y-47.73011
G01 X-36.94107 Y-47.82381
G01 X-36.78862 Y-47.94705
G01 X-36.74704 Y-47.98863
G01 X-36.62380 Y-48.14108
G01 X-36.53010 Y-48.31329
G01 X-36.50760 Y-48.36762
G01 X-36.45207 Y-48.55563
G01 X-36.43142 Y-48.75058
G01 X-36.43142 Y-48.80940
G04 P0 
G00 Z2.00000 M3 ; restart from line 2540

G00 X-38.97142 Y-48.80940 
G01 F30.00000

G01 Z-0.07500
G04 P0 
G01 F40.00000
G01 X-38.97142 Y-48.80940
G01 X-38.99207 Y-49.00435
G01 X-39.04760 Y-49.19236
G01 X-39.07010 Y-49.24669
G01 X-39.16380 Y-49.41890
G01 X-39.28704 Y-49.57135
G01 X-39.32862 Y-49.61293
G01 X-39.48107 Y-49.73617
G01 X-39.65329 Y-49.82987
G01 X-39.70762 Y-49.85238
G01 X-39.89563 Y-49.90790
G01 X-40.09057 Y-49.92855
G01 X-40.14940 Y-49.92855
G01 X-40.34434 Y-49.90790
G01 X-40.53235 Y-49.85238
G01 X-40.58669 Y-49.82987
G01 X-40.75890 Y-49.73617
G01 X-40.91135 Y-49.61293
G01 X-40.95293 Y-49.57135
G01 X-41.07617 Y-49.41890
G01 X-41.16987 Y-49.24669
G01 X-41.19237 Y-49.19236
G01 X-41.24790 Y-49.00435
G01 X-41.26855 Y-48.80940
G01 X-41.26855 Y-48.75058
G01 X-41.24790 Y-48.55563
G01 X-41.19237 Y-48.36762
G01 X-41.16987 Y-48.31329
G01 X-41.07617 Y-48.14108
G01 X-40.95293 Y-47.98863
G01 X-40.91135 Y-47.94705
G01 X-40.75890 Y-47.82381
G01 X-40.58669 Y-47.73011
G01 X-40.53235 Y-47.70760
G01 X-40.34434 Y-47.65208
G01 X-40.14940 Y-47.63143
G01 X-40.09057 Y-47.63143
G01 X-39.89563 Y-47.65208
G01 X-39.70762 Y-47.70760
G01 X-39.65329 Y-47.73011
G01 X-39.48107 Y-47.82381
G01 X-39.32862 Y-47.94705
G01 X-39.28704 Y-47.98863
G01 X-39.16380 Y-48.14108
G01 X-39.07010 Y-48.31329
G01 X-39.04760 Y-48.36762
G01 X-38.99207 Y-48.55563
G01 X-38.97142 Y-48.75058
G01 X-38.97142 Y-48.80940
G04 P0 
G00 Z2.00000 M3 ; restart from line 2598

G00 X-41.51142 Y-48.80940 
G01 F30.00000

G01 Z-0.07500
G04 P0 
G01 F40.00000
G01 X-41.51142 Y-48.80940
G01 X-41.53207 Y-49.00435
G01 X-41.58760 Y-49.19236
G01 X-41.61010 Y-49.24669
G01 X-41.70380 Y-49.41890
G01 X-41.82704 Y-49.57135
G01 X-41.86862 Y-49.61293
G01 X-42.02107 Y-49.73617
G01 X-42.19329 Y-49.82987
G01 X-42.24762 Y-49.85238
G01 X-42.43563 Y-49.90790
G01 X-42.63057 Y-49.92855
G01 X-42.68940 Y-49.92855
G01 X-42.88434 Y-49.90790
G01 X-43.07235 Y-49.85238
G01 X-43.12669 Y-49.82987
G01 X-43.29890 Y-49.73617
G01 X-43.45135 Y-49.61293
G01 X-43.49293 Y-49.57135
G01 X-43.61617 Y-49.41890
G01 X-43.70987 Y-49.24669
G01 X-43.73237 Y-49.19236
G01 X-43.78790 Y-49.00435
G01 X-43.80855 Y-48.80940
G01 X-43.80855 Y-48.75058
G01 X-43.78790 Y-48.55563
G01 X-43.73237 Y-48.36762
G01 X-43.70987 Y-48.31329
G01 X-43.61617 Y-48.14108
G01 X-43.49293 Y-47.98863
G01 X-43.45135 Y-47.94705
G01 X-43.29890 Y-47.82381
G01 X-43.12669 Y-47.73011
G01 X-43.07235 Y-47.70760
G01 X-42.88434 Y-47.65208
G01 X-42.68940 Y-47.63143
G01 X-42.63057 Y-47.63143
G01 X-42.43563 Y-47.65208
G01 X-42.24762 Y-47.70760
G01 X-42.19329 Y-47.73011
G01 X-42.02107 Y-47.82381
G01 X-41.86862 Y-47.94705
G01 X-41.82704 Y-47.98863
G01 X-41.70380 Y-48.14108
G01 X-41.61010 Y-48.31329
G01 X-41.58760 Y-48.36762
G01 X-41.53207 Y-48.55563
G01 X-41.51142 Y-48.75058
G01 X-41.51142 Y-48.80940
G04 P0 
G00 Z2.00000 M3 ; restart from line 2656

G00 X-44.05142 Y-48.80940 
G01 F30.00000

G01 Z-0.07500
G04 P0 
G01 F40.00000
G01 X-44.05142 Y-48.80940
G01 X-44.07207 Y-49.00435
G01 X-44.12760 Y-49.19236
G01 X-44.15010 Y-49.24669
G01 X-44.24380 Y-49.41890
G01 X-44.36704 Y-49.57135
G01 X-44.40862 Y-49.61293
G01 X-44.56107 Y-49.73617
G01 X-44.73329 Y-49.82987
G01 X-44.78762 Y-49.85238
G01 X-44.97563 Y-49.90790
G01 X-45.17057 Y-49.92855
G01 X-45.22940 Y-49.92855
G01 X-45.42434 Y-49.90790
G01 X-45.61235 Y-49.85238
G01 X-45.66669 Y-49.82987
G01 X-45.83890 Y-49.73617
G01 X-45.99135 Y-49.61293
G01 X-46.03293 Y-49.57135
G01 X-46.15617 Y-49.41890
G01 X-46.24987 Y-49.24669
G01 X-46.27237 Y-49.19236
G01 X-46.32790 Y-49.00435
G01 X-46.34855 Y-48.80940
G01 X-46.34855 Y-48.75058
G01 X-46.32790 Y-48.55563
G01 X-46.27237 Y-48.36762
G01 X-46.24987 Y-48.31329
G01 X-46.15617 Y-48.14108
G01 X-46.03293 Y-47.98863
G01 X-45.99135 Y-47.94705
G01 X-45.83890 Y-47.82381
G01 X-45.66669 Y-47.73011
G01 X-45.61235 Y-47.70760
G01 X-45.42434 Y-47.65208
G01 X-45.22940 Y-47.63143
G01 X-45.17057 Y-47.63143
G01 X-44.97563 Y-47.65208
G01 X-44.78762 Y-47.70760
G01 X-44.73329 Y-47.73011
G01 X-44.56107 Y-47.82381
G01 X-44.40862 Y-47.94705
G01 X-44.36704 Y-47.98863
G01 X-44.24380 Y-48.14108
G01 X-44.15010 Y-48.31329
G01 X-44.12760 Y-48.36762
G01 X-44.07207 Y-48.55563
G01 X-44.05142 Y-48.75058
G01 X-44.05142 Y-48.80940
G04 P0 
G00 Z2.00000 M3 ; restart from line 2714

G00 X-46.59142 Y-48.80940 
G01 F30.00000

G01 Z-0.07500
G04 P0 
G01 F40.00000
G01 X-46.59142 Y-48.80940
G01 X-46.61207 Y-49.00435
G01 X-46.66760 Y-49.19236
G01 X-46.69010 Y-49.24669
G01 X-46.78380 Y-49.41890
G01 X-46.90704 Y-49.57135
G01 X-46.94862 Y-49.61293
G01 X-47.10107 Y-49.73617
G01 X-47.27329 Y-49.82987
G01 X-47.32762 Y-49.85238
G01 X-47.51563 Y-49.90790
G01 X-47.71057 Y-49.92855
G01 X-47.76940 Y-49.92855
G01 X-47.96434 Y-49.90790
G01 X-48.15235 Y-49.85238
G01 X-48.20669 Y-49.82987
G01 X-48.37890 Y-49.73617
G01 X-48.53135 Y-49.61293
G01 X-48.57293 Y-49.57135
G01 X-48.69617 Y-49.41890
G01 X-48.78987 Y-49.24669
G01 X-48.81237 Y-49.19236
G01 X-48.86790 Y-49.00435
G01 X-48.88855 Y-48.80940
G01 X-48.88855 Y-48.75058
G01 X-48.86790 Y-48.55563
G01 X-48.81237 Y-48.36762
G01 X-48.78987 Y-48.31329
G01 X-48.69617 Y-48.14108
G01 X-48.57293 Y-47.98863
G01 X-48.53135 Y-47.94705
G01 X-48.37890 Y-47.82381
G01 X-48.20669 Y-47.73011
G01 X-48.15235 Y-47.70760
G01 X-47.96434 Y-47.65208
G01 X-47.76940 Y-47.63143
G01 X-47.71057 Y-47.63143
G01 X-47.51563 Y-47.65208
G01 X-47.32762 Y-47.70760
G01 X-47.27329 Y-47.73011
G01 X-47.10107 Y-47.82381
G01 X-46.94862 Y-47.94705
G01 X-46.90704 Y-47.98863
G01 X-46.78380 Y-48.14108
G01 X-46.69010 Y-48.31329
G01 X-46.66760 Y-48.36762
G01 X-46.61207 Y-48.55563
G01 X-46.59142 Y-48.75058
G01 X-46.59142 Y-48.80940
G04 P0 
G00 Z2.00000 M3 ; restart from line 2772

G00 X-49.13142 Y-48.80940 
G01 F30.00000

G01 Z-0.07500
G04 P0 
G01 F40.00000
G01 X-49.13142 Y-48.80940
G01 X-49.15207 Y-49.00435
G01 X-49.20760 Y-49.19236
G01 X-49.23010 Y-49.24669
G01 X-49.32380 Y-49.41890
G01 X-49.44704 Y-49.57135
G01 X-49.48862 Y-49.61293
G01 X-49.64107 Y-49.73617
G01 X-49.81329 Y-49.82987
G01 X-49.86762 Y-49.85238
G01 X-50.05563 Y-49.90790
G01 X-50.25057 Y-49.92855
G01 X-50.30940 Y-49.92855
G01 X-50.50434 Y-49.90790
G01 X-50.69235 Y-49.85238
G01 X-50.74669 Y-49.82987
G01 X-50.91890 Y-49.73617
G01 X-51.07135 Y-49.61293
G01 X-51.11293 Y-49.57135
G01 X-51.23617 Y-49.41890
G01 X-51.34244 Y-49.22007
G01 X-51.40074 Y-49.03290
G01 X-51.41222 Y-48.97521
G01 X-51.43000 Y-48.77999
G01 X-51.41222 Y-48.58476
G01 X-51.40074 Y-48.52708
G01 X-51.34244 Y-48.33991
G01 X-51.23617 Y-48.14108
G01 X-51.11293 Y-47.98863
G01 X-51.07135 Y-47.94705
G01 X-50.91890 Y-47.82381
G01 X-50.74669 Y-47.73011
G01 X-50.69235 Y-47.70760
G01 X-50.50434 Y-47.65208
G01 X-50.30940 Y-47.63143
G01 X-50.25057 Y-47.63143
G01 X-50.05563 Y-47.65208
G01 X-49.86762 Y-47.70760
G01 X-49.81329 Y-47.73011
G01 X-49.64107 Y-47.82381
G01 X-49.48862 Y-47.94705
G01 X-49.44704 Y-47.98863
G01 X-49.32380 Y-48.14108
G01 X-49.23010 Y-48.31329
G01 X-49.20760 Y-48.36762
G01 X-49.15207 Y-48.55563
G01 X-49.13142 Y-48.75058
G01 X-49.13142 Y-48.80940
G04 P0 
G00 Z2.00000 M3 ; restart from line 2829

G00 X-59.29142 Y-48.80940 
G01 F30.00000

G01 Z-0.07500
G04 P0 
G01 F40.00000
G01 X-59.29142 Y-48.80940
G01 X-59.30776 Y-48.97521
G01 X-59.31924 Y-49.03290
G01 X-59.37753 Y-49.22007
G01 X-59.46866 Y-49.39365
G01 X-59.50133 Y-49.44255
G01 X-59.62680 Y-49.59317
G01 X-59.77743 Y-49.71865
G01 X-59.82632 Y-49.75131
G01 X-59.97329 Y-49.82987
G01 X-60.02762 Y-49.85238
G01 X-60.21563 Y-49.90790
G01 X-60.41057 Y-49.92855
G01 X-60.46940 Y-49.92855
G01 X-60.66434 Y-49.90790
G01 X-60.85235 Y-49.85238
G01 X-60.90669 Y-49.82987
G01 X-61.05365 Y-49.75131
G01 X-61.10254 Y-49.71865
G01 X-61.25317 Y-49.59317
G01 X-61.37864 Y-49.44255
G01 X-61.41131 Y-49.39365
G01 X-61.50244 Y-49.22007
G01 X-61.56074 Y-49.03290
G01 X-61.57222 Y-48.97521
G01 X-61.58855 Y-48.80940
G01 X-61.58855 Y-48.75058
G01 X-61.56790 Y-48.55563
G01 X-61.51237 Y-48.36762
G01 X-61.48987 Y-48.31329
G01 X-61.41131 Y-48.16632
G01 X-61.37864 Y-48.11743
G01 X-61.25317 Y-47.96681
G01 X-61.10254 Y-47.84133
G01 X-61.05365 Y-47.80867
G01 X-60.90669 Y-47.73011
G01 X-60.85235 Y-47.70760
G01 X-60.66434 Y-47.65208
G01 X-60.46940 Y-47.63143
G01 X-60.41057 Y-47.63143
G01 X-60.21563 Y-47.65208
G01 X-60.02762 Y-47.70760
G01 X-59.97329 Y-47.73011
G01 X-59.82632 Y-47.80867
G01 X-59.77743 Y-47.84133
G01 X-59.62680 Y-47.96681
G01 X-59.50133 Y-48.11743
G01 X-59.46866 Y-48.16632
G01 X-59.37753 Y-48.33991
G01 X-59.31924 Y-48.52708
G01 X-59.30776 Y-48.58476
G01 X-59.29142 Y-48.75058
G01 X-59.29142 Y-48.80940
G04 P0 
G00 Z2.00000 M3 ; restart from line 2891

G00 X-59.76534 Y-33.74596 
G01 F30.00000

G01 Z-0.07500
G04 P0 
G01 F40.00000
G01 X-59.76534 Y-33.74596
G01 X-59.77575 Y-33.85965
G01 X-59.78721 Y-33.91731
G01 X-59.81565 Y-34.01111
G01 X-59.83818 Y-34.06544
G01 X-59.89950 Y-34.17715
G01 X-59.99899 Y-34.29838
G01 X-60.09658 Y-34.38032
G01 X-60.14547 Y-34.41299
G01 X-60.23193 Y-34.45921
G01 X-60.28627 Y-34.48172
G01 X-60.38007 Y-34.51017
G01 X-60.43773 Y-34.52165
G01 X-60.53529 Y-34.53125
G01 X-60.59409 Y-34.53125
G01 X-60.65058 Y-34.52569
G01 X-72.42452 Y-46.29963
G01 X-72.51093 Y-46.36699
G01 X-72.55109 Y-46.39158
G01 X-72.63996 Y-46.42434
G01 X-72.63996 Y-47.74794
G01 X-72.52632 Y-47.80867
G01 X-72.47743 Y-47.84133
G01 X-72.32680 Y-47.96681
G01 X-72.20133 Y-48.11743
G01 X-72.16866 Y-48.16632
G01 X-72.09010 Y-48.31329
G01 X-72.06760 Y-48.36762
G01 X-72.01924 Y-48.52708
G01 X-72.00776 Y-48.58476
G01 X-71.99142 Y-48.75058
G01 X-71.99142 Y-48.80940
G01 X-72.00776 Y-48.97521
G01 X-72.01924 Y-49.03290
G01 X-72.07753 Y-49.22007
G01 X-72.16866 Y-49.39365
G01 X-72.20133 Y-49.44255
G01 X-72.32680 Y-49.59317
G01 X-72.47743 Y-49.71865
G01 X-72.52632 Y-49.75131
G01 X-72.67329 Y-49.82987
G01 X-72.72762 Y-49.85238
G01 X-72.91563 Y-49.90790
G01 X-73.11057 Y-49.92855
G01 X-73.16940 Y-49.92855
G01 X-73.36434 Y-49.90790
G01 X-73.55235 Y-49.85238
G01 X-73.60669 Y-49.82987
G01 X-73.75365 Y-49.75131
G01 X-73.80254 Y-49.71865
G01 X-73.93135 Y-49.61293
G01 X-73.97293 Y-49.57135
G01 X-74.07864 Y-49.44255
G01 X-74.11131 Y-49.39365
G01 X-74.18987 Y-49.24669
G01 X-74.21237 Y-49.19236
G01 X-74.26074 Y-49.03290
G01 X-74.27222 Y-48.97521
G01 X-74.28855 Y-48.80940
G01 X-74.28855 Y-48.75058
G01 X-74.27222 Y-48.58476
G01 X-74.26074 Y-48.52708
G01 X-74.21237 Y-48.36762
G01 X-74.18987 Y-48.31329
G01 X-74.11131 Y-48.16632
G01 X-74.07864 Y-48.11743
G01 X-73.95317 Y-47.96681
G01 X-73.80254 Y-47.84133
G01 X-73.75365 Y-47.80867
G01 X-73.63998 Y-47.74791
G01 X-73.63998 Y-46.42714
G01 X-73.72462 Y-46.39544
G01 X-73.75921 Y-46.37695
G01 X-73.80811 Y-46.34428
G01 X-73.86023 Y-46.29963
G01 X-75.24534 Y-44.91454
G01 X-75.31270 Y-44.82813
G01 X-75.33729 Y-44.78797
G01 X-75.35530 Y-44.74449
G01 X-75.38557 Y-44.63953
G01 X-75.38933 Y-44.59293
G01 X-75.39180 Y-43.46191
G01 X-75.37831 Y-43.35252
G01 X-75.36731 Y-43.30675
G01 X-75.34930 Y-43.26326
G01 X-75.30302 Y-43.17703
G01 X-75.28171 Y-43.14886
G01 X-75.24532 Y-43.10771
G01 X-74.98339 Y-42.84576
G01 X-74.98339 Y-39.64808
G01 X-79.65211 Y-34.97933
G01 X-79.89308 Y-34.97771
G01 X-79.93898 Y-34.97387
G01 X-79.98376 Y-34.96305
G01 X-80.07617 Y-34.93082
G01 X-80.16286 Y-34.87773
G01 X-81.12328 Y-33.92333
G01 X-81.24538 Y-33.95886
G01 X-81.43057 Y-33.97855
G01 X-81.48940 Y-33.97855
G01 X-81.67459 Y-33.95886
G01 X-81.85323 Y-33.90618
G01 X-81.90756 Y-33.88368
G01 X-82.04586 Y-33.80974
G01 X-82.09476 Y-33.77707
G01 X-82.21599 Y-33.67758
G01 X-82.25757 Y-33.63600
G01 X-82.37461 Y-33.49112
G01 X-82.46367 Y-33.32754
G01 X-82.48617 Y-33.27321
G01 X-82.53885 Y-33.09457
G01 X-82.55853 Y-32.90938
G01 X-82.55853 Y-32.85058
G01 X-82.54317 Y-32.69450
G01 X-82.53169 Y-32.63684
G01 X-82.48617 Y-32.48675
G01 X-82.46367 Y-32.43242
G01 X-82.37461 Y-32.26887
G01 X-82.25757 Y-32.12399
G01 X-82.21599 Y-32.08241
G01 X-82.09476 Y-31.98292
G01 X-82.04586 Y-31.95023
G01 X-81.90756 Y-31.87631
G01 X-81.85323 Y-31.85381
G01 X-81.67459 Y-31.80113
G01 X-81.48940 Y-31.78142
G01 X-81.43057 Y-31.78142
G01 X-81.24538 Y-31.80113
G01 X-81.06677 Y-31.85381
G01 X-81.01241 Y-31.87631
G01 X-80.87411 Y-31.95023
G01 X-80.82521 Y-31.98292
G01 X-80.68216 Y-32.10217
G01 X-80.56291 Y-32.24522
G01 X-80.53024 Y-32.29412
G01 X-80.45630 Y-32.43242
G01 X-80.43380 Y-32.48675
G01 X-80.38112 Y-32.66539
G01 X-80.36143 Y-32.85058
G01 X-80.36143 Y-32.90938
G01 X-80.38112 Y-33.09457
G01 X-80.41653 Y-33.21632
G01 X-79.65183 Y-33.98103
G01 X-79.41086 Y-33.98266
G01 X-79.36497 Y-33.98650
G01 X-79.32019 Y-33.99732
G01 X-79.21719 Y-34.03468
G01 X-79.17703 Y-34.05927
G01 X-79.09062 Y-34.12663
G01 X-74.12982 Y-39.08742
G01 X-74.06764 Y-39.16319
G01 X-74.03401 Y-39.22304
G01 X-74.01151 Y-39.27737
G01 X-73.99299 Y-39.34343
G01 X-73.98337 Y-39.44099
G01 X-73.98337 Y-43.05290
G01 X-73.99685 Y-43.16164
G01 X-74.00785 Y-43.20741
G01 X-74.02586 Y-43.25089
G01 X-74.07846 Y-43.34622
G01 X-74.10846 Y-43.38160
G01 X-74.39177 Y-43.66755
G01 X-74.39177 Y-44.35386
G01 X-73.29957 Y-45.44606
G01 X-72.98517 Y-45.44606
G01 X-61.35769 Y-33.81858
G01 X-61.36470 Y-33.73270
G01 X-61.35362 Y-33.60575
G01 X-61.34217 Y-33.54807
G01 X-61.31372 Y-33.45426
G01 X-61.29122 Y-33.39993
G01 X-61.22987 Y-33.28822
G01 X-61.15014 Y-33.18881
G01 X-61.10856 Y-33.14723
G01 X-61.03280 Y-33.08505
G01 X-60.98390 Y-33.05238
G01 X-60.89744 Y-33.00618
G01 X-60.84311 Y-32.98368
G01 X-60.72076 Y-32.94807
G01 X-60.59409 Y-32.93412
G01 X-60.53529 Y-32.93412
G01 X-60.40862 Y-32.94807
G01 X-60.25853 Y-32.99358
G01 X-60.14547 Y-33.05238
G01 X-60.09658 Y-33.08505
G01 X-60.02081 Y-33.14723
G01 X-59.97923 Y-33.18881
G01 X-59.89950 Y-33.28822
G01 X-59.83818 Y-33.39993
G01 X-59.81565 Y-33.45426
G01 X-59.78721 Y-33.54807
G01 X-59.77575 Y-33.60575
G01 X-59.76534 Y-33.74596
G04 P0 
G00 Z2.00000 M3 ; restart from line 3093

G00 X-62.58143 Y-32.90938 
G01 F30.00000

G01 Z-0.07500
G04 P0 
G01 F40.00000
G01 X-62.58143 Y-32.90938
G01 X-62.60112 Y-33.09457
G01 X-62.65380 Y-33.27321
G01 X-62.67630 Y-33.32754
G01 X-62.76538 Y-33.49112
G01 X-62.88240 Y-33.63600
G01 X-62.92398 Y-33.67758
G01 X-63.04521 Y-33.77707
G01 X-63.09411 Y-33.80974
G01 X-63.17996 Y-33.85563
G01 X-63.17996 Y-34.48009
G01 X-63.18959 Y-34.57763
G01 X-63.20810 Y-34.64370
G01 X-63.23061 Y-34.69803
G01 X-63.28176 Y-34.78152
G01 X-63.32642 Y-34.83364
G01 X-63.37854 Y-34.87829
G01 X-63.42743 Y-34.91095
G01 X-63.46203 Y-34.92945
G01 X-63.55387 Y-34.96333
G01 X-63.58242 Y-34.97047
G01 X-63.65057 Y-34.97864
G01 X-63.86477 Y-34.98009
G01 X-72.79869 Y-43.91401
G01 X-72.79168 Y-43.99989
G01 X-72.80275 Y-44.12684
G01 X-72.81421 Y-44.18452
G01 X-72.84265 Y-44.27832
G01 X-72.86518 Y-44.33265
G01 X-72.92652 Y-44.44434
G01 X-73.00623 Y-44.54375
G01 X-73.04781 Y-44.58533
G01 X-73.12358 Y-44.64754
G01 X-73.17247 Y-44.68020
G01 X-73.28555 Y-44.73900
G01 X-73.43562 Y-44.78452
G01 X-73.56229 Y-44.79844
G01 X-73.62109 Y-44.79844
G01 X-73.74776 Y-44.78452
G01 X-73.89785 Y-44.73900
G01 X-74.01090 Y-44.68020
G01 X-74.05980 Y-44.64754
G01 X-74.15738 Y-44.56557
G01 X-74.25687 Y-44.44434
G01 X-74.31822 Y-44.33265
G01 X-74.34072 Y-44.27832
G01 X-74.36917 Y-44.18452
G01 X-74.38062 Y-44.12684
G01 X-74.39099 Y-44.01396
G01 X-74.38062 Y-43.87294
G01 X-74.36917 Y-43.81525
G01 X-74.34072 Y-43.72145
G01 X-74.31822 Y-43.66712
G01 X-74.25687 Y-43.55544
G01 X-74.15738 Y-43.43420
G01 X-74.05980 Y-43.35224
G01 X-74.01090 Y-43.31957
G01 X-73.92444 Y-43.27337
G01 X-73.87011 Y-43.25087
G01 X-73.77631 Y-43.22242
G01 X-73.71865 Y-43.21094
G01 X-73.62109 Y-43.20134
G01 X-73.56229 Y-43.20134
G01 X-73.50582 Y-43.20690
G01 X-64.42542 Y-34.12653
G01 X-64.37330 Y-34.08187
G01 X-64.32441 Y-34.04921
G01 X-64.23548 Y-34.00821
G01 X-64.17998 Y-33.99325
G01 X-64.17998 Y-33.85563
G01 X-64.26586 Y-33.80974
G01 X-64.31476 Y-33.77707
G01 X-64.43599 Y-33.67758
G01 X-64.47757 Y-33.63600
G01 X-64.59461 Y-33.49112
G01 X-64.68367 Y-33.32754
G01 X-64.70617 Y-33.27321
G01 X-64.75169 Y-33.12315
G01 X-64.76317 Y-33.06547
G01 X-64.77853 Y-32.90938
G01 X-64.77853 Y-32.85058
G01 X-64.76317 Y-32.69450
G01 X-64.75169 Y-32.63684
G01 X-64.70617 Y-32.48675
G01 X-64.68367 Y-32.43242
G01 X-64.59461 Y-32.26887
G01 X-64.45781 Y-32.10217
G01 X-64.31476 Y-31.98292
G01 X-64.26586 Y-31.95023
G01 X-64.10094 Y-31.86372
G01 X-63.89459 Y-31.80113
G01 X-63.70940 Y-31.78142
G01 X-63.65057 Y-31.78142
G01 X-63.46538 Y-31.80113
G01 X-63.25903 Y-31.86372
G01 X-63.09411 Y-31.95023
G01 X-63.04521 Y-31.98292
G01 X-62.92398 Y-32.08241
G01 X-62.88240 Y-32.12399
G01 X-62.76538 Y-32.26887
G01 X-62.67630 Y-32.43242
G01 X-62.65380 Y-32.48675
G01 X-62.60828 Y-32.63684
G01 X-62.59680 Y-32.69450
G01 X-62.58143 Y-32.85058
G01 X-62.58143 Y-32.90938
G04 P0 
G00 Z2.00000 M3 ; restart from line 3208

G00 X-65.12143 Y-32.90938 
G01 F30.00000

G01 Z-0.07500
G04 P0 
G01 F40.00000
G01 X-65.12143 Y-32.90938
G01 X-65.14112 Y-33.09457
G01 X-65.19380 Y-33.27321
G01 X-65.21630 Y-33.32754
G01 X-65.30538 Y-33.49112
G01 X-65.42240 Y-33.63600
G01 X-65.46398 Y-33.67758
G01 X-65.58521 Y-33.77707
G01 X-65.63411 Y-33.80974
G01 X-65.77241 Y-33.88368
G01 X-65.82677 Y-33.90618
G01 X-66.00538 Y-33.95886
G01 X-66.19057 Y-33.97855
G01 X-66.24940 Y-33.97855
G01 X-66.43459 Y-33.95886
G01 X-66.61323 Y-33.90618
G01 X-66.66756 Y-33.88368
G01 X-66.80586 Y-33.80974
G01 X-66.85476 Y-33.77707
G01 X-66.97599 Y-33.67758
G01 X-67.01757 Y-33.63600
G01 X-67.13461 Y-33.49112
G01 X-67.22367 Y-33.32754
G01 X-67.24617 Y-33.27321
G01 X-67.29885 Y-33.09457
G01 X-67.31853 Y-32.90938
G01 X-67.31853 Y-32.85058
G01 X-67.30317 Y-32.69450
G01 X-67.29169 Y-32.63684
G01 X-67.26344 Y-32.54365
G01 X-70.02937 Y-29.77769
G01 X-87.82588 Y-29.77769
G01 X-89.65237 Y-31.60418
G01 X-89.65237 Y-34.47826
G01 X-88.02642 Y-36.10422
G01 X-87.96424 Y-36.17999
G01 X-87.93061 Y-36.23983
G01 X-87.90810 Y-36.29416
G01 X-87.88959 Y-36.36023
G01 X-87.87996 Y-36.45779
G01 X-87.87999 Y-47.74791
G01 X-87.76632 Y-47.80867
G01 X-87.71743 Y-47.84133
G01 X-87.58862 Y-47.94705
G01 X-87.54704 Y-47.98863
G01 X-87.44133 Y-48.11743
G01 X-87.40866 Y-48.16632
G01 X-87.31753 Y-48.33991
G01 X-87.25924 Y-48.52708
G01 X-87.24776 Y-48.58476
G01 X-87.23142 Y-48.75058
G01 X-87.23142 Y-48.80940
G01 X-87.24776 Y-48.97521
G01 X-87.25924 Y-49.03290
G01 X-87.30760 Y-49.19236
G01 X-87.33010 Y-49.24669
G01 X-87.40866 Y-49.39365
G01 X-87.44133 Y-49.44255
G01 X-87.56680 Y-49.59317
G01 X-87.71743 Y-49.71865
G01 X-87.76632 Y-49.75131
G01 X-87.91329 Y-49.82987
G01 X-87.96762 Y-49.85238
G01 X-88.15563 Y-49.90790
G01 X-88.35057 Y-49.92855
G01 X-88.40940 Y-49.92855
G01 X-88.60434 Y-49.90790
G01 X-88.79235 Y-49.85238
G01 X-88.84669 Y-49.82987
G01 X-88.99365 Y-49.75131
G01 X-89.04254 Y-49.71865
G01 X-89.19317 Y-49.59317
G01 X-89.31864 Y-49.44255
G01 X-89.35131 Y-49.39365
G01 X-89.44244 Y-49.22007
G01 X-89.50074 Y-49.03290
G01 X-89.51222 Y-48.97521
G01 X-89.52855 Y-48.80940
G01 X-89.52855 Y-48.75058
G01 X-89.51222 Y-48.58476
G01 X-89.50074 Y-48.52708
G01 X-89.45237 Y-48.36762
G01 X-89.42987 Y-48.31329
G01 X-89.35131 Y-48.16632
G01 X-89.31864 Y-48.11743
G01 X-89.21293 Y-47.98863
G01 X-89.17135 Y-47.94705
G01 X-89.04254 Y-47.84133
G01 X-88.99365 Y-47.80867
G01 X-88.87998 Y-47.74791
G01 X-88.87998 Y-36.66487
G01 X-90.50594 Y-35.03892
G01 X-90.56812 Y-34.96315
G01 X-90.60175 Y-34.90331
G01 X-90.62425 Y-34.84898
G01 X-90.64277 Y-34.78291
G01 X-90.65240 Y-34.68538
G01 X-90.65240 Y-31.39709
G01 X-90.64277 Y-31.29953
G01 X-90.62425 Y-31.23347
G01 X-90.60175 Y-31.17913
G01 X-90.56812 Y-31.11929
G01 X-90.50576 Y-31.04335
G01 X-88.36251 Y-28.90357
G01 X-88.32677 Y-28.87309
G01 X-88.23099 Y-28.82016
G01 X-88.18750 Y-28.80215
G01 X-88.14171 Y-28.79115
G01 X-88.03295 Y-28.77767
G01 X-69.79094 Y-28.78013
G01 X-69.74403 Y-28.78384
G01 X-69.69829 Y-28.79481
G01 X-69.59529 Y-28.83217
G01 X-69.55513 Y-28.85676
G01 X-69.46872 Y-28.92412
G01 X-66.55631 Y-31.83654
G01 X-66.43459 Y-31.80113
G01 X-66.24940 Y-31.78142
G01 X-66.19057 Y-31.78142
G01 X-66.00538 Y-31.80113
G01 X-65.82677 Y-31.85381
G01 X-65.77241 Y-31.87631
G01 X-65.63411 Y-31.95023
G01 X-65.58521 Y-31.98292
G01 X-65.46398 Y-32.08241
G01 X-65.42240 Y-32.12399
G01 X-65.30538 Y-32.26887
G01 X-65.21630 Y-32.43242
G01 X-65.19380 Y-32.48675
G01 X-65.14112 Y-32.66539
G01 X-65.12143 Y-32.85058
G01 X-65.12143 Y-32.90938
G04 P0 
G00 Z2.00000 M3 ; restart from line 3349

G00 X-67.66143 Y-32.90938 
G01 F30.00000

G01 Z-0.07500
G04 P0 
G01 F40.00000
G01 X-67.66143 Y-32.90938
G01 X-67.68112 Y-33.09457
G01 X-67.73380 Y-33.27321
G01 X-67.75630 Y-33.32754
G01 X-67.84538 Y-33.49112
G01 X-67.96240 Y-33.63600
G01 X-68.00398 Y-33.67758
G01 X-68.12521 Y-33.77707
G01 X-68.17411 Y-33.80974
G01 X-68.31241 Y-33.88368
G01 X-68.36677 Y-33.90618
G01 X-68.54538 Y-33.95886
G01 X-68.73057 Y-33.97855
G01 X-68.78940 Y-33.97855
G01 X-68.97459 Y-33.95886
G01 X-69.15323 Y-33.90618
G01 X-69.20756 Y-33.88368
G01 X-69.34586 Y-33.80974
G01 X-69.39476 Y-33.77707
G01 X-69.51599 Y-33.67758
G01 X-69.55757 Y-33.63600
G01 X-69.67461 Y-33.49112
G01 X-69.76367 Y-33.32754
G01 X-69.78617 Y-33.27321
G01 X-69.83885 Y-33.09457
G01 X-69.85853 Y-32.90938
G01 X-69.85853 Y-32.85058
G01 X-69.84317 Y-32.69450
G01 X-69.83169 Y-32.63684
G01 X-69.80342 Y-32.54362
G01 X-71.56928 Y-30.77779
G01 X-87.41169 Y-30.77779
G01 X-88.65227 Y-32.01838
G01 X-88.65227 Y-34.06407
G01 X-85.48642 Y-37.22992
G01 X-85.44176 Y-37.28204
G01 X-85.40910 Y-37.33094
G01 X-85.39061 Y-37.36553
G01 X-85.35673 Y-37.45738
G01 X-85.34527 Y-37.51506
G01 X-85.33996 Y-37.58349
G01 X-85.33999 Y-47.74791
G01 X-85.22632 Y-47.80867
G01 X-85.17743 Y-47.84133
G01 X-85.04862 Y-47.94705
G01 X-85.00704 Y-47.98863
G01 X-84.90133 Y-48.11743
G01 X-84.86866 Y-48.16632
G01 X-84.79010 Y-48.31329
G01 X-84.76760 Y-48.36762
G01 X-84.71924 Y-48.52708
G01 X-84.70776 Y-48.58476
G01 X-84.69142 Y-48.75058
G01 X-84.69142 Y-48.80940
G01 X-84.70776 Y-48.97521
G01 X-84.71924 Y-49.03290
G01 X-84.77753 Y-49.22007
G01 X-84.86866 Y-49.39365
G01 X-84.90133 Y-49.44255
G01 X-85.00704 Y-49.57135
G01 X-85.04862 Y-49.61293
G01 X-85.17743 Y-49.71865
G01 X-85.22632 Y-49.75131
G01 X-85.37329 Y-49.82987
G01 X-85.42762 Y-49.85238
G01 X-85.58708 Y-49.90074
G01 X-85.64476 Y-49.91222
G01 X-85.81057 Y-49.92855
G01 X-85.86940 Y-49.92855
G01 X-86.06434 Y-49.90790
G01 X-86.25235 Y-49.85238
G01 X-86.30669 Y-49.82987
G01 X-86.45365 Y-49.75131
G01 X-86.50254 Y-49.71865
G01 X-86.63135 Y-49.61293
G01 X-86.67293 Y-49.57135
G01 X-86.77864 Y-49.44255
G01 X-86.81131 Y-49.39365
G01 X-86.90244 Y-49.22007
G01 X-86.96074 Y-49.03290
G01 X-86.97222 Y-48.97521
G01 X-86.98855 Y-48.80940
G01 X-86.98855 Y-48.75058
G01 X-86.96790 Y-48.55563
G01 X-86.91237 Y-48.36762
G01 X-86.88987 Y-48.31329
G01 X-86.81131 Y-48.16632
G01 X-86.77864 Y-48.11743
G01 X-86.67293 Y-47.98863
G01 X-86.63135 Y-47.94705
G01 X-86.50254 Y-47.84133
G01 X-86.45365 Y-47.80867
G01 X-86.33998 Y-47.74791
G01 X-86.33998 Y-37.79058
G01 X-89.50584 Y-34.62472
G01 X-89.56802 Y-34.54895
G01 X-89.60165 Y-34.48911
G01 X-89.63553 Y-34.39726
G01 X-89.64267 Y-34.36871
G01 X-89.65085 Y-34.30057
G01 X-89.65230 Y-31.81129
G01 X-89.64267 Y-31.71373
G01 X-89.62415 Y-31.64766
G01 X-89.60165 Y-31.59333
G01 X-89.56802 Y-31.53349
G01 X-89.50584 Y-31.45772
G01 X-87.97234 Y-29.92422
G01 X-87.88593 Y-29.85686
G01 X-87.85616 Y-29.83784
G01 X-87.79540 Y-29.81041
G01 X-87.72751 Y-29.79125
G01 X-87.61875 Y-29.77777
G01 X-71.33085 Y-29.78023
G01 X-71.28393 Y-29.78394
G01 X-71.23819 Y-29.79491
G01 X-71.13519 Y-29.83227
G01 X-71.09503 Y-29.85686
G01 X-71.00862 Y-29.92422
G01 X-69.09631 Y-31.83654
G01 X-68.97459 Y-31.80113
G01 X-68.78940 Y-31.78142
G01 X-68.73057 Y-31.78142
G01 X-68.54538 Y-31.80113
G01 X-68.36677 Y-31.85381
G01 X-68.31241 Y-31.87631
G01 X-68.17411 Y-31.95023
G01 X-68.12521 Y-31.98292
G01 X-68.00398 Y-32.08241
G01 X-67.96240 Y-32.12399
G01 X-67.84538 Y-32.26887
G01 X-67.75630 Y-32.43242
G01 X-67.73380 Y-32.48675
G01 X-67.68112 Y-32.66539
G01 X-67.66143 Y-32.85058
G01 X-67.66143 Y-32.90938
G04 P0 
G00 Z2.00000 M3 ; restart from line 3493

G00 X-70.20143 Y-32.90938 
G01 F30.00000

G01 Z-0.07500
G04 P0 
G01 F40.00000
G01 X-70.20143 Y-32.90938
G01 X-70.22112 Y-33.09457
G01 X-70.27380 Y-33.27321
G01 X-70.29630 Y-33.32754
G01 X-70.38538 Y-33.49112
G01 X-70.52216 Y-33.65779
G01 X-70.66521 Y-33.77707
G01 X-70.71411 Y-33.80974
G01 X-70.87903 Y-33.89625
G01 X-71.08538 Y-33.95886
G01 X-71.27057 Y-33.97855
G01 X-71.32940 Y-33.97855
G01 X-71.51459 Y-33.95886
G01 X-71.72094 Y-33.89625
G01 X-71.88586 Y-33.80974
G01 X-71.93476 Y-33.77707
G01 X-72.07781 Y-33.65779
G01 X-72.21461 Y-33.49112
G01 X-72.30367 Y-33.32754
G01 X-72.32617 Y-33.27321
G01 X-72.37885 Y-33.09457
G01 X-72.39853 Y-32.90938
G01 X-72.39853 Y-32.85058
G01 X-72.38317 Y-32.69450
G01 X-72.37169 Y-32.63684
G01 X-72.31626 Y-32.45904
G01 X-72.21461 Y-32.26887
G01 X-72.07781 Y-32.10217
G01 X-71.93476 Y-31.98292
G01 X-71.88586 Y-31.95023
G01 X-71.72094 Y-31.86372
G01 X-71.51459 Y-31.80113
G01 X-71.32940 Y-31.78142
G01 X-71.27057 Y-31.78142
G01 X-71.08538 Y-31.80113
G01 X-70.87903 Y-31.86372
G01 X-70.71411 Y-31.95023
G01 X-70.66521 Y-31.98292
G01 X-70.52216 Y-32.10217
G01 X-70.38538 Y-32.26887
G01 X-70.29630 Y-32.43242
G01 X-70.27380 Y-32.48675
G01 X-70.22112 Y-32.66539
G01 X-70.20143 Y-32.85058
G01 X-70.20143 Y-32.90938
G04 P0 
G00 Z2.00000 M3 ; restart from line 3547

G00 X-72.74143 Y-32.90938 
G01 F30.00000

G01 Z-0.07500
G04 P0 
G01 F40.00000
G01 X-72.74143 Y-32.90938
G01 X-72.76112 Y-33.09457
G01 X-72.81380 Y-33.27321
G01 X-72.83630 Y-33.32754
G01 X-72.92538 Y-33.49112
G01 X-73.06216 Y-33.65779
G01 X-73.20521 Y-33.77707
G01 X-73.25411 Y-33.80974
G01 X-73.41903 Y-33.89625
G01 X-73.62538 Y-33.95886
G01 X-73.81057 Y-33.97855
G01 X-73.86940 Y-33.97855
G01 X-74.05459 Y-33.95886
G01 X-74.26094 Y-33.89625
G01 X-74.42586 Y-33.80974
G01 X-74.47476 Y-33.77707
G01 X-74.61781 Y-33.65779
G01 X-74.75461 Y-33.49112
G01 X-74.84367 Y-33.32754
G01 X-74.86617 Y-33.27321
G01 X-74.91885 Y-33.09457
G01 X-74.93853 Y-32.90938
G01 X-74.93853 Y-32.85058
G01 X-74.92317 Y-32.69450
G01 X-74.91169 Y-32.63684
G01 X-74.85626 Y-32.45904
G01 X-74.75461 Y-32.26887
G01 X-74.61781 Y-32.10217
G01 X-74.47476 Y-31.98292
G01 X-74.42586 Y-31.95023
G01 X-74.26094 Y-31.86372
G01 X-74.05459 Y-31.80113
G01 X-73.86940 Y-31.78142
G01 X-73.81057 Y-31.78142
G01 X-73.62538 Y-31.80113
G01 X-73.41903 Y-31.86372
G01 X-73.25411 Y-31.95023
G01 X-73.20521 Y-31.98292
G01 X-73.06216 Y-32.10217
G01 X-72.92538 Y-32.26887
G01 X-72.83630 Y-32.43242
G01 X-72.81380 Y-32.48675
G01 X-72.76112 Y-32.66539
G01 X-72.74143 Y-32.85058
G01 X-72.74143 Y-32.90938
G04 P0 
G00 Z2.00000 M3 ; restart from line 3601

G00 X-75.28143 Y-32.90938 
G01 F30.00000

G01 Z-0.07500
G04 P0 
G01 F40.00000
G01 X-75.28143 Y-32.90938
G01 X-75.30112 Y-33.09457
G01 X-75.35380 Y-33.27321
G01 X-75.37630 Y-33.32754
G01 X-75.46538 Y-33.49112
G01 X-75.60216 Y-33.65779
G01 X-75.74521 Y-33.77707
G01 X-75.79411 Y-33.80974
G01 X-75.95903 Y-33.89625
G01 X-76.16538 Y-33.95886
G01 X-76.35057 Y-33.97855
G01 X-76.40940 Y-33.97855
G01 X-76.59459 Y-33.95886
G01 X-76.80094 Y-33.89625
G01 X-76.96586 Y-33.80974
G01 X-77.01476 Y-33.77707
G01 X-77.15781 Y-33.65779
G01 X-77.29461 Y-33.49112
G01 X-77.38367 Y-33.32754
G01 X-77.40617 Y-33.27321
G01 X-77.45885 Y-33.09457
G01 X-77.47853 Y-32.90938
G01 X-77.47853 Y-32.85058
G01 X-77.46317 Y-32.69450
G01 X-77.45169 Y-32.63684
G01 X-77.39626 Y-32.45904
G01 X-77.29461 Y-32.26887
G01 X-77.15781 Y-32.10217
G01 X-77.01476 Y-31.98292
G01 X-76.96586 Y-31.95023
G01 X-76.80094 Y-31.86372
G01 X-76.59459 Y-31.80113
G01 X-76.40940 Y-31.78142
G01 X-76.35057 Y-31.78142
G01 X-76.16538 Y-31.80113
G01 X-75.95903 Y-31.86372
G01 X-75.79411 Y-31.95023
G01 X-75.74521 Y-31.98292
G01 X-75.60216 Y-32.10217
G01 X-75.46538 Y-32.26887
G01 X-75.37630 Y-32.43242
G01 X-75.35380 Y-32.48675
G01 X-75.30112 Y-32.66539
G01 X-75.28143 Y-32.85058
G01 X-75.28143 Y-32.90938
G04 P0 
G00 Z2.00000 M3 ; restart from line 3655

G00 X-76.31110 Y-40.08069 
G01 F30.00000

G01 Z-0.07500
G04 P0 
G01 F40.00000
G01 X-76.31110 Y-40.08069
G01 X-76.32215 Y-40.20764
G01 X-76.33360 Y-40.26532
G01 X-76.36208 Y-40.35913
G01 X-76.38458 Y-40.41346
G01 X-76.44592 Y-40.52514
G01 X-76.54539 Y-40.64638
G01 X-76.64298 Y-40.72832
G01 X-76.69187 Y-40.76101
G01 X-76.77833 Y-40.80721
G01 X-76.83266 Y-40.82971
G01 X-76.92647 Y-40.85816
G01 X-76.98415 Y-40.86964
G01 X-77.08168 Y-40.87924
G01 X-77.14049 Y-40.87924
G01 X-77.19700 Y-40.87368
G01 X-82.79996 Y-46.47667
G01 X-82.79996 Y-47.74794
G01 X-82.68632 Y-47.80867
G01 X-82.63743 Y-47.84133
G01 X-82.50862 Y-47.94705
G01 X-82.46704 Y-47.98863
G01 X-82.36133 Y-48.11743
G01 X-82.32866 Y-48.16632
G01 X-82.23753 Y-48.33991
G01 X-82.17924 Y-48.52708
G01 X-82.16776 Y-48.58476
G01 X-82.15142 Y-48.75058
G01 X-82.15142 Y-48.80940
G01 X-82.16776 Y-48.97521
G01 X-82.17924 Y-49.03290
G01 X-82.23753 Y-49.22007
G01 X-82.32866 Y-49.39365
G01 X-82.36133 Y-49.44255
G01 X-82.48680 Y-49.59317
G01 X-82.63743 Y-49.71865
G01 X-82.68632 Y-49.75131
G01 X-82.83329 Y-49.82987
G01 X-82.88762 Y-49.85238
G01 X-83.07563 Y-49.90790
G01 X-83.27057 Y-49.92855
G01 X-83.32940 Y-49.92855
G01 X-83.52434 Y-49.90790
G01 X-83.71235 Y-49.85238
G01 X-83.76669 Y-49.82987
G01 X-83.91365 Y-49.75131
G01 X-83.96254 Y-49.71865
G01 X-84.11317 Y-49.59317
G01 X-84.23864 Y-49.44255
G01 X-84.27131 Y-49.39365
G01 X-84.34987 Y-49.24669
G01 X-84.37237 Y-49.19236
G01 X-84.42074 Y-49.03290
G01 X-84.43222 Y-48.97521
G01 X-84.44855 Y-48.80940
G01 X-84.44855 Y-48.75058
G01 X-84.43222 Y-48.58476
G01 X-84.42074 Y-48.52708
G01 X-84.37237 Y-48.36762
G01 X-84.34987 Y-48.31329
G01 X-84.27131 Y-48.16632
G01 X-84.23864 Y-48.11743
G01 X-84.13293 Y-47.98863
G01 X-84.09135 Y-47.94705
G01 X-83.96254 Y-47.84133
G01 X-83.91365 Y-47.80867
G01 X-83.79998 Y-47.74791
G01 X-83.79998 Y-46.26955
G01 X-83.79036 Y-46.17202
G01 X-83.77184 Y-46.10595
G01 X-83.74934 Y-46.05162
G01 X-83.71571 Y-45.99178
G01 X-83.65353 Y-45.91601
G01 X-77.90409 Y-40.16654
G01 X-77.91110 Y-40.08069
G01 X-77.90005 Y-39.95374
G01 X-77.88857 Y-39.89606
G01 X-77.86012 Y-39.80226
G01 X-77.83761 Y-39.74793
G01 X-77.77627 Y-39.63624
G01 X-77.67678 Y-39.51501
G01 X-77.57919 Y-39.43304
G01 X-77.53030 Y-39.40038
G01 X-77.41724 Y-39.34158
G01 X-77.29571 Y-39.30322
G01 X-77.23805 Y-39.29174
G01 X-77.14049 Y-39.28214
G01 X-77.08168 Y-39.28214
G01 X-76.98415 Y-39.29174
G01 X-76.92647 Y-39.30322
G01 X-76.80495 Y-39.34158
G01 X-76.69187 Y-39.40038
G01 X-76.64298 Y-39.43304
G01 X-76.56721 Y-39.49522
G01 X-76.52563 Y-39.53683
G01 X-76.44592 Y-39.63624
G01 X-76.38458 Y-39.74793
G01 X-76.36208 Y-39.80226
G01 X-76.33360 Y-39.89606
G01 X-76.32215 Y-39.95374
G01 X-76.31110 Y-40.08069
G01 X-76.00119 Y-41.68112
G01 X-76.01224 Y-41.80784
G01 X-76.02372 Y-41.86552
G01 X-76.05217 Y-41.95933
G01 X-76.07468 Y-42.01366
G01 X-76.13602 Y-42.12534
G01 X-76.23551 Y-42.24658
G01 X-76.33310 Y-42.32852
G01 X-76.38199 Y-42.36121
G01 X-76.49505 Y-42.41998
G01 X-76.61656 Y-42.45836
G01 X-76.67424 Y-42.46984
G01 X-76.77178 Y-42.47944
G01 X-76.83058 Y-42.47944
G01 X-76.88707 Y-42.47388
G01 X-80.25996 Y-45.84677
G01 X-80.25996 Y-47.74794
G01 X-80.14632 Y-47.80867
G01 X-80.09743 Y-47.84133
G01 X-79.96862 Y-47.94705
G01 X-79.92704 Y-47.98863
G01 X-79.82133 Y-48.11743
G01 X-79.78866 Y-48.16632
G01 X-79.71010 Y-48.31329
G01 X-79.68760 Y-48.36762
G01 X-79.63924 Y-48.52708
G01 X-79.62776 Y-48.58476
G01 X-79.61142 Y-48.75058
G01 X-79.61142 Y-48.80940
G01 X-79.62776 Y-48.97521
G01 X-79.63924 Y-49.03290
G01 X-79.69753 Y-49.22007
G01 X-79.78866 Y-49.39365
G01 X-79.82133 Y-49.44255
G01 X-79.94680 Y-49.59317
G01 X-80.09743 Y-49.71865
G01 X-80.14632 Y-49.75131
G01 X-80.29329 Y-49.82987
G01 X-80.34762 Y-49.85238
G01 X-80.50708 Y-49.90074
G01 X-80.56476 Y-49.91222
G01 X-80.73057 Y-49.92855
G01 X-80.78940 Y-49.92855
G01 X-80.95521 Y-49.91222
G01 X-81.01289 Y-49.90074
G01 X-81.17235 Y-49.85238
G01 X-81.22669 Y-49.82987
G01 X-81.37365 Y-49.75131
G01 X-81.42254 Y-49.71865
G01 X-81.57317 Y-49.59317
G01 X-81.69864 Y-49.44255
G01 X-81.73131 Y-49.39365
G01 X-81.82244 Y-49.22007
G01 X-81.88074 Y-49.03290
G01 X-81.89222 Y-48.97521
G01 X-81.90855 Y-48.80940
G01 X-81.90855 Y-48.75058
G01 X-81.88790 Y-48.55563
G01 X-81.83237 Y-48.36762
G01 X-81.80987 Y-48.31329
G01 X-81.73131 Y-48.16632
G01 X-81.69864 Y-48.11743
G01 X-81.57317 Y-47.96681
G01 X-81.42254 Y-47.84133
G01 X-81.37365 Y-47.80867
G01 X-81.25998 Y-47.74791
G01 X-81.25998 Y-45.63966
G01 X-81.25036 Y-45.54212
G01 X-81.23184 Y-45.47606
G01 X-81.20934 Y-45.42173
G01 X-81.17571 Y-45.36189
G01 X-81.11353 Y-45.28612
G01 X-77.59418 Y-41.76677
G01 X-77.60119 Y-41.68089
G01 X-77.59014 Y-41.55394
G01 X-77.57866 Y-41.49626
G01 X-77.55021 Y-41.40246
G01 X-77.52771 Y-41.34813
G01 X-77.46637 Y-41.23644
G01 X-77.38664 Y-41.13703
G01 X-77.34506 Y-41.09542
G01 X-77.26929 Y-41.03324
G01 X-77.22039 Y-41.00058
G01 X-77.10734 Y-40.94178
G01 X-76.98583 Y-40.90342
G01 X-76.92814 Y-40.89194
G01 X-76.83058 Y-40.88234
G01 X-76.77178 Y-40.88234
G01 X-76.67424 Y-40.89194
G01 X-76.61656 Y-40.90342
G01 X-76.52276 Y-40.93187
G01 X-76.46843 Y-40.95438
G01 X-76.38199 Y-41.00058
G01 X-76.33310 Y-41.03324
G01 X-76.25733 Y-41.09542
G01 X-76.21572 Y-41.13703
G01 X-76.13602 Y-41.23644
G01 X-76.07468 Y-41.34813
G01 X-76.05217 Y-41.40246
G01 X-76.02372 Y-41.49626
G01 X-76.01224 Y-41.55394
G01 X-76.00119 Y-41.68112
G04 P0 
G00 Z2.00000 M3 ; restart from line 3867

G00 X-74.53142 Y-48.80940 
G01 F30.00000

G01 Z-0.07500
G04 P0 
G01 F40.00000
G01 X-74.53142 Y-48.80940
G01 X-74.54776 Y-48.97521
G01 X-74.55924 Y-49.03290
G01 X-74.60760 Y-49.19236
G01 X-74.63010 Y-49.24669
G01 X-74.70866 Y-49.39365
G01 X-74.74133 Y-49.44255
G01 X-74.84704 Y-49.57135
G01 X-74.88862 Y-49.61293
G01 X-75.01743 Y-49.71865
G01 X-75.06632 Y-49.75131
G01 X-75.17999 Y-49.81207
G01 X-75.18141 Y-50.45949
G01 X-75.18959 Y-50.52764
G01 X-75.20810 Y-50.59370
G01 X-75.23061 Y-50.64803
G01 X-75.26424 Y-50.70787
G01 X-75.32642 Y-50.78364
G01 X-76.36226 Y-51.81948
G01 X-76.36226 Y-70.53346
G01 X-76.28738 Y-70.57347
G01 X-76.23848 Y-70.60616
G01 X-76.16271 Y-70.66834
G01 X-76.12113 Y-70.70992
G01 X-76.05895 Y-70.78569
G01 X-76.02626 Y-70.83458
G01 X-75.96749 Y-70.94764
G01 X-75.92911 Y-71.06915
G01 X-75.91763 Y-71.12683
G01 X-75.90658 Y-71.25378
G01 X-75.91763 Y-71.38073
G01 X-75.92911 Y-71.43841
G01 X-75.96749 Y-71.55993
G01 X-76.02626 Y-71.67298
G01 X-76.05895 Y-71.72188
G01 X-76.14089 Y-71.81947
G01 X-76.23848 Y-71.90143
G01 X-76.28738 Y-71.93410
G01 X-76.40043 Y-71.99290
G01 X-76.52195 Y-72.03125
G01 X-76.57963 Y-72.04273
G01 X-76.67719 Y-72.05233
G01 X-76.73599 Y-72.05233
G01 X-76.83353 Y-72.04273
G01 X-76.89121 Y-72.03125
G01 X-77.01272 Y-71.99290
G01 X-77.12578 Y-71.93410
G01 X-77.17470 Y-71.90143
G01 X-77.27226 Y-71.81947
G01 X-77.35423 Y-71.72188
G01 X-77.38689 Y-71.67298
G01 X-77.44569 Y-71.55993
G01 X-77.48407 Y-71.43841
G01 X-77.49553 Y-71.38073
G01 X-77.50658 Y-71.25378
G01 X-77.49553 Y-71.12683
G01 X-77.48407 Y-71.06915
G01 X-77.45560 Y-70.97537
G01 X-77.43309 Y-70.92102
G01 X-77.38689 Y-70.83458
G01 X-77.36225 Y-70.79653
G01 X-77.36228 Y-51.61239
G01 X-77.35265 Y-51.51483
G01 X-77.32420 Y-51.42100
G01 X-77.29314 Y-51.35984
G01 X-77.23558 Y-51.28064
G01 X-76.17998 Y-50.22299
G01 X-76.17998 Y-49.81207
G01 X-76.29365 Y-49.75131
G01 X-76.34254 Y-49.71865
G01 X-76.47135 Y-49.61293
G01 X-76.51293 Y-49.57135
G01 X-76.61864 Y-49.44255
G01 X-76.65131 Y-49.39365
G01 X-76.74244 Y-49.22007
G01 X-76.80074 Y-49.03290
G01 X-76.81222 Y-48.97521
G01 X-76.82855 Y-48.80940
G01 X-76.82855 Y-48.75058
G01 X-76.80790 Y-48.55563
G01 X-76.75237 Y-48.36762
G01 X-76.72987 Y-48.31329
G01 X-76.65131 Y-48.16632
G01 X-76.61864 Y-48.11743
G01 X-76.51293 Y-47.98863
G01 X-76.47135 Y-47.94705
G01 X-76.34254 Y-47.84133
G01 X-76.29365 Y-47.80867
G01 X-76.17998 Y-47.74791
G01 X-76.17998 Y-47.33524
G01 X-76.26789 Y-47.24557
G01 X-76.29726 Y-47.21068
G01 X-76.34940 Y-47.11598
G01 X-76.36741 Y-47.07250
G01 X-76.37841 Y-47.02673
G01 X-76.39190 Y-46.91799
G01 X-76.39190 Y-43.04708
G01 X-76.38227 Y-42.94952
G01 X-76.36375 Y-42.88345
G01 X-76.34125 Y-42.82912
G01 X-76.30762 Y-42.76928
G01 X-76.24544 Y-42.69351
G01 X-75.99980 Y-42.44787
G01 X-75.99980 Y-40.06027
G01 X-77.93777 Y-38.12228
G01 X-84.13486 Y-38.12228
G01 X-84.20329 Y-38.11697
G01 X-84.29849 Y-38.09413
G01 X-84.35282 Y-38.07163
G01 X-84.43631 Y-38.02047
G01 X-84.48843 Y-37.97582
G01 X-88.50574 Y-33.95853
G01 X-88.57310 Y-33.87212
G01 X-88.60754 Y-33.81057
G01 X-88.63114 Y-33.74822
G01 X-88.63871 Y-33.71370
G01 X-88.65220 Y-33.60499
G01 X-88.65220 Y-32.22549
G01 X-88.63871 Y-32.11675
G01 X-88.61956 Y-32.04886
G01 X-88.59213 Y-31.98810
G01 X-88.57310 Y-31.95833
G01 X-88.50574 Y-31.87192
G01 X-87.55812 Y-30.92432
G01 X-87.50600 Y-30.87967
G01 X-87.42251 Y-30.82851
