( pcb2gcode 2.5.0 )
( Software-independent Gcode )

G94 ( Millimeters per minute feed rate. )
G21 ( Units == Millimeters. )

G90 ( Absolute coordinates. )
G00 S600 ( RPM spindle speed. )
G01 F300.00000 ( Feedrate. )


G53 G00 Z0.00000 (Retract to tool change height)
T1
M5      (Spindle stop.)
G04 P1.00000 (Wait for spindle to stop)
(MSG, Change tool bit to cutter diameter 2.00000mm)
M0      (Temporary machine stop.)
M3 ( Spindle on clockwise. )
G04 P1.00000 (Wait for spindle to get up to speed)
G04 P0 ( dwell for no time -- G64 should not smooth over this point )
G00 Z2.00000 ( retract )

G00 X1.04999 Y-129.99999 ( rapid move to begin. )
G01 Z-0.50000 F30.00000 ( plunge. )
G04 P0 ( dwell for no time -- G64 should not smooth over this point )
G01 F300.00000
G01 X1.02982 Y-130.20482
G01 X0.97005 Y-130.40180
G01 X0.87302 Y-130.58333
G01 X0.74244 Y-130.74244
G01 X0.58334 Y-130.87302
G01 X0.40180 Y-130.97005
G01 X0.20483 Y-131.02981
G01 X-0.00000 Y-131.04998
G01 X-98.74999 Y-131.04998
G01 X-101.24999 Y-131.04998
G01 X-199.99998 Y-131.04998
G01 X-200.20481 Y-131.02981
G01 X-200.40178 Y-130.97005
G01 X-200.58332 Y-130.87302
G01 X-200.74242 Y-130.74244
G01 X-200.87300 Y-130.58333
G01 X-200.97003 Y-130.40180
G01 X-201.02980 Y-130.20482
G01 X-201.04997 Y-129.99999
G01 X-201.04997 Y-66.25000
G01 X-201.04997 Y-63.75000
G01 X-201.04997 Y0.00000
G01 X-201.02980 Y0.20483
G01 X-200.97003 Y0.40180
G01 X-200.87300 Y0.58334
G01 X-200.74242 Y0.74244
G01 X-200.58332 Y0.87302
G01 X-200.40178 Y0.97005
G01 X-200.20481 Y1.02982
G01 X-199.99998 Y1.04999
G01 X-101.24999 Y1.04999
G01 X-98.74999 Y1.04999
G01 X-0.00000 Y1.04999
G01 X0.20483 Y1.02982
G01 X0.40180 Y0.97005
G01 X0.58334 Y0.87302
G01 X0.74244 Y0.74244
G01 X0.87302 Y0.58334
G01 X0.97005 Y0.40180
G01 X1.02982 Y0.20483
G01 X1.04999 Y0.00000
G01 X1.04999 Y-63.75000
G01 X1.04999 Y-66.25000
G01 X1.04999 Y-129.99999
G01 Z-1.00000 F30.00000 ( plunge. )
G04 P0 ( dwell for no time -- G64 should not smooth over this point )
G01 F300.00000
G01 X1.02982 Y-130.20482
G01 X0.97005 Y-130.40180
G01 X0.87302 Y-130.58333
G01 X0.74244 Y-130.74244
G01 X0.58334 Y-130.87302
G01 X0.40180 Y-130.97005
G01 X0.20483 Y-131.02981
G01 X-0.00000 Y-131.04998
G01 X-98.74999 Y-131.04998
G00 Z-0.60000
G01 X-101.24999 Y-131.04998
G01 Z-1.00000 F30.00000
G01 F300.00000
G01 X-199.99998 Y-131.04998
G01 X-200.20481 Y-131.02981
G01 X-200.40178 Y-130.97005
G01 X-200.58332 Y-130.87302
G01 X-200.74242 Y-130.74244
G01 X-200.87300 Y-130.58333
G01 X-200.97003 Y-130.40180
G01 X-201.02980 Y-130.20482
G01 X-201.04997 Y-129.99999
G01 X-201.04997 Y-66.25000
G00 Z-0.60000
G01 X-201.04997 Y-63.75000
G01 Z-1.00000 F30.00000
G01 F300.00000
G01 X-201.04997 Y0.00000
G01 X-201.02980 Y0.20483
G01 X-200.97003 Y0.40180
G01 X-200.87300 Y0.58334
G01 X-200.74242 Y0.74244
G01 X-200.58332 Y0.87302
G01 X-200.40178 Y0.97005
G01 X-200.20481 Y1.02982
G01 X-199.99998 Y1.04999
G01 X-101.24999 Y1.04999
G00 Z-0.60000
G01 X-98.74999 Y1.04999
G01 Z-1.00000 F30.00000
G01 F300.00000
G01 X-0.00000 Y1.04999
G01 X0.20483 Y1.02982
G01 X0.40180 Y0.97005
G01 X0.58334 Y0.87302
G01 X0.74244 Y0.74244
G01 X0.87302 Y0.58334
G01 X0.97005 Y0.40180
G01 X1.02982 Y0.20483
G01 X1.04999 Y0.00000
G01 X1.04999 Y-63.75000
G00 Z-0.60000
G01 X1.04999 Y-66.25000
G01 Z-1.00000 F30.00000
G01 F300.00000
G01 X1.04999 Y-129.99999
G01 Z-1.50000 F30.00000 ( plunge. )
G04 P0 ( dwell for no time -- G64 should not smooth over this point )
G01 F300.00000
G01 X1.02982 Y-130.20482
G01 X0.97005 Y-130.40180
G01 X0.87302 Y-130.58333
G01 X0.74244 Y-130.74244
G01 X0.58334 Y-130.87302
G01 X0.40180 Y-130.97005
G01 X0.20483 Y-131.02981
G01 X-0.00000 Y-131.04998
G01 X-98.74999 Y-131.04998
G00 Z-0.60000
G01 X-101.24999 Y-131.04998
G01 Z-1.50000 F30.00000
G01 F300.00000
G01 X-199.99998 Y-131.04998
G01 X-200.20481 Y-131.02981
G01 X-200.40178 Y-130.97005
G01 X-200.58332 Y-130.87302
G01 X-200.74242 Y-130.74244
G01 X-200.87300 Y-130.58333
G01 X-200.97003 Y-130.40180
G01 X-201.02980 Y-130.20482
G01 X-201.04997 Y-129.99999
G01 X-201.04997 Y-66.25000
G00 Z-0.60000
G01 X-201.04997 Y-63.75000
G01 Z-1.50000 F30.00000
G01 F300.00000
G01 X-201.04997 Y0.00000
G01 X-201.02980 Y0.20483
G01 X-200.97003 Y0.40180
G01 X-200.87300 Y0.58334
G01 X-200.74242 Y0.74244
G01 X-200.58332 Y0.87302
G01 X-200.40178 Y0.97005
G01 X-200.20481 Y1.02982
G01 X-199.99998 Y1.04999
G01 X-101.24999 Y1.04999
G00 Z-0.60000
G01 X-98.74999 Y1.04999
G01 Z-1.50000 F30.00000
G01 F300.00000
G01 X-0.00000 Y1.04999
G01 X0.20483 Y1.02982
G01 X0.40180 Y0.97005
G01 X0.58334 Y0.87302
G01 X0.74244 Y0.74244
G01 X0.87302 Y0.58334
G01 X0.97005 Y0.40180
G01 X1.02982 Y0.20483
G01 X1.04999 Y0.00000
G01 X1.04999 Y-63.75000
G00 Z-0.60000
G01 X1.04999 Y-66.25000
G01 Z-1.50000 F30.00000
G01 F300.00000
G01 X1.04999 Y-129.99999
G01 Z-2.00000 F30.00000 ( plunge. )
G04 P0 ( dwell for no time -- G64 should not smooth over this point )
G01 F300.00000
G01 X1.02982 Y-130.20482
G01 X0.97005 Y-130.40180
G01 X0.87302 Y-130.58333
G01 X0.74244 Y-130.74244
G01 X0.58334 Y-130.87302
G01 X0.40180 Y-130.97005
G01 X0.20483 Y-131.02981
G01 X-0.00000 Y-131.04998
G01 X-98.74999 Y-131.04998
G00 Z-0.60000
G01 X-101.24999 Y-131.04998
G01 Z-2.00000 F30.00000
G01 F300.00000
G01 X-199.99998 Y-131.04998
G01 X-200.20481 Y-131.02981
G01 X-200.40178 Y-130.97005
G01 X-200.58332 Y-130.87302
G01 X-200.74242 Y-130.74244
G01 X-200.87300 Y-130.58333
G01 X-200.97003 Y-130.40180
G01 X-201.02980 Y-130.20482
G01 X-201.04997 Y-129.99999
G01 X-201.04997 Y-66.25000
G00 Z-0.60000
G01 X-201.04997 Y-63.75000
G01 Z-2.00000 F30.00000
G01 F300.00000
G01 X-201.04997 Y0.00000
G01 X-201.02980 Y0.20483
G01 X-200.97003 Y0.40180
G01 X-200.87300 Y0.58334
G01 X-200.74242 Y0.74244
G01 X-200.58332 Y0.87302
G01 X-200.40178 Y0.97005
G01 X-200.20481 Y1.02982
G01 X-199.99998 Y1.04999
G01 X-101.24999 Y1.04999
G00 Z-0.60000
G01 X-98.74999 Y1.04999
G01 Z-2.00000 F30.00000
G01 F300.00000
G01 X-0.00000 Y1.04999
G01 X0.20483 Y1.02982
G01 X0.40180 Y0.97005
G01 X0.58334 Y0.87302
G01 X0.74244 Y0.74244
G01 X0.87302 Y0.58334
G01 X0.97005 Y0.40180
G01 X1.02982 Y0.20483
G01 X1.04999 Y0.00000
G01 X1.04999 Y-63.75000
G00 Z-0.60000
G01 X1.04999 Y-66.25000
G01 Z-2.00000 F30.00000
G01 F300.00000
G01 X1.04999 Y-129.99999

G04 P0 ( dwell for no time -- G64 should not smooth over this point )
G53 G00 Z0.000000 ( retract )

M5 ( Spindle off. )
G04 P1.000000
M9 ( Coolant off. )
M2 ( Program end. )

