( pcb2gcode 2.5.0 )
( Software-independent Gcode )

( This file uses 3 drill bit sizes. )
( Bit sizes: [0.5mm] [0.8mm] [1mm] )

G94       (Millimeters per minute feed rate.)
G21       (Units == Millimeters.)
G90       (Absolute coordinates.)
G00 S600     (RPM spindle speed.)

G53 G00 Z0.00000 (Retract)
T1
M5      (Spindle stop.)
G04 P1.00000
(MSG, Change tool bit to drill size 0.5mm)
M0      (Temporary machine stop.)
M3      (Spindle on clockwise.)
G0 Z2.00000
G04 P1.00000

G1 F30.00000
G0 X9.36100 Y-17.99600
G1 Z-2.50000
G1 Z2.00000
G0 X18.92400 Y-19.16200
G1 Z-2.50000
G1 Z2.00000
G0 X11.50000 Y-28.79100
G1 Z-2.50000
G1 Z2.00000
G0 X8.80000 Y-33.22100
G1 Z-2.50000
G1 Z2.00000
G0 X12.83100 Y-33.59400
G1 Z-2.50000
G1 Z2.00000
G0 X22.62400 Y-34.51600
G1 Z-2.50000
G1 Z2.00000
G0 X33.43700 Y-35.26100
G1 Z-2.50000
G1 Z2.00000
G0 X40.88500 Y-35.32300
G1 Z-2.50000
G1 Z2.00000
G0 X45.40100 Y-41.57500
G1 Z-2.50000
G1 Z2.00000
G0 X51.04300 Y-35.38600
G1 Z-2.50000
G1 Z2.00000
G0 X50.69000 Y-33.48900
G1 Z-2.50000
G1 Z2.00000
G0 X62.22700 Y-36.39400
G1 Z-2.50000
G1 Z2.00000
G0 X65.85600 Y-37.53900
G1 Z-2.50000
G1 Z2.00000
G0 X73.88100 Y-41.11900
G1 Z-2.50000
G1 Z2.00000
G0 X75.94900 Y-42.15400
G1 Z-2.50000
G1 Z2.00000
G0 X85.09900 Y-39.26500
G1 Z-2.50000
G1 Z2.00000
G0 X85.30000 Y-37.62700
G1 Z-2.50000
G1 Z2.00000
G0 X90.88300 Y-41.46900
G1 Z-2.50000
G1 Z2.00000
G0 X92.83400 Y-41.48300
G1 Z-2.50000
G1 Z2.00000
G0 X91.72000 Y-38.06600
G1 Z-2.50000
G1 Z2.00000
G0 X94.46000 Y-32.96700
G1 Z-2.50000
G1 Z2.00000
G0 X93.29600 Y-28.02400
G1 Z-2.50000
G1 Z2.00000
G0 X100.30400 Y-17.52900
G1 Z-2.50000
G1 Z2.00000
G0 X125.16700 Y-33.17100
G1 Z-2.50000
G1 Z2.00000
G0 X141.35500 Y-24.36800
G1 Z-2.50000
G1 Z2.00000
G0 X143.56800 Y-25.79700
G1 Z-2.50000
G1 Z2.00000
G0 X147.93200 Y-22.56600
G1 Z-2.50000
G1 Z2.00000
G0 X145.69500 Y-33.95000
G1 Z-2.50000
G1 Z2.00000
G0 X63.91400 Y-4.30800
G1 Z-2.50000
G1 Z2.00000
G0 X34.85400 Y-4.83700
G1 Z-2.50000
G1 Z2.00000
G0 X31.85800 Y-18.20400
G1 Z-2.50000
G1 Z2.00000

G53 G00 Z0.00000 (Retract)
T2
M5      (Spindle stop.)
G04 P1.00000
(MSG, Change tool bit to drill size 0.8mm)
M0      (Temporary machine stop.)
M3      (Spindle on clockwise.)
G0 Z2.00000
G04 P1.00000

G1 F30.00000
G0 X13.26000 Y-7.38000
G1 Z-2.50000
G1 Z2.00000
G0 X15.80000 Y-7.38000
G1 Z-2.50000
G1 Z2.00000
G0 X18.34000 Y-7.38000
G1 Z-2.50000
G1 Z2.00000
G0 X20.88000 Y-7.38000
G1 Z-2.50000
G1 Z2.00000
G0 X23.42000 Y-7.38000
G1 Z-2.50000
G1 Z2.00000
G0 X25.96000 Y-7.38000
G1 Z-2.50000
G1 Z2.00000
G0 X28.50000 Y-7.38000
G1 Z-2.50000
G1 Z2.00000
G0 X31.04000 Y-7.38000
G1 Z-2.50000
G1 Z2.00000
G0 X23.42000 Y-15.00000
G1 Z-2.50000
G1 Z2.00000
G0 X25.96000 Y-15.00000
G1 Z-2.50000
G1 Z2.00000
G0 X28.50000 Y-15.00000
G1 Z-2.50000
G1 Z2.00000
G0 X31.04000 Y-15.00000
G1 Z-2.50000
G1 Z2.00000
G0 X23.38000 Y-22.88000
G1 Z-2.50000
G1 Z2.00000
G0 X20.84000 Y-22.88000
G1 Z-2.50000
G1 Z2.00000
G0 X18.30000 Y-22.88000
G1 Z-2.50000
G1 Z2.00000
G0 X15.76000 Y-22.88000
G1 Z-2.50000
G1 Z2.00000
G0 X13.22000 Y-22.88000
G1 Z-2.50000
G1 Z2.00000
G0 X13.22000 Y-30.50000
G1 Z-2.50000
G1 Z2.00000
G0 X15.76000 Y-30.50000
G1 Z-2.50000
G1 Z2.00000
G0 X18.30000 Y-30.50000
G1 Z-2.50000
G1 Z2.00000
G0 X20.84000 Y-30.50000
G1 Z-2.50000
G1 Z2.00000
G0 X23.38000 Y-30.50000
G1 Z-2.50000
G1 Z2.00000
G0 X25.92000 Y-30.50000
G1 Z-2.50000
G1 Z2.00000
G0 X28.46000 Y-30.50000
G1 Z-2.50000
G1 Z2.00000
G0 X31.00000 Y-30.50000
G1 Z-2.50000
G1 Z2.00000
G0 X25.92000 Y-22.88000
G1 Z-2.50000
G1 Z2.00000
G0 X28.46000 Y-22.88000
G1 Z-2.50000
G1 Z2.00000
G0 X31.00000 Y-22.88000
G1 Z-2.50000
G1 Z2.00000
G0 X39.00000 Y-16.62000
G1 Z-2.50000
G1 Z2.00000
G0 X39.00000 Y-19.16000
G1 Z-2.50000
G1 Z2.00000
G0 X39.00000 Y-21.70000
G1 Z-2.50000
G1 Z2.00000
G0 X39.00000 Y-24.24000
G1 Z-2.50000
G1 Z2.00000
G0 X39.00000 Y-26.78000
G1 Z-2.50000
G1 Z2.00000
G0 X39.00000 Y-29.32000
G1 Z-2.50000
G1 Z2.00000
G0 X26.99500 Y-42.18000
G1 Z-2.50000
G1 Z2.00000
G0 X24.45500 Y-42.18000
G1 Z-2.50000
G1 Z2.00000
G0 X21.91500 Y-42.18000
G1 Z-2.50000
G1 Z2.00000
G0 X19.37500 Y-42.18000
G1 Z-2.50000
G1 Z2.00000
G0 X14.16000 Y-41.00000
G1 Z-2.50000
G1 Z2.00000
G0 X19.37500 Y-49.80000
G1 Z-2.50000
G1 Z2.00000
G0 X21.91500 Y-49.80000
G1 Z-2.50000
G1 Z2.00000
G0 X24.45500 Y-49.80000
G1 Z-2.50000
G1 Z2.00000
G0 X26.99500 Y-49.80000
G1 Z-2.50000
G1 Z2.00000
G0 X29.53500 Y-49.80000
G1 Z-2.50000
G1 Z2.00000
G0 X32.07500 Y-49.80000
G1 Z-2.50000
G1 Z2.00000
G0 X34.61500 Y-49.80000
G1 Z-2.50000
G1 Z2.00000
G0 X29.53500 Y-42.18000
G1 Z-2.50000
G1 Z2.00000
G0 X32.07500 Y-42.18000
G1 Z-2.50000
G1 Z2.00000
G0 X34.61500 Y-42.18000
G1 Z-2.50000
G1 Z2.00000
G0 X52.00000 Y-31.62000
G1 Z-2.50000
G1 Z2.00000
G0 X54.54000 Y-31.62000
G1 Z-2.50000
G1 Z2.00000
G0 X57.08000 Y-31.62000
G1 Z-2.50000
G1 Z2.00000
G0 X59.62000 Y-31.62000
G1 Z-2.50000
G1 Z2.00000
G0 X62.16000 Y-31.62000
G1 Z-2.50000
G1 Z2.00000
G0 X64.70000 Y-31.62000
G1 Z-2.50000
G1 Z2.00000
G0 X67.24000 Y-31.62000
G1 Z-2.50000
G1 Z2.00000
G0 X69.78000 Y-31.62000
G1 Z-2.50000
G1 Z2.00000
G0 X72.32000 Y-31.62000
G1 Z-2.50000
G1 Z2.00000
G0 X74.86000 Y-31.62000
G1 Z-2.50000
G1 Z2.00000
G0 X69.78000 Y-24.00000
G1 Z-2.50000
G1 Z2.00000
G0 X72.32000 Y-24.00000
G1 Z-2.50000
G1 Z2.00000
G0 X74.86000 Y-24.00000
G1 Z-2.50000
G1 Z2.00000
G0 X67.24000 Y-24.00000
G1 Z-2.50000
G1 Z2.00000
G0 X64.70000 Y-24.00000
G1 Z-2.50000
G1 Z2.00000
G0 X62.16000 Y-24.00000
G1 Z-2.50000
G1 Z2.00000
G0 X59.62000 Y-24.00000
G1 Z-2.50000
G1 Z2.00000
G0 X57.08000 Y-24.00000
G1 Z-2.50000
G1 Z2.00000
G0 X54.54000 Y-24.00000
G1 Z-2.50000
G1 Z2.00000
G0 X52.00000 Y-24.00000
G1 Z-2.50000
G1 Z2.00000
G0 X52.22000 Y-15.63500
G1 Z-2.50000
G1 Z2.00000
G0 X54.76000 Y-15.63500
G1 Z-2.50000
G1 Z2.00000
G0 X57.30000 Y-15.63500
G1 Z-2.50000
G1 Z2.00000
G0 X59.84000 Y-15.63500
G1 Z-2.50000
G1 Z2.00000
G0 X62.38000 Y-15.63500
G1 Z-2.50000
G1 Z2.00000
G0 X64.92000 Y-15.63500
G1 Z-2.50000
G1 Z2.00000
G0 X67.46000 Y-15.63500
G1 Z-2.50000
G1 Z2.00000
G0 X70.00000 Y-15.63500
G1 Z-2.50000
G1 Z2.00000
G0 X62.38000 Y-8.01500
G1 Z-2.50000
G1 Z2.00000
G0 X59.84000 Y-8.01500
G1 Z-2.50000
G1 Z2.00000
G0 X57.30000 Y-8.01500
G1 Z-2.50000
G1 Z2.00000
G0 X54.76000 Y-8.01500
G1 Z-2.50000
G1 Z2.00000
G0 X52.22000 Y-8.01500
G1 Z-2.50000
G1 Z2.00000
G0 X64.92000 Y-8.01500
G1 Z-2.50000
G1 Z2.00000
G0 X67.46000 Y-8.01500
G1 Z-2.50000
G1 Z2.00000
G0 X70.00000 Y-8.01500
G1 Z-2.50000
G1 Z2.00000
G0 X84.00000 Y-9.00000
G1 Z-2.50000
G1 Z2.00000
G0 X84.00000 Y-11.54000
G1 Z-2.50000
G1 Z2.00000
G0 X84.00000 Y-14.08000
G1 Z-2.50000
G1 Z2.00000
G0 X84.00000 Y-16.62000
G1 Z-2.50000
G1 Z2.00000
G0 X84.00000 Y-19.16000
G1 Z-2.50000
G1 Z2.00000
G0 X84.00000 Y-21.70000
G1 Z-2.50000
G1 Z2.00000
G0 X84.00000 Y-24.24000
G1 Z-2.50000
G1 Z2.00000
G0 X84.00000 Y-26.78000
G1 Z-2.50000
G1 Z2.00000
G0 X84.00000 Y-29.32000
G1 Z-2.50000
G1 Z2.00000
G0 X96.22000 Y-22.38000
G1 Z-2.50000
G1 Z2.00000
G0 X98.76000 Y-22.38000
G1 Z-2.50000
G1 Z2.00000
G0 X101.30000 Y-22.38000
G1 Z-2.50000
G1 Z2.00000
G0 X103.84000 Y-22.38000
G1 Z-2.50000
G1 Z2.00000
G0 X106.38000 Y-22.38000
G1 Z-2.50000
G1 Z2.00000
G0 X108.92000 Y-22.38000
G1 Z-2.50000
G1 Z2.00000
G0 X111.46000 Y-22.38000
G1 Z-2.50000
G1 Z2.00000
G0 X114.00000 Y-22.38000
G1 Z-2.50000
G1 Z2.00000
G0 X108.92000 Y-15.00000
G1 Z-2.50000
G1 Z2.00000
G0 X111.46000 Y-15.00000
G1 Z-2.50000
G1 Z2.00000
G0 X114.00000 Y-15.00000
G1 Z-2.50000
G1 Z2.00000
G0 X106.38000 Y-15.00000
G1 Z-2.50000
G1 Z2.00000
G0 X103.84000 Y-15.00000
G1 Z-2.50000
G1 Z2.00000
G0 X101.30000 Y-15.00000
G1 Z-2.50000
G1 Z2.00000
G0 X98.76000 Y-15.00000
G1 Z-2.50000
G1 Z2.00000
G0 X96.22000 Y-15.00000
G1 Z-2.50000
G1 Z2.00000
G0 X96.22000 Y-7.38000
G1 Z-2.50000
G1 Z2.00000
G0 X98.76000 Y-7.38000
G1 Z-2.50000
G1 Z2.00000
G0 X101.30000 Y-7.38000
G1 Z-2.50000
G1 Z2.00000
G0 X103.84000 Y-7.38000
G1 Z-2.50000
G1 Z2.00000
G0 X106.38000 Y-7.38000
G1 Z-2.50000
G1 Z2.00000
G0 X108.92000 Y-7.38000
G1 Z-2.50000
G1 Z2.00000
G0 X111.46000 Y-7.38000
G1 Z-2.50000
G1 Z2.00000
G0 X114.00000 Y-7.38000
G1 Z-2.50000
G1 Z2.00000
G0 X126.22000 Y-7.00000
G1 Z-2.50000
G1 Z2.00000
G0 X128.76000 Y-7.00000
G1 Z-2.50000
G1 Z2.00000
G0 X131.30000 Y-7.00000
G1 Z-2.50000
G1 Z2.00000
G0 X133.84000 Y-7.00000
G1 Z-2.50000
G1 Z2.00000
G0 X136.38000 Y-7.00000
G1 Z-2.50000
G1 Z2.00000
G0 X138.92000 Y-7.00000
G1 Z-2.50000
G1 Z2.00000
G0 X141.46000 Y-7.00000
G1 Z-2.50000
G1 Z2.00000
G0 X144.00000 Y-7.00000
G1 Z-2.50000
G1 Z2.00000
G0 X138.92000 Y-14.62000
G1 Z-2.50000
G1 Z2.00000
G0 X136.38000 Y-14.62000
G1 Z-2.50000
G1 Z2.00000
G0 X133.84000 Y-14.62000
G1 Z-2.50000
G1 Z2.00000
G0 X131.30000 Y-14.62000
G1 Z-2.50000
G1 Z2.00000
G0 X128.76000 Y-14.62000
G1 Z-2.50000
G1 Z2.00000
G0 X126.22000 Y-14.62000
G1 Z-2.50000
G1 Z2.00000
G0 X126.22000 Y-22.38000
G1 Z-2.50000
G1 Z2.00000
G0 X128.76000 Y-22.38000
G1 Z-2.50000
G1 Z2.00000
G0 X131.30000 Y-22.38000
G1 Z-2.50000
G1 Z2.00000
G0 X133.84000 Y-22.38000
G1 Z-2.50000
G1 Z2.00000
G0 X136.38000 Y-22.38000
G1 Z-2.50000
G1 Z2.00000
G0 X138.92000 Y-22.38000
G1 Z-2.50000
G1 Z2.00000
G0 X141.46000 Y-22.38000
G1 Z-2.50000
G1 Z2.00000
G0 X144.00000 Y-22.38000
G1 Z-2.50000
G1 Z2.00000
G0 X138.92000 Y-30.00000
G1 Z-2.50000
G1 Z2.00000
G0 X136.38000 Y-30.00000
G1 Z-2.50000
G1 Z2.00000
G0 X133.84000 Y-30.00000
G1 Z-2.50000
G1 Z2.00000
G0 X131.30000 Y-30.00000
G1 Z-2.50000
G1 Z2.00000
G0 X128.76000 Y-30.00000
G1 Z-2.50000
G1 Z2.00000
G0 X126.22000 Y-30.00000
G1 Z-2.50000
G1 Z2.00000
G0 X122.68000 Y-42.00000
G1 Z-2.50000
G1 Z2.00000
G0 X125.22000 Y-42.00000
G1 Z-2.50000
G1 Z2.00000
G0 X127.76000 Y-42.00000
G1 Z-2.50000
G1 Z2.00000
G0 X130.30000 Y-42.00000
G1 Z-2.50000
G1 Z2.00000
G0 X132.84000 Y-42.00000
G1 Z-2.50000
G1 Z2.00000
G0 X135.38000 Y-42.00000
G1 Z-2.50000
G1 Z2.00000
G0 X137.92000 Y-42.00000
G1 Z-2.50000
G1 Z2.00000
G0 X140.46000 Y-42.00000
G1 Z-2.50000
G1 Z2.00000
G0 X143.00000 Y-42.00000
G1 Z-2.50000
G1 Z2.00000
G0 X141.46000 Y-30.00000
G1 Z-2.50000
G1 Z2.00000
G0 X144.00000 Y-30.00000
G1 Z-2.50000
G1 Z2.00000
G0 X141.46000 Y-14.62000
G1 Z-2.50000
G1 Z2.00000
G0 X144.00000 Y-14.62000
G1 Z-2.50000
G1 Z2.00000
G0 X114.00000 Y-30.00000
G1 Z-2.50000
G1 Z2.00000
G0 X111.46000 Y-30.00000
G1 Z-2.50000
G1 Z2.00000
G0 X108.92000 Y-30.00000
G1 Z-2.50000
G1 Z2.00000
G0 X106.38000 Y-30.00000
G1 Z-2.50000
G1 Z2.00000
G0 X103.84000 Y-30.00000
G1 Z-2.50000
G1 Z2.00000
G0 X101.30000 Y-30.00000
G1 Z-2.50000
G1 Z2.00000
G0 X98.76000 Y-30.00000
G1 Z-2.50000
G1 Z2.00000
G0 X96.22000 Y-30.00000
G1 Z-2.50000
G1 Z2.00000
G0 X70.00000 Y-41.01500
G1 Z-2.50000
G1 Z2.00000
G0 X67.46000 Y-41.01500
G1 Z-2.50000
G1 Z2.00000
G0 X64.92000 Y-41.01500
G1 Z-2.50000
G1 Z2.00000
G0 X62.38000 Y-41.01500
G1 Z-2.50000
G1 Z2.00000
G0 X59.84000 Y-41.01500
G1 Z-2.50000
G1 Z2.00000
G0 X57.30000 Y-41.01500
G1 Z-2.50000
G1 Z2.00000
G0 X54.76000 Y-41.01500
G1 Z-2.50000
G1 Z2.00000
G0 X52.22000 Y-41.01500
G1 Z-2.50000
G1 Z2.00000
G0 X52.22000 Y-48.63500
G1 Z-2.50000
G1 Z2.00000
G0 X54.76000 Y-48.63500
G1 Z-2.50000
G1 Z2.00000
G0 X57.30000 Y-48.63500
G1 Z-2.50000
G1 Z2.00000
G0 X59.84000 Y-48.63500
G1 Z-2.50000
G1 Z2.00000
G0 X62.38000 Y-48.63500
G1 Z-2.50000
G1 Z2.00000
G0 X64.92000 Y-48.63500
G1 Z-2.50000
G1 Z2.00000
G0 X67.46000 Y-48.63500
G1 Z-2.50000
G1 Z2.00000
G0 X70.00000 Y-48.63500
G1 Z-2.50000
G1 Z2.00000
G0 X39.00000 Y-14.08000
G1 Z-2.50000
G1 Z2.00000
G0 X39.00000 Y-11.54000
G1 Z-2.50000
G1 Z2.00000
G0 X39.00000 Y-9.00000
G1 Z-2.50000
G1 Z2.00000
G0 X20.88000 Y-15.00000
G1 Z-2.50000
G1 Z2.00000
G0 X18.34000 Y-15.00000
G1 Z-2.50000
G1 Z2.00000
G0 X15.80000 Y-15.00000
G1 Z-2.50000
G1 Z2.00000
G0 X13.26000 Y-15.00000
G1 Z-2.50000
G1 Z2.00000
G0 X4.00000 Y-41.00000
G1 Z-2.50000
G1 Z2.00000

G53 G00 Z0.00000 (Retract)
T3
M5      (Spindle stop.)
G04 P1.00000
(MSG, Change tool bit to drill size 1mm)
M0      (Temporary machine stop.)
M3      (Spindle on clockwise.)
G0 Z2.00000
G04 P1.00000

G1 F30.00000
G0 X4.00000 Y-12.00000
G1 Z-2.50000
G1 Z2.00000
G0 X4.00000 Y-14.54000
G1 Z-2.50000
G1 Z2.00000
G0 X4.00000 Y-17.08000
G1 Z-2.50000
G1 Z2.00000
G0 X4.00000 Y-19.62000
G1 Z-2.50000
G1 Z2.00000
G0 X4.00000 Y-22.16000
G1 Z-2.50000
G1 Z2.00000
G0 X4.00000 Y-24.70000
G1 Z-2.50000
G1 Z2.00000
G0 X4.00000 Y-27.24000
G1 Z-2.50000
G1 Z2.00000
G0 X4.00000 Y-29.78000
G1 Z-2.50000
G1 Z2.00000
G0 X4.00000 Y-50.00000
G1 Z-2.50000
G1 Z2.00000
G0 X6.54000 Y-50.00000
G1 Z-2.50000
G1 Z2.00000
G0 X9.08000 Y-50.00000
G1 Z-2.50000
G1 Z2.00000
G0 X11.62000 Y-50.00000
G1 Z-2.50000
G1 Z2.00000
G0 X43.00000 Y-19.62000
G1 Z-2.50000
G1 Z2.00000
G0 X43.00000 Y-22.16000
G1 Z-2.50000
G1 Z2.00000
G0 X43.00000 Y-24.70000
G1 Z-2.50000
G1 Z2.00000
G0 X43.00000 Y-27.24000
G1 Z-2.50000
G1 Z2.00000
G0 X43.00000 Y-29.78000
G1 Z-2.50000
G1 Z2.00000
G0 X43.00000 Y-17.08000
G1 Z-2.50000
G1 Z2.00000
G0 X43.00000 Y-14.54000
G1 Z-2.50000
G1 Z2.00000
G0 X43.00000 Y-12.00000
G1 Z-2.50000
G1 Z2.00000
G0 X43.00000 Y-8.00000
G1 Z-2.50000
G1 Z2.00000
G0 X48.08000 Y-8.00000
G1 Z-2.50000
G1 Z2.00000
G0 X88.00000 Y-8.00000
G1 Z-2.50000
G1 Z2.00000
G0 X88.00000 Y-12.00000
G1 Z-2.50000
G1 Z2.00000
G0 X88.00000 Y-14.54000
G1 Z-2.50000
G1 Z2.00000
G0 X88.00000 Y-17.08000
G1 Z-2.50000
G1 Z2.00000
G0 X88.00000 Y-19.62000
G1 Z-2.50000
G1 Z2.00000
G0 X88.00000 Y-22.16000
G1 Z-2.50000
G1 Z2.00000
G0 X88.00000 Y-24.70000
G1 Z-2.50000
G1 Z2.00000
G0 X88.00000 Y-27.24000
G1 Z-2.50000
G1 Z2.00000
G0 X88.00000 Y-29.78000
G1 Z-2.50000
G1 Z2.00000
G0 X97.00000 Y-40.00000
G1 Z-2.50000
G1 Z2.00000
G0 X101.00000 Y-40.00000
G1 Z-2.50000
G1 Z2.00000
G0 X105.00000 Y-39.92000
G1 Z-2.50000
G1 Z2.00000
G0 X109.00000 Y-39.92000
G1 Z-2.50000
G1 Z2.00000
G0 X105.00000 Y-45.00000
G1 Z-2.50000
G1 Z2.00000
G0 X109.00000 Y-45.00000
G1 Z-2.50000
G1 Z2.00000
G0 X105.78000 Y-50.00000
G1 Z-2.50000
G1 Z2.00000
G0 X108.32000 Y-50.00000
G1 Z-2.50000
G1 Z2.00000
G0 X110.86000 Y-50.00000
G1 Z-2.50000
G1 Z2.00000
G0 X103.24000 Y-50.00000
G1 Z-2.50000
G1 Z2.00000
G0 X100.70000 Y-50.00000
G1 Z-2.50000
G1 Z2.00000
G0 X98.16000 Y-50.00000
G1 Z-2.50000
G1 Z2.00000
G0 X95.62000 Y-50.00000
G1 Z-2.50000
G1 Z2.00000
G0 X93.08000 Y-50.00000
G1 Z-2.50000
G1 Z2.00000
G0 X90.54000 Y-50.00000
G1 Z-2.50000
G1 Z2.00000
G0 X88.00000 Y-50.00000
G1 Z-2.50000
G1 Z2.00000
G0 X97.00000 Y-45.08000
G1 Z-2.50000
G1 Z2.00000
G0 X101.00000 Y-45.08000
G1 Z-2.50000
G1 Z2.00000
G0 X120.00000 Y-27.24000
G1 Z-2.50000
G1 Z2.00000
G0 X120.00000 Y-24.70000
G1 Z-2.50000
G1 Z2.00000
G0 X120.00000 Y-22.16000
G1 Z-2.50000
G1 Z2.00000
G0 X120.00000 Y-19.62000
G1 Z-2.50000
G1 Z2.00000
G0 X120.00000 Y-17.08000
G1 Z-2.50000
G1 Z2.00000
G0 X120.00000 Y-14.54000
G1 Z-2.50000
G1 Z2.00000
G0 X120.00000 Y-12.00000
G1 Z-2.50000
G1 Z2.00000
G0 X120.00000 Y-29.78000
G1 Z-2.50000
G1 Z2.00000
G0 X120.00000 Y-50.00000
G1 Z-2.50000
G1 Z2.00000
G0 X122.54000 Y-50.00000
G1 Z-2.50000
G1 Z2.00000
G0 X125.08000 Y-50.00000
G1 Z-2.50000
G1 Z2.00000
G0 X127.62000 Y-50.00000
G1 Z-2.50000
G1 Z2.00000
G0 X143.46000 Y-47.00000
G1 Z-2.50000
G1 Z2.00000
G0 X148.54000 Y-47.00000
G1 Z-2.50000
G1 Z2.00000
G0 X150.00000 Y-29.78000
G1 Z-2.50000
G1 Z2.00000
G0 X150.00000 Y-27.24000
G1 Z-2.50000
G1 Z2.00000
G0 X150.00000 Y-24.70000
G1 Z-2.50000
G1 Z2.00000
G0 X150.00000 Y-22.16000
G1 Z-2.50000
G1 Z2.00000
G0 X150.00000 Y-19.62000
G1 Z-2.50000
G1 Z2.00000
G0 X150.00000 Y-17.08000
G1 Z-2.50000
G1 Z2.00000
G0 X150.00000 Y-14.54000
G1 Z-2.50000
G1 Z2.00000
G0 X150.00000 Y-12.00000
G1 Z-2.50000
G1 Z2.00000
G0 X93.08000 Y-8.00000
G1 Z-2.50000
G1 Z2.00000

G53 G00 Z0.000 ( All done -- retract )

M5      (Spindle off.)
G04 P1.000000
M9      (Coolant off.)
M2      (Program end.)

