( pcb2gcode 2.5.0 )
( Software-independent Gcode )

G94 ( Millimeters per minute feed rate. )
G21 ( Units == Millimeters. )

G90 ( Absolute coordinates. )
G00 S600 ( RPM spindle speed. )
G01 F40.00000 ( Feedrate. )


G53 G00 Z0.00000 (Retract to tool change height)
T1
M5      (Spindle stop.)
G04 P1.00000 (Wait for spindle to stop)
(MSG, Change tool bit to mill diameter 0.50000mm)
M0      (Temporary machine stop.)
M3 ( Spindle on clockwise. )
G04 P1.00000 (Wait for spindle to get up to speed)
G04 P0 ( dwell for no time -- G64 should not smooth over this point )
G00 Z2.00000 ( retract )

G00 X-12.16144 Y-7.40938 ( rapid move to begin. )
G01 F30.00000
( Mill infeed pass 1/1 )
G01 Z-0.07500
G04 P0 ( dwell for no time -- G64 should not smooth over this point )
G01 F40.00000
G01 X-12.16144 Y-7.40938
G01 X-12.18113 Y-7.59457
G01 X-12.24371 Y-7.80095
G01 X-12.34537 Y-7.99112
G01 X-12.46241 Y-8.13600
G01 X-12.50399 Y-8.17758
G01 X-12.64887 Y-8.29460
G01 X-12.81242 Y-8.38368
G01 X-12.86675 Y-8.40618
G01 X-13.01684 Y-8.45170
G01 X-13.07450 Y-8.46318
G01 X-13.25999 Y-8.47999
G01 X-13.44546 Y-8.46318
G01 X-13.50315 Y-8.45170
G01 X-13.65321 Y-8.40618
G01 X-13.70754 Y-8.38368
G01 X-13.87112 Y-8.29460
G01 X-14.03779 Y-8.15779
G01 X-14.15707 Y-8.01477
G01 X-14.18974 Y-7.96587
G01 X-14.27625 Y-7.80095
G01 X-14.33170 Y-7.62315
G01 X-14.34318 Y-7.56547
G01 X-14.35999 Y-7.38000
G01 X-14.34318 Y-7.19450
G01 X-14.33170 Y-7.13684
G01 X-14.27625 Y-6.95904
G01 X-14.18974 Y-6.79412
G01 X-14.15707 Y-6.74522
G01 X-14.03779 Y-6.60217
G01 X-13.87112 Y-6.46537
G01 X-13.70754 Y-6.37629
G01 X-13.65321 Y-6.35378
G01 X-13.50315 Y-6.30827
G01 X-13.44546 Y-6.29681
G01 X-13.25999 Y-6.28000
G01 X-13.07450 Y-6.29681
G01 X-13.01684 Y-6.30827
G01 X-12.86675 Y-6.35378
G01 X-12.81242 Y-6.37629
G01 X-12.64887 Y-6.46537
G01 X-12.50399 Y-6.58241
G01 X-12.46241 Y-6.62399
G01 X-12.34537 Y-6.76887
G01 X-12.24371 Y-6.95904
G01 X-12.18113 Y-7.16539
G01 X-12.16144 Y-7.35058
G01 X-12.16144 Y-7.40938
G04 P0 ( dwell for no time -- G64 should not smooth over this point )
G00 Z2.00000 ( retract )

G00 X-14.70000 Y-7.38000 ( rapid move to begin. )
G01 F30.00000
( Mill infeed pass 1/1 )
G01 Z-0.07500
G04 P0 ( dwell for no time -- G64 should not smooth over this point )
G01 F40.00000
G01 X-14.70000 Y-7.38000
G01 X-14.71681 Y-7.56547
G01 X-14.72827 Y-7.62315
G01 X-14.78371 Y-7.80095
G01 X-14.87023 Y-7.96587
G01 X-14.90292 Y-8.01477
G01 X-15.02217 Y-8.15779
G01 X-15.18887 Y-8.29460
G01 X-15.35242 Y-8.38368
G01 X-15.40675 Y-8.40618
G01 X-15.55684 Y-8.45170
G01 X-15.61450 Y-8.46318
G01 X-15.79999 Y-8.47999
G01 X-15.98546 Y-8.46318
G01 X-16.04315 Y-8.45170
G01 X-16.19321 Y-8.40618
G01 X-16.24754 Y-8.38368
G01 X-16.41112 Y-8.29460
G01 X-16.57779 Y-8.15779
G01 X-16.69707 Y-8.01477
G01 X-16.72974 Y-7.96587
G01 X-16.81625 Y-7.80095
G01 X-16.87170 Y-7.62315
G01 X-16.88318 Y-7.56547
G01 X-16.89999 Y-7.38000
G01 X-16.88318 Y-7.19450
G01 X-16.87170 Y-7.13684
G01 X-16.81625 Y-6.95904
G01 X-16.72974 Y-6.79412
G01 X-16.69707 Y-6.74522
G01 X-16.57779 Y-6.60217
G01 X-16.41112 Y-6.46537
G01 X-16.24754 Y-6.37629
G01 X-16.19321 Y-6.35378
G01 X-16.04315 Y-6.30827
G01 X-15.98546 Y-6.29681
G01 X-15.79999 Y-6.28000
G01 X-15.61450 Y-6.29681
G01 X-15.55684 Y-6.30827
G01 X-15.40675 Y-6.35378
G01 X-15.35242 Y-6.37629
G01 X-15.18887 Y-6.46537
G01 X-15.04399 Y-6.58241
G01 X-15.00241 Y-6.62399
G01 X-14.88537 Y-6.76887
G01 X-14.79631 Y-6.93242
G01 X-14.77381 Y-6.98675
G01 X-14.72827 Y-7.13684
G01 X-14.71681 Y-7.19450
G01 X-14.70000 Y-7.38000
G04 P0 ( dwell for no time -- G64 should not smooth over this point )
G00 Z2.00000 ( retract )

G00 X-19.78000 Y-7.38000 ( rapid move to begin. )
G01 F30.00000
( Mill infeed pass 1/1 )
G01 Z-0.07500
G04 P0 ( dwell for no time -- G64 should not smooth over this point )
G01 F40.00000
G01 X-19.78000 Y-7.38000
G01 X-19.79681 Y-7.56547
G01 X-19.80827 Y-7.62315
G01 X-19.86371 Y-7.80095
G01 X-19.95023 Y-7.96587
G01 X-19.98292 Y-8.01477
G01 X-20.10217 Y-8.15779
G01 X-20.26887 Y-8.29460
G01 X-20.43242 Y-8.38368
G01 X-20.48675 Y-8.40618
G01 X-20.63684 Y-8.45170
G01 X-20.69450 Y-8.46318
G01 X-20.87999 Y-8.47999
G01 X-21.06546 Y-8.46318
G01 X-21.12315 Y-8.45170
G01 X-21.27321 Y-8.40618
G01 X-21.32754 Y-8.38368
G01 X-21.49112 Y-8.29460
G01 X-21.65779 Y-8.15779
G01 X-21.77707 Y-8.01477
G01 X-21.80974 Y-7.96587
G01 X-21.89625 Y-7.80095
G01 X-21.95170 Y-7.62315
G01 X-21.96318 Y-7.56547
G01 X-21.97999 Y-7.38000
G01 X-21.96318 Y-7.19450
G01 X-21.95170 Y-7.13684
G01 X-21.89625 Y-6.95904
G01 X-21.80974 Y-6.79412
G01 X-21.77707 Y-6.74522
G01 X-21.65779 Y-6.60217
G01 X-21.49112 Y-6.46537
G01 X-21.32754 Y-6.37629
G01 X-21.27321 Y-6.35378
G01 X-21.12315 Y-6.30827
G01 X-21.06546 Y-6.29681
G01 X-20.87999 Y-6.28000
G01 X-20.69450 Y-6.29681
G01 X-20.63684 Y-6.30827
G01 X-20.48675 Y-6.35378
G01 X-20.43242 Y-6.37629
G01 X-20.26887 Y-6.46537
G01 X-20.12399 Y-6.58241
G01 X-20.08241 Y-6.62399
G01 X-19.96537 Y-6.76887
G01 X-19.87631 Y-6.93242
G01 X-19.85381 Y-6.98675
G01 X-19.80827 Y-7.13684
G01 X-19.79681 Y-7.19450
G01 X-19.78000 Y-7.38000
G04 P0 ( dwell for no time -- G64 should not smooth over this point )
G00 Z2.00000 ( retract )

G00 X-24.86000 Y-7.38000 ( rapid move to begin. )
G01 F30.00000
( Mill infeed pass 1/1 )
G01 Z-0.07500
G04 P0 ( dwell for no time -- G64 should not smooth over this point )
G01 F40.00000
G01 X-24.86000 Y-7.38000
G01 X-24.87681 Y-7.56547
G01 X-24.88827 Y-7.62315
G01 X-24.94371 Y-7.80095
G01 X-25.03023 Y-7.96587
G01 X-25.06292 Y-8.01477
G01 X-25.18217 Y-8.15779
G01 X-25.34887 Y-8.29460
G01 X-25.51242 Y-8.38368
G01 X-25.56673 Y-8.40618
G01 X-25.74539 Y-8.45886
G01 X-25.93056 Y-8.47855
G01 X-25.98938 Y-8.47855
G01 X-26.17460 Y-8.45886
G01 X-26.35321 Y-8.40618
G01 X-26.40752 Y-8.38368
G01 X-26.57109 Y-8.29460
G01 X-26.73779 Y-8.15779
G01 X-26.85707 Y-8.01477
G01 X-26.88974 Y-7.96587
G01 X-26.97625 Y-7.80095
G01 X-27.03170 Y-7.62315
G01 X-27.04318 Y-7.56547
G01 X-27.05854 Y-7.40938
G01 X-27.05854 Y-7.35058
G01 X-27.04318 Y-7.19450
G01 X-27.03170 Y-7.13684
G01 X-26.97625 Y-6.95904
G01 X-26.88974 Y-6.79412
G01 X-26.85707 Y-6.74522
G01 X-26.73779 Y-6.60217
G01 X-26.57109 Y-6.46537
G01 X-26.40752 Y-6.37629
G01 X-26.35321 Y-6.35378
G01 X-26.17460 Y-6.30113
G01 X-25.98938 Y-6.28142
G01 X-25.93056 Y-6.28142
G01 X-25.74539 Y-6.30113
G01 X-25.53904 Y-6.36369
G01 X-25.37412 Y-6.45023
G01 X-25.32522 Y-6.48292
G01 X-25.20399 Y-6.58241
G01 X-25.16241 Y-6.62399
G01 X-25.04537 Y-6.76887
G01 X-24.95631 Y-6.93242
G01 X-24.93381 Y-6.98675
G01 X-24.88827 Y-7.13684
G01 X-24.87681 Y-7.19450
G01 X-24.86000 Y-7.38000
G04 P0 ( dwell for no time -- G64 should not smooth over this point )
G00 Z2.00000 ( retract )

G00 X-29.94144 Y-7.40938 ( rapid move to begin. )
G01 F30.00000
( Mill infeed pass 1/1 )
G01 Z-0.07500
G04 P0 ( dwell for no time -- G64 should not smooth over this point )
G01 F40.00000
G01 X-29.94144 Y-7.40938
G01 X-29.95681 Y-7.56547
G01 X-29.96827 Y-7.62315
G01 X-30.02371 Y-7.80095
G01 X-30.11023 Y-7.96587
G01 X-30.14292 Y-8.01477
G01 X-30.26217 Y-8.15779
G01 X-30.42887 Y-8.29460
G01 X-30.59242 Y-8.38368
G01 X-30.64675 Y-8.40618
G01 X-30.82539 Y-8.45886
G01 X-31.01058 Y-8.47855
G01 X-31.06938 Y-8.47855
G01 X-31.25460 Y-8.45886
G01 X-31.43321 Y-8.40618
G01 X-31.48754 Y-8.38368
G01 X-31.65112 Y-8.29460
G01 X-31.81779 Y-8.15779
G01 X-31.93707 Y-8.01477
G01 X-31.96974 Y-7.96587
G01 X-32.05625 Y-7.80095
G01 X-32.11170 Y-7.62315
G01 X-32.12318 Y-7.56547
G01 X-32.13854 Y-7.40938
G01 X-32.13854 Y-7.35058
G01 X-32.12318 Y-7.19450
G01 X-32.11170 Y-7.13684
G01 X-32.05625 Y-6.95904
G01 X-31.96974 Y-6.79412
G01 X-31.93707 Y-6.74522
G01 X-31.81779 Y-6.60217
G01 X-31.65112 Y-6.46537
G01 X-31.48754 Y-6.37629
G01 X-31.43321 Y-6.35378
G01 X-31.25460 Y-6.30113
G01 X-31.06938 Y-6.28142
G01 X-31.01058 Y-6.28142
G01 X-30.82539 Y-6.30113
G01 X-30.61904 Y-6.36369
G01 X-30.45412 Y-6.45023
G01 X-30.40522 Y-6.48292
G01 X-30.26217 Y-6.60217
G01 X-30.14292 Y-6.74522
G01 X-30.11023 Y-6.79412
G01 X-30.02371 Y-6.95904
G01 X-29.96827 Y-7.13684
G01 X-29.95681 Y-7.19450
G01 X-29.94144 Y-7.35058
G01 X-29.94144 Y-7.40938
G04 P0 ( dwell for no time -- G64 should not smooth over this point )
G00 Z2.00000 ( retract )

G00 X-34.05533 Y-4.86590 ( rapid move to begin. )
G01 F30.00000
( Mill infeed pass 1/1 )
G01 Z-0.07500
G04 P0 ( dwell for no time -- G64 should not smooth over this point )
G01 F40.00000
G01 X-34.05533 Y-4.86590
G01 X-34.06925 Y-4.99255
G01 X-34.10486 Y-5.11492
G01 X-34.12736 Y-5.16926
G01 X-34.17357 Y-5.25569
G01 X-34.20626 Y-5.30459
G01 X-34.28820 Y-5.40217
G01 X-34.40943 Y-5.50167
G01 X-34.52111 Y-5.56301
G01 X-34.57547 Y-5.58551
G01 X-34.69782 Y-5.62112
G01 X-34.82449 Y-5.63504
G01 X-34.88329 Y-5.63504
G01 X-35.00996 Y-5.62112
G01 X-35.13231 Y-5.58551
G01 X-35.18665 Y-5.56301
G01 X-35.27308 Y-5.51680
G01 X-35.32200 Y-5.48411
G01 X-35.39777 Y-5.42193
G01 X-35.43935 Y-5.38035
G01 X-35.50153 Y-5.30459
G01 X-35.53419 Y-5.25569
G01 X-35.59299 Y-5.14264
G01 X-35.63851 Y-4.99255
G01 X-35.65243 Y-4.86590
G01 X-35.65243 Y-4.80708
G01 X-35.64687 Y-4.75056
G01 X-36.88979 Y-3.50769
G01 X-64.24544 Y-3.50769
G01 X-66.95996 Y-6.22219
G01 X-66.95996 Y-7.03933
G01 X-66.87411 Y-7.08523
G01 X-66.82522 Y-7.11792
G01 X-66.70398 Y-7.21741
G01 X-66.66240 Y-7.25899
G01 X-66.54536 Y-7.40387
G01 X-66.45631 Y-7.56742
G01 X-66.43380 Y-7.62175
G01 X-66.38828 Y-7.77184
G01 X-66.37680 Y-7.82950
G01 X-66.36144 Y-7.98558
G01 X-66.36144 Y-8.04438
G01 X-66.37680 Y-8.20047
G01 X-66.38828 Y-8.25815
G01 X-66.43380 Y-8.40821
G01 X-66.45631 Y-8.46254
G01 X-66.54536 Y-8.62612
G01 X-66.66240 Y-8.77100
G01 X-66.70398 Y-8.81258
G01 X-66.82522 Y-8.91207
G01 X-66.87411 Y-8.94474
G01 X-67.03903 Y-9.03125
G01 X-67.21683 Y-9.08670
G01 X-67.27452 Y-9.09818
G01 X-67.45999 Y-9.11499
G01 X-67.64546 Y-9.09818
G01 X-67.70314 Y-9.08670
G01 X-67.88094 Y-9.03125
G01 X-68.04586 Y-8.94474
G01 X-68.09476 Y-8.91207
G01 X-68.21599 Y-8.81258
G01 X-68.25757 Y-8.77100
G01 X-68.37462 Y-8.62612
G01 X-68.46367 Y-8.46254
G01 X-68.48617 Y-8.40821
G01 X-68.53169 Y-8.25815
G01 X-68.54317 Y-8.20047
G01 X-68.55854 Y-8.04438
G01 X-68.55854 Y-7.98558
G01 X-68.54317 Y-7.82950
G01 X-68.53169 Y-7.77184
G01 X-68.48617 Y-7.62175
G01 X-68.46367 Y-7.56742
G01 X-68.37462 Y-7.40387
G01 X-68.25757 Y-7.25899
G01 X-68.21599 Y-7.21741
G01 X-68.09476 Y-7.11792
G01 X-68.04586 Y-7.08523
G01 X-67.95996 Y-7.03933
G01 X-67.95999 Y-6.22216
G01 X-69.53407 Y-4.64810
G01 X-109.62107 Y-4.64810
G01 X-110.95995 Y-5.98698
G01 X-110.95995 Y-6.40433
G01 X-110.87412 Y-6.45023
G01 X-110.82520 Y-6.48292
G01 X-110.70400 Y-6.58241
G01 X-110.66239 Y-6.62399
G01 X-110.54537 Y-6.76887
G01 X-110.45632 Y-6.93242
G01 X-110.43379 Y-6.98675
G01 X-110.38114 Y-7.16539
G01 X-110.36143 Y-7.35058
G01 X-110.36143 Y-7.40938
G01 X-110.38114 Y-7.59457
G01 X-110.43996 Y-7.78812
G01 X-110.45632 Y-7.82754
G01 X-110.54537 Y-7.99112
G01 X-110.66239 Y-8.13600
G01 X-110.70400 Y-8.17758
G01 X-110.82520 Y-8.27707
G01 X-110.87412 Y-8.30974
G01 X-111.01243 Y-8.38368
G01 X-111.06676 Y-8.40618
G01 X-111.24540 Y-8.45886
G01 X-111.45998 Y-8.47999
G01 X-111.67458 Y-8.45886
G01 X-111.85322 Y-8.40618
G01 X-111.90755 Y-8.38368
G01 X-112.04585 Y-8.30974
G01 X-112.09477 Y-8.27707
G01 X-112.21598 Y-8.17758
G01 X-112.25759 Y-8.13600
G01 X-112.37460 Y-7.99112
G01 X-112.46366 Y-7.82754
G01 X-112.47999 Y-7.78817
G01 X-112.53884 Y-7.59457
G01 X-112.55855 Y-7.40938
G01 X-112.55855 Y-7.35058
G01 X-112.54318 Y-7.19450
G01 X-112.53170 Y-7.13684
G01 X-112.47625 Y-6.95904
G01 X-112.37460 Y-6.76887
G01 X-112.25759 Y-6.62399
G01 X-112.21598 Y-6.58241
G01 X-112.09477 Y-6.48292
G01 X-112.04585 Y-6.45023
G01 X-111.95995 Y-6.40433
G01 X-111.95997 Y-5.98698
G01 X-114.06678 Y-3.88018
G01 X-137.63307 Y-3.88018
G01 X-140.41653 Y-6.66364
G01 X-140.38113 Y-6.78538
G01 X-140.36144 Y-6.97057
G01 X-140.36144 Y-7.02940
G01 X-140.38113 Y-7.21459
G01 X-140.43381 Y-7.39323
G01 X-140.45631 Y-7.44756
G01 X-140.54536 Y-7.61111
G01 X-140.66241 Y-7.75599
G01 X-140.70399 Y-7.79757
G01 X-140.82522 Y-7.89706
G01 X-140.87411 Y-7.92973
G01 X-141.01242 Y-8.00367
G01 X-141.06675 Y-8.02617
G01 X-141.24539 Y-8.07885
G01 X-141.43058 Y-8.09854
G01 X-141.48940 Y-8.09854
G01 X-141.67460 Y-8.07885
G01 X-141.85321 Y-8.02617
G01 X-141.90756 Y-8.00367
G01 X-142.04587 Y-7.92973
G01 X-142.09476 Y-7.89706
G01 X-142.21600 Y-7.79757
G01 X-142.25758 Y-7.75599
G01 X-142.37459 Y-7.61111
G01 X-142.46367 Y-7.44756
G01 X-142.48618 Y-7.39323
G01 X-142.53886 Y-7.21459
G01 X-142.55854 Y-7.02940
G01 X-142.55854 Y-6.97057
G01 X-142.54317 Y-6.81452
G01 X-142.53169 Y-6.75683
G01 X-142.47625 Y-6.57903
G01 X-142.37459 Y-6.38884
G01 X-142.25758 Y-6.24398
G01 X-142.21600 Y-6.20240
G01 X-142.09476 Y-6.10291
G01 X-142.04587 Y-6.07024
G01 X-141.90756 Y-5.99630
G01 X-141.85321 Y-5.97380
G01 X-141.67460 Y-5.92112
G01 X-141.48940 Y-5.90144
G01 X-141.43058 Y-5.90144
G01 X-141.24539 Y-5.92112
G01 X-141.12367 Y-5.95653
G01 X-138.19373 Y-3.02661
G01 X-138.12441 Y-2.96893
G01 X-138.03818 Y-2.92265
G01 X-137.99469 Y-2.90464
G01 X-137.94890 Y-2.89364
G01 X-137.84014 Y-2.88016
G01 X-113.82837 Y-2.88262
G01 X-113.78143 Y-2.88633
G01 X-113.73569 Y-2.89730
G01 X-113.63269 Y-2.93467
G01 X-113.59253 Y-2.95925
G01 X-113.50612 Y-3.02661
G01 X-111.45995 Y-5.07276
G01 X-110.16442 Y-3.77855
G01 X-110.11240 Y-3.73685
G01 X-110.08192 Y-3.71899
G01 X-109.98269 Y-3.67256
G01 X-109.93689 Y-3.66156
G01 X-109.82818 Y-3.64807
G01 X-69.32699 Y-3.64807
G01 X-69.25856 Y-3.65338
G01 X-69.16336 Y-3.67622
G01 X-69.07444 Y-3.71721
G01 X-68.99524 Y-3.77477
G01 X-67.45996 Y-5.30796
G01 X-64.80612 Y-2.65412
G01 X-64.75400 Y-2.60947
G01 X-64.67051 Y-2.55831
G01 X-64.57866 Y-2.52443
G01 X-64.48196 Y-2.50911
G01 X-36.68268 Y-2.50767
G01 X-36.61425 Y-2.51297
G01 X-36.51905 Y-2.53581
G01 X-36.43013 Y-2.57680
G01 X-36.40488 Y-2.59194
G01 X-36.35093 Y-2.63436
G01 X-34.93976 Y-4.04350
G01 X-34.88329 Y-4.03794
G01 X-34.82449 Y-4.03794
G01 X-34.72693 Y-4.04754
G01 X-34.66925 Y-4.05902
G01 X-34.57547 Y-4.08747
G01 X-34.52111 Y-4.10997
G01 X-34.43468 Y-4.15618
G01 X-34.38578 Y-4.18884
G01 X-34.31002 Y-4.25102
G01 X-34.26844 Y-4.29263
G01 X-34.20626 Y-4.36839
G01 X-34.17357 Y-4.41729
G01 X-34.11479 Y-4.53034
G01 X-34.06925 Y-4.68041
G01 X-34.05533 Y-4.80708
G01 X-34.05533 Y-4.86590
G04 P0 ( dwell for no time -- G64 should not smooth over this point )
G00 Z2.00000 ( retract )

G00 X-37.89997 Y-9.79998 ( rapid move to begin. )
G01 F30.00000
( Mill infeed pass 1/1 )
G01 Z-0.07500
G04 P0 ( dwell for no time -- G64 should not smooth over this point )
G01 F40.00000
G01 X-37.89997 Y-9.79998
G01 X-37.90574 Y-9.85850
G01 X-37.92283 Y-9.91479
G01 X-37.95055 Y-9.96666
G01 X-37.98786 Y-10.01212
G01 X-38.03332 Y-10.04943
G01 X-38.08519 Y-10.07715
G01 X-38.14145 Y-10.09421
G01 X-38.20000 Y-10.09998
G01 X-39.80000 Y-10.09998
G01 X-39.85852 Y-10.09421
G01 X-39.91480 Y-10.07715
G01 X-39.96665 Y-10.04943
G01 X-40.01211 Y-10.01212
G01 X-40.04942 Y-9.96666
G01 X-40.07716 Y-9.91479
G01 X-40.09423 Y-9.85850
G01 X-40.10000 Y-9.79998
G01 X-40.10000 Y-8.19998
G01 X-40.09423 Y-8.14146
G01 X-40.07716 Y-8.08518
G01 X-40.04942 Y-8.03331
G01 X-40.01211 Y-7.98784
G01 X-39.96665 Y-7.95056
G01 X-39.91480 Y-7.92282
G01 X-39.85852 Y-7.90575
G01 X-39.80000 Y-7.89998
G01 X-38.20000 Y-7.89998
G01 X-38.14145 Y-7.90575
G01 X-38.08519 Y-7.92282
G01 X-38.03332 Y-7.95056
G01 X-37.98786 Y-7.98784
G01 X-37.95055 Y-8.03331
G01 X-37.92283 Y-8.08518
G01 X-37.90574 Y-8.14146
G01 X-37.89997 Y-8.19998
G01 X-37.89997 Y-9.79998
G04 P0 ( dwell for no time -- G64 should not smooth over this point )
G00 Z2.00000 ( retract )

G00 X-41.69999 Y-8.99998 ( rapid move to begin. )
G01 F30.00000
( Mill infeed pass 1/1 )
G01 Z-0.07500
G04 P0 ( dwell for no time -- G64 should not smooth over this point )
G01 F40.00000
G01 X-41.69999 Y-8.99998
G01 X-41.70576 Y-9.05850
G01 X-41.72283 Y-9.11479
G01 X-41.75054 Y-9.16666
G01 X-41.78785 Y-9.21212
G01 X-41.83332 Y-9.24944
G01 X-41.88518 Y-9.27715
G01 X-41.94147 Y-9.29422
G01 X-41.99999 Y-9.29998
G01 X-43.99999 Y-9.29998
G01 X-44.05851 Y-9.29422
G01 X-44.11480 Y-9.27715
G01 X-44.16666 Y-9.24944
G01 X-44.21213 Y-9.21212
G01 X-44.24942 Y-9.16666
G01 X-44.27715 Y-9.11479
G01 X-44.29422 Y-9.05850
G01 X-44.29999 Y-8.99998
G01 X-44.29999 Y-6.99999
G01 X-44.29422 Y-6.94146
G01 X-44.27715 Y-6.88518
G01 X-44.24942 Y-6.83331
G01 X-44.21213 Y-6.78785
G01 X-44.16666 Y-6.75056
G01 X-44.11480 Y-6.72282
G01 X-44.05851 Y-6.70575
G01 X-43.99999 Y-6.69999
G01 X-41.99999 Y-6.69999
G01 X-41.94147 Y-6.70575
G01 X-41.88518 Y-6.72282
G01 X-41.83332 Y-6.75056
G01 X-41.78785 Y-6.78785
G01 X-41.75054 Y-6.83331
G01 X-41.72283 Y-6.88518
G01 X-41.70576 Y-6.94146
G01 X-41.69999 Y-6.99999
G01 X-41.69999 Y-8.99998
G04 P0 ( dwell for no time -- G64 should not smooth over this point )
G00 Z2.00000 ( retract )

G00 X-46.77999 Y-7.99998 ( rapid move to begin. )
G01 F30.00000
( Mill infeed pass 1/1 )
G01 Z-0.07500
G04 P0 ( dwell for no time -- G64 should not smooth over this point )
G01 F40.00000
G01 X-46.77999 Y-7.99998
G01 X-46.80064 Y-8.22449
G01 X-46.81212 Y-8.28215
G01 X-46.86902 Y-8.46976
G01 X-46.89152 Y-8.52409
G01 X-46.99907 Y-8.72223
G01 X-47.14098 Y-8.89742
G01 X-47.18256 Y-8.93900
G01 X-47.33409 Y-9.06335
G01 X-47.38299 Y-9.09604
G01 X-47.58251 Y-9.20102
G01 X-47.82637 Y-9.27501
G01 X-48.05058 Y-9.29853
G01 X-48.10940 Y-9.29853
G01 X-48.33361 Y-9.27501
G01 X-48.57747 Y-9.20102
G01 X-48.77697 Y-9.09604
G01 X-48.82589 Y-9.06335
G01 X-48.99922 Y-8.91924
G01 X-49.16089 Y-8.72223
G01 X-49.26843 Y-8.52409
G01 X-49.29096 Y-8.46976
G01 X-49.34786 Y-8.28215
G01 X-49.35934 Y-8.22449
G01 X-49.37999 Y-7.99998
G01 X-49.35934 Y-7.77550
G01 X-49.34786 Y-7.71782
G01 X-49.29096 Y-7.53021
G01 X-49.26843 Y-7.47588
G01 X-49.16089 Y-7.27773
G01 X-49.01900 Y-7.10255
G01 X-48.97742 Y-7.06097
G01 X-48.82589 Y-6.93661
G01 X-48.77697 Y-6.90395
G01 X-48.57747 Y-6.79894
G01 X-48.33361 Y-6.72495
G01 X-48.10940 Y-6.70143
G01 X-48.05058 Y-6.70143
G01 X-47.82637 Y-6.72495
G01 X-47.58251 Y-6.79894
G01 X-47.38299 Y-6.90395
G01 X-47.33409 Y-6.93661
G01 X-47.16074 Y-7.08076
G01 X-46.99907 Y-7.27773
G01 X-46.89152 Y-7.47588
G01 X-46.86902 Y-7.53021
G01 X-46.81212 Y-7.71782
G01 X-46.80064 Y-7.77550
G01 X-46.77999 Y-7.99998
G04 P0 ( dwell for no time -- G64 should not smooth over this point )
G00 Z2.00000 ( retract )

G00 X-49.06345 Y-11.91324 ( rapid move to begin. )
G01 F30.00000
( Mill infeed pass 1/1 )
G01 Z-0.07500
G04 P0 ( dwell for no time -- G64 should not smooth over this point )
G01 F40.00000
G01 X-49.06345 Y-11.91324
G01 X-49.06592 Y-25.07470
G01 X-49.06962 Y-25.12162
G01 X-49.08060 Y-25.16736
G01 X-49.11796 Y-25.27036
G01 X-49.14255 Y-25.31052
G01 X-49.20991 Y-25.39693
G01 X-54.03997 Y-30.22697
G01 X-54.03997 Y-30.64434
G01 X-53.95412 Y-30.69024
G01 X-53.90520 Y-30.72290
G01 X-53.78399 Y-30.82239
G01 X-53.74239 Y-30.86397
G01 X-53.62537 Y-31.00885
G01 X-53.53632 Y-31.17243
G01 X-53.51381 Y-31.22676
G01 X-53.46113 Y-31.40540
G01 X-53.44142 Y-31.59059
G01 X-53.44142 Y-31.64939
G01 X-53.45681 Y-31.80547
G01 X-53.46827 Y-31.86316
G01 X-53.51381 Y-32.01322
G01 X-53.53632 Y-32.06755
G01 X-53.62537 Y-32.23113
G01 X-53.76217 Y-32.39780
G01 X-53.90520 Y-32.51705
G01 X-53.95412 Y-32.54974
G01 X-54.11904 Y-32.63626
G01 X-54.32539 Y-32.69884
G01 X-54.51058 Y-32.71855
G01 X-54.56939 Y-32.71855
G01 X-54.72547 Y-32.70316
G01 X-54.78315 Y-32.69170
G01 X-54.96093 Y-32.63626
G01 X-55.12587 Y-32.54974
G01 X-55.17477 Y-32.51705
G01 X-55.29600 Y-32.41759
G01 X-55.33758 Y-32.37598
G01 X-55.45460 Y-32.23113
G01 X-55.54368 Y-32.06755
G01 X-55.56618 Y-32.01322
G01 X-55.61886 Y-31.83458
G01 X-55.63855 Y-31.64939
G01 X-55.63855 Y-31.59059
G01 X-55.62318 Y-31.43451
G01 X-55.61170 Y-31.37682
G01 X-55.55625 Y-31.19902
G01 X-55.46974 Y-31.03410
G01 X-55.43707 Y-30.98521
G01 X-55.33758 Y-30.86397
G01 X-55.29600 Y-30.82239
G01 X-55.17477 Y-30.72290
G01 X-55.12587 Y-30.69024
G01 X-55.04000 Y-30.64434
G01 X-55.04000 Y-30.01985
G01 X-55.03629 Y-29.97294
G01 X-55.01551 Y-29.86535
G01 X-54.96908 Y-29.76611
G01 X-54.94452 Y-29.72603
G01 X-54.91399 Y-29.69026
G01 X-50.06348 Y-24.83632
G01 X-50.06348 Y-12.12027
G01 X-50.46782 Y-11.71593
G01 X-50.51247 Y-11.66381
G01 X-50.53000 Y-11.64016
G01 X-50.56363 Y-11.58032
G01 X-50.58613 Y-11.52599
G01 X-50.60465 Y-11.45992
G01 X-50.60897 Y-11.43079
G01 X-50.61428 Y-11.36239
G01 X-50.61428 Y-8.04647
G01 X-51.75791 Y-6.90278
G01 X-52.94069 Y-6.90275
G01 X-53.71655 Y-7.67865
G01 X-53.68828 Y-7.77184
G01 X-53.67680 Y-7.82950
G01 X-53.66144 Y-7.98558
G01 X-53.66144 Y-8.04438
G01 X-53.67680 Y-8.20047
G01 X-53.68828 Y-8.25815
G01 X-53.74371 Y-8.43595
G01 X-53.83025 Y-8.60087
G01 X-53.86291 Y-8.64977
G01 X-53.96240 Y-8.77100
G01 X-54.00398 Y-8.81258
G01 X-54.12522 Y-8.91207
G01 X-54.17411 Y-8.94474
G01 X-54.33903 Y-9.03125
G01 X-54.51683 Y-9.08670
G01 X-54.57452 Y-9.09818
G01 X-54.75999 Y-9.11499
G01 X-54.94546 Y-9.09818
G01 X-55.00314 Y-9.08670
G01 X-55.18094 Y-9.03125
G01 X-55.34586 Y-8.94474
G01 X-55.39476 Y-8.91207
G01 X-55.51599 Y-8.81258
G01 X-55.55757 Y-8.77100
G01 X-55.67462 Y-8.62612
G01 X-55.76367 Y-8.46254
G01 X-55.78617 Y-8.40821
G01 X-55.83169 Y-8.25815
G01 X-55.84317 Y-8.20047
G01 X-55.85854 Y-8.04438
G01 X-55.85854 Y-7.98558
G01 X-55.84317 Y-7.82950
G01 X-55.83169 Y-7.77184
G01 X-55.77627 Y-7.59404
G01 X-55.67462 Y-7.40387
G01 X-55.55757 Y-7.25899
G01 X-55.51599 Y-7.21741
G01 X-55.39476 Y-7.11792
G01 X-55.34586 Y-7.08523
G01 X-55.20756 Y-7.01131
G01 X-55.15323 Y-6.98881
G01 X-55.00314 Y-6.94327
G01 X-54.94546 Y-6.93181
G01 X-54.75999 Y-6.91500
G01 X-54.57452 Y-6.93181
G01 X-54.51683 Y-6.94327
G01 X-54.42364 Y-6.97154
G01 X-53.50134 Y-6.04921
G01 X-53.41493 Y-5.98185
G01 X-53.37477 Y-5.95727
G01 X-53.27178 Y-5.91990
G01 X-53.23761 Y-5.91099
G01 X-53.14734 Y-5.90276
G01 X-51.51910 Y-5.90522
G01 X-51.47239 Y-5.90895
G01 X-51.36733 Y-5.93926
G01 X-51.32385 Y-5.95727
G01 X-51.28369 Y-5.98185
G01 X-51.19728 Y-6.04921
G01 X-49.76071 Y-7.48581
G01 X-49.71605 Y-7.53793
G01 X-49.68339 Y-7.58683
G01 X-49.64240 Y-7.67575
G01 X-49.61956 Y-7.77095
G01 X-49.61425 Y-7.83935
G01 X-49.61425 Y-11.15527
G01 X-49.20991 Y-11.55962
G01 X-49.14773 Y-11.63538
G01 X-49.11410 Y-11.69523
G01 X-49.09160 Y-11.74956
G01 X-49.07308 Y-11.81562
G01 X-49.06345 Y-11.91324
G04 P0 ( dwell for no time -- G64 should not smooth over this point )
G00 Z2.00000 ( retract )

G00 X-51.11999 Y-16.43527 ( rapid move to begin. )
G01 F30.00000
( Mill infeed pass 1/1 )
G01 Z-0.07500
G04 P0 ( dwell for no time -- G64 should not smooth over this point )
G01 F40.00000
G01 X-51.11999 Y-16.43527
G01 X-51.23853 Y-16.67228
G01 X-51.25331 Y-16.68442
G01 X-51.30518 Y-16.71216
G01 X-51.36144 Y-16.72923
G01 X-51.41999 Y-16.73499
G01 X-53.01996 Y-16.73499
G01 X-53.07851 Y-16.72923
G01 X-53.13479 Y-16.71216
G01 X-53.18666 Y-16.68442
G01 X-53.23213 Y-16.64711
G01 X-53.26944 Y-16.60167
G01 X-53.29715 Y-16.54980
G01 X-53.31422 Y-16.49352
G01 X-53.31998 Y-16.43499
G01 X-53.31998 Y-14.83500
G01 X-53.31422 Y-14.77645
G01 X-53.29715 Y-14.72019
G01 X-53.26944 Y-14.66832
G01 X-53.23213 Y-14.62286
G01 X-53.18666 Y-14.58554
G01 X-53.13479 Y-14.55783
G01 X-53.07851 Y-14.54076
G01 X-53.01996 Y-14.53500
G01 X-51.41999 Y-14.53500
G01 X-51.36144 Y-14.54076
G01 X-51.30518 Y-14.55783
G01 X-51.25331 Y-14.58554
G01 X-51.23851 Y-14.59771
G01 X-51.11999 Y-14.83467
G01 X-51.11999 Y-16.43527
G04 P0 ( dwell for no time -- G64 should not smooth over this point )
G00 Z2.00000 ( retract )

G00 X-53.66144 Y-15.66438 ( rapid move to begin. )
G01 F30.00000
( Mill infeed pass 1/1 )
G01 Z-0.07500
G04 P0 ( dwell for no time -- G64 should not smooth over this point )
G01 F40.00000
G01 X-53.66144 Y-15.66438
G01 X-53.67680 Y-15.82047
G01 X-53.68828 Y-15.87815
G01 X-53.74371 Y-16.05595
G01 X-53.84536 Y-16.24612
G01 X-53.96240 Y-16.39100
G01 X-54.00398 Y-16.43258
G01 X-54.12522 Y-16.53207
G01 X-54.17411 Y-16.56474
G01 X-54.33903 Y-16.65125
G01 X-54.51683 Y-16.70670
G01 X-54.57452 Y-16.71818
G01 X-54.75999 Y-16.73499
G01 X-54.94546 Y-16.71818
G01 X-55.00314 Y-16.70670
G01 X-55.18094 Y-16.65125
G01 X-55.34586 Y-16.56474
G01 X-55.39476 Y-16.53207
G01 X-55.53781 Y-16.41279
G01 X-55.67462 Y-16.24612
G01 X-55.77627 Y-16.05595
G01 X-55.83169 Y-15.87815
G01 X-55.84317 Y-15.82047
G01 X-55.85854 Y-15.66438
G01 X-55.85854 Y-15.60558
G01 X-55.84317 Y-15.44950
G01 X-55.83169 Y-15.39184
G01 X-55.77627 Y-15.21404
G01 X-55.67462 Y-15.02387
G01 X-55.55757 Y-14.87899
G01 X-55.51599 Y-14.83741
G01 X-55.39476 Y-14.73792
G01 X-55.34586 Y-14.70523
G01 X-55.18094 Y-14.61872
G01 X-55.00314 Y-14.56327
G01 X-54.94546 Y-14.55181
G01 X-54.75999 Y-14.53500
G01 X-54.57452 Y-14.55181
G01 X-54.51683 Y-14.56327
G01 X-54.33903 Y-14.61872
G01 X-54.17411 Y-14.70523
G01 X-54.12522 Y-14.73792
G01 X-53.98216 Y-14.85717
G01 X-53.84536 Y-15.02387
G01 X-53.74371 Y-15.21404
G01 X-53.68828 Y-15.39184
G01 X-53.67680 Y-15.44950
G01 X-53.66144 Y-15.60558
G01 X-53.66144 Y-15.66438
G04 P0 ( dwell for no time -- G64 should not smooth over this point )
G00 Z2.00000 ( retract )

G00 X-56.20144 Y-15.66438 ( rapid move to begin. )
G01 F30.00000
( Mill infeed pass 1/1 )
G01 Z-0.07500
G04 P0 ( dwell for no time -- G64 should not smooth over this point )
G01 F40.00000
G01 X-56.20144 Y-15.66438
G01 X-56.21680 Y-15.82047
G01 X-56.22828 Y-15.87815
G01 X-56.28371 Y-16.05595
G01 X-56.38536 Y-16.24612
G01 X-56.50240 Y-16.39100
G01 X-56.54398 Y-16.43258
G01 X-56.66522 Y-16.53207
G01 X-56.71411 Y-16.56474
G01 X-56.87903 Y-16.65125
G01 X-57.05683 Y-16.70670
G01 X-57.11452 Y-16.71818
G01 X-57.29999 Y-16.73499
G01 X-57.48546 Y-16.71818
G01 X-57.54314 Y-16.70670
G01 X-57.72094 Y-16.65125
G01 X-57.88586 Y-16.56474
G01 X-57.93476 Y-16.53207
G01 X-58.07781 Y-16.41279
G01 X-58.21462 Y-16.24612
G01 X-58.31627 Y-16.05595
G01 X-58.37169 Y-15.87815
G01 X-58.38317 Y-15.82047
G01 X-58.39854 Y-15.66438
G01 X-58.39854 Y-15.60558
G01 X-58.38317 Y-15.44950
G01 X-58.37169 Y-15.39184
G01 X-58.31627 Y-15.21404
G01 X-58.21462 Y-15.02387
G01 X-58.09757 Y-14.87899
G01 X-58.05599 Y-14.83741
G01 X-57.93476 Y-14.73792
G01 X-57.88586 Y-14.70523
G01 X-57.72094 Y-14.61872
G01 X-57.54314 Y-14.56327
G01 X-57.48546 Y-14.55181
G01 X-57.29999 Y-14.53500
G01 X-57.11452 Y-14.55181
G01 X-57.05683 Y-14.56327
G01 X-56.87903 Y-14.61872
G01 X-56.71411 Y-14.70523
G01 X-56.66522 Y-14.73792
G01 X-56.52216 Y-14.85717
G01 X-56.38536 Y-15.02387
G01 X-56.28371 Y-15.21404
G01 X-56.22828 Y-15.39184
G01 X-56.21680 Y-15.44950
G01 X-56.20144 Y-15.60558
G01 X-56.20144 Y-15.66438
G04 P0 ( dwell for no time -- G64 should not smooth over this point )
G00 Z2.00000 ( retract )

G00 X-61.28144 Y-15.66438 ( rapid move to begin. )
G01 F30.00000
( Mill infeed pass 1/1 )
G01 Z-0.07500
G04 P0 ( dwell for no time -- G64 should not smooth over this point )
G01 F40.00000
G01 X-61.28144 Y-15.66438
G01 X-61.29680 Y-15.82047
G01 X-61.30828 Y-15.87815
G01 X-61.35380 Y-16.02821
G01 X-61.37631 Y-16.08254
G01 X-61.45025 Y-16.22087
G01 X-61.48291 Y-16.26977
G01 X-61.58240 Y-16.39100
G01 X-61.62398 Y-16.43258
G01 X-61.74522 Y-16.53207
G01 X-61.79411 Y-16.56474
G01 X-61.93241 Y-16.63868
G01 X-61.98674 Y-16.66118
G01 X-62.13683 Y-16.70670
G01 X-62.19452 Y-16.71818
G01 X-62.35057 Y-16.73355
G01 X-62.40940 Y-16.73355
G01 X-62.56546 Y-16.71818
G01 X-62.62314 Y-16.70670
G01 X-62.80094 Y-16.65125
G01 X-62.96586 Y-16.56474
G01 X-63.01476 Y-16.53207
G01 X-63.15781 Y-16.41279
G01 X-63.29462 Y-16.24612
G01 X-63.39627 Y-16.05595
G01 X-63.45169 Y-15.87815
G01 X-63.46317 Y-15.82047
G01 X-63.47854 Y-15.66438
G01 X-63.47854 Y-15.60558
G01 X-63.46317 Y-15.44950
G01 X-63.45169 Y-15.39184
G01 X-63.42342 Y-15.29862
G01 X-64.62537 Y-14.09667
G01 X-76.62489 Y-14.09670
G01 X-76.73360 Y-14.08321
G01 X-76.77940 Y-14.07221
G01 X-76.82288 Y-14.05420
G01 X-76.90912 Y-14.00792
G01 X-76.97843 Y-13.95024
G01 X-83.02887 Y-7.89978
G01 X-84.96158 Y-7.89978
G01 X-85.10016 Y-8.03836
G01 X-85.10016 Y-23.73996
G01 X-84.97562 Y-23.73996
G01 X-84.91461 Y-23.62886
G01 X-84.79757 Y-23.48398
G01 X-84.75599 Y-23.44240
G01 X-84.63476 Y-23.34290
G01 X-84.58586 Y-23.31024
G01 X-84.44756 Y-23.23630
G01 X-84.39323 Y-23.21380
G01 X-84.24314 Y-23.16828
G01 X-84.18546 Y-23.15680
G01 X-83.99998 Y-23.13998
G01 X-83.81451 Y-23.15680
G01 X-83.75683 Y-23.16828
G01 X-83.57903 Y-23.22373
G01 X-83.41411 Y-23.31024
G01 X-83.36521 Y-23.34290
G01 X-83.22216 Y-23.46216
G01 X-83.08538 Y-23.62886
G01 X-82.98373 Y-23.81903
G01 X-82.92828 Y-23.99683
G01 X-82.91680 Y-24.05451
G01 X-82.90143 Y-24.21059
G01 X-82.90143 Y-24.26940
G01 X-82.91680 Y-24.42545
G01 X-82.92828 Y-24.48314
G01 X-82.97380 Y-24.63322
G01 X-82.99630 Y-24.68756
G01 X-83.08538 Y-24.85111
G01 X-83.20240 Y-24.99599
G01 X-83.24398 Y-25.03757
G01 X-83.36521 Y-25.13706
G01 X-83.41411 Y-25.16975
G01 X-83.57903 Y-25.25626
G01 X-83.75683 Y-25.31171
G01 X-83.81451 Y-25.32316
G01 X-83.99998 Y-25.33998
G01 X-84.18546 Y-25.32316
G01 X-84.24314 Y-25.31171
G01 X-84.42094 Y-25.25626
G01 X-84.58586 Y-25.16975
G01 X-84.63476 Y-25.13706
G01 X-84.77781 Y-25.01781
G01 X-84.91461 Y-24.85111
G01 X-84.97565 Y-24.73996
G01 X-85.68279 Y-24.73998
G01 X-85.99632 Y-25.05352
G01 X-86.08273 Y-25.12088
G01 X-86.14428 Y-25.15532
G01 X-86.20663 Y-25.17892
G01 X-86.24115 Y-25.18649
G01 X-86.34989 Y-25.19997
G01 X-86.96790 Y-25.19995
G01 X-87.02865 Y-25.31364
G01 X-87.06134 Y-25.36253
G01 X-87.16703 Y-25.49131
G01 X-87.20864 Y-25.53294
G01 X-87.33744 Y-25.63863
G01 X-87.38634 Y-25.67132
G01 X-87.53328 Y-25.74986
G01 X-87.58763 Y-25.77234
G01 X-87.74707 Y-25.82073
G01 X-87.80475 Y-25.83218
G01 X-87.97059 Y-25.84854
G01 X-88.02939 Y-25.84854
G01 X-88.19523 Y-25.83218
G01 X-88.25291 Y-25.82073
G01 X-88.41235 Y-25.77234
G01 X-88.46668 Y-25.74986
G01 X-88.61364 Y-25.67132
G01 X-88.66254 Y-25.63863
G01 X-88.79134 Y-25.53294
G01 X-88.83292 Y-25.49131
G01 X-88.93863 Y-25.36253
G01 X-88.97132 Y-25.31364
G01 X-89.06246 Y-25.14008
G01 X-89.12073 Y-24.95291
G01 X-89.13221 Y-24.89523
G01 X-89.14854 Y-24.72939
G01 X-89.14854 Y-24.67059
G01 X-89.12789 Y-24.47564
G01 X-89.07236 Y-24.28763
G01 X-89.04986 Y-24.23328
G01 X-88.97132 Y-24.08634
G01 X-88.93863 Y-24.03744
G01 X-88.81316 Y-23.88682
G01 X-88.66254 Y-23.76134
G01 X-88.61364 Y-23.72865
G01 X-88.46668 Y-23.65012
G01 X-88.41235 Y-23.62761
G01 X-88.22433 Y-23.57209
G01 X-87.99998 Y-23.54999
G01 X-87.77564 Y-23.57209
G01 X-87.58763 Y-23.62761
G01 X-87.53328 Y-23.65012
G01 X-87.38634 Y-23.72865
G01 X-87.33744 Y-23.76134
G01 X-87.18682 Y-23.88682
G01 X-87.06134 Y-24.03744
G01 X-87.02865 Y-24.08634
G01 X-86.96792 Y-24.19995
G01 X-86.55627 Y-24.19995
G01 X-86.21870 Y-23.86515
G01 X-86.16419 Y-23.82238
G01 X-86.10018 Y-23.78692
G01 X-86.10018 Y-10.76589
G01 X-88.89439 Y-10.76589
G01 X-91.46466 Y-13.33617
G01 X-91.46466 Y-32.34408
G01 X-91.46997 Y-32.41248
G01 X-91.48143 Y-32.47017
G01 X-91.51531 Y-32.56201
G01 X-91.56647 Y-32.64550
G01 X-91.61127 Y-32.69775
G01 X-94.19041 Y-35.27346
G01 X-94.22615 Y-35.30394
G01 X-94.32196 Y-35.35690
G01 X-94.36544 Y-35.37491
G01 X-94.47304 Y-35.39569
G01 X-94.51998 Y-35.39940
G01 X-94.91635 Y-35.39940
G01 X-98.69985 Y-39.18288
G01 X-98.69985 Y-40.00000
G01 X-98.70948 Y-40.09753
G01 X-98.72800 Y-40.16360
G01 X-98.75050 Y-40.21793
G01 X-98.80166 Y-40.30142
G01 X-98.84631 Y-40.35354
G01 X-98.89843 Y-40.39819
G01 X-98.92208 Y-40.41572
G01 X-98.98192 Y-40.44935
G01 X-99.07377 Y-40.48323
G01 X-99.13145 Y-40.49469
G01 X-99.19988 Y-40.50000
G01 X-99.70000 Y-40.49997
G01 X-99.69998 Y-40.99999
G01 X-99.70455 Y-41.05209
G01 X-99.71809 Y-41.10258
G01 X-99.74019 Y-41.14998
G01 X-99.76193 Y-41.18105
G01 X-99.99975 Y-41.29997
G01 X-102.00000 Y-41.29999
G01 X-102.05855 Y-41.29420
G01 X-102.11476 Y-41.27716
G01 X-102.13955 Y-41.26393
G01 X-102.28778 Y-41.07965
G01 X-102.29423 Y-41.05852
G01 X-102.30000 Y-40.99999
G01 X-102.30000 Y-39.00000
G01 X-102.29423 Y-38.94145
G01 X-102.27714 Y-38.88519
G01 X-102.24943 Y-38.83332
G01 X-102.21209 Y-38.78786
G01 X-102.16665 Y-38.75054
G01 X-102.11476 Y-38.72283
G01 X-102.05852 Y-38.70574
G01 X-102.00000 Y-38.70000
G01 X-99.99998 Y-38.70000
G01 X-99.94788 Y-38.70455
G01 X-99.89739 Y-38.71808
G01 X-99.84999 Y-38.74018
G01 X-99.80714 Y-38.77018
G01 X-99.77018 Y-38.80716
G01 X-99.74019 Y-38.84999
G01 X-99.71809 Y-38.89738
G01 X-99.70455 Y-38.94790
G01 X-99.69998 Y-39.00000
G01 X-99.69985 Y-39.49997
G01 X-99.69988 Y-38.97579
G01 X-99.69025 Y-38.87823
G01 X-99.67173 Y-38.81217
G01 X-99.64923 Y-38.75783
G01 X-99.61560 Y-38.69799
G01 X-99.55342 Y-38.62222
G01 X-95.47703 Y-34.54583
G01 X-95.39061 Y-34.47847
G01 X-95.35046 Y-34.45388
G01 X-95.30697 Y-34.43587
G01 X-95.20235 Y-34.40565
G01 X-95.15610 Y-34.40186
G01 X-94.72762 Y-34.39993
G01 X-92.46469 Y-32.13697
G01 X-92.46469 Y-13.12908
G01 X-92.45938 Y-13.06063
G01 X-92.44792 Y-13.00297
G01 X-92.41404 Y-12.91112
G01 X-92.39555 Y-12.87653
G01 X-92.36288 Y-12.82761
G01 X-92.31823 Y-12.77551
G01 X-89.45504 Y-9.91232
G01 X-89.36863 Y-9.84496
G01 X-89.32847 Y-9.82038
G01 X-89.28499 Y-9.80237
G01 X-89.19129 Y-9.77410
G01 X-89.10150 Y-9.76587
G01 X-86.10018 Y-9.76587
G01 X-86.10018 Y-7.83125
G01 X-86.09056 Y-7.73372
G01 X-86.07204 Y-7.66765
G01 X-86.04954 Y-7.61332
G01 X-86.01591 Y-7.55348
G01 X-85.97349 Y-7.49953
G01 X-85.49754 Y-7.02503
G01 X-85.46211 Y-6.99493
G01 X-85.36668 Y-6.94225
G01 X-85.32320 Y-6.92424
G01 X-85.27740 Y-6.91324
G01 X-85.16869 Y-6.89976
G01 X-82.82178 Y-6.89976
G01 X-82.71304 Y-6.91324
G01 X-82.66725 Y-6.92424
G01 X-82.62376 Y-6.94225
G01 X-82.52790 Y-6.99524
G01 X-82.49214 Y-7.02577
G01 X-76.41781 Y-13.09672
G01 X-64.38692 Y-13.09914
G01 X-64.34003 Y-13.10284
G01 X-64.29428 Y-13.11382
G01 X-64.19129 Y-13.15118
G01 X-64.10051 Y-13.21252
G01 X-64.06472 Y-13.24313
G01 X-62.71631 Y-14.59154
G01 X-62.62314 Y-14.56327
G01 X-62.56546 Y-14.55181
G01 X-62.40940 Y-14.53642
G01 X-62.35057 Y-14.53642
G01 X-62.19452 Y-14.55181
G01 X-62.13683 Y-14.56327
G01 X-61.95903 Y-14.61872
G01 X-61.79411 Y-14.70523
G01 X-61.74522 Y-14.73792
G01 X-61.62398 Y-14.83741
G01 X-61.58240 Y-14.87899
G01 X-61.46536 Y-15.02387
G01 X-61.36371 Y-15.21404
G01 X-61.30828 Y-15.39184
G01 X-61.29680 Y-15.44950
G01 X-61.28144 Y-15.60558
G01 X-61.28144 Y-15.66438
G04 P0 ( dwell for no time -- G64 should not smooth over this point )
G00 Z2.00000 ( retract )

G00 X-63.82144 Y-15.66438 ( rapid move to begin. )
G01 F30.00000
( Mill infeed pass 1/1 )
G01 Z-0.07500
G04 P0 ( dwell for no time -- G64 should not smooth over this point )
G01 F40.00000
G01 X-63.82144 Y-15.66438
G01 X-63.83680 Y-15.82047
G01 X-63.84828 Y-15.87815
G01 X-63.90371 Y-16.05595
G01 X-64.00536 Y-16.24612
G01 X-64.12240 Y-16.39100
G01 X-64.16398 Y-16.43258
G01 X-64.28522 Y-16.53207
G01 X-64.33411 Y-16.56474
G01 X-64.49903 Y-16.65125
G01 X-64.67683 Y-16.70670
G01 X-64.73452 Y-16.71818
G01 X-64.91999 Y-16.73499
G01 X-65.10546 Y-16.71818
G01 X-65.16314 Y-16.70670
G01 X-65.34094 Y-16.65125
G01 X-65.50586 Y-16.56474
G01 X-65.55476 Y-16.53207
G01 X-65.69781 Y-16.41279
G01 X-65.83462 Y-16.24612
G01 X-65.93627 Y-16.05595
G01 X-65.99169 Y-15.87815
G01 X-66.00317 Y-15.82047
G01 X-66.01854 Y-15.66438
G01 X-66.01854 Y-15.60558
G01 X-66.00317 Y-15.44950
G01 X-65.99169 Y-15.39184
G01 X-65.93627 Y-15.21404
G01 X-65.83462 Y-15.02387
G01 X-65.71757 Y-14.87899
G01 X-65.67599 Y-14.83741
G01 X-65.55476 Y-14.73792
G01 X-65.50586 Y-14.70523
G01 X-65.34094 Y-14.61872
G01 X-65.16314 Y-14.56327
G01 X-65.10546 Y-14.55181
G01 X-64.91999 Y-14.53500
G01 X-64.73452 Y-14.55181
G01 X-64.67683 Y-14.56327
G01 X-64.49903 Y-14.61872
G01 X-64.33411 Y-14.70523
G01 X-64.28522 Y-14.73792
G01 X-64.14216 Y-14.85717
G01 X-64.00536 Y-15.02387
G01 X-63.90371 Y-15.21404
G01 X-63.84828 Y-15.39184
G01 X-63.83680 Y-15.44950
G01 X-63.82144 Y-15.60558
G01 X-63.82144 Y-15.66438
G04 P0 ( dwell for no time -- G64 should not smooth over this point )
G00 Z2.00000 ( retract )

G00 X-66.36144 Y-15.66438 ( rapid move to begin. )
G01 F30.00000
( Mill infeed pass 1/1 )
G01 Z-0.07500
G04 P0 ( dwell for no time -- G64 should not smooth over this point )
G01 F40.00000
G01 X-66.36144 Y-15.66438
G01 X-66.37680 Y-15.82047
G01 X-66.38828 Y-15.87815
G01 X-66.44371 Y-16.05595
G01 X-66.54536 Y-16.24612
G01 X-66.66240 Y-16.39100
G01 X-66.70398 Y-16.43258
G01 X-66.82522 Y-16.53207
G01 X-66.87411 Y-16.56474
G01 X-67.03903 Y-16.65125
G01 X-67.21683 Y-16.70670
G01 X-67.27452 Y-16.71818
G01 X-67.45999 Y-16.73499
G01 X-67.64546 Y-16.71818
G01 X-67.70314 Y-16.70670
G01 X-67.88094 Y-16.65125
G01 X-68.04586 Y-16.56474
G01 X-68.09476 Y-16.53207
G01 X-68.23781 Y-16.41279
G01 X-68.37462 Y-16.24612
G01 X-68.47627 Y-16.05595
G01 X-68.53169 Y-15.87815
G01 X-68.54317 Y-15.82047
G01 X-68.55854 Y-15.66438
G01 X-68.55854 Y-15.60558
G01 X-68.54317 Y-15.44950
G01 X-68.53169 Y-15.39184
G01 X-68.47627 Y-15.21404
G01 X-68.37462 Y-15.02387
G01 X-68.25757 Y-14.87899
G01 X-68.21599 Y-14.83741
G01 X-68.09476 Y-14.73792
G01 X-68.04586 Y-14.70523
G01 X-67.88094 Y-14.61872
G01 X-67.70314 Y-14.56327
G01 X-67.64546 Y-14.55181
G01 X-67.45999 Y-14.53500
G01 X-67.27452 Y-14.55181
G01 X-67.21683 Y-14.56327
G01 X-67.03903 Y-14.61872
G01 X-66.87411 Y-14.70523
G01 X-66.82522 Y-14.73792
G01 X-66.68216 Y-14.85717
G01 X-66.54536 Y-15.02387
G01 X-66.44371 Y-15.21404
G01 X-66.38828 Y-15.39184
G01 X-66.37680 Y-15.44950
G01 X-66.36144 Y-15.60558
G01 X-66.36144 Y-15.66438
G04 P0 ( dwell for no time -- G64 should not smooth over this point )
G00 Z2.00000 ( retract )

G00 X-68.90144 Y-15.66438 ( rapid move to begin. )
G01 F30.00000
( Mill infeed pass 1/1 )
G01 Z-0.07500
G04 P0 ( dwell for no time -- G64 should not smooth over this point )
G01 F40.00000
G01 X-68.90144 Y-15.66438
G01 X-68.91680 Y-15.82047
G01 X-68.92828 Y-15.87815
G01 X-68.98371 Y-16.05595
G01 X-69.08536 Y-16.24612
G01 X-69.20240 Y-16.39100
G01 X-69.24398 Y-16.43258
G01 X-69.36522 Y-16.53207
G01 X-69.41411 Y-16.56474
G01 X-69.57903 Y-16.65125
G01 X-69.75683 Y-16.70670
G01 X-69.81452 Y-16.71818
G01 X-69.99999 Y-16.73499
G01 X-70.18546 Y-16.71818
G01 X-70.24314 Y-16.70670
G01 X-70.42094 Y-16.65125
G01 X-70.58586 Y-16.56474
G01 X-70.63476 Y-16.53207
G01 X-70.77781 Y-16.41279
G01 X-70.91462 Y-16.24612
G01 X-71.01627 Y-16.05595
G01 X-71.07169 Y-15.87815
G01 X-71.08317 Y-15.82047
G01 X-71.09854 Y-15.66438
G01 X-71.09854 Y-15.60558
G01 X-71.08317 Y-15.44950
G01 X-71.07169 Y-15.39184
G01 X-71.01627 Y-15.21404
G01 X-70.91462 Y-15.02387
G01 X-70.79757 Y-14.87899
G01 X-70.75599 Y-14.83741
G01 X-70.63476 Y-14.73792
G01 X-70.58586 Y-14.70523
G01 X-70.42094 Y-14.61872
G01 X-70.24314 Y-14.56327
G01 X-70.18546 Y-14.55181
G01 X-69.99999 Y-14.53500
G01 X-69.81452 Y-14.55181
G01 X-69.75683 Y-14.56327
G01 X-69.57903 Y-14.61872
G01 X-69.41411 Y-14.70523
G01 X-69.36522 Y-14.73792
G01 X-69.22216 Y-14.85717
G01 X-69.08536 Y-15.02387
G01 X-68.98371 Y-15.21404
G01 X-68.92828 Y-15.39184
G01 X-68.91680 Y-15.44950
G01 X-68.90144 Y-15.60558
G01 X-68.90144 Y-15.66438
G04 P0 ( dwell for no time -- G64 should not smooth over this point )
G00 Z2.00000 ( retract )

G00 X-68.90144 Y-8.04438 ( rapid move to begin. )
G01 F30.00000
( Mill infeed pass 1/1 )
G01 Z-0.07500
G04 P0 ( dwell for no time -- G64 should not smooth over this point )
G01 F40.00000
G01 X-68.90144 Y-8.04438
G01 X-68.91680 Y-8.20047
G01 X-68.92828 Y-8.25815
G01 X-68.98371 Y-8.43595
G01 X-69.08536 Y-8.62612
G01 X-69.20240 Y-8.77100
G01 X-69.24398 Y-8.81258
G01 X-69.36522 Y-8.91207
G01 X-69.41411 Y-8.94474
G01 X-69.55241 Y-9.01868
G01 X-69.60674 Y-9.04118
G01 X-69.75683 Y-9.08670
G01 X-69.81452 Y-9.09818
G01 X-69.99999 Y-9.11499
G01 X-70.18546 Y-9.09818
G01 X-70.24314 Y-9.08670
G01 X-70.39323 Y-9.04118
G01 X-70.44756 Y-9.01868
G01 X-70.58586 Y-8.94474
G01 X-70.63476 Y-8.91207
G01 X-70.75599 Y-8.81258
G01 X-70.79757 Y-8.77100
G01 X-70.91462 Y-8.62612
G01 X-70.97565 Y-8.51497
G01 X-71.62361 Y-8.51405
G01 X-71.68987 Y-8.50676
G01 X-71.78357 Y-8.47849
G01 X-71.82706 Y-8.46049
G01 X-71.86722 Y-8.43590
G01 X-71.95363 Y-8.36854
G01 X-74.64237 Y-5.67980
G01 X-98.89266 Y-5.67980
G01 X-100.25654 Y-7.04367
G01 X-100.22827 Y-7.13684
G01 X-100.21679 Y-7.19450
G01 X-100.20143 Y-7.35058
G01 X-100.20143 Y-7.40938
G01 X-100.21679 Y-7.56547
G01 X-100.22827 Y-7.62315
G01 X-100.28372 Y-7.80095
G01 X-100.38537 Y-7.99112
G01 X-100.50239 Y-8.13600
G01 X-100.54399 Y-8.17758
G01 X-100.66520 Y-8.27707
G01 X-100.71412 Y-8.30974
G01 X-100.85243 Y-8.38368
G01 X-100.90676 Y-8.40618
G01 X-101.05682 Y-8.45170
G01 X-101.11450 Y-8.46318
G01 X-101.29998 Y-8.47999
G01 X-101.48547 Y-8.46318
G01 X-101.54315 Y-8.45170
G01 X-101.69319 Y-8.40618
G01 X-101.74755 Y-8.38368
G01 X-101.88585 Y-8.30974
G01 X-101.93477 Y-8.27707
G01 X-102.05598 Y-8.17758
G01 X-102.09759 Y-8.13600
G01 X-102.19708 Y-8.01477
G01 X-102.22974 Y-7.96587
G01 X-102.30366 Y-7.82754
G01 X-102.32616 Y-7.77321
G01 X-102.37881 Y-7.59457
G01 X-102.39855 Y-7.40938
G01 X-102.39855 Y-7.35058
G01 X-102.38316 Y-7.19450
G01 X-102.37170 Y-7.13684
G01 X-102.31625 Y-6.95904
G01 X-102.21460 Y-6.76887
G01 X-102.09759 Y-6.62399
G01 X-102.05598 Y-6.58241
G01 X-101.93477 Y-6.48292
G01 X-101.88585 Y-6.45023
G01 X-101.74755 Y-6.37629
G01 X-101.69319 Y-6.35378
G01 X-101.51458 Y-6.30113
G01 X-101.32939 Y-6.28142
G01 X-101.27059 Y-6.28142
G01 X-101.11450 Y-6.29681
G01 X-101.05682 Y-6.30827
G01 X-100.96363 Y-6.33656
G01 X-99.45332 Y-4.82623
G01 X-99.36691 Y-4.75887
G01 X-99.32675 Y-4.73428
G01 X-99.22375 Y-4.69692
G01 X-99.17801 Y-4.68594
G01 X-99.13107 Y-4.68224
G01 X-74.43531 Y-4.67977
G01 X-74.34547 Y-4.68800
G01 X-74.25177 Y-4.71627
G01 X-74.20828 Y-4.73428
G01 X-74.16813 Y-4.75887
G01 X-74.08172 Y-4.82623
G01 X-71.39297 Y-7.51497
G01 X-70.97563 Y-7.51497
G01 X-70.91462 Y-7.40387
G01 X-70.79757 Y-7.25899
G01 X-70.75599 Y-7.21741
G01 X-70.63476 Y-7.11792
G01 X-70.58586 Y-7.08523
G01 X-70.44756 Y-7.01131
G01 X-70.39323 Y-6.98881
G01 X-70.24314 Y-6.94327
G01 X-70.18546 Y-6.93181
G01 X-70.02940 Y-6.91642
G01 X-69.97057 Y-6.91642
G01 X-69.81452 Y-6.93181
G01 X-69.75683 Y-6.94327
G01 X-69.57903 Y-6.99872
G01 X-69.41411 Y-7.08523
G01 X-69.36522 Y-7.11792
G01 X-69.24398 Y-7.21741
G01 X-69.20240 Y-7.25899
G01 X-69.10291 Y-7.38022
G01 X-69.07025 Y-7.42912
G01 X-68.99631 Y-7.56742
G01 X-68.97380 Y-7.62175
G01 X-68.92828 Y-7.77184
G01 X-68.91680 Y-7.82950
G01 X-68.90144 Y-7.98558
G01 X-68.90144 Y-8.04438
G04 P0 ( dwell for no time -- G64 should not smooth over this point )
G00 Z2.00000 ( retract )

G00 X-63.11400 Y-4.30779 ( rapid move to begin. )
G01 F30.00000
( Mill infeed pass 1/1 )
G01 Z-0.07500
G04 P0 ( dwell for no time -- G64 should not smooth over this point )
G01 F40.00000
G01 X-63.11400 Y-4.30779
G01 X-63.12505 Y-4.43474
G01 X-63.13650 Y-4.49242
G01 X-63.16497 Y-4.58622
G01 X-63.18748 Y-4.64055
G01 X-63.23368 Y-4.72699
G01 X-63.26635 Y-4.77589
G01 X-63.34831 Y-4.87347
G01 X-63.44587 Y-4.95541
G01 X-63.49479 Y-4.98810
G01 X-63.58123 Y-5.03431
G01 X-63.63556 Y-5.05681
G01 X-63.72936 Y-5.08526
G01 X-63.78705 Y-5.09674
G01 X-63.91399 Y-5.10779
G01 X-63.99987 Y-5.10078
G01 X-64.41996 Y-5.52087
G01 X-64.41996 Y-7.03936
G01 X-64.33411 Y-7.08523
G01 X-64.28522 Y-7.11792
G01 X-64.16398 Y-7.21741
G01 X-64.12240 Y-7.25899
G01 X-64.00536 Y-7.40387
G01 X-63.91631 Y-7.56742
G01 X-63.89380 Y-7.62175
G01 X-63.84828 Y-7.77184
G01 X-63.83680 Y-7.82950
G01 X-63.82144 Y-7.98558
G01 X-63.82144 Y-8.04438
G01 X-63.83680 Y-8.20047
G01 X-63.84828 Y-8.25815
G01 X-63.89380 Y-8.40821
G01 X-63.91631 Y-8.46254
G01 X-64.00536 Y-8.62612
G01 X-64.12240 Y-8.77100
G01 X-64.16398 Y-8.81258
G01 X-64.28522 Y-8.91207
G01 X-64.33411 Y-8.94474
G01 X-64.49903 Y-9.03125
G01 X-64.67683 Y-9.08670
G01 X-64.73452 Y-9.09818
G01 X-64.91999 Y-9.11499
G01 X-65.10546 Y-9.09818
G01 X-65.16314 Y-9.08670
G01 X-65.31323 Y-9.04118
G01 X-65.36756 Y-9.01868
G01 X-65.50586 Y-8.94474
G01 X-65.55476 Y-8.91207
G01 X-65.67599 Y-8.81258
G01 X-65.71757 Y-8.77100
G01 X-65.83462 Y-8.62612
G01 X-65.92367 Y-8.46254
G01 X-65.94617 Y-8.40821
G01 X-65.99169 Y-8.25815
G01 X-66.00317 Y-8.20047
G01 X-66.01854 Y-8.04438
G01 X-66.01854 Y-7.98558
G01 X-66.00317 Y-7.82950
G01 X-65.99169 Y-7.77184
G01 X-65.93627 Y-7.59404
G01 X-65.84973 Y-7.42912
G01 X-65.81706 Y-7.38022
G01 X-65.71757 Y-7.25899
G01 X-65.67599 Y-7.21741
G01 X-65.55476 Y-7.11792
G01 X-65.50586 Y-7.08523
G01 X-65.41999 Y-7.03933
G01 X-65.41999 Y-5.31376
G01 X-65.41036 Y-5.21622
G01 X-65.39184 Y-5.15015
G01 X-65.36934 Y-5.09582
G01 X-65.33571 Y-5.03598
G01 X-65.27353 Y-4.96021
G01 X-64.70698 Y-4.39367
G01 X-64.71399 Y-4.30779
G01 X-64.71255 Y-4.27838
G01 X-64.70294 Y-4.18084
G01 X-64.69146 Y-4.12316
G01 X-64.66302 Y-4.02935
G01 X-64.64051 Y-3.97502
G01 X-64.59431 Y-3.88859
G01 X-64.56162 Y-3.83969
G01 X-64.48869 Y-3.75204
G01 X-64.38209 Y-3.66014
G01 X-64.33320 Y-3.62748
G01 X-64.24676 Y-3.58127
G01 X-64.19240 Y-3.55877
G01 X-64.09863 Y-3.53032
G01 X-64.04094 Y-3.51884
G01 X-63.92748 Y-3.50845
G01 X-63.78705 Y-3.51884
G01 X-63.72936 Y-3.53032
G01 X-63.60785 Y-3.56867
G01 X-63.49479 Y-3.62748
G01 X-63.44587 Y-3.66014
G01 X-63.34831 Y-3.74211
G01 X-63.26635 Y-3.83969
G01 X-63.23368 Y-3.88859
G01 X-63.18748 Y-3.97502
G01 X-63.16497 Y-4.02935
G01 X-63.13650 Y-4.12316
G01 X-63.12505 Y-4.18084
G01 X-63.11400 Y-4.30779
G04 P0 ( dwell for no time -- G64 should not smooth over this point )
G00 Z2.00000 ( retract )

G00 X-56.20144 Y-8.04438 ( rapid move to begin. )
G01 F30.00000
( Mill infeed pass 1/1 )
G01 Z-0.07500
G04 P0 ( dwell for no time -- G64 should not smooth over this point )
G01 F40.00000
G01 X-56.20144 Y-8.04438
G01 X-56.21680 Y-8.20047
G01 X-56.22828 Y-8.25815
G01 X-56.28371 Y-8.43595
G01 X-56.38536 Y-8.62612
G01 X-56.50240 Y-8.77100
G01 X-56.54398 Y-8.81258
G01 X-56.66522 Y-8.91207
G01 X-56.71411 Y-8.94474
G01 X-56.87903 Y-9.03125
G01 X-57.05683 Y-9.08670
G01 X-57.11452 Y-9.09818
G01 X-57.29999 Y-9.11499
G01 X-57.48546 Y-9.09818
G01 X-57.54314 Y-9.08670
G01 X-57.72094 Y-9.03125
G01 X-57.88586 Y-8.94474
G01 X-57.93476 Y-8.91207
G01 X-58.05599 Y-8.81258
G01 X-58.09757 Y-8.77100
G01 X-58.21462 Y-8.62612
G01 X-58.31627 Y-8.43595
G01 X-58.37169 Y-8.25815
G01 X-58.38317 Y-8.20047
G01 X-58.39854 Y-8.04438
G01 X-58.39854 Y-7.98558
G01 X-58.38317 Y-7.82950
G01 X-58.37169 Y-7.77184
G01 X-58.31627 Y-7.59404
G01 X-58.21462 Y-7.40387
G01 X-58.09757 Y-7.25899
G01 X-58.05599 Y-7.21741
G01 X-57.93476 Y-7.11792
G01 X-57.88586 Y-7.08523
G01 X-57.72094 Y-6.99872
G01 X-57.54314 Y-6.94327
G01 X-57.48546 Y-6.93181
G01 X-57.29999 Y-6.91500
G01 X-57.11452 Y-6.93181
G01 X-57.05683 Y-6.94327
G01 X-56.87903 Y-6.99872
G01 X-56.71411 Y-7.08523
G01 X-56.66522 Y-7.11792
G01 X-56.54398 Y-7.21741
G01 X-56.50240 Y-7.25899
G01 X-56.38536 Y-7.40387
G01 X-56.28371 Y-7.59404
G01 X-56.22828 Y-7.77184
G01 X-56.21680 Y-7.82950
G01 X-56.20144 Y-7.98558
G01 X-56.20144 Y-8.04438
G04 P0 ( dwell for no time -- G64 should not smooth over this point )
G00 Z2.00000 ( retract )

G00 X-50.11976 Y-21.01969 ( rapid move to begin. )
G01 F30.00000
( Mill infeed pass 1/1 )
G01 Z-0.07500
G04 P0 ( dwell for no time -- G64 should not smooth over this point )
G01 F40.00000
G01 X-50.11976 Y-21.01969
G01 X-50.13325 Y-21.12841
G01 X-50.15240 Y-21.19630
G01 X-50.17983 Y-21.25706
G01 X-50.19886 Y-21.28683
G01 X-50.26622 Y-21.37324
G01 X-51.49997 Y-22.60697
G01 X-51.49997 Y-23.02434
G01 X-51.41412 Y-23.07024
G01 X-51.36520 Y-23.10290
G01 X-51.24399 Y-23.20239
G01 X-51.20239 Y-23.24397
G01 X-51.10290 Y-23.36521
G01 X-51.07021 Y-23.41410
G01 X-50.98369 Y-23.57902
G01 X-50.92827 Y-23.75682
G01 X-50.91679 Y-23.81451
G01 X-50.90142 Y-23.97059
G01 X-50.90142 Y-24.02939
G01 X-50.91679 Y-24.18547
G01 X-50.92827 Y-24.24316
G01 X-50.98369 Y-24.42093
G01 X-51.08537 Y-24.61113
G01 X-51.22217 Y-24.77780
G01 X-51.36520 Y-24.89705
G01 X-51.41412 Y-24.92974
G01 X-51.57904 Y-25.01626
G01 X-51.75679 Y-25.07170
G01 X-51.81448 Y-25.08316
G01 X-52.00000 Y-25.09998
G01 X-52.18547 Y-25.08316
G01 X-52.24315 Y-25.07170
G01 X-52.42093 Y-25.01626
G01 X-52.58587 Y-24.92974
G01 X-52.63477 Y-24.89705
G01 X-52.75600 Y-24.79759
G01 X-52.79756 Y-24.75598
G01 X-52.91458 Y-24.61113
G01 X-53.00365 Y-24.44755
G01 X-53.02618 Y-24.39322
G01 X-53.07170 Y-24.24316
G01 X-53.08318 Y-24.18547
G01 X-53.09855 Y-24.02939
G01 X-53.09855 Y-23.97059
G01 X-53.08318 Y-23.81451
G01 X-53.07170 Y-23.75682
G01 X-53.02618 Y-23.60676
G01 X-53.00365 Y-23.55243
G01 X-52.91458 Y-23.38885
G01 X-52.79756 Y-23.24397
G01 X-52.75600 Y-23.20239
G01 X-52.63477 Y-23.10290
G01 X-52.58587 Y-23.07024
G01 X-52.50000 Y-23.02434
G01 X-52.50000 Y-22.39985
G01 X-52.49629 Y-22.35294
G01 X-52.47549 Y-22.24535
G01 X-52.45750 Y-22.20186
G01 X-52.40459 Y-22.10613
G01 X-52.37419 Y-22.07044
G01 X-51.11976 Y-20.81279
G01 X-51.11976 Y-13.81727
G01 X-52.57353 Y-12.36353
G01 X-52.63571 Y-12.28776
G01 X-52.66934 Y-12.22792
G01 X-52.69184 Y-12.17358
G01 X-52.71036 Y-12.10752
G01 X-52.71999 Y-12.00998
G01 X-52.71999 Y-10.13452
G01 X-77.70378 Y-10.13211
G01 X-77.75070 Y-10.12840
G01 X-77.79647 Y-10.11743
G01 X-77.89946 Y-10.08007
G01 X-77.93962 Y-10.05548
G01 X-78.02603 Y-9.98812
G01 X-81.31437 Y-6.69978
G01 X-89.27275 Y-6.69978
G01 X-90.95039 Y-8.37413
G01 X-90.98610 Y-8.40456
G01 X-91.08186 Y-8.45749
G01 X-91.12534 Y-8.47550
G01 X-91.23294 Y-8.49627
G01 X-91.27988 Y-8.49998
G01 X-91.88013 Y-8.49998
G01 X-91.98394 Y-8.69699
G01 X-92.01661 Y-8.74588
G01 X-92.16075 Y-8.91924
G01 X-92.33411 Y-9.06335
G01 X-92.38300 Y-9.09604
G01 X-92.57995 Y-9.19983
G01 X-92.57995 Y-17.63989
G01 X-92.58958 Y-17.73743
G01 X-92.60810 Y-17.80349
G01 X-92.63060 Y-17.85783
G01 X-92.66423 Y-17.91767
G01 X-92.72641 Y-17.99344
G01 X-95.71995 Y-20.98698
G01 X-95.71995 Y-21.40435
G01 X-95.63412 Y-21.45022
G01 X-95.58520 Y-21.48291
G01 X-95.46399 Y-21.58241
G01 X-95.42239 Y-21.62399
G01 X-95.30537 Y-21.76887
G01 X-95.20372 Y-21.95904
G01 X-95.14827 Y-22.13684
G01 X-95.13679 Y-22.19452
G01 X-95.12143 Y-22.35058
G01 X-95.12143 Y-22.40940
G01 X-95.13679 Y-22.56546
G01 X-95.14827 Y-22.62314
G01 X-95.19379 Y-22.77321
G01 X-95.21632 Y-22.82756
G01 X-95.30537 Y-22.99111
G01 X-95.44218 Y-23.15781
G01 X-95.58520 Y-23.27707
G01 X-95.63412 Y-23.30973
G01 X-95.77243 Y-23.38367
G01 X-95.82676 Y-23.40618
G01 X-95.97682 Y-23.45169
G01 X-96.03450 Y-23.46317
G01 X-96.21998 Y-23.47999
G01 X-96.40547 Y-23.46317
G01 X-96.46315 Y-23.45169
G01 X-96.64093 Y-23.39624
G01 X-96.80585 Y-23.30973
G01 X-96.85477 Y-23.27707
G01 X-96.99780 Y-23.15781
G01 X-97.13460 Y-22.99111
G01 X-97.22366 Y-22.82756
G01 X-97.24616 Y-22.77321
G01 X-97.29170 Y-22.62314
G01 X-97.30318 Y-22.56546
G01 X-97.31855 Y-22.40940
G01 X-97.31855 Y-22.35058
G01 X-97.30318 Y-22.19452
G01 X-97.29170 Y-22.13684
G01 X-97.23625 Y-21.95904
G01 X-97.14974 Y-21.79411
G01 X-97.11708 Y-21.74522
G01 X-96.99780 Y-21.60217
G01 X-96.85477 Y-21.48291
G01 X-96.80585 Y-21.45022
G01 X-96.71997 Y-21.40433
G01 X-96.71997 Y-20.77987
G01 X-96.71467 Y-20.71146
G01 X-96.71035 Y-20.68233
G01 X-96.69183 Y-20.61627
G01 X-96.66933 Y-20.56194
G01 X-96.63570 Y-20.50209
G01 X-96.61817 Y-20.47845
G01 X-96.57352 Y-20.42632
G01 X-93.57998 Y-17.43278
G01 X-93.57998 Y-9.19985
G01 X-93.77698 Y-9.09604
G01 X-93.82587 Y-9.06335
G01 X-93.99923 Y-8.91924
G01 X-94.14335 Y-8.74588
G01 X-94.17604 Y-8.69699
G01 X-94.28104 Y-8.49747
G01 X-94.35501 Y-8.25360
G01 X-94.37855 Y-8.02940
G01 X-94.37855 Y-7.97057
G01 X-94.35501 Y-7.74636
G01 X-94.28104 Y-7.50250
G01 X-94.17604 Y-7.30301
G01 X-94.14335 Y-7.25409
G01 X-93.99923 Y-7.08076
G01 X-93.82587 Y-6.93661
G01 X-93.77698 Y-6.90395
G01 X-93.60408 Y-6.81154
G01 X-93.54975 Y-6.78901
G01 X-93.33360 Y-6.72495
G01 X-93.07998 Y-6.69999
G01 X-92.85549 Y-6.72064
G01 X-92.79781 Y-6.73212
G01 X-92.61023 Y-6.78901
G01 X-92.55587 Y-6.81154
G01 X-92.38300 Y-6.90395
G01 X-92.33411 Y-6.93661
G01 X-92.18257 Y-7.06097
G01 X-92.14099 Y-7.10255
G01 X-92.01661 Y-7.25409
G01 X-91.98394 Y-7.30301
G01 X-91.88013 Y-7.49998
G01 X-91.48696 Y-7.49996
G01 X-89.83322 Y-5.84622
G01 X-89.74681 Y-5.77886
G01 X-89.70665 Y-5.75427
G01 X-89.60366 Y-5.71690
G01 X-89.55789 Y-5.70593
G01 X-89.51095 Y-5.70222
G01 X-81.07599 Y-5.70222
G01 X-81.02905 Y-5.70593
G01 X-80.98328 Y-5.71690
G01 X-80.88028 Y-5.75427
G01 X-80.84012 Y-5.77886
G01 X-80.75371 Y-5.84622
G01 X-77.46538 Y-9.13455
G01 X-52.71999 Y-9.13455
G01 X-52.71999 Y-8.99063
G01 X-52.80586 Y-8.94474
G01 X-52.85476 Y-8.91207
G01 X-52.97599 Y-8.81258
G01 X-53.01757 Y-8.77100
G01 X-53.13462 Y-8.62612
G01 X-53.22364 Y-8.46254
G01 X-53.24615 Y-8.40821
G01 X-53.29169 Y-8.25815
G01 X-53.30317 Y-8.20047
G01 X-53.31854 Y-8.04438
G01 X-53.31854 Y-7.98558
G01 X-53.30317 Y-7.82950
G01 X-53.29169 Y-7.77184
G01 X-53.23627 Y-7.59404
G01 X-53.13462 Y-7.40387
G01 X-53.01757 Y-7.25899
G01 X-52.97599 Y-7.21741
G01 X-52.85476 Y-7.11792
G01 X-52.80586 Y-7.08523
G01 X-52.64092 Y-6.99872
G01 X-52.46314 Y-6.94327
G01 X-52.40543 Y-6.93181
G01 X-52.21999 Y-6.91500
G01 X-52.03452 Y-6.93181
G01 X-51.97683 Y-6.94327
G01 X-51.79903 Y-6.99872
G01 X-51.63411 Y-7.08523
G01 X-51.58522 Y-7.11792
G01 X-51.46398 Y-7.21741
G01 X-51.42238 Y-7.25899
G01 X-51.30536 Y-7.40387
G01 X-51.21631 Y-7.56742
G01 X-51.19380 Y-7.62175
G01 X-51.14828 Y-7.77184
G01 X-51.13678 Y-7.82950
G01 X-51.12144 Y-7.98558
G01 X-51.12144 Y-8.04438
G01 X-51.13678 Y-8.20047
G01 X-51.14828 Y-8.25815
G01 X-51.20368 Y-8.43595
G01 X-51.29025 Y-8.60087
G01 X-51.32291 Y-8.64977
G01 X-51.42238 Y-8.77100
G01 X-51.46398 Y-8.81258
G01 X-51.58522 Y-8.91207
G01 X-51.63411 Y-8.94474
G01 X-51.71996 Y-8.99063
G01 X-51.71996 Y-11.80287
G01 X-50.26622 Y-13.25662
G01 X-50.22157 Y-13.30874
G01 X-50.17041 Y-13.39223
G01 X-50.13653 Y-13.48407
G01 X-50.12507 Y-13.54176
G01 X-50.11976 Y-13.61018
G01 X-50.11976 Y-21.01969
G04 P0 ( dwell for no time -- G64 should not smooth over this point )
G00 Z2.00000 ( retract )

G00 X-53.44142 Y-24.02939 ( rapid move to begin. )
G01 F30.00000
( Mill infeed pass 1/1 )
G01 Z-0.07500
G04 P0 ( dwell for no time -- G64 should not smooth over this point )
G01 F40.00000
G01 X-53.44142 Y-24.02939
G01 X-53.45681 Y-24.18547
G01 X-53.46827 Y-24.24316
G01 X-53.52372 Y-24.42093
G01 X-53.62537 Y-24.61113
G01 X-53.74239 Y-24.75598
G01 X-53.78399 Y-24.79759
G01 X-53.90520 Y-24.89705
G01 X-53.95412 Y-24.92974
G01 X-54.11904 Y-25.01626
G01 X-54.29682 Y-25.07170
G01 X-54.35450 Y-25.08316
G01 X-54.51058 Y-25.09855
G01 X-54.56939 Y-25.09855
G01 X-54.72547 Y-25.08316
G01 X-54.78315 Y-25.07170
G01 X-54.96093 Y-25.01626
G01 X-55.12587 Y-24.92974
G01 X-55.17477 Y-24.89705
G01 X-55.31780 Y-24.77780
G01 X-55.43707 Y-24.63475
G01 X-55.46974 Y-24.58585
G01 X-55.55625 Y-24.42093
G01 X-55.61170 Y-24.24316
G01 X-55.62318 Y-24.18547
G01 X-55.63855 Y-24.02939
G01 X-55.63855 Y-23.97059
G01 X-55.62318 Y-23.81451
G01 X-55.61170 Y-23.75682
G01 X-55.55625 Y-23.57902
G01 X-55.45460 Y-23.38885
G01 X-55.33758 Y-23.24397
G01 X-55.29600 Y-23.20239
G01 X-55.17477 Y-23.10290
G01 X-55.12587 Y-23.07024
G01 X-55.04000 Y-23.02434
G01 X-55.04000 Y-22.60697
G01 X-59.91885 Y-17.72811
G01 X-59.96607 Y-17.71833
G01 X-60.03133 Y-17.69702
G01 X-60.11776 Y-17.65082
G01 X-60.19353 Y-17.58864
G01 X-60.23818 Y-17.53652
G01 X-60.27085 Y-17.48762
G01 X-60.30191 Y-17.42643
G01 X-60.32322 Y-17.36118
G01 X-60.33468 Y-17.30350
G01 X-60.33999 Y-17.23507
G01 X-60.33996 Y-16.61066
G01 X-60.42586 Y-16.56474
G01 X-60.47476 Y-16.53207
G01 X-60.59599 Y-16.43258
G01 X-60.63757 Y-16.39100
G01 X-60.75462 Y-16.24612
G01 X-60.84367 Y-16.08254
G01 X-60.86617 Y-16.02821
G01 X-60.91169 Y-15.87815
G01 X-60.92317 Y-15.82047
G01 X-60.93854 Y-15.66438
G01 X-60.93854 Y-15.60558
G01 X-60.92317 Y-15.44950
G01 X-60.91169 Y-15.39184
G01 X-60.86617 Y-15.24175
G01 X-60.84367 Y-15.18742
G01 X-60.75462 Y-15.02387
G01 X-60.63757 Y-14.87899
G01 X-60.59599 Y-14.83741
G01 X-60.47476 Y-14.73792
G01 X-60.42586 Y-14.70523
G01 X-60.26094 Y-14.61872
G01 X-60.08314 Y-14.56327
G01 X-60.02546 Y-14.55181
G01 X-59.83999 Y-14.53500
G01 X-59.65452 Y-14.55181
G01 X-59.59683 Y-14.56327
G01 X-59.41903 Y-14.61872
G01 X-59.25411 Y-14.70523
G01 X-59.20522 Y-14.73792
G01 X-59.06216 Y-14.85717
G01 X-58.94291 Y-15.00022
G01 X-58.91025 Y-15.04912
G01 X-58.82371 Y-15.21404
G01 X-58.76828 Y-15.39184
G01 X-58.75680 Y-15.44950
G01 X-58.74144 Y-15.60558
G01 X-58.74144 Y-15.66438
G01 X-58.75680 Y-15.82047
G01 X-58.76828 Y-15.87815
G01 X-58.82371 Y-16.05595
G01 X-58.91025 Y-16.22087
G01 X-58.94291 Y-16.26977
G01 X-59.04240 Y-16.39100
G01 X-59.08398 Y-16.43258
G01 X-59.20522 Y-16.53207
G01 X-59.25411 Y-16.56474
G01 X-59.33999 Y-16.61063
G01 X-59.33999 Y-16.89278
G01 X-54.16667 Y-22.06813
G01 X-54.12425 Y-22.12208
G01 X-54.09062 Y-22.18192
G01 X-54.05674 Y-22.27377
G01 X-54.04528 Y-22.33145
G01 X-54.03997 Y-22.39985
G01 X-54.03997 Y-23.02434
G01 X-53.95412 Y-23.07024
G01 X-53.90520 Y-23.10290
G01 X-53.76217 Y-23.22218
G01 X-53.64292 Y-23.36521
G01 X-53.61023 Y-23.41410
G01 X-53.52372 Y-23.57902
G01 X-53.46827 Y-23.75682
G01 X-53.45681 Y-23.81451
G01 X-53.44142 Y-23.97059
G01 X-53.44142 Y-24.02939
G04 P0 ( dwell for no time -- G64 should not smooth over this point )
G00 Z2.00000 ( retract )

G00 X-55.98142 Y-24.02939 ( rapid move to begin. )
G01 F30.00000
( Mill infeed pass 1/1 )
G01 Z-0.07500
G04 P0 ( dwell for no time -- G64 should not smooth over this point )
G01 F40.00000
G01 X-55.98142 Y-24.02939
G01 X-55.99681 Y-24.18547
G01 X-56.00827 Y-24.24316
G01 X-56.06372 Y-24.42093
G01 X-56.16537 Y-24.61113
G01 X-56.30217 Y-24.77780
G01 X-56.44520 Y-24.89705
G01 X-56.49412 Y-24.92974
G01 X-56.65904 Y-25.01626
G01 X-56.83682 Y-25.07170
G01 X-56.89450 Y-25.08316
G01 X-57.05058 Y-25.09855
G01 X-57.10939 Y-25.09855
G01 X-57.26547 Y-25.08316
G01 X-57.32315 Y-25.07170
G01 X-57.41634 Y-25.04343
G01 X-62.37613 Y-30.00324
G01 X-62.41191 Y-30.03382
G01 X-62.49231 Y-30.08963
G01 X-62.58644 Y-30.12864
G01 X-62.68275 Y-30.14599
G01 X-62.72969 Y-30.14970
G01 X-75.27707 Y-30.14970
G01 X-84.30621 Y-39.17879
G01 X-84.29920 Y-39.26469
G01 X-84.31025 Y-39.39164
G01 X-84.32170 Y-39.44932
G01 X-84.35017 Y-39.54313
G01 X-84.37268 Y-39.59746
G01 X-84.43402 Y-39.70914
G01 X-84.51372 Y-39.80856
G01 X-84.55530 Y-39.85014
G01 X-84.63107 Y-39.91232
G01 X-84.67999 Y-39.94501
G01 X-84.76643 Y-39.99121
G01 X-84.82076 Y-40.01371
G01 X-84.91456 Y-40.04216
G01 X-84.97225 Y-40.05364
G01 X-85.06978 Y-40.06324
G01 X-85.12858 Y-40.06324
G01 X-85.25525 Y-40.04932
G01 X-85.40534 Y-40.00378
G01 X-85.51840 Y-39.94501
G01 X-85.56729 Y-39.91232
G01 X-85.64306 Y-39.85014
G01 X-85.68464 Y-39.80856
G01 X-85.76437 Y-39.70914
G01 X-85.82571 Y-39.59746
G01 X-85.84822 Y-39.54313
G01 X-85.87666 Y-39.44932
G01 X-85.88814 Y-39.39164
G01 X-85.89919 Y-39.26469
G01 X-85.88814 Y-39.13774
G01 X-85.87666 Y-39.08006
G01 X-85.84822 Y-38.98626
G01 X-85.82571 Y-38.93193
G01 X-85.76437 Y-38.82024
G01 X-85.66488 Y-38.69901
G01 X-85.56729 Y-38.61704
G01 X-85.51840 Y-38.58438
G01 X-85.43196 Y-38.53818
G01 X-85.37760 Y-38.51567
G01 X-85.28383 Y-38.48722
G01 X-85.22614 Y-38.47574
G01 X-85.12858 Y-38.46614
G01 X-85.06978 Y-38.46614
G01 X-85.01329 Y-38.47170
G01 X-75.83772 Y-29.29613
G01 X-75.78560 Y-29.25148
G01 X-75.70211 Y-29.20032
G01 X-75.61026 Y-29.16644
G01 X-75.55258 Y-29.15498
G01 X-75.48418 Y-29.14967
G01 X-62.93678 Y-29.14967
G01 X-58.12343 Y-24.33632
G01 X-58.15170 Y-24.24316
G01 X-58.16318 Y-24.18547
G01 X-58.17855 Y-24.02939
G01 X-58.17855 Y-23.97059
G01 X-58.16318 Y-23.81451
G01 X-58.15170 Y-23.75682
G01 X-58.10618 Y-23.60676
G01 X-58.08368 Y-23.55243
G01 X-58.00974 Y-23.41410
G01 X-57.97707 Y-23.36521
G01 X-57.85780 Y-23.22218
G01 X-57.71477 Y-23.10290
G01 X-57.66587 Y-23.07024
G01 X-57.50093 Y-22.98372
G01 X-57.32315 Y-22.92828
G01 X-57.26547 Y-22.91679
G01 X-57.08000 Y-22.89998
G01 X-56.89450 Y-22.91679
G01 X-56.83682 Y-22.92828
G01 X-56.68675 Y-22.97379
G01 X-56.63242 Y-22.99630
G01 X-56.49412 Y-23.07024
G01 X-56.44520 Y-23.10290
G01 X-56.32399 Y-23.20239
G01 X-56.28239 Y-23.24397
G01 X-56.16537 Y-23.38885
G01 X-56.06372 Y-23.57902
G01 X-56.00827 Y-23.75682
G01 X-55.99681 Y-23.81451
G01 X-55.98142 Y-23.97059
G01 X-55.98142 Y-24.02939
G04 P0 ( dwell for no time -- G64 should not smooth over this point )
G00 Z2.00000 ( retract )

G00 X-58.52142 Y-24.02939 ( rapid move to begin. )
G01 F30.00000
( Mill infeed pass 1/1 )
G01 Z-0.07500
G04 P0 ( dwell for no time -- G64 should not smooth over this point )
G01 F40.00000
G01 X-58.52142 Y-24.02939
G01 X-58.53681 Y-24.18547
G01 X-58.54827 Y-24.24316
G01 X-58.59381 Y-24.39322
G01 X-58.61632 Y-24.44755
G01 X-58.70537 Y-24.61113
G01 X-58.82239 Y-24.75598
G01 X-58.86399 Y-24.79759
G01 X-58.98520 Y-24.89705
G01 X-59.03412 Y-24.92974
G01 X-59.17242 Y-25.00366
G01 X-59.22675 Y-25.02616
G01 X-59.37682 Y-25.07170
G01 X-59.43450 Y-25.08316
G01 X-59.59058 Y-25.09855
G01 X-59.64939 Y-25.09855
G01 X-59.80547 Y-25.08316
G01 X-59.86315 Y-25.07170
G01 X-60.01322 Y-25.02616
G01 X-60.06755 Y-25.00366
G01 X-60.20587 Y-24.92974
G01 X-60.25477 Y-24.89705
G01 X-60.39780 Y-24.77780
G01 X-60.51707 Y-24.63475
G01 X-60.54974 Y-24.58585
G01 X-60.62368 Y-24.44755
G01 X-60.64618 Y-24.39322
G01 X-60.69170 Y-24.24316
G01 X-60.70318 Y-24.18547
G01 X-60.71855 Y-24.02939
G01 X-60.71855 Y-23.97059
G01 X-60.70318 Y-23.81451
G01 X-60.69170 Y-23.75682
G01 X-60.66343 Y-23.66363
G01 X-66.50467 Y-17.82237
G01 X-76.61747 Y-17.82239
G01 X-76.66441 Y-17.81868
G01 X-76.76073 Y-17.80134
G01 X-76.85486 Y-17.76232
G01 X-76.93525 Y-17.70652
G01 X-76.97104 Y-17.67594
G01 X-82.60697 Y-12.03998
G01 X-83.02432 Y-12.03998
G01 X-83.08538 Y-12.15111
G01 X-83.20240 Y-12.29599
G01 X-83.24398 Y-12.33757
G01 X-83.36521 Y-12.43706
G01 X-83.41411 Y-12.46975
G01 X-83.57903 Y-12.55626
G01 X-83.75683 Y-12.61171
G01 X-83.81451 Y-12.62316
G01 X-83.99998 Y-12.63998
G01 X-84.18546 Y-12.62316
G01 X-84.24314 Y-12.61171
G01 X-84.42094 Y-12.55626
G01 X-84.58586 Y-12.46975
G01 X-84.63476 Y-12.43706
G01 X-84.75599 Y-12.33757
G01 X-84.79757 Y-12.29599
G01 X-84.91461 Y-12.15111
G01 X-85.01626 Y-11.96094
G01 X-85.07169 Y-11.78314
G01 X-85.08317 Y-11.72545
G01 X-85.09853 Y-11.56940
G01 X-85.09853 Y-11.51059
G01 X-85.08317 Y-11.35451
G01 X-85.07169 Y-11.29683
G01 X-85.02617 Y-11.14676
G01 X-85.00367 Y-11.09243
G01 X-84.91461 Y-10.92886
G01 X-84.79757 Y-10.78398
G01 X-84.75599 Y-10.74240
G01 X-84.63476 Y-10.64290
G01 X-84.58586 Y-10.61024
G01 X-84.42094 Y-10.52373
G01 X-84.24314 Y-10.46828
G01 X-84.18546 Y-10.45680
G01 X-83.99998 Y-10.43998
G01 X-83.81451 Y-10.45680
G01 X-83.75683 Y-10.46828
G01 X-83.57903 Y-10.52373
G01 X-83.41411 Y-10.61024
G01 X-83.36521 Y-10.64290
G01 X-83.24398 Y-10.74240
G01 X-83.20240 Y-10.78398
G01 X-83.08538 Y-10.92886
G01 X-83.02434 Y-11.03996
G01 X-82.39989 Y-11.03996
G01 X-82.35295 Y-11.04367
G01 X-82.24535 Y-11.06444
G01 X-82.20187 Y-11.08245
G01 X-82.10601 Y-11.13544
G01 X-82.07024 Y-11.16597
G01 X-76.41044 Y-16.82237
G01 X-66.29758 Y-16.82237
G01 X-66.20777 Y-16.83060
G01 X-66.11407 Y-16.85887
G01 X-66.07058 Y-16.87688
G01 X-66.03042 Y-16.90146
G01 X-65.94401 Y-16.96883
G01 X-59.95629 Y-22.95655
G01 X-59.86315 Y-22.92828
G01 X-59.80547 Y-22.91679
G01 X-59.62000 Y-22.89998
G01 X-59.43450 Y-22.91679
G01 X-59.37682 Y-22.92828
G01 X-59.19904 Y-22.98372
G01 X-59.03412 Y-23.07024
G01 X-58.98520 Y-23.10290
G01 X-58.84217 Y-23.22218
G01 X-58.70537 Y-23.38885
G01 X-58.60372 Y-23.57902
G01 X-58.54827 Y-23.75682
G01 X-58.53681 Y-23.81451
G01 X-58.52142 Y-23.97059
G01 X-58.52142 Y-24.02939
G04 P0 ( dwell for no time -- G64 should not smooth over this point )
G00 Z2.00000 ( retract )

G00 X-61.06142 Y-24.02939 ( rapid move to begin. )
G01 F30.00000
( Mill infeed pass 1/1 )
G01 Z-0.07500
G04 P0 ( dwell for no time -- G64 should not smooth over this point )
G01 F40.00000
G01 X-61.06142 Y-24.02939
G01 X-61.07681 Y-24.18547
G01 X-61.08827 Y-24.24316
G01 X-61.14372 Y-24.42093
G01 X-61.24537 Y-24.61113
G01 X-61.38217 Y-24.77780
G01 X-61.52520 Y-24.89705
G01 X-61.57412 Y-24.92974
G01 X-61.73904 Y-25.01626
G01 X-61.91682 Y-25.07170
G01 X-61.97450 Y-25.08316
G01 X-62.13058 Y-25.09855
G01 X-62.18939 Y-25.09855
G01 X-62.34547 Y-25.08316
G01 X-62.40315 Y-25.07170
G01 X-62.49634 Y-25.04343
G01 X-66.45603 Y-29.00314
G01 X-66.52534 Y-29.06083
G01 X-66.61158 Y-29.10710
G01 X-66.65506 Y-29.12511
G01 X-66.70086 Y-29.13611
G01 X-66.80959 Y-29.14960
G01 X-76.11567 Y-29.14960
G01 X-84.50720 Y-37.54110
G01 X-84.50019 Y-37.62698
G01 X-84.51124 Y-37.75392
G01 X-84.52272 Y-37.81161
G01 X-84.55116 Y-37.90541
G01 X-84.57367 Y-37.95974
G01 X-84.63501 Y-38.07145
G01 X-84.71474 Y-38.17087
G01 X-84.75632 Y-38.21245
G01 X-84.83209 Y-38.27463
G01 X-84.88098 Y-38.30729
G01 X-84.96742 Y-38.35349
G01 X-85.02175 Y-38.37602
G01 X-85.14413 Y-38.41161
G01 X-85.27077 Y-38.42555
G01 X-85.32960 Y-38.42555
G01 X-85.42713 Y-38.41593
G01 X-85.48482 Y-38.40447
G01 X-85.60633 Y-38.36609
G01 X-85.71939 Y-38.30729
G01 X-85.76828 Y-38.27463
G01 X-85.86587 Y-38.19268
G01 X-85.94783 Y-38.09510
G01 X-85.98050 Y-38.04620
G01 X-86.02670 Y-37.95974
G01 X-86.04921 Y-37.90541
G01 X-86.07765 Y-37.81161
G01 X-86.08913 Y-37.75392
G01 X-86.10018 Y-37.62698
G01 X-86.08913 Y-37.50003
G01 X-86.07765 Y-37.44237
G01 X-86.04921 Y-37.34857
G01 X-86.02670 Y-37.29424
G01 X-85.96536 Y-37.18253
G01 X-85.86587 Y-37.06129
G01 X-85.76828 Y-36.97935
G01 X-85.71939 Y-36.94669
G01 X-85.63295 Y-36.90046
G01 X-85.57862 Y-36.87796
G01 X-85.48482 Y-36.84951
G01 X-85.42713 Y-36.83805
G01 X-85.32960 Y-36.82843
G01 X-85.27077 Y-36.82843
G01 X-85.21431 Y-36.83399
G01 X-76.67633 Y-28.29603
G01 X-76.62421 Y-28.25138
G01 X-76.57531 Y-28.21871
G01 X-76.54072 Y-28.20022
G01 X-76.44887 Y-28.16634
G01 X-76.39119 Y-28.15488
G01 X-76.32278 Y-28.14958
G01 X-67.01668 Y-28.14958
G01 X-63.20343 Y-24.33630
G01 X-63.23170 Y-24.24316
G01 X-63.24318 Y-24.18547
G01 X-63.25855 Y-24.02939
G01 X-63.25855 Y-23.97059
G01 X-63.24318 Y-23.81451
G01 X-63.23170 Y-23.75682
G01 X-63.18618 Y-23.60676
G01 X-63.16368 Y-23.55243
G01 X-63.08974 Y-23.41410
G01 X-63.05707 Y-23.36521
G01 X-62.93780 Y-23.22218
G01 X-62.79477 Y-23.10290
G01 X-62.74587 Y-23.07024
G01 X-62.58093 Y-22.98372
G01 X-62.40315 Y-22.92828
G01 X-62.34547 Y-22.91679
G01 X-62.16000 Y-22.89998
G01 X-61.97450 Y-22.91679
G01 X-61.91682 Y-22.92828
G01 X-61.76675 Y-22.97379
G01 X-61.71242 Y-22.99630
G01 X-61.57412 Y-23.07024
G01 X-61.52520 Y-23.10290
G01 X-61.40399 Y-23.20239
G01 X-61.36239 Y-23.24397
G01 X-61.24537 Y-23.38885
G01 X-61.14372 Y-23.57902
G01 X-61.08827 Y-23.75682
G01 X-61.07681 Y-23.81451
G01 X-61.06142 Y-23.97059
G01 X-61.06142 Y-24.02939
G04 P0 ( dwell for no time -- G64 should not smooth over this point )
G00 Z2.00000 ( retract )

G00 X-63.60142 Y-24.02939 ( rapid move to begin. )
G01 F30.00000
( Mill infeed pass 1/1 )
G01 Z-0.07500
G04 P0 ( dwell for no time -- G64 should not smooth over this point )
G01 F40.00000
G01 X-63.60142 Y-24.02939
G01 X-63.61681 Y-24.18547
G01 X-63.62827 Y-24.24316
G01 X-63.68372 Y-24.42093
G01 X-63.78537 Y-24.61113
G01 X-63.92217 Y-24.77780
G01 X-64.06520 Y-24.89705
G01 X-64.11412 Y-24.92974
G01 X-64.27904 Y-25.01626
G01 X-64.45682 Y-25.07170
G01 X-64.51450 Y-25.08316
G01 X-64.70000 Y-25.09998
G01 X-64.88547 Y-25.08316
G01 X-64.94315 Y-25.07170
G01 X-65.12093 Y-25.01626
G01 X-65.28587 Y-24.92974
G01 X-65.33477 Y-24.89705
G01 X-65.47780 Y-24.77780
G01 X-65.61460 Y-24.61113
G01 X-65.71625 Y-24.42093
G01 X-65.77170 Y-24.24316
G01 X-65.78318 Y-24.18547
G01 X-65.79855 Y-24.02939
G01 X-65.79855 Y-23.97059
G01 X-65.78318 Y-23.81451
G01 X-65.77170 Y-23.75682
G01 X-65.71625 Y-23.57902
G01 X-65.61460 Y-23.38885
G01 X-65.47780 Y-23.22218
G01 X-65.33477 Y-23.10290
G01 X-65.28587 Y-23.07024
G01 X-65.12093 Y-22.98372
G01 X-64.94315 Y-22.92828
G01 X-64.88547 Y-22.91679
G01 X-64.70000 Y-22.89998
G01 X-64.51450 Y-22.91679
G01 X-64.45682 Y-22.92828
G01 X-64.27904 Y-22.98372
G01 X-64.11412 Y-23.07024
G01 X-64.06520 Y-23.10290
G01 X-63.92217 Y-23.22218
G01 X-63.78537 Y-23.38885
G01 X-63.68372 Y-23.57902
G01 X-63.62827 Y-23.75682
G01 X-63.61681 Y-23.81451
G01 X-63.60142 Y-23.97059
G01 X-63.60142 Y-24.02939
G04 P0 ( dwell for no time -- G64 should not smooth over this point )
G00 Z2.00000 ( retract )

G00 X-66.14142 Y-24.02939 ( rapid move to begin. )
G01 F30.00000
( Mill infeed pass 1/1 )
G01 Z-0.07500
G04 P0 ( dwell for no time -- G64 should not smooth over this point )
G01 F40.00000
G01 X-66.14142 Y-24.02939
G01 X-66.15681 Y-24.18547
G01 X-66.16827 Y-24.24316
G01 X-66.22372 Y-24.42093
G01 X-66.32537 Y-24.61113
G01 X-66.44239 Y-24.75598
G01 X-66.48399 Y-24.79759
G01 X-66.60520 Y-24.89705
G01 X-66.65412 Y-24.92974
G01 X-66.81904 Y-25.01626
G01 X-66.99682 Y-25.07170
G01 X-67.05450 Y-25.08316
G01 X-67.21058 Y-25.09855
G01 X-67.26939 Y-25.09855
G01 X-67.42547 Y-25.08316
G01 X-67.48315 Y-25.07170
G01 X-67.57634 Y-25.04343
G01 X-70.25312 Y-27.72024
G01 X-70.33953 Y-27.78760
G01 X-70.36930 Y-27.80662
G01 X-70.43006 Y-27.83406
G01 X-70.49795 Y-27.85321
G01 X-70.60667 Y-27.86670
G01 X-76.68247 Y-27.86670
G01 X-90.10503 Y-41.28925
G01 X-90.09454 Y-41.34193
G01 X-90.08349 Y-41.46888
G01 X-90.09454 Y-41.59583
G01 X-90.10602 Y-41.65351
G01 X-90.13447 Y-41.74731
G01 X-90.15697 Y-41.80164
G01 X-90.20317 Y-41.88808
G01 X-90.23584 Y-41.93700
G01 X-90.31780 Y-42.03456
G01 X-90.41539 Y-42.11653
G01 X-90.46428 Y-42.14919
G01 X-90.57734 Y-42.20799
G01 X-90.72740 Y-42.25351
G01 X-90.85407 Y-42.26745
G01 X-90.91290 Y-42.26745
G01 X-91.01044 Y-42.25783
G01 X-91.06812 Y-42.24637
G01 X-91.18963 Y-42.20799
G01 X-91.30269 Y-42.14919
G01 X-91.35158 Y-42.11653
G01 X-91.44917 Y-42.03456
G01 X-91.54866 Y-41.91335
G01 X-91.61000 Y-41.80164
G01 X-91.63251 Y-41.74731
G01 X-91.66095 Y-41.65351
G01 X-91.67244 Y-41.59583
G01 X-91.68348 Y-41.46888
G01 X-91.67244 Y-41.34193
G01 X-91.66095 Y-41.28425
G01 X-91.63251 Y-41.19047
G01 X-91.61000 Y-41.13614
G01 X-91.54866 Y-41.02443
G01 X-91.44917 Y-40.90319
G01 X-91.35158 Y-40.82125
G01 X-91.30269 Y-40.78856
G01 X-91.18963 Y-40.72979
G01 X-91.03957 Y-40.68425
G01 X-90.89964 Y-40.66969
G01 X-77.21923 Y-26.99273
G01 X-77.18344 Y-26.96218
G01 X-77.08758 Y-26.90917
G01 X-77.04409 Y-26.89116
G01 X-76.99830 Y-26.88016
G01 X-76.88958 Y-26.86667
G01 X-70.81378 Y-26.86667
G01 X-68.28343 Y-24.33630
G01 X-68.31170 Y-24.24316
G01 X-68.32318 Y-24.18547
G01 X-68.33855 Y-24.02939
G01 X-68.33855 Y-23.97059
G01 X-68.32318 Y-23.81451
G01 X-68.31170 Y-23.75682
G01 X-68.25625 Y-23.57902
G01 X-68.15460 Y-23.38885
G01 X-68.03758 Y-23.24397
G01 X-67.99600 Y-23.20239
G01 X-67.87477 Y-23.10290
G01 X-67.82587 Y-23.07024
G01 X-67.66093 Y-22.98372
G01 X-67.48315 Y-22.92828
G01 X-67.42547 Y-22.91679
G01 X-67.24000 Y-22.89998
G01 X-67.05450 Y-22.91679
G01 X-66.99682 Y-22.92828
G01 X-66.81904 Y-22.98372
G01 X-66.65412 Y-23.07024
G01 X-66.60520 Y-23.10290
G01 X-66.46217 Y-23.22218
G01 X-66.34292 Y-23.36521
G01 X-66.31023 Y-23.41410
G01 X-66.22372 Y-23.57902
G01 X-66.16827 Y-23.75682
G01 X-66.15681 Y-23.81451
G01 X-66.14142 Y-23.97059
G01 X-66.14142 Y-24.02939
G04 P0 ( dwell for no time -- G64 should not smooth over this point )
G00 Z2.00000 ( retract )

G00 X-68.68142 Y-24.02939 ( rapid move to begin. )
G01 F30.00000
( Mill infeed pass 1/1 )
G01 Z-0.07500
G04 P0 ( dwell for no time -- G64 should not smooth over this point )
G01 F40.00000
G01 X-68.68142 Y-24.02939
G01 X-68.69681 Y-24.18547
G01 X-68.70827 Y-24.24316
G01 X-68.76372 Y-24.42093
G01 X-68.85023 Y-24.58585
G01 X-68.88292 Y-24.63475
G01 X-69.00217 Y-24.77780
G01 X-69.14520 Y-24.89705
G01 X-69.19412 Y-24.92974
G01 X-69.35904 Y-25.01626
G01 X-69.53682 Y-25.07170
G01 X-69.59450 Y-25.08316
G01 X-69.78000 Y-25.09998
G01 X-69.96547 Y-25.08316
G01 X-70.02315 Y-25.07170
G01 X-70.20093 Y-25.01626
G01 X-70.36587 Y-24.92974
G01 X-70.41477 Y-24.89705
G01 X-70.55780 Y-24.77780
G01 X-70.67707 Y-24.63475
G01 X-70.70974 Y-24.58585
G01 X-70.79625 Y-24.42093
G01 X-70.85170 Y-24.24316
G01 X-70.86318 Y-24.18547
G01 X-70.87855 Y-24.02939
G01 X-70.87855 Y-23.97059
G01 X-70.86318 Y-23.81451
G01 X-70.85170 Y-23.75682
G01 X-70.82343 Y-23.66363
G01 X-71.93478 Y-22.55228
G01 X-75.21707 Y-22.55228
G01 X-75.32581 Y-22.53879
G01 X-75.37160 Y-22.52779
G01 X-75.41509 Y-22.50978
G01 X-75.51095 Y-22.45680
G01 X-75.54671 Y-22.42627
G01 X-80.85643 Y-17.11998
G01 X-83.02432 Y-17.11996
G01 X-83.08538 Y-17.23111
G01 X-83.22216 Y-17.39781
G01 X-83.36521 Y-17.51706
G01 X-83.41411 Y-17.54975
G01 X-83.57903 Y-17.63626
G01 X-83.75683 Y-17.69171
G01 X-83.81451 Y-17.70316
G01 X-83.97057 Y-17.71853
G01 X-84.02940 Y-17.71853
G01 X-84.18546 Y-17.70316
G01 X-84.24314 Y-17.69171
G01 X-84.42094 Y-17.63626
G01 X-84.58586 Y-17.54975
G01 X-84.64814 Y-17.50609
G01 X-84.77781 Y-17.39781
G01 X-84.89706 Y-17.25475
G01 X-84.92975 Y-17.20586
G01 X-85.00367 Y-17.06756
G01 X-85.02617 Y-17.01322
G01 X-85.07169 Y-16.86314
G01 X-85.08317 Y-16.80545
G01 X-85.09853 Y-16.64940
G01 X-85.09853 Y-16.59059
G01 X-85.08317 Y-16.43451
G01 X-85.07169 Y-16.37683
G01 X-85.02617 Y-16.22676
G01 X-85.00367 Y-16.17243
G01 X-84.91461 Y-16.00886
G01 X-84.79757 Y-15.86398
G01 X-84.75599 Y-15.82240
G01 X-84.63476 Y-15.72290
G01 X-84.58586 Y-15.69024
G01 X-84.42094 Y-15.60373
G01 X-84.24314 Y-15.54828
G01 X-84.18546 Y-15.53680
G01 X-83.99998 Y-15.51998
G01 X-83.81451 Y-15.53680
G01 X-83.75683 Y-15.54828
G01 X-83.57903 Y-15.60373
G01 X-83.41411 Y-15.69024
G01 X-83.36521 Y-15.72290
G01 X-83.22216 Y-15.84216
G01 X-83.08538 Y-16.00886
G01 X-83.02434 Y-16.11996
G01 X-80.64937 Y-16.11996
G01 X-80.55958 Y-16.12819
G01 X-80.46588 Y-16.15646
G01 X-80.42239 Y-16.17447
G01 X-80.38224 Y-16.19905
G01 X-80.29583 Y-16.26641
G01 X-75.00998 Y-21.55226
G01 X-71.72769 Y-21.55226
G01 X-71.61896 Y-21.56574
G01 X-71.55106 Y-21.58489
G01 X-71.49031 Y-21.61233
G01 X-71.46054 Y-21.63135
G01 X-71.37413 Y-21.69871
G01 X-70.11629 Y-22.95655
G01 X-70.02315 Y-22.92828
G01 X-69.96547 Y-22.91679
G01 X-69.78000 Y-22.89998
G01 X-69.59450 Y-22.91679
G01 X-69.53682 Y-22.92828
G01 X-69.38675 Y-22.97379
G01 X-69.33242 Y-22.99630
G01 X-69.19412 Y-23.07024
G01 X-69.14520 Y-23.10290
G01 X-69.02399 Y-23.20239
G01 X-68.98239 Y-23.24397
G01 X-68.86537 Y-23.38885
G01 X-68.76372 Y-23.57902
G01 X-68.70827 Y-23.75682
G01 X-68.69681 Y-23.81451
G01 X-68.68142 Y-23.97059
G01 X-68.68142 Y-24.02939
G04 P0 ( dwell for no time -- G64 should not smooth over this point )
G00 Z2.00000 ( retract )

G00 X-71.22142 Y-24.02939 ( rapid move to begin. )
G01 F30.00000
( Mill infeed pass 1/1 )
G01 Z-0.07500
G04 P0 ( dwell for no time -- G64 should not smooth over this point )
G01 F40.00000
G01 X-71.22142 Y-24.02939
G01 X-71.23681 Y-24.18547
G01 X-71.24827 Y-24.24316
G01 X-71.30372 Y-24.42093
G01 X-71.40537 Y-24.61113
G01 X-71.52239 Y-24.75598
G01 X-71.56399 Y-24.79759
G01 X-71.68520 Y-24.89705
G01 X-71.73412 Y-24.92974
G01 X-71.89904 Y-25.01626
G01 X-72.07682 Y-25.07170
G01 X-72.13450 Y-25.08316
G01 X-72.29058 Y-25.09855
G01 X-72.34939 Y-25.09855
G01 X-72.50547 Y-25.08316
G01 X-72.56315 Y-25.07170
G01 X-72.65634 Y-25.04343
G01 X-74.13782 Y-26.52494
G01 X-74.17361 Y-26.55552
G01 X-74.26439 Y-26.61689
G01 X-74.30788 Y-26.63490
G01 X-74.40155 Y-26.66317
G01 X-74.49139 Y-26.67140
G01 X-77.31526 Y-26.67137
G01 X-92.04099 Y-41.39710
G01 X-92.03398 Y-41.48298
G01 X-92.04503 Y-41.60995
G01 X-92.05651 Y-41.66761
G01 X-92.08496 Y-41.76141
G01 X-92.10746 Y-41.81574
G01 X-92.16880 Y-41.92745
G01 X-92.26829 Y-42.04868
G01 X-92.36588 Y-42.13062
G01 X-92.41478 Y-42.16329
G01 X-92.52783 Y-42.22209
G01 X-92.67792 Y-42.26761
G01 X-92.80459 Y-42.28155
G01 X-92.86339 Y-42.28155
G01 X-92.99006 Y-42.26761
G01 X-93.11241 Y-42.23202
G01 X-93.16674 Y-42.20949
G01 X-93.25318 Y-42.16329
G01 X-93.30210 Y-42.13062
G01 X-93.39966 Y-42.04868
G01 X-93.48163 Y-41.95110
G01 X-93.51429 Y-41.90220
G01 X-93.56049 Y-41.81574
G01 X-93.58300 Y-41.76141
G01 X-93.61147 Y-41.66761
G01 X-93.62293 Y-41.60995
G01 X-93.63255 Y-41.51239
G01 X-93.63255 Y-41.45359
G01 X-93.62293 Y-41.35603
G01 X-93.61147 Y-41.29837
G01 X-93.58300 Y-41.20457
G01 X-93.56049 Y-41.15024
G01 X-93.49915 Y-41.03853
G01 X-93.39966 Y-40.91729
G01 X-93.30210 Y-40.83535
G01 X-93.25318 Y-40.80269
G01 X-93.16674 Y-40.75646
G01 X-93.11241 Y-40.73395
G01 X-93.01861 Y-40.70551
G01 X-92.96093 Y-40.69405
G01 X-92.86339 Y-40.68442
G01 X-92.80459 Y-40.68442
G01 X-92.74810 Y-40.68999
G01 X-77.87592 Y-25.81783
G01 X-77.82380 Y-25.77315
G01 X-77.74031 Y-25.72202
G01 X-77.68598 Y-25.69952
G01 X-77.59078 Y-25.67668
G01 X-77.52237 Y-25.67135
G01 X-74.69848 Y-25.67135
G01 X-73.36343 Y-24.33632
G01 X-73.39170 Y-24.24316
G01 X-73.40318 Y-24.18547
G01 X-73.41855 Y-24.02939
G01 X-73.41855 Y-23.97059
G01 X-73.40318 Y-23.81451
G01 X-73.39170 Y-23.75682
G01 X-73.33625 Y-23.57902
G01 X-73.24974 Y-23.41410
G01 X-73.21707 Y-23.36521
G01 X-73.09780 Y-23.22218
G01 X-72.95477 Y-23.10290
G01 X-72.90587 Y-23.07024
G01 X-72.74093 Y-22.98372
G01 X-72.56315 Y-22.92828
G01 X-72.50547 Y-22.91679
G01 X-72.32000 Y-22.89998
G01 X-72.13450 Y-22.91679
G01 X-72.07682 Y-22.92828
G01 X-71.89904 Y-22.98372
G01 X-71.73412 Y-23.07024
G01 X-71.68520 Y-23.10290
G01 X-71.56399 Y-23.20239
G01 X-71.52239 Y-23.24397
G01 X-71.40537 Y-23.38885
G01 X-71.31632 Y-23.55243
G01 X-71.29381 Y-23.60676
G01 X-71.24827 Y-23.75682
G01 X-71.23681 Y-23.81451
G01 X-71.22142 Y-23.97059
G01 X-71.22142 Y-24.02939
G04 P0 ( dwell for no time -- G64 should not smooth over this point )
G00 Z2.00000 ( retract )

G00 X-73.76142 Y-24.02939 ( rapid move to begin. )
G01 F30.00000
( Mill infeed pass 1/1 )
G01 Z-0.07500
G04 P0 ( dwell for no time -- G64 should not smooth over this point )
G01 F40.00000
G01 X-73.76142 Y-24.02939
G01 X-73.77681 Y-24.18547
G01 X-73.78827 Y-24.24316
G01 X-73.84372 Y-24.42093
G01 X-73.94537 Y-24.61113
G01 X-74.06239 Y-24.75598
G01 X-74.10399 Y-24.79759
G01 X-74.22520 Y-24.89705
G01 X-74.27412 Y-24.92974
G01 X-74.43904 Y-25.01626
G01 X-74.61682 Y-25.07170
G01 X-74.67450 Y-25.08316
G01 X-74.86000 Y-25.09998
G01 X-75.04547 Y-25.08316
G01 X-75.10315 Y-25.07170
G01 X-75.25321 Y-25.02616
G01 X-75.30755 Y-25.00366
G01 X-75.44587 Y-24.92974
G01 X-75.49477 Y-24.89705
G01 X-75.63780 Y-24.77780
G01 X-75.77460 Y-24.61113
G01 X-75.83566 Y-24.49995
G01 X-77.55987 Y-24.49998
G01 X-77.64968 Y-24.49175
G01 X-77.74338 Y-24.46348
G01 X-77.78686 Y-24.44547
G01 X-77.82702 Y-24.42088
G01 X-77.91343 Y-24.35352
G01 X-82.60697 Y-19.65998
G01 X-83.02432 Y-19.65998
G01 X-83.08538 Y-19.77111
G01 X-83.20240 Y-19.91599
G01 X-83.24398 Y-19.95757
G01 X-83.36521 Y-20.05706
G01 X-83.41411 Y-20.08975
G01 X-83.57903 Y-20.17626
G01 X-83.75683 Y-20.23171
G01 X-83.81451 Y-20.24316
G01 X-83.99998 Y-20.25998
G01 X-84.18546 Y-20.24316
G01 X-84.24314 Y-20.23171
G01 X-84.42094 Y-20.17626
G01 X-84.58586 Y-20.08975
G01 X-84.63476 Y-20.05706
G01 X-84.77781 Y-19.93781
G01 X-84.91461 Y-19.77111
G01 X-85.01626 Y-19.58094
G01 X-85.07169 Y-19.40314
G01 X-85.08317 Y-19.34545
G01 X-85.09853 Y-19.18940
G01 X-85.09853 Y-19.13059
G01 X-85.08317 Y-18.97451
G01 X-85.07169 Y-18.91683
G01 X-85.01626 Y-18.73903
G01 X-84.92975 Y-18.57411
G01 X-84.89706 Y-18.52521
G01 X-84.79757 Y-18.40398
G01 X-84.75599 Y-18.36240
G01 X-84.63476 Y-18.26290
G01 X-84.58586 Y-18.23024
G01 X-84.44756 Y-18.15630
G01 X-84.39323 Y-18.13380
G01 X-84.24314 Y-18.08828
G01 X-84.18546 Y-18.07680
G01 X-83.99998 Y-18.05998
G01 X-83.81451 Y-18.07680
G01 X-83.75683 Y-18.08828
G01 X-83.57903 Y-18.14373
G01 X-83.41411 Y-18.23024
G01 X-83.36521 Y-18.26290
G01 X-83.22216 Y-18.38216
G01 X-83.08538 Y-18.54886
G01 X-83.02434 Y-18.65998
G01 X-82.39989 Y-18.65996
G01 X-82.29115 Y-18.67345
G01 X-82.24535 Y-18.68444
G01 X-82.20187 Y-18.70245
G01 X-82.10603 Y-18.75544
G01 X-82.07027 Y-18.78597
G01 X-77.35283 Y-23.49995
G01 X-75.83564 Y-23.49998
G01 X-75.77460 Y-23.38885
G01 X-75.63780 Y-23.22218
G01 X-75.49477 Y-23.10290
G01 X-75.44587 Y-23.07024
G01 X-75.30755 Y-22.99630
G01 X-75.25321 Y-22.97379
G01 X-75.10315 Y-22.92828
G01 X-75.04547 Y-22.91679
G01 X-74.86000 Y-22.89998
G01 X-74.67450 Y-22.91679
G01 X-74.61682 Y-22.92828
G01 X-74.46675 Y-22.97379
G01 X-74.41242 Y-22.99630
G01 X-74.27412 Y-23.07024
G01 X-74.22520 Y-23.10290
G01 X-74.10399 Y-23.20239
G01 X-74.06239 Y-23.24397
G01 X-73.94537 Y-23.38885
G01 X-73.84372 Y-23.57902
G01 X-73.78827 Y-23.75682
G01 X-73.77681 Y-23.81451
G01 X-73.76142 Y-23.97059
G01 X-73.76142 Y-24.02939
G04 P0 ( dwell for no time -- G64 should not smooth over this point )
G00 Z2.00000 ( retract )

G00 X-66.14142 Y-31.64939 ( rapid move to begin. )
G01 F30.00000
( Mill infeed pass 1/1 )
G01 Z-0.07500
G04 P0 ( dwell for no time -- G64 should not smooth over this point )
G01 F40.00000
G01 X-66.14142 Y-31.64939
G01 X-66.15681 Y-31.80547
G01 X-66.16827 Y-31.86316
G01 X-66.21381 Y-32.01322
G01 X-66.23632 Y-32.06755
G01 X-66.31023 Y-32.20585
G01 X-66.34292 Y-32.25475
G01 X-66.46217 Y-32.39780
G01 X-66.60520 Y-32.51705
G01 X-66.65412 Y-32.54974
G01 X-66.81904 Y-32.63626
G01 X-67.02539 Y-32.69884
G01 X-67.21058 Y-32.71855
G01 X-67.26939 Y-32.71855
G01 X-67.45458 Y-32.69884
G01 X-67.57634 Y-32.66343
G01 X-68.48663 Y-33.57372
G01 X-68.52242 Y-33.60430
G01 X-68.60281 Y-33.66011
G01 X-68.69694 Y-33.69912
G01 X-68.79326 Y-33.71647
G01 X-68.84020 Y-33.72018
G01 X-72.48091 Y-33.72018
G01 X-82.78261 Y-44.01845
G01 X-82.81840 Y-44.04901
G01 X-82.91426 Y-44.10199
G01 X-82.95775 Y-44.12000
G01 X-83.00354 Y-44.13100
G01 X-83.11225 Y-44.14449
G01 X-86.51738 Y-44.14449
G01 X-91.99664 Y-49.62375
G01 X-91.95923 Y-49.74707
G01 X-91.94777 Y-49.80475
G01 X-91.93144 Y-49.97059
G01 X-91.93144 Y-50.02939
G01 X-91.94777 Y-50.19523
G01 X-91.95923 Y-50.25291
G01 X-92.01752 Y-50.44008
G01 X-92.10865 Y-50.61364
G01 X-92.14134 Y-50.66254
G01 X-92.24703 Y-50.79134
G01 X-92.28864 Y-50.83294
G01 X-92.41744 Y-50.93863
G01 X-92.46634 Y-50.97132
G01 X-92.61328 Y-51.04986
G01 X-92.66763 Y-51.07236
G01 X-92.85564 Y-51.12789
G01 X-93.05059 Y-51.14854
G01 X-93.10939 Y-51.14854
G01 X-93.27523 Y-51.13218
G01 X-93.33291 Y-51.12073
G01 X-93.49235 Y-51.07236
G01 X-93.54668 Y-51.04986
G01 X-93.69364 Y-50.97132
G01 X-93.74254 Y-50.93863
G01 X-93.89316 Y-50.81316
G01 X-94.01863 Y-50.66254
G01 X-94.05132 Y-50.61364
G01 X-94.12986 Y-50.46668
G01 X-94.15236 Y-50.41235
G01 X-94.20073 Y-50.25291
G01 X-94.21221 Y-50.19523
G01 X-94.22854 Y-50.02939
G01 X-94.22854 Y-49.97059
G01 X-94.20789 Y-49.77564
G01 X-94.15236 Y-49.58763
G01 X-94.12986 Y-49.53328
G01 X-94.05132 Y-49.38634
G01 X-94.01863 Y-49.33744
G01 X-93.89316 Y-49.18682
G01 X-93.74254 Y-49.06134
G01 X-93.69364 Y-49.02865
G01 X-93.54668 Y-48.95012
G01 X-93.49235 Y-48.92761
G01 X-93.30433 Y-48.87209
G01 X-93.10939 Y-48.85144
G01 X-93.05059 Y-48.85144
G01 X-92.85564 Y-48.87209
G01 X-92.70370 Y-48.91667
G01 X-87.05411 Y-43.27047
G01 X-87.01834 Y-43.23994
G01 X-86.92248 Y-43.18696
G01 X-86.87900 Y-43.16895
G01 X-86.83320 Y-43.15795
G01 X-86.72449 Y-43.14447
G01 X-83.31934 Y-43.14447
G01 X-73.01763 Y-32.84619
G01 X-72.98185 Y-32.81563
G01 X-72.88599 Y-32.76265
G01 X-72.84250 Y-32.74464
G01 X-72.79670 Y-32.73364
G01 X-72.68797 Y-32.72015
G01 X-69.04728 Y-32.72015
G01 X-68.28343 Y-31.95630
G01 X-68.31886 Y-31.83458
G01 X-68.33855 Y-31.64939
G01 X-68.33855 Y-31.59059
G01 X-68.32318 Y-31.43451
G01 X-68.31170 Y-31.37682
G01 X-68.25625 Y-31.19902
G01 X-68.15460 Y-31.00885
G01 X-68.01780 Y-30.84218
G01 X-67.87477 Y-30.72290
G01 X-67.82587 Y-30.69024
G01 X-67.66093 Y-30.60372
G01 X-67.45458 Y-30.54111
G01 X-67.26939 Y-30.52143
G01 X-67.21058 Y-30.52143
G01 X-67.05450 Y-30.53679
G01 X-66.99682 Y-30.54828
G01 X-66.84675 Y-30.59379
G01 X-66.79242 Y-30.61630
G01 X-66.65412 Y-30.69024
G01 X-66.60520 Y-30.72290
G01 X-66.48399 Y-30.82239
G01 X-66.44239 Y-30.86397
G01 X-66.32537 Y-31.00885
G01 X-66.23632 Y-31.17243
G01 X-66.21381 Y-31.22676
G01 X-66.16113 Y-31.40540
G01 X-66.14142 Y-31.59059
G01 X-66.14142 Y-31.64939
G04 P0 ( dwell for no time -- G64 should not smooth over this point )
G00 Z2.00000 ( retract )

G00 X-63.60142 Y-31.64939 ( rapid move to begin. )
G01 F30.00000
( Mill infeed pass 1/1 )
G01 Z-0.07500
G04 P0 ( dwell for no time -- G64 should not smooth over this point )
G01 F40.00000
G01 X-63.60142 Y-31.64939
G01 X-63.62113 Y-31.83458
G01 X-63.67381 Y-32.01322
G01 X-63.69632 Y-32.06755
G01 X-63.78537 Y-32.23113
G01 X-63.92217 Y-32.39780
G01 X-64.06520 Y-32.51705
G01 X-64.11412 Y-32.54974
G01 X-64.27904 Y-32.63626
G01 X-64.48539 Y-32.69884
G01 X-64.67058 Y-32.71855
G01 X-64.72939 Y-32.71855
G01 X-64.91458 Y-32.69884
G01 X-65.12093 Y-32.63626
G01 X-65.28587 Y-32.54974
G01 X-65.33477 Y-32.51705
G01 X-65.47780 Y-32.39780
G01 X-65.61460 Y-32.23113
G01 X-65.70368 Y-32.06755
G01 X-65.72618 Y-32.01322
G01 X-65.77886 Y-31.83458
G01 X-65.79855 Y-31.64939
G01 X-65.79855 Y-31.59059
G01 X-65.78318 Y-31.43451
G01 X-65.77170 Y-31.37682
G01 X-65.71625 Y-31.19902
G01 X-65.61460 Y-31.00885
G01 X-65.47780 Y-30.84218
G01 X-65.33477 Y-30.72290
G01 X-65.28587 Y-30.69024
G01 X-65.12093 Y-30.60372
G01 X-64.91458 Y-30.54111
G01 X-64.72939 Y-30.52143
G01 X-64.67058 Y-30.52143
G01 X-64.48539 Y-30.54111
G01 X-64.27904 Y-30.60372
G01 X-64.11412 Y-30.69024
G01 X-64.06520 Y-30.72290
G01 X-63.92217 Y-30.84218
G01 X-63.78537 Y-31.00885
G01 X-63.69632 Y-31.17243
G01 X-63.67381 Y-31.22676
G01 X-63.62113 Y-31.40540
G01 X-63.60142 Y-31.59059
G01 X-63.60142 Y-31.64939
G04 P0 ( dwell for no time -- G64 should not smooth over this point )
G00 Z2.00000 ( retract )

G00 X-61.06142 Y-31.64939 ( rapid move to begin. )
G01 F30.00000
( Mill infeed pass 1/1 )
G01 Z-0.07500
G04 P0 ( dwell for no time -- G64 should not smooth over this point )
G01 F40.00000
G01 X-61.06142 Y-31.64939
G01 X-61.08113 Y-31.83458
G01 X-61.13381 Y-32.01322
G01 X-61.15632 Y-32.06755
G01 X-61.24537 Y-32.23113
G01 X-61.36239 Y-32.37598
G01 X-61.40399 Y-32.41759
G01 X-61.52520 Y-32.51705
G01 X-61.57412 Y-32.54974
G01 X-61.65997 Y-32.59564
G01 X-61.65997 Y-33.22008
G01 X-61.66528 Y-33.28848
G01 X-61.68812 Y-33.38368
G01 X-61.71062 Y-33.43801
G01 X-61.76178 Y-33.52150
G01 X-61.80643 Y-33.57362
G01 X-65.25133 Y-37.01854
G01 X-65.19090 Y-37.09444
G01 X-65.12956 Y-37.20612
G01 X-65.10706 Y-37.26045
G01 X-65.07861 Y-37.35426
G01 X-65.06713 Y-37.41194
G01 X-65.05608 Y-37.53889
G01 X-65.06713 Y-37.66584
G01 X-65.07861 Y-37.72352
G01 X-65.10706 Y-37.81732
G01 X-65.12956 Y-37.87165
G01 X-65.19090 Y-37.98334
G01 X-65.29040 Y-38.10457
G01 X-65.38798 Y-38.18654
G01 X-65.43688 Y-38.21920
G01 X-65.54993 Y-38.27800
G01 X-65.70002 Y-38.32352
G01 X-65.82669 Y-38.33744
G01 X-65.88549 Y-38.33744
G01 X-66.01216 Y-38.32352
G01 X-66.16222 Y-38.27800
G01 X-66.27528 Y-38.21920
G01 X-66.32420 Y-38.18654
G01 X-66.39997 Y-38.12433
G01 X-66.42176 Y-38.10457
G01 X-66.47757 Y-38.03889
G01 X-75.38509 Y-38.03886
G01 X-84.38441 Y-47.03475
G01 X-84.42020 Y-47.06531
G01 X-84.51606 Y-47.11830
G01 X-84.55955 Y-47.13630
G01 X-84.60534 Y-47.14730
G01 X-84.71408 Y-47.16079
G01 X-87.31026 Y-47.16079
G01 X-89.55723 Y-49.40775
G01 X-89.47752 Y-49.55990
G01 X-89.41923 Y-49.74707
G01 X-89.40777 Y-49.80475
G01 X-89.39144 Y-49.97059
G01 X-89.39144 Y-50.02939
G01 X-89.40777 Y-50.19523
G01 X-89.41923 Y-50.25291
G01 X-89.47752 Y-50.44008
G01 X-89.56865 Y-50.61364
G01 X-89.60134 Y-50.66254
G01 X-89.70703 Y-50.79134
G01 X-89.74864 Y-50.83294
G01 X-89.87744 Y-50.93863
G01 X-89.92634 Y-50.97132
G01 X-90.07328 Y-51.04986
G01 X-90.12763 Y-51.07236
G01 X-90.28707 Y-51.12073
G01 X-90.34475 Y-51.13218
G01 X-90.51059 Y-51.14854
G01 X-90.56939 Y-51.14854
G01 X-90.73523 Y-51.13218
G01 X-90.79291 Y-51.12073
G01 X-90.95235 Y-51.07236
G01 X-91.00668 Y-51.04986
G01 X-91.15364 Y-50.97132
G01 X-91.20254 Y-50.93863
G01 X-91.35316 Y-50.81316
G01 X-91.47863 Y-50.66254
G01 X-91.51132 Y-50.61364
G01 X-91.60246 Y-50.44008
G01 X-91.66073 Y-50.25291
G01 X-91.67221 Y-50.19523
G01 X-91.68854 Y-50.02939
G01 X-91.68854 Y-49.97059
G01 X-91.67221 Y-49.80475
G01 X-91.66073 Y-49.74707
G01 X-91.61236 Y-49.58763
G01 X-91.58986 Y-49.53328
G01 X-91.51132 Y-49.38634
G01 X-91.47863 Y-49.33744
G01 X-91.37292 Y-49.20864
G01 X-91.33134 Y-49.16703
G01 X-91.20254 Y-49.06134
G01 X-91.15364 Y-49.02865
G01 X-91.00668 Y-48.95012
G01 X-90.95235 Y-48.92761
G01 X-90.79291 Y-48.87923
G01 X-90.73523 Y-48.86777
G01 X-90.56939 Y-48.85144
G01 X-90.51059 Y-48.85144
G01 X-90.42354 Y-48.86000
G01 X-87.84692 Y-46.28670
G01 X-87.81118 Y-46.25622
G01 X-87.71537 Y-46.20326
G01 X-87.67188 Y-46.18525
G01 X-87.62609 Y-46.17425
G01 X-87.51738 Y-46.16077
G01 X-84.92117 Y-46.16077
G01 X-75.94572 Y-37.18532
G01 X-75.90993 Y-37.15474
G01 X-75.82954 Y-37.09894
G01 X-75.73541 Y-37.05992
G01 X-75.63909 Y-37.04257
G01 X-75.59218 Y-37.03886
G01 X-66.47754 Y-37.03886
G01 X-66.42176 Y-36.97321
G01 X-66.35608 Y-36.91740
G01 X-66.35077 Y-36.84775
G01 X-66.32793 Y-36.75256
G01 X-66.28694 Y-36.66363
G01 X-66.25427 Y-36.61473
G01 X-66.20962 Y-36.56261
G01 X-62.66000 Y-33.01296
G01 X-62.66000 Y-32.59564
G01 X-62.74587 Y-32.54974
G01 X-62.79477 Y-32.51705
G01 X-62.91600 Y-32.41759
G01 X-62.95758 Y-32.37598
G01 X-63.07460 Y-32.23113
G01 X-63.16368 Y-32.06755
G01 X-63.18618 Y-32.01322
G01 X-63.23170 Y-31.86316
G01 X-63.24318 Y-31.80547
G01 X-63.25855 Y-31.64939
G01 X-63.25855 Y-31.59059
G01 X-63.24318 Y-31.43451
G01 X-63.23170 Y-31.37682
G01 X-63.18618 Y-31.22676
G01 X-63.16368 Y-31.17243
G01 X-63.07460 Y-31.00885
G01 X-62.93780 Y-30.84218
G01 X-62.79477 Y-30.72290
G01 X-62.74587 Y-30.69024
G01 X-62.58093 Y-30.60372
G01 X-62.37458 Y-30.54111
G01 X-62.18939 Y-30.52143
G01 X-62.13058 Y-30.52143
G01 X-61.97450 Y-30.53679
G01 X-61.91682 Y-30.54828
G01 X-61.73904 Y-30.60372
G01 X-61.57412 Y-30.69024
G01 X-61.52520 Y-30.72290
G01 X-61.38217 Y-30.84218
G01 X-61.24537 Y-31.00885
G01 X-61.15632 Y-31.17243
G01 X-61.13381 Y-31.22676
G01 X-61.08827 Y-31.37682
G01 X-61.07681 Y-31.43451
G01 X-61.06142 Y-31.59059
G01 X-61.06142 Y-31.64939
G04 P0 ( dwell for no time -- G64 should not smooth over this point )
G00 Z2.00000 ( retract )

G00 X-58.52142 Y-31.64939 ( rapid move to begin. )
G01 F30.00000
( Mill infeed pass 1/1 )
G01 Z-0.07500
G04 P0 ( dwell for no time -- G64 should not smooth over this point )
G01 F40.00000
G01 X-58.52142 Y-31.64939
G01 X-58.54113 Y-31.83458
G01 X-58.59381 Y-32.01322
G01 X-58.61632 Y-32.06755
G01 X-58.70537 Y-32.23113
G01 X-58.84217 Y-32.39780
G01 X-58.98520 Y-32.51705
G01 X-59.03412 Y-32.54974
G01 X-59.19904 Y-32.63626
G01 X-59.40539 Y-32.69884
G01 X-59.59058 Y-32.71855
G01 X-59.64939 Y-32.71855
G01 X-59.83458 Y-32.69884
G01 X-60.04093 Y-32.63626
G01 X-60.20587 Y-32.54974
G01 X-60.25477 Y-32.51705
G01 X-60.39780 Y-32.39780
G01 X-60.53460 Y-32.23113
G01 X-60.62368 Y-32.06755
G01 X-60.64618 Y-32.01322
G01 X-60.69886 Y-31.83458
G01 X-60.71855 Y-31.64939
G01 X-60.71855 Y-31.59059
G01 X-60.70318 Y-31.43451
G01 X-60.69170 Y-31.37682
G01 X-60.63625 Y-31.19902
G01 X-60.53460 Y-31.00885
G01 X-60.39780 Y-30.84218
G01 X-60.25477 Y-30.72290
G01 X-60.20587 Y-30.69024
G01 X-60.04093 Y-30.60372
G01 X-59.83458 Y-30.54111
G01 X-59.64939 Y-30.52143
G01 X-59.59058 Y-30.52143
G01 X-59.40539 Y-30.54111
G01 X-59.19904 Y-30.60372
G01 X-59.03412 Y-30.69024
G01 X-58.98520 Y-30.72290
G01 X-58.84217 Y-30.84218
G01 X-58.70537 Y-31.00885
G01 X-58.61632 Y-31.17243
G01 X-58.59381 Y-31.22676
G01 X-58.54113 Y-31.40540
G01 X-58.52142 Y-31.59059
G01 X-58.52142 Y-31.64939
G04 P0 ( dwell for no time -- G64 should not smooth over this point )
G00 Z2.00000 ( retract )

G00 X-55.98142 Y-31.64939 ( rapid move to begin. )
G01 F30.00000
( Mill infeed pass 1/1 )
G01 Z-0.07500
G04 P0 ( dwell for no time -- G64 should not smooth over this point )
G01 F40.00000
G01 X-55.98142 Y-31.64939
G01 X-56.00113 Y-31.83458
G01 X-56.05381 Y-32.01322
G01 X-56.07632 Y-32.06755
G01 X-56.16537 Y-32.23113
G01 X-56.28239 Y-32.37598
G01 X-56.32399 Y-32.41759
G01 X-56.44520 Y-32.51705
G01 X-56.49412 Y-32.54974
G01 X-56.57997 Y-32.59564
G01 X-56.57997 Y-33.22008
G01 X-56.58528 Y-33.28848
G01 X-56.59674 Y-33.34616
G01 X-56.61805 Y-33.41141
G01 X-56.64911 Y-33.47260
G01 X-56.68178 Y-33.52150
G01 X-56.72643 Y-33.57362
G01 X-56.77855 Y-33.61827
G01 X-56.82745 Y-33.65094
G01 X-56.87106 Y-33.67314
G01 X-63.87655 Y-40.67863
G01 X-63.84112 Y-40.80038
G01 X-63.82144 Y-40.98559
G01 X-63.82144 Y-41.04439
G01 X-63.84112 Y-41.22958
G01 X-63.89380 Y-41.40822
G01 X-63.91631 Y-41.46255
G01 X-64.00536 Y-41.62610
G01 X-64.12240 Y-41.77099
G01 X-64.16398 Y-41.81257
G01 X-64.28522 Y-41.91206
G01 X-64.33411 Y-41.94475
G01 X-64.49903 Y-42.03126
G01 X-64.67683 Y-42.08671
G01 X-64.73452 Y-42.09816
G01 X-64.89057 Y-42.11353
G01 X-64.94940 Y-42.11353
G01 X-65.13459 Y-42.09385
G01 X-65.25633 Y-42.05844
G01 X-66.16652 Y-42.96862
G01 X-66.25293 Y-43.03598
G01 X-66.29309 Y-43.06057
G01 X-66.39608 Y-43.09793
G01 X-66.44185 Y-43.10891
G01 X-66.48879 Y-43.11261
G01 X-70.78586 Y-43.11261
G01 X-70.83280 Y-43.10891
G01 X-70.87857 Y-43.09793
G01 X-70.98157 Y-43.06057
G01 X-71.02173 Y-43.03598
G01 X-71.10814 Y-42.96862
G01 X-72.79782 Y-41.27894
G01 X-72.86000 Y-41.20317
G01 X-72.89363 Y-41.14333
G01 X-72.91614 Y-41.08900
G01 X-72.93465 Y-41.02293
G01 X-72.94428 Y-40.92016
G01 X-73.55208 Y-40.31239
G01 X-75.24417 Y-40.31239
G01 X-85.28533 Y-50.35352
G01 X-85.33745 Y-50.39817
G01 X-85.42094 Y-50.44933
G01 X-85.47527 Y-50.47183
G01 X-85.51278 Y-50.48321
G01 X-85.60948 Y-50.49853
G01 X-86.84999 Y-50.49998
G01 X-86.84999 Y-50.84999
G01 X-86.85576 Y-50.90848
G01 X-86.87283 Y-50.96480
G01 X-86.90054 Y-51.01666
G01 X-86.92723 Y-51.04915
G01 X-87.12365 Y-51.14740
G01 X-87.14999 Y-51.14999
G01 X-88.84999 Y-51.14999
G01 X-88.87879 Y-51.14712
G01 X-89.06246 Y-51.06170
G01 X-89.09944 Y-51.01666
G01 X-89.12715 Y-50.96480
G01 X-89.14422 Y-50.90848
G01 X-89.14999 Y-50.84999
G01 X-89.14999 Y-49.14999
G01 X-89.14023 Y-49.07831
G01 X-88.92167 Y-48.85974
G01 X-88.84999 Y-48.84999
G01 X-87.14999 Y-48.84999
G01 X-87.09147 Y-48.85576
G01 X-87.03518 Y-48.87283
G01 X-86.98332 Y-48.90054
G01 X-86.93785 Y-48.93785
G01 X-86.90054 Y-48.98332
G01 X-86.87283 Y-49.03518
G01 X-86.85576 Y-49.09147
G01 X-86.84999 Y-49.14999
G01 X-86.84999 Y-49.49998
G01 X-85.84598 Y-49.49998
G01 X-75.80483 Y-39.45882
G01 X-75.75271 Y-39.41417
G01 X-75.70381 Y-39.38151
G01 X-75.61489 Y-39.34051
G01 X-75.51969 Y-39.31768
G01 X-75.45128 Y-39.31237
G01 X-73.34499 Y-39.31237
G01 X-73.27656 Y-39.31768
G01 X-73.21888 Y-39.32913
G01 X-73.12703 Y-39.36301
G01 X-73.09244 Y-39.38151
G01 X-73.04354 Y-39.41417
G01 X-72.99104 Y-39.45923
G01 X-72.04669 Y-40.41000
G01 X-72.01027 Y-40.46550
G01 X-71.98076 Y-40.52956
G01 X-71.95078 Y-40.63258
G01 X-71.94616 Y-40.71638
G01 X-70.54748 Y-42.11508
G01 X-66.72717 Y-42.11505
G01 X-65.96342 Y-41.35133
G01 X-65.99885 Y-41.22958
G01 X-66.01854 Y-41.04439
G01 X-66.01854 Y-40.98559
G01 X-66.00317 Y-40.82951
G01 X-65.99169 Y-40.77183
G01 X-65.93627 Y-40.59403
G01 X-65.84973 Y-40.42910
G01 X-65.81706 Y-40.38021
G01 X-65.69781 Y-40.23718
G01 X-65.55476 Y-40.11790
G01 X-65.50586 Y-40.08524
G01 X-65.36756 Y-40.01130
G01 X-65.31323 Y-39.98879
G01 X-65.13459 Y-39.93612
G01 X-64.94940 Y-39.91643
G01 X-64.89057 Y-39.91643
G01 X-64.70538 Y-39.93612
G01 X-64.58364 Y-39.97155
G01 X-57.57997 Y-32.96788
G01 X-57.57997 Y-32.59564
G01 X-57.66587 Y-32.54974
G01 X-57.71477 Y-32.51705
G01 X-57.83600 Y-32.41759
G01 X-57.87758 Y-32.37598
G01 X-57.99460 Y-32.23113
G01 X-58.08368 Y-32.06755
G01 X-58.10618 Y-32.01322
G01 X-58.15170 Y-31.86316
G01 X-58.16318 Y-31.80547
G01 X-58.17855 Y-31.64939
G01 X-58.17855 Y-31.59059
G01 X-58.16318 Y-31.43451
G01 X-58.15170 Y-31.37682
G01 X-58.10618 Y-31.22676
G01 X-58.08368 Y-31.17243
G01 X-57.99460 Y-31.00885
G01 X-57.85780 Y-30.84218
G01 X-57.71477 Y-30.72290
G01 X-57.66587 Y-30.69024
G01 X-57.50093 Y-30.60372
G01 X-57.29458 Y-30.54111
G01 X-57.10939 Y-30.52143
G01 X-57.05058 Y-30.52143
G01 X-56.89450 Y-30.53679
G01 X-56.83682 Y-30.54828
G01 X-56.65904 Y-30.60372
G01 X-56.49412 Y-30.69024
G01 X-56.44520 Y-30.72290
G01 X-56.30217 Y-30.84218
G01 X-56.16537 Y-31.00885
G01 X-56.07632 Y-31.17243
G01 X-56.05381 Y-31.22676
G01 X-56.00827 Y-31.37682
G01 X-55.99681 Y-31.43451
G01 X-55.98142 Y-31.59059
G01 X-55.98142 Y-31.64939
G04 P0 ( dwell for no time -- G64 should not smooth over this point )
G00 Z2.00000 ( retract )

G00 X-61.42688 Y-36.39378 ( rapid move to begin. )
G01 F30.00000
( Mill infeed pass 1/1 )
G01 Z-0.07500
G04 P0 ( dwell for no time -- G64 should not smooth over this point )
G01 F40.00000
G01 X-61.42688 Y-36.39378
G01 X-61.43795 Y-36.52073
G01 X-61.44941 Y-36.57841
G01 X-61.47786 Y-36.67222
G01 X-61.50036 Y-36.72655
G01 X-61.56170 Y-36.83825
G01 X-61.64143 Y-36.93767
G01 X-61.68301 Y-36.97925
G01 X-61.75878 Y-37.04143
G01 X-61.80767 Y-37.07409
G01 X-61.92073 Y-37.13289
G01 X-62.04227 Y-37.17127
G01 X-62.09993 Y-37.18273
G01 X-62.19749 Y-37.19233
G01 X-62.25629 Y-37.19233
G01 X-62.38296 Y-37.17841
G01 X-62.50531 Y-37.14280
G01 X-62.55964 Y-37.12030
G01 X-62.64610 Y-37.07409
G01 X-62.69500 Y-37.04143
G01 X-62.74130 Y-37.00341
G01 X-66.41656 Y-40.67866
G01 X-66.38112 Y-40.80038
G01 X-66.36144 Y-40.98559
G01 X-66.36144 Y-41.04439
G01 X-66.38112 Y-41.22958
G01 X-66.43380 Y-41.40822
G01 X-66.45631 Y-41.46255
G01 X-66.53025 Y-41.60086
G01 X-66.56291 Y-41.64975
G01 X-66.68216 Y-41.79280
G01 X-66.82522 Y-41.91206
G01 X-66.87411 Y-41.94475
G01 X-67.03903 Y-42.03126
G01 X-67.24538 Y-42.09385
G01 X-67.43057 Y-42.11353
G01 X-67.48940 Y-42.11353
G01 X-67.67459 Y-42.09385
G01 X-67.88094 Y-42.03126
G01 X-68.04586 Y-41.94475
G01 X-68.09476 Y-41.91206
G01 X-68.23781 Y-41.79280
G01 X-68.35706 Y-41.64975
G01 X-68.38973 Y-41.60086
G01 X-68.46367 Y-41.46255
G01 X-68.48617 Y-41.40822
G01 X-68.53885 Y-41.22958
G01 X-68.55854 Y-41.04439
G01 X-68.55854 Y-40.98559
G01 X-68.54317 Y-40.82951
G01 X-68.53169 Y-40.77183
G01 X-68.47627 Y-40.59403
G01 X-68.37462 Y-40.40386
G01 X-68.23781 Y-40.23718
G01 X-68.09476 Y-40.11790
G01 X-68.04586 Y-40.08524
G01 X-67.90756 Y-40.01130
G01 X-67.85323 Y-39.98879
G01 X-67.67459 Y-39.93612
G01 X-67.48940 Y-39.91643
G01 X-67.43057 Y-39.91643
G01 X-67.24538 Y-39.93612
G01 X-67.12356 Y-39.97157
G01 X-63.16838 Y-36.01974
G01 X-63.13261 Y-35.98921
G01 X-63.09253 Y-35.96467
G01 X-63.00442 Y-35.92210
G01 X-62.90729 Y-35.89856
G01 X-62.85012 Y-35.89594
G01 X-62.79258 Y-35.82810
G01 X-62.69500 Y-35.74616
G01 X-62.64610 Y-35.71347
G01 X-62.55964 Y-35.66726
G01 X-62.50531 Y-35.64476
G01 X-62.38296 Y-35.60915
G01 X-62.25629 Y-35.59523
G01 X-62.19749 Y-35.59523
G01 X-62.07082 Y-35.60915
G01 X-61.92073 Y-35.65469
G01 X-61.80767 Y-35.71347
G01 X-61.75878 Y-35.74616
G01 X-61.68301 Y-35.80834
G01 X-61.64143 Y-35.84992
G01 X-61.56170 Y-35.94933
G01 X-61.50036 Y-36.06101
G01 X-61.47786 Y-36.11537
G01 X-61.44941 Y-36.20915
G01 X-61.43795 Y-36.26683
G01 X-61.42688 Y-36.39378
G04 P0 ( dwell for no time -- G64 should not smooth over this point )
G00 Z2.00000 ( retract )

G00 X-58.74144 Y-41.04439 ( rapid move to begin. )
G01 F30.00000
( Mill infeed pass 1/1 )
G01 Z-0.07500
G04 P0 ( dwell for no time -- G64 should not smooth over this point )
G01 F40.00000
G01 X-58.74144 Y-41.04439
G01 X-58.76112 Y-41.22958
G01 X-58.81380 Y-41.40822
G01 X-58.83631 Y-41.46255
G01 X-58.92536 Y-41.62610
G01 X-59.06216 Y-41.79280
G01 X-59.20522 Y-41.91206
G01 X-59.25411 Y-41.94475
G01 X-59.41903 Y-42.03126
G01 X-59.62538 Y-42.09385
G01 X-59.81057 Y-42.11353
G01 X-59.86940 Y-42.11353
G01 X-60.05459 Y-42.09385
G01 X-60.26094 Y-42.03126
G01 X-60.42586 Y-41.94475
G01 X-60.47476 Y-41.91206
G01 X-60.61781 Y-41.79280
G01 X-60.75462 Y-41.62610
G01 X-60.84367 Y-41.46255
G01 X-60.86617 Y-41.40822
G01 X-60.91885 Y-41.22958
G01 X-60.93854 Y-41.04439
G01 X-60.93854 Y-40.98559
G01 X-60.92317 Y-40.82951
G01 X-60.91169 Y-40.77183
G01 X-60.85627 Y-40.59403
G01 X-60.75462 Y-40.40386
G01 X-60.61781 Y-40.23718
G01 X-60.47476 Y-40.11790
G01 X-60.42586 Y-40.08524
G01 X-60.26094 Y-39.99873
G01 X-60.05459 Y-39.93612
G01 X-59.86940 Y-39.91643
G01 X-59.81057 Y-39.91643
G01 X-59.62538 Y-39.93612
G01 X-59.41903 Y-39.99873
G01 X-59.25411 Y-40.08524
G01 X-59.20522 Y-40.11790
G01 X-59.06216 Y-40.23718
G01 X-58.92536 Y-40.40386
G01 X-58.83631 Y-40.56743
G01 X-58.81380 Y-40.62176
G01 X-58.76112 Y-40.80038
G01 X-58.74144 Y-40.98559
G01 X-58.74144 Y-41.04439
G04 P0 ( dwell for no time -- G64 should not smooth over this point )
G00 Z2.00000 ( retract )

G00 X-56.20144 Y-41.04439 ( rapid move to begin. )
G01 F30.00000
( Mill infeed pass 1/1 )
G01 Z-0.07500
G04 P0 ( dwell for no time -- G64 should not smooth over this point )
G01 F40.00000
G01 X-56.20144 Y-41.04439
G01 X-56.22112 Y-41.22958
G01 X-56.27380 Y-41.40822
G01 X-56.29631 Y-41.46255
G01 X-56.38536 Y-41.62610
G01 X-56.52216 Y-41.79280
G01 X-56.66522 Y-41.91206
G01 X-56.71411 Y-41.94475
G01 X-56.87903 Y-42.03126
G01 X-57.08538 Y-42.09385
G01 X-57.27057 Y-42.11353
G01 X-57.32940 Y-42.11353
G01 X-57.51459 Y-42.09385
G01 X-57.72094 Y-42.03126
G01 X-57.88586 Y-41.94475
G01 X-57.93476 Y-41.91206
G01 X-58.07781 Y-41.79280
G01 X-58.21462 Y-41.62610
G01 X-58.30367 Y-41.46255
G01 X-58.32617 Y-41.40822
G01 X-58.37885 Y-41.22958
G01 X-58.39854 Y-41.04439
G01 X-58.39854 Y-40.98559
G01 X-58.38317 Y-40.82951
