( pcb2gcode 2.5.0 )
( Software-independent Gcode )

( This file uses 3 drill bit sizes. )
( Bit sizes: [0.5mm] [0.8mm] [1mm] )

G94       (Millimeters per minute feed rate.)
G21       (Units == Millimeters.)
G90       (Absolute coordinates.)
G00 S600     (RPM spindle speed.)

G53 G00 Z0.00000 (Retract)
T1
M5      (Spindle stop.)
G04 P3.00000
(MSG, Change tool bit to drill size 0.5mm)
M0      (Temporary machine stop.)
M3      (Spindle on clockwise.)
G0 Z2.00000
G04 P1.00000

G1 F30.00000
G0 X0.00000 Y0.00000
G1 Z-2.50000
G1 Z2.00000
G0 X8.53100 Y-14.96500
G1 Z-2.50000
G1 Z2.00000
G0 X9.75600 Y-18.07500
G1 Z-2.50000
G1 Z2.00000
G0 X33.98500 Y-11.50900
G1 Z-2.50000
G1 Z2.00000
G0 X39.05700 Y-18.47900
G1 Z-2.50000
G1 Z2.00000
G0 X36.77000 Y-21.58100
G1 Z-2.50000
G1 Z2.00000
G0 X42.96400 Y-30.85700
G1 Z-2.50000
G1 Z2.00000
G0 X44.60600 Y-31.22400
G1 Z-2.50000
G1 Z2.00000
G0 X44.18500 Y-33.66400
G1 Z-2.50000
G1 Z2.00000
G0 X41.90900 Y-34.99100
G1 Z-2.50000
G1 Z2.00000
G0 X35.87600 Y-37.90100
G1 Z-2.50000
G1 Z2.00000
G0 X55.94200 Y-39.00200
G1 Z-2.50000
G1 Z2.00000
G0 X66.04800 Y-22.38800
G1 Z-2.50000
G1 Z2.00000
G0 X68.94700 Y-18.73700
G1 Z-2.50000
G1 Z2.00000
G0 X72.46700 Y-14.16000
G1 Z-2.50000
G1 Z2.00000
G0 X55.03600 Y-9.59500
G1 Z-2.50000
G1 Z2.00000
G0 X49.44000 Y-6.65100
G1 Z-2.50000
G1 Z2.00000
G0 X46.41600 Y-13.07600
G1 Z-2.50000
G1 Z2.00000

G53 G00 Z0.00000 (Retract)
T2
M5      (Spindle stop.)
G04 P3.00000
(MSG, Change tool bit to drill size 0.8mm)
M0      (Temporary machine stop.)
M3      (Spindle on clockwise.)
G0 Z2.00000
G04 P1.00000

G1 F30.00000
G0 X4.00000 Y-10.84000
G1 Z-2.50000
G1 Z2.00000
G0 X10.00000 Y-13.38000
G1 Z-2.50000
G1 Z2.00000
G0 X12.54000 Y-13.38000
G1 Z-2.50000
G1 Z2.00000
G0 X15.08000 Y-13.38000
G1 Z-2.50000
G1 Z2.00000
G0 X17.62000 Y-13.38000
G1 Z-2.50000
G1 Z2.00000
G0 X20.16000 Y-13.38000
G1 Z-2.50000
G1 Z2.00000
G0 X22.70000 Y-13.38000
G1 Z-2.50000
G1 Z2.00000
G0 X25.24000 Y-13.38000
G1 Z-2.50000
G1 Z2.00000
G0 X27.78000 Y-13.38000
G1 Z-2.50000
G1 Z2.00000
G0 X30.32000 Y-13.38000
G1 Z-2.50000
G1 Z2.00000
G0 X32.86000 Y-13.38000
G1 Z-2.50000
G1 Z2.00000
G0 X27.78000 Y-21.00000
G1 Z-2.50000
G1 Z2.00000
G0 X30.32000 Y-21.00000
G1 Z-2.50000
G1 Z2.00000
G0 X32.86000 Y-21.00000
G1 Z-2.50000
G1 Z2.00000
G0 X27.78000 Y-26.18000
G1 Z-2.50000
G1 Z2.00000
G0 X30.32000 Y-26.18000
G1 Z-2.50000
G1 Z2.00000
G0 X32.86000 Y-26.18000
G1 Z-2.50000
G1 Z2.00000
G0 X27.78000 Y-33.80000
G1 Z-2.50000
G1 Z2.00000
G0 X30.32000 Y-33.80000
G1 Z-2.50000
G1 Z2.00000
G0 X32.86000 Y-33.80000
G1 Z-2.50000
G1 Z2.00000
G0 X25.24000 Y-26.18000
G1 Z-2.50000
G1 Z2.00000
G0 X22.70000 Y-26.18000
G1 Z-2.50000
G1 Z2.00000
G0 X20.16000 Y-26.18000
G1 Z-2.50000
G1 Z2.00000
G0 X17.62000 Y-26.18000
G1 Z-2.50000
G1 Z2.00000
G0 X15.08000 Y-26.18000
G1 Z-2.50000
G1 Z2.00000
G0 X12.54000 Y-26.18000
G1 Z-2.50000
G1 Z2.00000
G0 X10.00000 Y-26.18000
G1 Z-2.50000
G1 Z2.00000
G0 X10.00000 Y-21.00000
G1 Z-2.50000
G1 Z2.00000
G0 X12.54000 Y-21.00000
G1 Z-2.50000
G1 Z2.00000
G0 X15.08000 Y-21.00000
G1 Z-2.50000
G1 Z2.00000
G0 X17.62000 Y-21.00000
G1 Z-2.50000
G1 Z2.00000
G0 X20.16000 Y-21.00000
G1 Z-2.50000
G1 Z2.00000
G0 X22.70000 Y-21.00000
G1 Z-2.50000
G1 Z2.00000
G0 X25.24000 Y-21.00000
G1 Z-2.50000
G1 Z2.00000
G0 X12.54000 Y-33.80000
G1 Z-2.50000
G1 Z2.00000
G0 X10.00000 Y-33.80000
G1 Z-2.50000
G1 Z2.00000
G0 X15.08000 Y-33.80000
G1 Z-2.50000
G1 Z2.00000
G0 X17.62000 Y-33.80000
G1 Z-2.50000
G1 Z2.00000
G0 X20.16000 Y-33.80000
G1 Z-2.50000
G1 Z2.00000
G0 X22.70000 Y-33.80000
G1 Z-2.50000
G1 Z2.00000
G0 X25.24000 Y-33.80000
G1 Z-2.50000
G1 Z2.00000
G0 X4.00000 Y-21.00000
G1 Z-2.50000
G1 Z2.00000
G0 X4.00000 Y-26.00000
G1 Z-2.50000
G1 Z2.00000
G0 X4.00000 Y-36.16000
G1 Z-2.50000
G1 Z2.00000
G0 X51.00000 Y-11.76000
G1 Z-2.50000
G1 Z2.00000
G0 X51.00000 Y-15.76000
G1 Z-2.50000
G1 Z2.00000
G0 X53.54000 Y-15.76000
G1 Z-2.50000
G1 Z2.00000
G0 X56.08000 Y-15.76000
G1 Z-2.50000
G1 Z2.00000
G0 X58.62000 Y-15.76000
G1 Z-2.50000
G1 Z2.00000
G0 X61.16000 Y-15.76000
G1 Z-2.50000
G1 Z2.00000
G0 X63.70000 Y-15.76000
G1 Z-2.50000
G1 Z2.00000
G0 X66.24000 Y-15.76000
G1 Z-2.50000
G1 Z2.00000
G0 X68.78000 Y-15.76000
G1 Z-2.50000
G1 Z2.00000
G0 X71.32000 Y-15.76000
G1 Z-2.50000
G1 Z2.00000
G0 X73.86000 Y-15.76000
G1 Z-2.50000
G1 Z2.00000
G0 X76.40000 Y-15.76000
G1 Z-2.50000
G1 Z2.00000
G0 X78.94000 Y-15.76000
G1 Z-2.50000
G1 Z2.00000
G0 X81.48000 Y-15.76000
G1 Z-2.50000
G1 Z2.00000
G0 X84.02000 Y-15.76000
G1 Z-2.50000
G1 Z2.00000
G0 X86.56000 Y-15.76000
G1 Z-2.50000
G1 Z2.00000
G0 X89.10000 Y-15.76000
G1 Z-2.50000
G1 Z2.00000
G0 X73.86000 Y-31.00000
G1 Z-2.50000
G1 Z2.00000
G0 X76.40000 Y-31.00000
G1 Z-2.50000
G1 Z2.00000
G0 X78.94000 Y-31.00000
G1 Z-2.50000
G1 Z2.00000
G0 X81.48000 Y-31.00000
G1 Z-2.50000
G1 Z2.00000
G0 X84.02000 Y-31.00000
G1 Z-2.50000
G1 Z2.00000
G0 X86.56000 Y-31.00000
G1 Z-2.50000
G1 Z2.00000
G0 X89.10000 Y-31.00000
G1 Z-2.50000
G1 Z2.00000
G0 X71.32000 Y-31.00000
G1 Z-2.50000
G1 Z2.00000
G0 X68.78000 Y-31.00000
G1 Z-2.50000
G1 Z2.00000
G0 X66.24000 Y-31.00000
G1 Z-2.50000
G1 Z2.00000
G0 X63.70000 Y-31.00000
G1 Z-2.50000
G1 Z2.00000
G0 X61.16000 Y-31.00000
G1 Z-2.50000
G1 Z2.00000
G0 X58.62000 Y-31.00000
G1 Z-2.50000
G1 Z2.00000
G0 X56.08000 Y-31.00000
G1 Z-2.50000
G1 Z2.00000
G0 X53.54000 Y-31.00000
G1 Z-2.50000
G1 Z2.00000
G0 X51.00000 Y-31.00000
G1 Z-2.50000
G1 Z2.00000
G0 X61.16000 Y-11.76000
G1 Z-2.50000
G1 Z2.00000

G53 G00 Z0.00000 (Retract)
T3
M5      (Spindle stop.)
G04 P3.00000
(MSG, Change tool bit to drill size 1mm)
M0      (Temporary machine stop.)
M3      (Spindle on clockwise.)
G0 Z2.00000
G04 P1.00000

G1 F30.00000
G0 X4.00000 Y-4.00000
G1 Z-2.50000
G1 Z2.00000
G0 X6.54000 Y-4.00000
G1 Z-2.50000
G1 Z2.00000
G0 X9.08000 Y-4.00000
G1 Z-2.50000
G1 Z2.00000
G0 X11.62000 Y-4.00000
G1 Z-2.50000
G1 Z2.00000
G0 X14.16000 Y-4.00000
G1 Z-2.50000
G1 Z2.00000
G0 X16.70000 Y-4.00000
G1 Z-2.50000
G1 Z2.00000
G0 X19.24000 Y-4.00000
G1 Z-2.50000
G1 Z2.00000
G0 X21.78000 Y-4.00000
G1 Z-2.50000
G1 Z2.00000
G0 X24.32000 Y-4.00000
G1 Z-2.50000
G1 Z2.00000
G0 X26.86000 Y-4.00000
G1 Z-2.50000
G1 Z2.00000
G0 X29.40000 Y-4.00000
G1 Z-2.50000
G1 Z2.00000
G0 X31.94000 Y-4.00000
G1 Z-2.50000
G1 Z2.00000
G0 X34.48000 Y-4.00000
G1 Z-2.50000
G1 Z2.00000
G0 X37.02000 Y-4.00000
G1 Z-2.50000
G1 Z2.00000
G0 X39.56000 Y-4.00000
G1 Z-2.50000
G1 Z2.00000
G0 X42.10000 Y-4.00000
G1 Z-2.50000
G1 Z2.00000
G0 X44.64000 Y-4.00000
G1 Z-2.50000
G1 Z2.00000
G0 X47.18000 Y-4.00000
G1 Z-2.50000
G1 Z2.00000
G0 X11.62000 Y-41.00000
G1 Z-2.50000
G1 Z2.00000
G0 X9.08000 Y-41.00000
G1 Z-2.50000
G1 Z2.00000
G0 X6.54000 Y-41.00000
G1 Z-2.50000
G1 Z2.00000
G0 X4.00000 Y-41.00000
G1 Z-2.50000
G1 Z2.00000
G0 X14.16000 Y-41.00000
G1 Z-2.50000
G1 Z2.00000
G0 X16.70000 Y-41.00000
G1 Z-2.50000
G1 Z2.00000
G0 X19.24000 Y-41.00000
G1 Z-2.50000
G1 Z2.00000
G0 X21.78000 Y-41.00000
G1 Z-2.50000
G1 Z2.00000
G0 X24.32000 Y-41.00000
G1 Z-2.50000
G1 Z2.00000
G0 X26.86000 Y-41.00000
G1 Z-2.50000
G1 Z2.00000
G0 X29.40000 Y-41.00000
G1 Z-2.50000
G1 Z2.00000
G0 X31.94000 Y-41.00000
G1 Z-2.50000
G1 Z2.00000
G0 X34.48000 Y-41.00000
G1 Z-2.50000
G1 Z2.00000
G0 X37.02000 Y-41.00000
G1 Z-2.50000
G1 Z2.00000
G0 X39.56000 Y-41.00000
G1 Z-2.50000
G1 Z2.00000
G0 X42.10000 Y-41.00000
G1 Z-2.50000
G1 Z2.00000
G0 X44.64000 Y-41.00000
G1 Z-2.50000
G1 Z2.00000
G0 X47.18000 Y-41.00000
G1 Z-2.50000
G1 Z2.00000
G0 X49.72000 Y-41.00000
G1 Z-2.50000
G1 Z2.00000
G0 X52.26000 Y-41.00000
G1 Z-2.50000
G1 Z2.00000
G0 X54.80000 Y-41.00000
G1 Z-2.50000
G1 Z2.00000
G0 X57.34000 Y-41.00000
G1 Z-2.50000
G1 Z2.00000
G0 X59.88000 Y-41.00000
G1 Z-2.50000
G1 Z2.00000
G0 X62.42000 Y-41.00000
G1 Z-2.50000
G1 Z2.00000

G53 G00 Z0.000 ( All done -- retract )

M5      (Spindle off.)
G04 P3.000000
M9      (Coolant off.)
M2      (Program end.)

