( pcb2gcode 2.5.0 )
( Software-independent Gcode )

G94 
G21 ( Units == Millimeters. )

G90 ( Absolute coordinates. )
G00 S600 ( RPM spindle speed. )
G01 F40.00000 ( Feedrate. )


G53 G00 Z0.00000 (Retract to tool change height)
T1
M5      (Spindle stop.)
G04 P1.00000 (Wait for spindle to stop)
(MSG, Change tool bit to mill diameter 0.50000mm)
M0      (Temporary machine stop.)
M3 ( Spindle on clockwise. )
G04 P1.00000 (Wait for spindle to get up to speed)
G04 P0 
G00 Z2.00000 M3 ; restart from line 21

G00 X2.84998 Y-12.84999 
G01 F30.00000

G01 Z-0.07500
G04 P0 
G01 F40.00000
G01 X2.84998 Y-12.84999
G01 X2.84998 Y-11.14999
G01 X2.85575 Y-11.09147
G01 X2.87282 Y-11.03518
G01 X2.90055 Y-10.98332
G01 X2.93787 Y-10.93785
G01 X2.98331 Y-10.90054
G01 X3.03517 Y-10.87283
G01 X3.09146 Y-10.85576
G01 X3.14998 Y-10.84999
G01 X4.84998 Y-10.84999
G01 X4.90852 Y-10.85576
G01 X4.96479 Y-10.87283
G01 X5.01665 Y-10.90054
G01 X5.06212 Y-10.93785
G01 X5.09943 Y-10.98332
G01 X5.12714 Y-11.03518
G01 X5.14421 Y-11.09147
G01 X5.14998 Y-11.14999
G01 X5.14998 Y-12.84999
G01 X5.14421 Y-12.90851
G01 X5.12714 Y-12.96480
G01 X5.09943 Y-13.01666
G01 X5.06212 Y-13.06210
G01 X5.01665 Y-13.09944
G01 X4.96479 Y-13.12713
G01 X4.90852 Y-13.14422
G01 X4.84998 Y-13.14996
G01 X3.14998 Y-13.14996
G01 X3.09146 Y-13.14422
G01 X3.03517 Y-13.12713
G01 X2.98331 Y-13.09944
G01 X2.93787 Y-13.06210
G01 X2.90055 Y-13.01666
G01 X2.87282 Y-12.96480
G01 X2.85575 Y-12.90851
G01 X2.84998 Y-12.84999
G01 X2.84998 Y-14.53998
G01 X2.86776 Y-14.34475
G01 X2.87924 Y-14.28707
G01 X2.93754 Y-14.09990
G01 X3.02867 Y-13.92634
G01 X3.06133 Y-13.87744
G01 X3.16705 Y-13.74864
G01 X3.20858 Y-13.70703
G01 X3.33743 Y-13.60134
G01 X3.38633 Y-13.56865
G01 X3.53329 Y-13.49012
G01 X3.58762 Y-13.46761
G01 X3.74708 Y-13.41923
G01 X3.80477 Y-13.40777
G01 X3.99999 Y-13.38999
G01 X4.19522 Y-13.40777
G01 X4.25290 Y-13.41923
G01 X4.41236 Y-13.46761
G01 X4.46669 Y-13.49012
G01 X4.61363 Y-13.56865
G01 X4.66255 Y-13.60134
G01 X4.81315 Y-13.72682
G01 X4.93865 Y-13.87744
G01 X4.97131 Y-13.92634
G01 X5.03204 Y-14.03995
G01 X5.90489 Y-14.03995
G01 X6.01360 Y-14.05344
G01 X6.05940 Y-14.06444
G01 X6.10288 Y-14.08245
G01 X6.19869 Y-14.13540
G01 X6.23446 Y-14.16591
G01 X9.27456 Y-17.20271
G01 X9.36059 Y-17.19570
G01 X9.48753 Y-17.20675
G01 X9.54522 Y-17.21820
G01 X9.63902 Y-17.24668
G01 X9.69335 Y-17.26918
G01 X9.80504 Y-17.33052
G01 X9.92627 Y-17.43001
G01 X10.00823 Y-17.52757
G01 X10.04090 Y-17.57650
G01 X10.08710 Y-17.66293
G01 X10.10961 Y-17.71726
G01 X10.13805 Y-17.81106
G01 X10.14954 Y-17.86875
G01 X10.15990 Y-17.98142
G01 X10.14954 Y-18.12265
G01 X10.13805 Y-18.18033
G01 X10.09970 Y-18.30184
G01 X10.04090 Y-18.41490
G01 X10.00823 Y-18.46379
G01 X9.94606 Y-18.53956
G01 X9.90445 Y-18.58114
G01 X9.80504 Y-18.66087
G01 X9.69335 Y-18.72221
G01 X9.63902 Y-18.74472
G01 X9.54522 Y-18.77317
G01 X9.48753 Y-18.78465
G01 X9.37456 Y-18.79501
G01 X9.23364 Y-18.78465
G01 X9.17595 Y-18.77317
G01 X9.08215 Y-18.74472
G01 X9.02782 Y-18.72221
G01 X8.91614 Y-18.66087
G01 X8.81672 Y-18.58114
G01 X8.77514 Y-18.53956
G01 X8.71296 Y-18.46379
G01 X8.68027 Y-18.41490
G01 X8.62147 Y-18.30184
G01 X8.58312 Y-18.18033
G01 X8.57164 Y-18.12265
G01 X8.56204 Y-18.02508
G01 X8.56059 Y-17.99570
G01 X8.56760 Y-17.90982
G01 X5.69778 Y-15.03998
G01 X5.03207 Y-15.03998
G01 X4.97131 Y-15.15364
G01 X4.93865 Y-15.20253
G01 X4.81315 Y-15.35316
G01 X4.66255 Y-15.47863
G01 X4.61363 Y-15.51132
G01 X4.46669 Y-15.58986
G01 X4.41236 Y-15.61236
G01 X4.25290 Y-15.66073
G01 X4.19522 Y-15.67221
G01 X3.99999 Y-15.68999
G01 X3.77563 Y-15.66789
G01 X3.58762 Y-15.61236
G01 X3.53329 Y-15.58986
G01 X3.38633 Y-15.51132
G01 X3.33743 Y-15.47863
G01 X3.18681 Y-15.35316
G01 X3.06133 Y-15.20253
G01 X3.02867 Y-15.15364
G01 X2.95011 Y-15.00668
G01 X2.92760 Y-14.95234
G01 X2.87924 Y-14.79291
G01 X2.86776 Y-14.73523
G01 X2.84998 Y-14.53998
G01 X2.84998 Y-17.07998
G01 X2.86776 Y-16.88475
G01 X2.87924 Y-16.82707
G01 X2.92760 Y-16.66763
G01 X2.95011 Y-16.61328
G01 X3.02867 Y-16.46634
G01 X3.06133 Y-16.41744
G01 X3.18681 Y-16.26682
G01 X3.33743 Y-16.14134
G01 X3.38633 Y-16.10865
G01 X3.53329 Y-16.03012
G01 X3.58762 Y-16.00761
G01 X3.77563 Y-15.95209
G01 X3.99999 Y-15.92999
G01 X4.19522 Y-15.94777
G01 X4.25290 Y-15.95923
G01 X4.41236 Y-16.00761
G01 X4.46669 Y-16.03012
G01 X4.61363 Y-16.10865
G01 X4.66255 Y-16.14134
G01 X4.79135 Y-16.24703
G01 X4.83293 Y-16.28864
G01 X4.93865 Y-16.41744
G01 X4.97131 Y-16.46634
G01 X5.03204 Y-16.57995
G01 X5.65008 Y-16.57995
G01 X5.69699 Y-16.58366
G01 X5.80459 Y-16.60444
G01 X5.84807 Y-16.62245
G01 X5.94385 Y-16.67538
G01 X5.97959 Y-16.70586
G01 X8.07283 Y-18.79577
G01 X10.16066 Y-18.79580
G01 X10.16066 Y-17.62506
G01 X10.13739 Y-17.56928
G01 X10.11888 Y-17.50322
G01 X10.10925 Y-17.40560
G01 X10.11171 Y-7.69592
G01 X10.11542 Y-7.64903
G01 X10.12640 Y-7.60329
G01 X10.16376 Y-7.50029
G01 X10.18835 Y-7.46013
G01 X10.25571 Y-7.37372
G01 X12.22494 Y-5.40657
G01 X12.30414 Y-5.34901
G01 X12.39307 Y-5.30802
G01 X12.48827 Y-5.28518
G01 X12.55669 Y-5.27987
G01 X25.75283 Y-5.27987
G01 X27.85532 Y-3.17741
G01 X27.93108 Y-3.11523
G01 X27.99093 Y-3.08160
G01 X28.08277 Y-3.04772
G01 X28.14046 Y-3.03627
G01 X28.20888 Y-3.03096
G01 X63.13719 Y-3.03096
G01 X63.22698 Y-3.03919
G01 X63.26116 Y-3.04810
G01 X63.36416 Y-3.08546
G01 X63.40432 Y-3.11005
G01 X63.49073 Y-3.17741
G01 X63.82812 Y-3.51480
G01 X63.91399 Y-3.50779
G01 X64.00142 Y-3.51495
G01 X64.12395 Y-3.39420
G01 X64.15908 Y-3.36453
G01 X64.19832 Y-3.34058
G01 X64.29756 Y-3.29415
G01 X64.40515 Y-3.27332
G01 X64.45209 Y-3.26967
G01 X106.90979 Y-3.26967
G01 X106.99961 Y-3.27790
G01 X107.09328 Y-3.30617
G01 X107.13677 Y-3.32412
G01 X107.22755 Y-3.38554
G01 X107.26334 Y-3.41612
G01 X108.91998 Y-5.07279
G01 X109.95391 Y-4.03883
G01 X109.99508 Y-4.00246
G01 X110.05370 Y-3.96329
G01 X110.15294 Y-3.91686
G01 X110.19874 Y-3.90586
G01 X110.30748 Y-3.89237
G01 X137.94186 Y-3.89382
G01 X138.03856 Y-3.90914
G01 X138.13041 Y-3.94302
G01 X138.21390 Y-3.99418
G01 X138.24420 Y-4.01907
G01 X139.12708 Y-4.89986
G01 X146.26128 Y-4.89986
G01 X146.30819 Y-4.90357
G01 X146.40451 Y-4.92092
G01 X146.49864 Y-4.95993
G01 X146.57903 Y-5.01574
G01 X146.61482 Y-5.04632
G01 X152.00932 Y-10.44082
G01 X152.05398 Y-10.49294
G01 X152.10513 Y-10.57643
G01 X152.12764 Y-10.63076
G01 X152.14615 Y-10.69683
G01 X152.15578 Y-10.79439
G01 X152.15578 Y-30.47119
G01 X152.15047 Y-30.53959
G01 X152.13902 Y-30.59727
G01 X152.10513 Y-30.68912
G01 X152.08664 Y-30.72371
G01 X152.05398 Y-30.77261
G01 X152.00922 Y-30.82483
G01 X148.50666 Y-34.32391
G01 X148.47092 Y-34.35444
G01 X148.37509 Y-34.40740
G01 X148.33161 Y-34.42541
G01 X148.28581 Y-34.43641
G01 X148.17707 Y-34.44989
G01 X146.31665 Y-34.44987
G01 X146.28063 Y-34.49376
G01 X146.23905 Y-34.53534
G01 X146.16328 Y-34.59752
G01 X146.11439 Y-34.63021
G01 X146.02795 Y-34.67641
G01 X145.97362 Y-34.69891
G01 X145.85127 Y-34.73453
G01 X145.72460 Y-34.74844
G01 X145.66577 Y-34.74844
G01 X145.53910 Y-34.73453
G01 X145.41675 Y-34.69891
G01 X145.36242 Y-34.67641
G01 X145.25074 Y-34.61507
G01 X145.15132 Y-34.53534
G01 X145.10974 Y-34.49376
G01 X145.04754 Y-34.41799
G01 X145.01487 Y-34.36910
G01 X144.95607 Y-34.25604
G01 X144.91772 Y-34.13453
G01 X144.90624 Y-34.07684
G01 X144.89664 Y-33.97928
G01 X144.89664 Y-33.92048
G01 X144.91056 Y-33.79381
G01 X144.95607 Y-33.64375
G01 X145.01487 Y-33.53069
G01 X145.04754 Y-33.48177
G01 X145.10974 Y-33.40600
G01 X145.15132 Y-33.36442
G01 X145.22709 Y-33.30224
G01 X145.27599 Y-33.26958
G01 X145.36242 Y-33.22338
G01 X145.41675 Y-33.20087
G01 X145.51055 Y-33.17240
G01 X145.56824 Y-33.16094
G01 X145.66577 Y-33.15134
G01 X145.72460 Y-33.15134
G01 X145.85127 Y-33.16526
G01 X145.97362 Y-33.20087
G01 X146.02795 Y-33.22338
G01 X146.11439 Y-33.26958
G01 X146.16328 Y-33.30224
G01 X146.26087 Y-33.38421
G01 X146.31665 Y-33.44987
G01 X147.96999 Y-33.44987
G01 X151.15576 Y-30.26407
G01 X151.15576 Y-11.00150
G01 X146.05417 Y-5.89989
G01 X139.41996 Y-5.89986
G01 X139.41996 Y-6.02432
G01 X139.50587 Y-6.07024
G01 X139.55476 Y-6.10291
G01 X139.67600 Y-6.20240
G01 X139.71758 Y-6.24398
G01 X139.83459 Y-6.38884
G01 X139.93625 Y-6.57903
G01 X139.99169 Y-6.75683
G01 X140.00317 Y-6.81452
G01 X140.01854 Y-6.97057
G01 X140.01854 Y-7.02940
G01 X139.99886 Y-7.21459
G01 X139.94618 Y-7.39323
G01 X139.92367 Y-7.44756
G01 X139.84973 Y-7.58586
G01 X139.81707 Y-7.63476
G01 X139.71758 Y-7.75599
G01 X139.67600 Y-7.79757
G01 X139.55476 Y-7.89706
G01 X139.50587 Y-7.92973
G01 X139.36756 Y-8.00367
G01 X139.31321 Y-8.02617
G01 X139.13460 Y-8.07885
G01 X138.91999 Y-8.09998
G01 X138.70539 Y-8.07885
G01 X138.52675 Y-8.02617
G01 X138.47242 Y-8.00367
G01 X138.33411 Y-7.92973
G01 X138.28522 Y-7.89706
G01 X138.16399 Y-7.79757
G01 X138.12241 Y-7.75599
G01 X138.02291 Y-7.63476
G01 X137.99022 Y-7.58586
G01 X137.91631 Y-7.44756
G01 X137.89381 Y-7.39323
G01 X137.84113 Y-7.21459
G01 X137.82144 Y-7.02940
G01 X137.82144 Y-6.97057
G01 X137.83681 Y-6.81452
G01 X137.84829 Y-6.75683
G01 X137.89381 Y-6.60674
G01 X137.91631 Y-6.55241
G01 X137.99022 Y-6.41411
G01 X138.02291 Y-6.36521
G01 X138.12241 Y-6.24398
G01 X138.16399 Y-6.20240
G01 X138.28522 Y-6.10291
G01 X138.33411 Y-6.07024
G01 X138.41997 Y-6.02435
G01 X138.41999 Y-5.60700
G01 X137.70536 Y-4.89240
G01 X110.51456 Y-4.89240
G01 X109.41997 Y-5.98698
G01 X109.41997 Y-6.40433
G01 X109.50585 Y-6.45023
G01 X109.55477 Y-6.48292
G01 X109.67598 Y-6.58241
G01 X109.71759 Y-6.62399
G01 X109.81708 Y-6.74522
G01 X109.84974 Y-6.79412
G01 X109.92366 Y-6.93242
G01 X109.94616 Y-6.98675
G01 X109.99170 Y-7.13684
G01 X110.00318 Y-7.19450
G01 X110.01855 Y-7.35058
G01 X110.01855 Y-7.40938
G01 X110.00318 Y-7.56547
G01 X109.99170 Y-7.62315
G01 X109.94616 Y-7.77321
G01 X109.92366 Y-7.82754
G01 X109.83460 Y-7.99112
G01 X109.71759 Y-8.13600
G01 X109.67598 Y-8.17758
G01 X109.55477 Y-8.27707
G01 X109.50585 Y-8.30974
G01 X109.36755 Y-8.38368
G01 X109.31322 Y-8.40618
G01 X109.16315 Y-8.45170
G01 X109.10547 Y-8.46318
G01 X108.93382 Y-8.47931
G01 X108.89059 Y-8.47855
G01 X108.70540 Y-8.45886
G01 X108.52676 Y-8.40618
G01 X108.47243 Y-8.38368
G01 X108.33412 Y-8.30974
G01 X108.28520 Y-8.27707
G01 X108.16399 Y-8.17758
G01 X108.12239 Y-8.13600
G01 X108.00537 Y-7.99112
G01 X107.91632 Y-7.82754
G01 X107.89379 Y-7.77321
G01 X107.84114 Y-7.59457
G01 X107.82143 Y-7.40938
G01 X107.82143 Y-7.35058
G01 X107.84114 Y-7.16539
G01 X107.89379 Y-6.98675
G01 X107.91632 Y-6.93242
G01 X108.00537 Y-6.76887
G01 X108.12239 Y-6.62399
G01 X108.16399 Y-6.58241
G01 X108.28520 Y-6.48292
G01 X108.33412 Y-6.45023
G01 X108.41998 Y-6.40433
G01 X108.41998 Y-5.98698
G01 X106.70266 Y-4.26969
G01 X64.71168 Y-4.26969
G01 X64.71255 Y-4.33720
G01 X64.70294 Y-4.43474
G01 X64.69146 Y-4.49242
G01 X64.66302 Y-4.58622
G01 X64.64051 Y-4.64055
G01 X64.59431 Y-4.72699
G01 X64.56162 Y-4.77589
G01 X64.47968 Y-4.87347
G01 X64.38209 Y-4.95541
G01 X64.33320 Y-4.98810
G01 X64.22014 Y-5.04688
G01 X64.09863 Y-5.08526
G01 X64.04094 Y-5.09674
G01 X63.91399 Y-5.10779
G01 X63.78705 Y-5.09674
G01 X63.72936 Y-5.08526
G01 X63.60785 Y-5.04688
G01 X63.49479 Y-4.98810
G01 X63.44587 Y-4.95541
G01 X63.34831 Y-4.87347
G01 X63.26635 Y-4.77589
G01 X63.23368 Y-4.72699
G01 X63.18748 Y-4.64055
G01 X63.16497 Y-4.58622
G01 X63.13650 Y-4.49242
G01 X63.12505 Y-4.43474
G01 X63.11400 Y-4.30779
G01 X63.12101 Y-4.22191
G01 X62.93005 Y-4.03098
G01 X28.41597 Y-4.03098
G01 X26.45997 Y-5.98698
G01 X26.45997 Y-6.40433
G01 X26.57109 Y-6.46537
G01 X26.73779 Y-6.60217
G01 X26.85707 Y-6.74522
G01 X26.88974 Y-6.79412
G01 X26.97625 Y-6.95904
G01 X27.03170 Y-7.13684
G01 X27.04318 Y-7.19450
G01 X27.05854 Y-7.35058
G01 X27.05854 Y-7.40938
G01 X27.04318 Y-7.56547
G01 X27.03170 Y-7.62315
G01 X26.98618 Y-7.77321
G01 X26.96367 Y-7.82754
G01 X26.88974 Y-7.96587
G01 X26.85707 Y-8.01477
G01 X26.75758 Y-8.13600
G01 X26.71600 Y-8.17758
G01 X26.57109 Y-8.29460
G01 X26.40752 Y-8.38368
G01 X26.35321 Y-8.40618
G01 X26.17460 Y-8.45886
G01 X25.98938 Y-8.47855
G01 X25.93056 Y-8.47855
G01 X25.74539 Y-8.45886
G01 X25.56673 Y-8.40618
G01 X25.51242 Y-8.38368
G01 X25.37412 Y-8.30974
G01 X25.32522 Y-8.27707
G01 X25.18217 Y-8.15779
G01 X25.06292 Y-8.01477
G01 X25.03023 Y-7.96587
G01 X24.94371 Y-7.80095
G01 X24.88827 Y-7.62315
G01 X24.87681 Y-7.56547
G01 X24.86000 Y-7.38000
G01 X24.87681 Y-7.19450
G01 X24.88827 Y-7.13684
G01 X24.93381 Y-6.98675
G01 X24.95631 Y-6.93242
G01 X25.04537 Y-6.76887
G01 X25.16241 Y-6.62399
G01 X25.20399 Y-6.58241
G01 X25.32522 Y-6.48292
G01 X25.37412 Y-6.45023
G01 X25.45992 Y-6.40433
G01 X25.45992 Y-6.27990
G01 X12.76378 Y-6.27990
G01 X11.10927 Y-7.93438
G01 X11.10927 Y-17.23771
G01 X11.13254 Y-17.29346
G01 X11.15106 Y-17.35953
G01 X11.16068 Y-17.45709
G01 X11.16068 Y-19.09028
G01 X11.15538 Y-19.15869
G01 X11.14392 Y-19.21637
G01 X11.11004 Y-19.30822
G01 X11.05888 Y-19.39168
G01 X11.01425 Y-19.44380
G01 X10.95517 Y-19.50288
G01 X10.95520 Y-23.32807
G01 X16.11353 Y-28.48643
G01 X16.15818 Y-28.53855
G01 X16.20934 Y-28.62204
G01 X16.23184 Y-28.67637
G01 X16.25468 Y-28.77157
G01 X16.25999 Y-28.84000
G01 X16.25996 Y-29.52432
G01 X16.34587 Y-29.57022
G01 X16.39476 Y-29.60291
G01 X16.51599 Y-29.70240
G01 X16.55757 Y-29.74398
G01 X16.65707 Y-29.86522
G01 X16.68973 Y-29.91411
G01 X16.77624 Y-30.07904
G01 X16.83169 Y-30.25684
G01 X16.84317 Y-30.31452
G01 X16.85999 Y-30.49999
G01 X16.84317 Y-30.68546
G01 X16.83169 Y-30.74314
G01 X16.80342 Y-30.83631
G01 X24.02868 Y-38.06157
G01 X36.54356 Y-38.06157
G01 X36.64113 Y-38.07120
G01 X36.70719 Y-38.08971
G01 X36.76152 Y-38.11222
G01 X36.82136 Y-38.14585
G01 X36.89713 Y-38.20803
G01 X39.76378 Y-41.07467
G01 X44.77923 Y-41.07467
G01 X44.81523 Y-41.03080
G01 X44.85681 Y-40.98922
G01 X44.93257 Y-40.92705
G01 X44.98150 Y-40.89438
G01 X45.09455 Y-40.83558
G01 X45.24461 Y-40.79006
G01 X45.37128 Y-40.77614
G01 X45.43008 Y-40.77614
G01 X45.52765 Y-40.78575
G01 X45.58533 Y-40.79720
G01 X45.67911 Y-40.82567
G01 X45.73344 Y-40.84818
G01 X45.81990 Y-40.89438
G01 X45.86879 Y-40.92705
G01 X45.96638 Y-41.00901
G01 X46.04832 Y-41.10657
G01 X46.08101 Y-41.15549
G01 X46.12721 Y-41.24193
G01 X46.14972 Y-41.29626
G01 X46.17817 Y-41.39006
G01 X46.18965 Y-41.44775
G01 X46.19925 Y-41.54528
G01 X46.19925 Y-41.60408
G01 X46.18533 Y-41.73075
G01 X46.13979 Y-41.88084
G01 X46.08101 Y-41.99390
G01 X46.04832 Y-42.04279
G01 X45.98614 Y-42.11856
G01 X45.94456 Y-42.16014
G01 X45.86879 Y-42.22232
G01 X45.81990 Y-42.25501
G01 X45.70684 Y-42.31378
G01 X45.55675 Y-42.35933
G01 X45.43008 Y-42.37325
G01 X45.37128 Y-42.37325
G01 X45.24461 Y-42.35933
G01 X45.09455 Y-42.31378
G01 X44.98150 Y-42.25501
G01 X44.93257 Y-42.22232
G01 X44.83501 Y-42.14038
G01 X44.77923 Y-42.07469
G01 X39.55666 Y-42.07469
G01 X39.45913 Y-42.06507
G01 X39.39306 Y-42.04655
G01 X39.33873 Y-42.02405
G01 X39.27889 Y-41.99042
G01 X39.20312 Y-41.92824
G01 X36.33648 Y-39.06159
G01 X23.82159 Y-39.06159
G01 X23.75317 Y-39.05628
G01 X23.69548 Y-39.04483
G01 X23.60364 Y-39.01095
G01 X23.56904 Y-38.99245
G01 X23.52015 Y-38.95979
G01 X23.46803 Y-38.91514
G01 X16.09631 Y-31.54342
G01 X16.00314 Y-31.57169
G01 X15.94546 Y-31.58317
G01 X15.78940 Y-31.59854
G01 X15.73058 Y-31.59854
G01 X15.57452 Y-31.58317
G01 X15.51683 Y-31.57169
G01 X15.36675 Y-31.52618
G01 X15.31242 Y-31.50367
G01 X15.17411 Y-31.42973
G01 X15.12522 Y-31.39707
G01 X14.98216 Y-31.27781
G01 X14.86291 Y-31.13476
G01 X14.83025 Y-31.08587
G01 X14.75631 Y-30.94756
G01 X14.73380 Y-30.89321
G01 X14.68829 Y-30.74314
G01 X14.67681 Y-30.68546
G01 X14.65999 Y-30.49999
G01 X14.67681 Y-30.31452
G01 X14.68829 Y-30.25684
G01 X14.73380 Y-30.10675
G01 X14.75631 Y-30.05242
G01 X14.84536 Y-29.88887
G01 X14.96240 Y-29.74398
G01 X15.00398 Y-29.70240
G01 X15.12522 Y-29.60291
G01 X15.17411 Y-29.57022
G01 X15.25996 Y-29.52435
G01 X15.25996 Y-29.04708
G01 X10.10163 Y-23.88873
G01 X10.05698 Y-23.83660
G01 X10.00582 Y-23.75311
G01 X9.97194 Y-23.66127
G01 X9.96048 Y-23.60358
G01 X9.95517 Y-23.53518
G01 X9.95517 Y-19.79579
G01 X7.86590 Y-19.79579
G01 X7.75716 Y-19.78231
G01 X7.68927 Y-19.76316
G01 X7.62851 Y-19.73572
G01 X7.59874 Y-19.71670
G01 X7.51233 Y-19.64934
G01 X5.44297 Y-17.57997
G01 X5.03207 Y-17.57995
G01 X4.97131 Y-17.69364
G01 X4.93865 Y-17.74253
G01 X4.81315 Y-17.89316
G01 X4.66255 Y-18.01863
G01 X4.61363 Y-18.05132
G01 X4.46669 Y-18.12986
G01 X4.41236 Y-18.15236
G01 X4.22435 Y-18.20789
G01 X4.02938 Y-18.22854
G01 X3.97058 Y-18.22854
G01 X3.77563 Y-18.20789
G01 X3.58762 Y-18.15236
G01 X3.53329 Y-18.12986
G01 X3.38633 Y-18.05132
G01 X3.33743 Y-18.01863
G01 X3.18681 Y-17.89316
G01 X3.06133 Y-17.74253
G01 X3.02867 Y-17.69364
G01 X2.95011 Y-17.54668
G01 X2.92760 Y-17.49235
G01 X2.87924 Y-17.33291
G01 X2.86776 Y-17.27523
G01 X2.84998 Y-17.07998
G01 X2.84998 Y-19.61998
G01 X2.86776 Y-19.42475
G01 X2.87924 Y-19.36707
G01 X2.93754 Y-19.17990
G01 X3.02867 Y-19.00634
G01 X3.06133 Y-18.95744
G01 X3.18681 Y-18.80682
G01 X3.33743 Y-18.68134
G01 X3.38633 Y-18.64865
G01 X3.53329 Y-18.57012
G01 X3.58762 Y-18.54761
G01 X3.77563 Y-18.49209
G01 X3.99999 Y-18.46999
G01 X4.19522 Y-18.48777
G01 X4.25290 Y-18.49923
G01 X4.41236 Y-18.54761
G01 X4.46669 Y-18.57012
G01 X4.61363 Y-18.64865
G01 X4.66255 Y-18.68134
G01 X4.81315 Y-18.80682
G01 X4.93865 Y-18.95744
G01 X4.97131 Y-19.00634
G01 X5.06245 Y-19.17990
G01 X5.12074 Y-19.36707
G01 X5.13222 Y-19.42475
G01 X5.14998 Y-19.61998
G01 X5.13222 Y-19.81523
G01 X5.12074 Y-19.87291
G01 X5.06245 Y-20.06008
G01 X4.97131 Y-20.23364
G01 X4.93865 Y-20.28253
G01 X4.81315 Y-20.43316
G01 X4.66255 Y-20.55863
G01 X4.61363 Y-20.59132
G01 X4.46669 Y-20.66986
G01 X4.41236 Y-20.69236
G01 X4.22435 Y-20.74789
G01 X3.99999 Y-20.76999
G01 X3.77563 Y-20.74789
G01 X3.58762 Y-20.69236
G01 X3.53329 Y-20.66986
G01 X3.38633 Y-20.59132
G01 X3.33743 Y-20.55863
G01 X3.18681 Y-20.43316
G01 X3.06133 Y-20.28253
G01 X3.02867 Y-20.23364
G01 X2.93754 Y-20.06008
G01 X2.87924 Y-19.87291
G01 X2.86776 Y-19.81523
G01 X2.84998 Y-19.61998
G01 X2.84998 Y-22.15998
G01 X2.86776 Y-21.96475
G01 X2.87924 Y-21.90707
G01 X2.93754 Y-21.71990
G01 X3.02867 Y-21.54634
G01 X3.06133 Y-21.49744
G01 X3.18681 Y-21.34682
G01 X3.33743 Y-21.22134
G01 X3.38633 Y-21.18865
G01 X3.53329 Y-21.11012
G01 X3.58762 Y-21.08761
G01 X3.77563 Y-21.03209
G01 X3.97058 Y-21.01144
G01 X4.02938 Y-21.01144
G01 X4.19522 Y-21.02777
G01 X4.25290 Y-21.03923
G01 X4.41236 Y-21.08761
G01 X4.46669 Y-21.11012
G01 X4.61363 Y-21.18865
G01 X4.66255 Y-21.22134
G01 X4.79135 Y-21.32703
G01 X4.83293 Y-21.36864
G01 X4.93865 Y-21.49744
G01 X4.97131 Y-21.54634
G01 X5.03204 Y-21.65995
G01 X6.72079 Y-21.65995
G01 X6.82950 Y-21.67344
G01 X6.87530 Y-21.68444
G01 X6.97454 Y-21.73087
G01 X7.01464 Y-21.75543
G01 X7.05040 Y-21.78596
G01 X13.57348 Y-28.30556
G01 X13.63571 Y-28.38138
G01 X13.66934 Y-28.44122
G01 X13.69184 Y-28.49555
G01 X13.70322 Y-28.53306
G01 X13.71854 Y-28.62976
G01 X13.71996 Y-29.39999
G01 X14.01999 Y-29.39999
G01 X14.07851 Y-29.40576
G01 X14.13480 Y-29.42283
G01 X14.18666 Y-29.45054
G01 X14.23213 Y-29.48785
G01 X14.26944 Y-29.53332
G01 X14.29715 Y-29.58518
G01 X14.31422 Y-29.64147
G01 X14.31999 Y-29.69999
G01 X14.31999 Y-31.29999
G01 X14.31422 Y-31.35851
G01 X14.29715 Y-31.41480
G01 X14.26944 Y-31.46666
G01 X14.23213 Y-31.51213
G01 X14.18666 Y-31.54942
G01 X14.13480 Y-31.57715
G01 X14.07851 Y-31.59422
G01 X14.01999 Y-31.59999
G01 X13.71999 Y-31.59999
G01 X13.71999 Y-31.89298
G01 X20.88871 Y-39.06169
G01 X36.12937 Y-39.06167
G01 X36.22693 Y-39.07130
G01 X36.29299 Y-39.08981
G01 X36.34732 Y-39.11232
G01 X36.40717 Y-39.14595
G01 X36.48293 Y-39.20813
G01 X45.40979 Y-48.13498
G01 X51.11999 Y-48.13498
G01 X51.11999 Y-47.83498
G01 X51.12573 Y-47.77646
G01 X51.14282 Y-47.72017
G01 X51.17051 Y-47.66831
G01 X51.20785 Y-47.62287
G01 X51.25331 Y-47.58555
G01 X51.30518 Y-47.55782
G01 X51.36144 Y-47.54075
G01 X51.41999 Y-47.53498
G01 X52.61285 Y-47.53498
G01 X55.87853 Y-44.26933
G01 X55.93065 Y-44.22468
G01 X56.01414 Y-44.17352
G01 X56.10598 Y-44.13964
G01 X56.16367 Y-44.12818
G01 X56.23209 Y-44.12287
G01 X76.52626 Y-44.12287
G01 X77.74917 Y-42.89996
G01 X77.74917 Y-42.82890
G01 X77.75448 Y-42.76047
G01 X77.75880 Y-42.73133
G01 X77.77731 Y-42.66527
G01 X77.79982 Y-42.61094
G01 X77.83345 Y-42.55110
G01 X77.89568 Y-42.47528
G01 X85.03625 Y-35.33821
G01 X85.07202 Y-35.30765
G01 X85.11212 Y-35.28309
G01 X85.21136 Y-35.23666
G01 X85.25716 Y-35.22566
G01 X85.36589 Y-35.21217
G01 X89.19837 Y-35.21217
G01 X91.79672 Y-32.61383
G01 X91.83251 Y-32.58325
G01 X91.91290 Y-32.52744
G01 X92.00703 Y-32.48843
G01 X92.10335 Y-32.47108
G01 X92.15026 Y-32.46737
G01 X93.83852 Y-32.46737
G01 X93.89430 Y-32.40171
G01 X93.99189 Y-32.31975
G01 X94.04078 Y-32.28708
G01 X94.15384 Y-32.22828
G01 X94.30393 Y-32.18277
G01 X94.43057 Y-32.16882
G01 X94.48940 Y-32.16882
G01 X94.61607 Y-32.18277
G01 X94.73842 Y-32.21838
G01 X94.79275 Y-32.24088
G01 X94.87919 Y-32.28708
G01 X94.92808 Y-32.31975
G01 X95.01604 Y-32.39298
G01 X95.10763 Y-32.49927
G01 X95.14030 Y-32.54819
G01 X95.18650 Y-32.63463
G01 X95.20900 Y-32.68896
G01 X95.23745 Y-32.78276
G01 X95.24893 Y-32.84045
G01 X95.25998 Y-32.96740
G01 X95.24893 Y-33.09435
G01 X95.23745 Y-33.15203
G01 X95.20900 Y-33.24581
G01 X95.18650 Y-33.30014
G01 X95.14030 Y-33.38660
G01 X95.10763 Y-33.43549
G01 X95.02567 Y-33.53308
G01 X94.92808 Y-33.61502
G01 X94.87919 Y-33.64771
G01 X94.76613 Y-33.70649
G01 X94.64462 Y-33.74487
G01 X94.58693 Y-33.75635
G01 X94.48940 Y-33.76595
G01 X94.43057 Y-33.76595
G01 X94.30393 Y-33.75203
G01 X94.18155 Y-33.71642
G01 X94.12722 Y-33.69391
G01 X94.04078 Y-33.64771
G01 X93.99189 Y-33.61502
G01 X93.89430 Y-33.53308
G01 X93.83852 Y-33.46737
G01 X92.35737 Y-33.46740
G01 X89.75903 Y-36.06574
G01 X89.67262 Y-36.13310
G01 X89.64285 Y-36.15212
G01 X89.58209 Y-36.17956
G01 X89.51420 Y-36.19871
G01 X89.40549 Y-36.21220
G01 X85.57298 Y-36.21220
G01 X78.74919 Y-43.03598
G01 X78.74919 Y-43.10705
G01 X78.74389 Y-43.17548
G01 X78.72105 Y-43.27068
G01 X78.68006 Y-43.35960
G01 X78.62250 Y-43.43880
G01 X77.08694 Y-44.97644
G01 X77.01763 Y-45.03412
G01 X76.93139 Y-45.08040
G01 X76.88791 Y-45.09841
G01 X76.84211 Y-45.10941
G01 X76.73340 Y-45.12290
G01 X56.43918 Y-45.12290
G01 X53.31998 Y-48.24207
G01 X53.31998 Y-49.43498
G01 X53.31422 Y-49.49353
G01 X53.29715 Y-49.54979
G01 X53.26944 Y-49.60165
G01 X53.23213 Y-49.64712
G01 X53.18666 Y-49.68443
G01 X53.13479 Y-49.71214
G01 X53.07851 Y-49.72921
G01 X53.01996 Y-49.73498
G01 X51.41999 Y-49.73498
G01 X51.36144 Y-49.72921
G01 X51.30518 Y-49.71214
G01 X51.25331 Y-49.68443
G01 X51.20785 Y-49.64712
G01 X51.17051 Y-49.60165
G01 X51.14282 Y-49.54979
G01 X51.12573 Y-49.49353
G01 X51.11999 Y-49.43498
G01 X51.11999 Y-49.13498
G01 X45.20265 Y-49.13498
G01 X45.13425 Y-49.12967
G01 X45.07657 Y-49.11822
G01 X44.98472 Y-49.08433
G01 X44.95013 Y-49.06584
G01 X44.90123 Y-49.03318
G01 X44.84911 Y-48.98852
G01 X35.92228 Y-40.06169
G01 X20.68159 Y-40.06169
G01 X20.61317 Y-40.05638
G01 X20.55548 Y-40.04493
G01 X20.46364 Y-40.01105
G01 X20.42904 Y-39.99255
G01 X20.38015 Y-39.95989
G01 X20.32803 Y-39.91524
G01 X12.86642 Y-32.45363
G01 X12.82174 Y-32.40151
G01 X12.78908 Y-32.35262
G01 X12.75804 Y-32.29143
G01 X12.73670 Y-32.22617
G01 X12.72525 Y-32.16849
G01 X12.71994 Y-32.10009
G01 X12.71994 Y-31.59999
G01 X12.41999 Y-31.59999
G01 X12.36147 Y-31.59422
G01 X12.30518 Y-31.57715
G01 X12.25332 Y-31.54942
G01 X12.20785 Y-31.51213
G01 X12.17054 Y-31.46666
G01 X12.14283 Y-31.41480
G01 X12.12576 Y-31.35851
G01 X12.11999 Y-31.29999
G01 X12.11999 Y-29.69999
G01 X12.12576 Y-29.64147
G01 X12.14283 Y-29.58518
G01 X12.17054 Y-29.53332
G01 X12.20785 Y-29.48785
G01 X12.25332 Y-29.45054
G01 X12.30518 Y-29.42283
G01 X12.36147 Y-29.40576
G01 X12.41999 Y-29.39999
G01 X12.71994 Y-29.39999
G01 X12.71994 Y-28.86626
G01 X6.51368 Y-22.65997
G01 X5.03207 Y-22.65997
G01 X4.97131 Y-22.77364
G01 X4.93865 Y-22.82253
G01 X4.81315 Y-22.97316
G01 X4.66255 Y-23.09863
G01 X4.61363 Y-23.13132
G01 X4.46669 Y-23.20986
G01 X4.41236 Y-23.23236
G01 X4.25290 Y-23.28073
G01 X4.19522 Y-23.29221
G01 X3.99999 Y-23.30999
G01 X3.80477 Y-23.29221
G01 X3.74708 Y-23.28073
G01 X3.58762 Y-23.23236
G01 X3.53329 Y-23.20986
G01 X3.38633 Y-23.13132
G01 X3.33743 Y-23.09863
G01 X3.20858 Y-22.99294
G01 X3.16705 Y-22.95134
G01 X3.06133 Y-22.82253
G01 X3.02867 Y-22.77364
G01 X2.93754 Y-22.60008
G01 X2.87924 Y-22.41291
G01 X2.86776 Y-22.35523
G01 X2.84998 Y-22.15998
G01 X2.84998 Y-24.69998
G01 X2.86776 Y-24.50475
G01 X2.87924 Y-24.44707
G01 X2.93754 Y-24.25990
G01 X3.02867 Y-24.08634
G01 X3.06133 Y-24.03744
G01 X3.16705 Y-23.90864
G01 X3.20858 Y-23.86703
G01 X3.33743 Y-23.76134
G01 X3.38633 Y-23.72865
G01 X3.47746 Y-23.67994
G01 X3.53329 Y-23.65012
G01 X3.58762 Y-23.62761
G01 X3.74708 Y-23.57923
G01 X3.80477 Y-23.56777
G01 X3.99999 Y-23.54999
G01 X4.19522 Y-23.56777
G01 X4.25290 Y-23.57923
G01 X4.41236 Y-23.62761
G01 X4.46669 Y-23.65012
G01 X4.61363 Y-23.72865
G01 X4.66255 Y-23.76134
G01 X4.81315 Y-23.88682
G01 X4.93865 Y-24.03744
G01 X4.97131 Y-24.08634
G01 X5.03204 Y-24.19998
G01 X5.65005 Y-24.19995
G01 X5.69699 Y-24.20366
G01 X5.79331 Y-24.22101
G01 X5.88744 Y-24.26002
G01 X5.96783 Y-24.31583
G01 X6.00362 Y-24.34641
G01 X9.94778 Y-28.29057
G01 X10.87854 Y-28.29057
G01 X10.93429 Y-28.22491
G01 X11.03188 Y-28.14295
G01 X11.08078 Y-28.11028
G01 X11.16724 Y-28.06408
G01 X11.22157 Y-28.04157
G01 X11.34392 Y-28.00596
G01 X11.47059 Y-27.99202
G01 X11.52939 Y-27.99202
G01 X11.62693 Y-28.00165
G01 X11.68461 Y-28.01310
G01 X11.80612 Y-28.05148
G01 X11.91920 Y-28.11028
G01 X11.96810 Y-28.14295
G01 X12.06566 Y-28.22491
G01 X12.16515 Y-28.34612
G01 X12.22649 Y-28.45783
G01 X12.24900 Y-28.51216
G01 X12.28461 Y-28.63451
G01 X12.29855 Y-28.76118
G01 X12.29855 Y-28.81998
G01 X12.28461 Y-28.94665
G01 X12.24900 Y-29.06900
G01 X12.22649 Y-29.12336
G01 X12.18029 Y-29.20980
G01 X12.14763 Y-29.25869
G01 X12.08545 Y-29.33446
G01 X12.04387 Y-29.37604
G01 X11.96810 Y-29.43822
G01 X11.91920 Y-29.47091
G01 X11.83274 Y-29.51711
G01 X11.77841 Y-29.53962
G01 X11.65606 Y-29.57523
G01 X11.52939 Y-29.58915
G01 X11.47059 Y-29.58915
G01 X11.34392 Y-29.57523
G01 X11.22157 Y-29.53962
G01 X11.16724 Y-29.51711
G01 X11.08078 Y-29.47091
G01 X11.03188 Y-29.43822
G01 X10.93429 Y-29.35628
G01 X10.87852 Y-29.29057
G01 X9.74070 Y-29.29059
G01 X9.69376 Y-29.28689
G01 X9.59744 Y-29.26954
G01 X9.50331 Y-29.23052
G01 X9.42292 Y-29.17472
G01 X9.38713 Y-29.14414
G01 X5.44297 Y-25.19995
G01 X5.03207 Y-25.19995
G01 X4.97131 Y-25.31364
G01 X4.93865 Y-25.36253
G01 X4.81315 Y-25.51316
G01 X4.66255 Y-25.63863
G01 X4.61363 Y-25.67132
G01 X4.46669 Y-25.74986
G01 X4.41236 Y-25.77234
G01 X4.22435 Y-25.82786
G01 X4.02938 Y-25.84854
G01 X3.97058 Y-25.84854
G01 X3.77563 Y-25.82786
G01 X3.58762 Y-25.77234
G01 X3.53329 Y-25.74986
G01 X3.38633 Y-25.67132
G01 X3.33743 Y-25.63863
G01 X3.18681 Y-25.51316
G01 X3.06133 Y-25.36253
G01 X3.02867 Y-25.31364
G01 X2.95011 Y-25.16668
G01 X2.92760 Y-25.11234
G01 X2.87924 Y-24.95291
G01 X2.86776 Y-24.89523
G01 X2.84998 Y-24.69998
G01 X2.85143 Y-27.26939
G01 X2.85143 Y-27.21059
G01 X2.87208 Y-27.01564
G01 X2.92760 Y-26.82763
G01 X2.95011 Y-26.77328
G01 X3.02867 Y-26.62634
G01 X3.06133 Y-26.57744
G01 X3.16705 Y-26.44864
G01 X3.20858 Y-26.40703
G01 X3.36108 Y-26.28377
G01 X3.53329 Y-26.19012
G01 X3.58762 Y-26.16761
G01 X3.74708 Y-26.11923
G01 X3.80477 Y-26.10777
G01 X3.97058 Y-26.09144
G01 X4.02938 Y-26.09144
G01 X4.19522 Y-26.10777
G01 X4.25290 Y-26.11923
G01 X4.41236 Y-26.16761
G01 X4.46669 Y-26.19012
G01 X4.63890 Y-26.28377
G01 X4.79135 Y-26.40703
G01 X4.83293 Y-26.44864
G01 X4.95617 Y-26.60109
G01 X5.03204 Y-26.73998
G01 X6.47695 Y-26.73995
G01 X6.58571 Y-26.75344
G01 X6.63151 Y-26.76444
G01 X6.67499 Y-26.78245
G01 X6.77085 Y-26.83543
G01 X6.80662 Y-26.86596
G01 X12.74544 Y-32.80141
G01 X12.80198 Y-32.79582
G01 X12.86076 Y-32.79582
G01 X12.95834 Y-32.80545
G01 X13.01600 Y-32.81690
G01 X13.10980 Y-32.84537
G01 X13.16416 Y-32.86788
G01 X13.25057 Y-32.91408
G01 X13.29949 Y-32.94675
G01 X13.39708 Y-33.02871
G01 X13.47902 Y-33.12627
G01 X13.51171 Y-33.17519
G01 X13.55791 Y-33.26163
G01 X13.58041 Y-33.31596
G01 X13.61603 Y-33.43831
G01 X13.62994 Y-33.56498
G01 X13.62994 Y-33.62378
G01 X13.62034 Y-33.72134
G01 X13.60886 Y-33.77903
G01 X13.58041 Y-33.87280
G01 X13.55791 Y-33.92714
G01 X13.49657 Y-34.03884
G01 X13.41684 Y-34.13826
G01 X13.37526 Y-34.17984
G01 X13.29949 Y-34.24202
G01 X13.25057 Y-34.27471
G01 X13.13752 Y-34.33348
G01 X12.98745 Y-34.37903
G01 X12.86076 Y-34.39295
G01 X12.80198 Y-34.39295
G01 X12.70444 Y-34.38334
G01 X12.64676 Y-34.37186
G01 X12.55296 Y-34.34342
G01 X12.49863 Y-34.32091
G01 X12.41219 Y-34.27471
G01 X12.36327 Y-34.24202
G01 X12.28750 Y-34.17984
G01 X12.24592 Y-34.13826
G01 X12.16622 Y-34.03884
G01 X12.10488 Y-33.92714
G01 X12.08237 Y-33.87280
G01 X12.05390 Y-33.77903
G01 X12.04244 Y-33.72134
G01 X12.03284 Y-33.62378
G01 X12.03284 Y-33.56498
G01 X12.03841 Y-33.50852
G01 X6.26989 Y-27.73997
G01 X5.03207 Y-27.73995
G01 X4.95617 Y-27.87889
G01 X4.83293 Y-28.03134
G01 X4.79135 Y-28.07294
G01 X4.63890 Y-28.19618
G01 X4.46669 Y-28.28986
G01 X4.41236 Y-28.31236
G01 X4.25290 Y-28.36073
G01 X4.19522 Y-28.37221
G01 X4.02938 Y-28.38854
G01 X3.97058 Y-28.38854
G01 X3.80477 Y-28.37221
G01 X3.74708 Y-28.36073
G01 X3.58762 Y-28.31236
G01 X3.53329 Y-28.28986
G01 X3.38633 Y-28.21132
G01 X3.33743 Y-28.17863
G01 X3.20858 Y-28.07294
G01 X3.16705 Y-28.03134
G01 X3.04381 Y-27.87889
G01 X2.95011 Y-27.70668
G01 X2.92760 Y-27.65235
G01 X2.87208 Y-27.46433
G01 X2.85143 Y-27.26939
G01 X2.85143 Y-29.75059
G01 X2.87208 Y-29.55564
G01 X2.92760 Y-29.36763
G01 X2.95011 Y-29.31328
G01 X3.04381 Y-29.14109
G01 X3.16705 Y-28.98864
G01 X3.20858 Y-28.94703
G01 X3.36108 Y-28.82379
G01 X3.53329 Y-28.73012
G01 X3.58762 Y-28.70761
G01 X3.77563 Y-28.65209
G01 X3.97058 Y-28.63144
G01 X4.02938 Y-28.63144
G01 X4.22435 Y-28.65209
G01 X4.44007 Y-28.71752
G01 X4.63890 Y-28.82379
G01 X4.79135 Y-28.94703
G01 X4.83293 Y-28.98864
G01 X4.95617 Y-29.14109
G01 X5.04985 Y-29.31328
G01 X5.07235 Y-29.36763
G01 X5.12788 Y-29.55564
G01 X5.14855 Y-29.75059
G01 X5.14855 Y-29.80939
G01 X5.12788 Y-30.00433
G01 X5.07235 Y-30.19234
G01 X5.04985 Y-30.24668
G01 X4.95617 Y-30.41889
G01 X4.83293 Y-30.57134
G01 X4.79135 Y-30.61294
G01 X4.63890 Y-30.73618
G01 X4.46669 Y-30.82986
G01 X4.41236 Y-30.85236
G01 X4.22435 Y-30.90789
G01 X4.02938 Y-30.92854
G01 X3.97058 Y-30.92854
G01 X3.77563 Y-30.90789
G01 X3.58762 Y-30.85236
G01 X3.53329 Y-30.82986
G01 X3.36108 Y-30.73618
G01 X3.20858 Y-30.61294
G01 X3.16705 Y-30.57134
G01 X3.04381 Y-30.41889
G01 X2.95011 Y-30.24668
G01 X2.92760 Y-30.19234
G01 X2.87208 Y-30.00433
G01 X2.85143 Y-29.80939
G01 X2.85143 Y-29.75059
G04 P0 
G00 Z2.00000 M3 ; restart from line 1242

G00 X8.00174 Y-33.25030 
G01 F30.00000

G01 Z-0.07500
G04 P0 
G01 F40.00000
G01 X8.00174 Y-33.25030
G01 X8.00174 Y-33.19148
G01 X8.01566 Y-33.06481
G01 X8.05127 Y-32.94245
G01 X8.07377 Y-32.88812
G01 X8.11997 Y-32.80169
G01 X8.15264 Y-32.75279
G01 X8.23460 Y-32.65521
G01 X8.33219 Y-32.57324
G01 X8.38109 Y-32.54057
G01 X8.49414 Y-32.48177
G01 X8.64420 Y-32.43626
G01 X8.77087 Y-32.42234
G01 X8.82970 Y-32.42234
G01 X8.95637 Y-32.43626
G01 X9.07872 Y-32.47187
G01 X9.13305 Y-32.49437
G01 X9.21949 Y-32.54057
G01 X9.26838 Y-32.57324
G01 X9.36597 Y-32.65521
G01 X9.42282 Y-32.72219
G01 X9.56945 Y-32.72335
G01 X9.63709 Y-32.73163
G01 X9.70143 Y-32.74921
G01 X9.73379 Y-32.76336
G01 X9.82965 Y-32.81634
G01 X9.86541 Y-32.84690
G01 X17.08376 Y-40.06177
G01 X35.28228 Y-40.06177
G01 X35.35068 Y-40.06708
G01 X35.40836 Y-40.07853
G01 X35.50021 Y-40.11242
G01 X35.58370 Y-40.16357
G01 X35.63582 Y-40.20823
G01 X46.62188 Y-51.19423
G01 X134.99528 Y-51.19423
G01 X142.06393 Y-44.12694
G01 X142.11595 Y-44.08523
G01 X142.20218 Y-44.03895
G01 X142.24566 Y-44.02094
G01 X142.35326 Y-44.00017
G01 X142.40020 Y-43.99646
G01 X143.03535 Y-43.99646
G01 X144.10019 Y-42.93164
G01 X144.10017 Y-34.94740
G01 X141.10642 Y-31.95363
G01 X141.06177 Y-31.90151
G01 X141.02911 Y-31.85262
G01 X140.99804 Y-31.79143
G01 X140.97673 Y-31.72617
G01 X140.96528 Y-31.66849
G01 X140.95997 Y-31.60009
G01 X140.95997 Y-30.97563
G01 X140.87411 Y-30.92973
G01 X140.82522 Y-30.89707
G01 X140.70399 Y-30.79758
G01 X140.66241 Y-30.75600
G01 X140.54536 Y-30.61111
G01 X140.45631 Y-30.44756
G01 X140.43381 Y-30.39321
G01 X140.38829 Y-30.24314
G01 X140.37681 Y-30.18546
G01 X140.36144 Y-30.02940
G01 X140.36144 Y-29.97058
G01 X140.38113 Y-29.78539
G01 X140.43381 Y-29.60675
G01 X140.45631 Y-29.55242
G01 X140.53022 Y-29.41411
G01 X140.56291 Y-29.36522
G01 X140.66241 Y-29.24399
G01 X140.70399 Y-29.20241
G01 X140.82522 Y-29.10291
G01 X140.87411 Y-29.07022
G01 X141.03904 Y-28.98371
G01 X141.21684 Y-28.92829
G01 X141.27452 Y-28.91681
G01 X141.43058 Y-28.90144
G01 X141.48940 Y-28.90144
G01 X141.64546 Y-28.91681
G01 X141.70315 Y-28.92829
G01 X141.85321 Y-28.97381
G01 X141.90756 Y-28.99631
G01 X142.04587 Y-29.07022
G01 X142.09476 Y-29.10291
G01 X142.21600 Y-29.20241
G01 X142.25758 Y-29.24399
G01 X142.37459 Y-29.38887
G01 X142.47625 Y-29.57904
G01 X142.53169 Y-29.75684
G01 X142.54317 Y-29.81452
G01 X142.55854 Y-29.97058
G01 X142.55854 Y-30.02940
G01 X142.53886 Y-30.21460
G01 X142.48618 Y-30.39321
G01 X142.46367 Y-30.44756
G01 X142.37459 Y-30.61111
G01 X142.25758 Y-30.75600
G01 X142.21600 Y-30.79758
G01 X142.09476 Y-30.89707
G01 X142.04587 Y-30.92973
G01 X141.95999 Y-30.97566
G01 X141.95999 Y-31.39298
G01 X144.95374 Y-34.38672
G01 X144.99839 Y-34.43884
G01 X145.03105 Y-34.48774
G01 X145.06212 Y-34.54893
G01 X145.08343 Y-34.61418
G01 X145.09488 Y-34.67186
G01 X145.10019 Y-34.74029
G01 X145.09874 Y-43.16816
G01 X145.08343 Y-43.26486
G01 X145.06212 Y-43.33011
G01 X145.03105 Y-43.39130
G01 X144.97350 Y-43.47050
G01 X143.57190 Y-44.87067
G01 X143.53621 Y-44.90108
G01 X143.44048 Y-44.95399
G01 X143.39700 Y-44.97200
G01 X143.28940 Y-44.99277
G01 X143.24249 Y-44.99648
G01 X142.60728 Y-44.99648
G01 X135.55594 Y-52.04783
G01 X135.50382 Y-52.09248
G01 X135.42033 Y-52.14363
G01 X135.32848 Y-52.17752
G01 X135.29993 Y-52.18466
G01 X135.23178 Y-52.19283
G01 X46.38538 Y-52.19283
G01 X46.28868 Y-52.17752
G01 X46.19683 Y-52.14363
G01 X46.11334 Y-52.09248
G01 X46.06122 Y-52.04783
G01 X35.07516 Y-41.06179
G01 X16.87667 Y-41.06179
G01 X16.80827 Y-41.05648
G01 X16.75059 Y-41.04503
G01 X16.65874 Y-41.01114
G01 X16.62415 Y-40.99265
G01 X16.57525 Y-40.95999
G01 X16.52313 Y-40.91534
G01 X9.37948 Y-33.77169
G01 X9.34415 Y-33.80633
G01 X9.26838 Y-33.86854
G01 X9.21949 Y-33.90120
G01 X9.10643 Y-33.96000
G01 X8.95637 Y-34.00552
G01 X8.82970 Y-34.01944
G01 X8.77087 Y-34.01944
G01 X8.67334 Y-34.00984
G01 X8.61565 Y-33.99836
G01 X8.49414 Y-33.96000
G01 X8.38109 Y-33.90120
G01 X8.33219 Y-33.86854
G01 X8.23460 Y-33.78657
G01 X8.13511 Y-33.66534
G01 X8.07377 Y-33.55365
G01 X8.05127 Y-33.49932
G01 X8.01566 Y-33.37697
G01 X8.00174 Y-33.25030
G04 P0 
G00 Z2.00000 M3 ; restart from line 1410

G00 X13.05999 Y-40.99999 
G01 F30.00000

G01 Z-0.07500
G04 P0 
G01 F40.00000
G01 X13.05999 Y-40.99999
G01 X13.07681 Y-40.81450
G01 X13.08826 Y-40.75684
G01 X13.13378 Y-40.60675
G01 X13.15631 Y-40.55242
G01 X13.23022 Y-40.41412
G01 X13.26291 Y-40.36522
G01 X13.36241 Y-40.24399
G01 X13.40399 Y-40.20241
G01 X13.52522 Y-40.10292
G01 X13.57412 Y-40.07023
G01 X13.73904 Y-39.98371
G01 X13.91684 Y-39.92827
G01 X13.97452 Y-39.91681
G01 X14.13058 Y-39.90144
G01 X14.18938 Y-39.90144
G01 X14.34546 Y-39.91681
G01 X14.40315 Y-39.92827
G01 X14.58095 Y-39.98371
G01 X14.74587 Y-40.07023
G01 X14.79476 Y-40.10292
G01 X14.91600 Y-40.20241
G01 X14.95758 Y-40.24399
G01 X15.05707 Y-40.36522
G01 X15.08973 Y-40.41412
G01 X15.13563 Y-40.49997
G01 X15.78948 Y-40.50142
G01 X15.88618 Y-40.51673
G01 X15.92369 Y-40.52811
G01 X16.01262 Y-40.56911
G01 X16.06151 Y-40.60177
G01 X16.11363 Y-40.64643
G01 X17.14718 Y-41.67995
G01 X18.39935 Y-41.67995
G01 X18.46036 Y-41.56885
G01 X18.57741 Y-41.42400
G01 X18.61899 Y-41.38239
G01 X18.74022 Y-41.28290
G01 X18.78912 Y-41.25023
G01 X18.95404 Y-41.16372
G01 X19.13184 Y-41.10827
G01 X19.18952 Y-41.09679
G01 X19.34558 Y-41.08143
G01 X19.40438 Y-41.08143
G01 X19.56046 Y-41.09679
G01 X19.61815 Y-41.10827
G01 X19.79595 Y-41.16372
G01 X19.96087 Y-41.25023
G01 X20.00976 Y-41.28290
G01 X20.13100 Y-41.38239
G01 X20.17258 Y-41.42400
G01 X20.27207 Y-41.54521
G01 X20.30473 Y-41.59410
G01 X20.39125 Y-41.75905
G01 X20.44670 Y-41.93682
G01 X20.45818 Y-41.99451
G01 X20.47499 Y-42.17998
G01 X20.45818 Y-42.36547
G01 X20.44670 Y-42.42316
G01 X20.40118 Y-42.57322
G01 X20.37867 Y-42.62755
G01 X20.30473 Y-42.76585
G01 X20.27207 Y-42.81477
G01 X20.15282 Y-42.95780
G01 X20.00976 Y-43.07705
G01 X19.96087 Y-43.10974
G01 X19.79595 Y-43.19626
G01 X19.61815 Y-43.25170
G01 X19.56046 Y-43.26316
G01 X19.40438 Y-43.27855
G01 X19.34558 Y-43.27855
G01 X19.18952 Y-43.26316
G01 X19.13184 Y-43.25170
G01 X18.95404 Y-43.19626
G01 X18.78912 Y-43.10974
G01 X18.74022 Y-43.07705
G01 X18.61899 Y-42.97759
G01 X18.57741 Y-42.93598
G01 X18.47792 Y-42.81477
G01 X18.44523 Y-42.76585
G01 X18.39933 Y-42.67995
G01 X16.94010 Y-42.67998
G01 X16.87167 Y-42.67467
G01 X16.81399 Y-42.66321
G01 X16.72214 Y-42.62933
G01 X16.63865 Y-42.57817
G01 X16.58653 Y-42.53352
G01 X15.55298 Y-41.49999
G01 X15.13563 Y-41.49999
G01 X15.08973 Y-41.58587
G01 X15.05707 Y-41.63477
G01 X14.95758 Y-41.75600
G01 X14.91600 Y-41.79758
G01 X14.79476 Y-41.89707
G01 X14.74587 Y-41.92974
G01 X14.58095 Y-42.01625
G01 X14.40315 Y-42.07170
G01 X14.34546 Y-42.08318
G01 X14.18938 Y-42.09854
G01 X14.13058 Y-42.09854
G01 X13.97452 Y-42.08318
G01 X13.91684 Y-42.07170
G01 X13.73904 Y-42.01625
G01 X13.57412 Y-41.92974
G01 X13.52522 Y-41.89707
G01 X13.40399 Y-41.79758
G01 X13.36241 Y-41.75600
G01 X13.26291 Y-41.63477
G01 X13.23022 Y-41.58587
G01 X13.15631 Y-41.44754
G01 X13.13378 Y-41.39321
G01 X13.08826 Y-41.24315
G01 X13.07681 Y-41.18547
G01 X13.05999 Y-40.99999
G04 P0 
G00 Z2.00000 M3 ; restart from line 1533

G00 X20.81500 Y-42.17998 
G01 F30.00000

G01 Z-0.07500
G04 P0 
G01 F40.00000
G01 X20.81500 Y-42.17998
G01 X20.83181 Y-41.99451
G01 X20.84327 Y-41.93682
G01 X20.89498 Y-41.77185
G01 X20.91131 Y-41.73243
G01 X20.98523 Y-41.59410
G01 X21.01792 Y-41.54521
G01 X21.13717 Y-41.40218
G01 X21.28022 Y-41.28290
G01 X21.32912 Y-41.25023
G01 X21.49404 Y-41.16372
G01 X21.67184 Y-41.10827
G01 X21.72952 Y-41.09679
G01 X21.88558 Y-41.08143
G01 X21.94438 Y-41.08143
G01 X22.10046 Y-41.09679
G01 X22.15815 Y-41.10827
G01 X22.33595 Y-41.16372
G01 X22.50087 Y-41.25023
G01 X22.54976 Y-41.28290
G01 X22.69282 Y-41.40218
G01 X22.81207 Y-41.54521
G01 X22.84473 Y-41.59410
G01 X22.93125 Y-41.75905
G01 X22.98670 Y-41.93682
G01 X22.99818 Y-41.99451
G01 X23.01499 Y-42.17998
G01 X22.99818 Y-42.36547
G01 X22.98670 Y-42.42316
G01 X22.94118 Y-42.57322
G01 X22.91867 Y-42.62755
G01 X22.84473 Y-42.76585
G01 X22.81207 Y-42.81477
G01 X22.69282 Y-42.95780
G01 X22.54976 Y-43.07705
G01 X22.50087 Y-43.10974
G01 X22.33595 Y-43.19626
G01 X22.15815 Y-43.25170
G01 X22.10046 Y-43.26316
G01 X21.94438 Y-43.27855
G01 X21.88558 Y-43.27855
G01 X21.72952 Y-43.26316
G01 X21.67184 Y-43.25170
G01 X21.49404 Y-43.19626
G01 X21.32912 Y-43.10974
G01 X21.28022 Y-43.07705
G01 X21.13717 Y-42.95780
G01 X21.01792 Y-42.81477
G01 X20.98523 Y-42.76585
G01 X20.91131 Y-42.62755
G01 X20.88881 Y-42.57322
G01 X20.84327 Y-42.42316
G01 X20.83181 Y-42.36547
G01 X20.81500 Y-42.17998
G04 P0 
G00 Z2.00000 M3 ; restart from line 1596

G00 X23.35500 Y-42.17998 
G01 F30.00000

G01 Z-0.07500
G04 P0 
G01 F40.00000
G01 X23.35500 Y-42.17998
G01 X23.37181 Y-41.99451
G01 X23.38327 Y-41.93682
G01 X23.43498 Y-41.77185
G01 X23.45131 Y-41.73243
G01 X23.52523 Y-41.59410
G01 X23.55792 Y-41.54521
G01 X23.67717 Y-41.40218
G01 X23.82022 Y-41.28290
G01 X23.86912 Y-41.25023
G01 X24.03404 Y-41.16372
G01 X24.21184 Y-41.10827
G01 X24.26952 Y-41.09679
G01 X24.42558 Y-41.08143
G01 X24.48438 Y-41.08143
G01 X24.64046 Y-41.09679
G01 X24.69815 Y-41.10827
G01 X24.87595 Y-41.16372
G01 X25.04087 Y-41.25023
G01 X25.08976 Y-41.28290
G01 X25.23282 Y-41.40218
G01 X25.35207 Y-41.54521
G01 X25.38473 Y-41.59410
G01 X25.47125 Y-41.75905
G01 X25.52670 Y-41.93682
G01 X25.53815 Y-41.99451
G01 X25.55499 Y-42.17998
G01 X25.53815 Y-42.36547
G01 X25.52670 Y-42.42316
G01 X25.48118 Y-42.57322
G01 X25.45867 Y-42.62755
G01 X25.38473 Y-42.76585
G01 X25.35207 Y-42.81477
G01 X25.23282 Y-42.95780
G01 X25.08976 Y-43.07705
G01 X25.04087 Y-43.10974
G01 X24.87595 Y-43.19626
G01 X24.69815 Y-43.25170
G01 X24.64046 Y-43.26316
G01 X24.48438 Y-43.27855
G01 X24.42558 Y-43.27855
G01 X24.26952 Y-43.26316
G01 X24.21184 Y-43.25170
G01 X24.03404 Y-43.19626
G01 X23.86912 Y-43.10974
G01 X23.82022 Y-43.07705
G01 X23.67717 Y-42.95780
G01 X23.55792 Y-42.81477
G01 X23.52523 Y-42.76585
G01 X23.45131 Y-42.62755
G01 X23.42881 Y-42.57322
G01 X23.38327 Y-42.42316
G01 X23.37181 Y-42.36547
G01 X23.35500 Y-42.17998
G04 P0 
G00 Z2.00000 M3 ; restart from line 1659

G00 X25.89642 Y-42.20939 
G01 F30.00000

G01 Z-0.07500
G04 P0 
G01 F40.00000
G01 X25.89642 Y-42.20939
G01 X25.89642 Y-42.15059
G01 X25.91610 Y-41.96540
G01 X25.96881 Y-41.78676
G01 X25.99131 Y-41.73243
G01 X26.06520 Y-41.59410
G01 X26.09792 Y-41.54521
G01 X26.21717 Y-41.40218
G01 X26.36022 Y-41.28290
G01 X26.40909 Y-41.25023
G01 X26.57404 Y-41.16372
G01 X26.75184 Y-41.10827
G01 X26.80952 Y-41.09679
G01 X26.96558 Y-41.08143
G01 X27.02438 Y-41.08143
G01 X27.20960 Y-41.10111
G01 X27.38821 Y-41.15379
G01 X27.44254 Y-41.17630
G01 X27.58087 Y-41.25023
G01 X27.62976 Y-41.28290
G01 X27.77282 Y-41.40218
G01 X27.89207 Y-41.54521
G01 X27.92473 Y-41.59410
G01 X28.01125 Y-41.75905
G01 X28.06670 Y-41.93682
G01 X28.07818 Y-41.99451
G01 X28.09354 Y-42.15059
G01 X28.09354 Y-42.20939
G01 X28.07386 Y-42.39458
G01 X28.02118 Y-42.57322
G01 X27.99867 Y-42.62755
G01 X27.92473 Y-42.76585
G01 X27.89207 Y-42.81477
G01 X27.77282 Y-42.95780
G01 X27.62976 Y-43.07705
G01 X27.58087 Y-43.10974
G01 X27.44254 Y-43.18366
G01 X27.38821 Y-43.20616
G01 X27.20960 Y-43.25884
G01 X27.02438 Y-43.27855
G01 X26.96558 Y-43.27855
G01 X26.78039 Y-43.25884
G01 X26.60172 Y-43.20616
G01 X26.54742 Y-43.18366
G01 X26.40909 Y-43.10974
G01 X26.36022 Y-43.07705
G01 X26.21717 Y-42.95780
G01 X26.09792 Y-42.81477
G01 X26.06520 Y-42.76585
G01 X25.99131 Y-42.62755
G01 X25.96881 Y-42.57322
G01 X25.91610 Y-42.39458
G01 X25.89642 Y-42.20939
G04 P0 
G00 Z2.00000 M3 ; restart from line 1721

G00 X28.43644 Y-42.20939 
G01 F30.00000

G01 Z-0.07500
G04 P0 
G01 F40.00000
G01 X28.43644 Y-42.20939
G01 X28.43644 Y-42.15059
G01 X28.45613 Y-41.96540
G01 X28.50881 Y-41.78676
G01 X28.53131 Y-41.73243
G01 X28.60523 Y-41.59410
G01 X28.63792 Y-41.54521
G01 X28.75717 Y-41.40218
G01 X28.90022 Y-41.28290
G01 X28.94912 Y-41.25023
G01 X29.11404 Y-41.16372
G01 X29.29184 Y-41.10827
G01 X29.34952 Y-41.09679
G01 X29.50558 Y-41.08143
G01 X29.56438 Y-41.08143
G01 X29.74960 Y-41.10111
G01 X29.92821 Y-41.15379
G01 X29.98254 Y-41.17630
G01 X30.12087 Y-41.25023
G01 X30.16976 Y-41.28290
G01 X30.31282 Y-41.40218
G01 X30.43207 Y-41.54521
G01 X30.46473 Y-41.59410
G01 X30.55125 Y-41.75905
G01 X30.60670 Y-41.93682
G01 X30.61818 Y-41.99451
G01 X30.63354 Y-42.15059
G01 X30.63354 Y-42.20939
G01 X30.61386 Y-42.39458
G01 X30.56118 Y-42.57322
G01 X30.53867 Y-42.62755
G01 X30.46473 Y-42.76585
G01 X30.43207 Y-42.81477
G01 X30.31282 Y-42.95780
G01 X30.16976 Y-43.07705
G01 X30.12087 Y-43.10974
G01 X29.98254 Y-43.18366
G01 X29.92821 Y-43.20616
G01 X29.74960 Y-43.25884
G01 X29.56438 Y-43.27855
G01 X29.50558 Y-43.27855
G01 X29.32039 Y-43.25884
G01 X29.14175 Y-43.20616
G01 X29.08742 Y-43.18366
G01 X28.94912 Y-43.10974
G01 X28.90022 Y-43.07705
G01 X28.75717 Y-42.95780
G01 X28.63792 Y-42.81477
G01 X28.60523 Y-42.76585
G01 X28.53131 Y-42.62755
G01 X28.50881 Y-42.57322
G01 X28.45613 Y-42.39458
G01 X28.43644 Y-42.20939
G04 P0 
G00 Z2.00000 M3 ; restart from line 1783

G00 X33.51644 Y-42.20939 
G01 F30.00000

G01 Z-0.07500
G04 P0 
G01 F40.00000
G01 X33.51644 Y-42.20939
G01 X33.51644 Y-42.15059
G01 X33.53613 Y-41.96540
G01 X33.58881 Y-41.78676
G01 X33.61131 Y-41.73243
G01 X33.68523 Y-41.59410
G01 X33.71792 Y-41.54521
G01 X33.83717 Y-41.40218
G01 X33.98022 Y-41.28290
G01 X34.02912 Y-41.25023
G01 X34.19404 Y-41.16372
G01 X34.37184 Y-41.10827
G01 X34.42952 Y-41.09679
G01 X34.58558 Y-41.08143
G01 X34.64438 Y-41.08143
G01 X34.82960 Y-41.10111
G01 X35.00821 Y-41.15379
G01 X35.06254 Y-41.17630
G01 X35.20087 Y-41.25023
G01 X35.24976 Y-41.28290
G01 X35.39282 Y-41.40218
G01 X35.51207 Y-41.54521
G01 X35.54473 Y-41.59410
G01 X35.63125 Y-41.75905
G01 X35.68670 Y-41.93682
G01 X35.69818 Y-41.99451
G01 X35.71354 Y-42.15059
G01 X35.71354 Y-42.20939
G01 X35.69386 Y-42.39458
G01 X35.64118 Y-42.57322
G01 X35.61867 Y-42.62755
G01 X35.54473 Y-42.76585
G01 X35.51207 Y-42.81477
G01 X35.39282 Y-42.95780
G01 X35.24976 Y-43.07705
G01 X35.20087 Y-43.10974
G01 X35.06254 Y-43.18366
G01 X35.00821 Y-43.20616
G01 X34.82960 Y-43.25884
G01 X34.64438 Y-43.27855
G01 X34.58558 Y-43.27855
G01 X34.40039 Y-43.25884
G01 X34.22175 Y-43.20616
G01 X34.16742 Y-43.18366
G01 X34.02912 Y-43.10974
G01 X33.98022 Y-43.07705
G01 X33.83717 Y-42.95780
G01 X33.71792 Y-42.81477
G01 X33.68523 Y-42.76585
G01 X33.61131 Y-42.62755
G01 X33.58881 Y-42.57322
G01 X33.53613 Y-42.39458
G01 X33.51644 Y-42.20939
G04 P0 
G00 Z2.00000 M3 ; restart from line 1845

G00 X28.43644 Y-49.82939 
G01 F30.00000

G01 Z-0.07500
G04 P0 
G01 F40.00000
G01 X28.43644 Y-49.82939
G01 X28.43644 Y-49.77059
G01 X28.45181 Y-49.61451
G01 X28.46327 Y-49.55682
G01 X28.50881 Y-49.40676
G01 X28.53131 Y-49.35243
G01 X28.60523 Y-49.21410
G01 X28.63792 Y-49.16521
G01 X28.75717 Y-49.02218
G01 X28.90022 Y-48.90290
G01 X28.94912 Y-48.87024
G01 X29.03497 Y-48.82434
G01 X29.03497 Y-48.19985
G01 X29.04028 Y-48.13145
G01 X29.04460 Y-48.10232
G01 X29.06311 Y-48.03625
G01 X29.08562 Y-47.98192
G01 X29.11925 Y-47.92208
G01 X29.13677 Y-47.89843
G01 X29.20324 Y-47.82655
G01 X29.25719 Y-47.78413
G01 X29.31704 Y-47.75050
G01 X29.37137 Y-47.72800
G01 X29.43743 Y-47.70948
G01 X29.50558 Y-47.70130
G01 X29.68008 Y-47.69985
G01 X31.57497 Y-45.80499
G01 X31.57497 Y-43.15564
G01 X31.48912 Y-43.10974
G01 X31.44022 Y-43.07705
G01 X31.29717 Y-42.95780
G01 X31.17792 Y-42.81477
G01 X31.14523 Y-42.76585
G01 X31.07131 Y-42.62755
G01 X31.04881 Y-42.57322
G01 X31.00327 Y-42.42316
G01 X30.99181 Y-42.36547
G01 X30.97644 Y-42.20939
G01 X30.97644 Y-42.15059
G01 X30.99613 Y-41.96540
G01 X31.04881 Y-41.78676
G01 X31.07131 Y-41.73243
G01 X31.14523 Y-41.59410
G01 X31.17792 Y-41.54521
G01 X31.27741 Y-41.42400
G01 X31.31899 Y-41.38239
G01 X31.44022 Y-41.28290
G01 X31.48912 Y-41.25023
G01 X31.62742 Y-41.17630
G01 X31.68175 Y-41.15379
G01 X31.83184 Y-41.10827
G01 X31.88952 Y-41.09679
G01 X32.04558 Y-41.08143
G01 X32.10438 Y-41.08143
G01 X32.28960 Y-41.10111
G01 X32.46821 Y-41.15379
G01 X32.52254 Y-41.17630
G01 X32.66087 Y-41.25023
G01 X32.70976 Y-41.28290
G01 X32.85282 Y-41.40218
G01 X32.97207 Y-41.54521
G01 X33.00473 Y-41.59410
G01 X33.07867 Y-41.73243
G01 X33.10118 Y-41.78676
G01 X33.14670 Y-41.93682
G01 X33.15818 Y-41.99451
G01 X33.17354 Y-42.15059
G01 X33.17354 Y-42.20939
G01 X33.15818 Y-42.36547
G01 X33.14670 Y-42.42316
G01 X33.10118 Y-42.57322
G01 X33.07867 Y-42.62755
G01 X33.00473 Y-42.76585
G01 X32.97207 Y-42.81477
G01 X32.85282 Y-42.95780
G01 X32.70976 Y-43.07705
G01 X32.66087 Y-43.10974
G01 X32.57497 Y-43.15564
G01 X32.57499 Y-45.80499
G01 X34.46988 Y-47.69985
G01 X34.64438 Y-47.70130
G01 X34.71253 Y-47.70948
G01 X34.77859 Y-47.72800
G01 X34.83292 Y-47.75050
G01 X34.89277 Y-47.78413
G01 X34.91641 Y-47.80166
G01 X34.98830 Y-47.86813
G01 X35.03071 Y-47.92208
G01 X35.06434 Y-47.98192
G01 X35.08685 Y-48.03625
G01 X35.10537 Y-48.10232
G01 X35.11354 Y-48.17046
G01 X35.11497 Y-48.82434
G01 X35.20087 Y-48.87024
G01 X35.24976 Y-48.90290
G01 X35.37100 Y-49.00239
G01 X35.41258 Y-49.04400
G01 X35.51207 Y-49.16521
G01 X35.54473 Y-49.21410
G01 X35.63125 Y-49.37905
G01 X35.68670 Y-49.55682
G01 X35.69818 Y-49.61451
G01 X35.71354 Y-49.77059
G01 X35.71354 Y-49.82939
G01 X35.69818 Y-49.98547
G01 X35.68670 Y-50.04316
G01 X35.64118 Y-50.19322
G01 X35.61867 Y-50.24755
G01 X35.54473 Y-50.38585
G01 X35.51207 Y-50.43477
G01 X35.39282 Y-50.57780
G01 X35.24976 Y-50.69705
G01 X35.20087 Y-50.72974
G01 X35.06254 Y-50.80366
G01 X35.00821 Y-50.82616
G01 X34.82960 Y-50.87884
G01 X34.64438 Y-50.89855
G01 X34.58558 Y-50.89855
G01 X34.40039 Y-50.87884
G01 X34.22175 Y-50.82616
G01 X34.16742 Y-50.80366
G01 X34.02912 Y-50.72974
G01 X33.98022 Y-50.69705
G01 X33.83717 Y-50.57780
G01 X33.71792 Y-50.43477
G01 X33.68523 Y-50.38585
G01 X33.61131 Y-50.24755
G01 X33.58881 Y-50.19322
G01 X33.54327 Y-50.04316
G01 X33.53181 Y-49.98547
G01 X33.51644 Y-49.82939
G01 X33.51644 Y-49.77059
G01 X33.53181 Y-49.61451
G01 X33.54327 Y-49.55682
G01 X33.58881 Y-49.40676
G01 X33.61131 Y-49.35243
G01 X33.68523 Y-49.21410
G01 X33.71792 Y-49.16521
G01 X33.83717 Y-49.02218
G01 X33.98022 Y-48.90290
G01 X34.02912 Y-48.87024
G01 X34.11499 Y-48.82434
G01 X34.11499 Y-48.67653
G01 X34.04484 Y-48.64923
G01 X34.01024 Y-48.63074
G01 X33.96135 Y-48.59807
G01 X33.90923 Y-48.55342
G01 X32.07499 Y-46.71919
G01 X30.24073 Y-48.55342
G01 X30.18861 Y-48.59807
G01 X30.13972 Y-48.63074
G01 X30.10512 Y-48.64923
G01 X30.03497 Y-48.67653
G01 X30.03497 Y-48.82434
G01 X30.12087 Y-48.87024
G01 X30.16976 Y-48.90290
G01 X30.31282 Y-49.02218
G01 X30.43207 Y-49.16521
G01 X30.46473 Y-49.21410
G01 X30.55125 Y-49.37905
G01 X30.60670 Y-49.55682
G01 X30.61818 Y-49.61451
G01 X30.63354 Y-49.77059
G01 X30.63354 Y-49.82939
G01 X30.61818 Y-49.98547
G01 X30.60670 Y-50.04316
G01 X30.56118 Y-50.19322
G01 X30.53867 Y-50.24755
G01 X30.46473 Y-50.38585
G01 X30.43207 Y-50.43477
G01 X30.33258 Y-50.55598
G01 X30.29100 Y-50.59759
G01 X30.16976 Y-50.69705
G01 X30.12087 Y-50.72974
G01 X29.98254 Y-50.80366
G01 X29.92821 Y-50.82616
G01 X29.74960 Y-50.87884
G01 X29.56438 Y-50.89855
G01 X29.50558 Y-50.89855
G01 X29.34952 Y-50.88316
G01 X29.29184 Y-50.87168
G01 X29.14175 Y-50.82616
G01 X29.08742 Y-50.80366
G01 X28.94912 Y-50.72974
G01 X28.90022 Y-50.69705
G01 X28.77899 Y-50.59759
G01 X28.73741 Y-50.55598
G01 X28.63792 Y-50.43477
G01 X28.60523 Y-50.38585
G01 X28.53131 Y-50.24755
G01 X28.50881 Y-50.19322
G01 X28.46327 Y-50.04316
G01 X28.45181 Y-49.98547
G01 X28.43644 Y-49.82939
G04 P0 
G00 Z2.00000 M3 ; restart from line 2048

G00 X30.97644 Y-49.82939 
G01 F30.00000

G01 Z-0.07500
G04 P0 
G01 F40.00000
G01 X30.97644 Y-49.82939
G01 X30.97644 Y-49.77059
G01 X30.99613 Y-49.58540
G01 X31.04881 Y-49.40676
G01 X31.07131 Y-49.35243
G01 X31.14523 Y-49.21410
G01 X31.17792 Y-49.16521
G01 X31.29717 Y-49.02218
G01 X31.44022 Y-48.90290
G01 X31.48912 Y-48.87024
G01 X31.65404 Y-48.78372
G01 X31.83184 Y-48.72827
G01 X31.88952 Y-48.71679
G01 X32.04558 Y-48.70143
G01 X32.10438 Y-48.70143
G01 X32.28960 Y-48.72111
G01 X32.46821 Y-48.77379
G01 X32.52254 Y-48.79630
G01 X32.66087 Y-48.87024
G01 X32.70976 Y-48.90290
G01 X32.85282 Y-49.02218
G01 X32.97207 Y-49.16521
G01 X33.00473 Y-49.21410
G01 X33.09125 Y-49.37905
G01 X33.14670 Y-49.55682
G01 X33.15818 Y-49.61451
G01 X33.17354 Y-49.77059
G01 X33.17354 Y-49.82939
G01 X33.15386 Y-50.01458
G01 X33.10118 Y-50.19322
G01 X33.07867 Y-50.24755
G01 X33.00473 Y-50.38585
G01 X32.97207 Y-50.43477
G01 X32.85282 Y-50.57780
G01 X32.70976 Y-50.69705
G01 X32.66087 Y-50.72974
G01 X32.52254 Y-50.80366
G01 X32.46821 Y-50.82616
G01 X32.28960 Y-50.87884
G01 X32.10438 Y-50.89855
G01 X32.04558 Y-50.89855
G01 X31.86039 Y-50.87884
G01 X31.68175 Y-50.82616
G01 X31.62742 Y-50.80366
G01 X31.48912 Y-50.72974
G01 X31.44022 Y-50.69705
G01 X31.29717 Y-50.57780
G01 X31.17792 Y-50.43477
G01 X31.14523 Y-50.38585
G01 X31.07131 Y-50.24755
G01 X31.04881 Y-50.19322
G01 X30.99613 Y-50.01458
G01 X30.97644 Y-49.82939
G04 P0 
G00 Z2.00000 M3 ; restart from line 2110

G00 X25.89642 Y-49.82939 
G01 F30.00000

G01 Z-0.07500
G04 P0 
G01 F40.00000
G01 X25.89642 Y-49.82939
G01 X25.89642 Y-49.77059
G01 X25.91610 Y-49.58540
G01 X25.96881 Y-49.40676
G01 X25.99131 Y-49.35243
G01 X26.06520 Y-49.21410
G01 X26.09792 Y-49.16521
G01 X26.21717 Y-49.02218
G01 X26.36022 Y-48.90290
G01 X26.40909 Y-48.87024
G01 X26.57404 Y-48.78372
G01 X26.75184 Y-48.72827
G01 X26.80952 Y-48.71679
G01 X26.96558 Y-48.70143
G01 X27.02438 Y-48.70143
G01 X27.20960 Y-48.72111
G01 X27.38821 Y-48.77379
G01 X27.44254 Y-48.79630
G01 X27.58087 Y-48.87024
G01 X27.62976 Y-48.90290
G01 X27.77282 Y-49.02218
G01 X27.89207 Y-49.16521
G01 X27.92473 Y-49.21410
G01 X28.01125 Y-49.37905
G01 X28.06670 Y-49.55682
G01 X28.07818 Y-49.61451
G01 X28.09354 Y-49.77059
G01 X28.09354 Y-49.82939
G01 X28.07386 Y-50.01458
G01 X28.02118 Y-50.19322
G01 X27.99867 Y-50.24755
G01 X27.92473 Y-50.38585
G01 X27.89207 Y-50.43477
G01 X27.77282 Y-50.57780
G01 X27.62976 Y-50.69705
G01 X27.58087 Y-50.72974
G01 X27.44254 Y-50.80366
G01 X27.38821 Y-50.82616
G01 X27.20960 Y-50.87884
G01 X27.02438 Y-50.89855
G01 X26.96558 Y-50.89855
G01 X26.78039 Y-50.87884
G01 X26.60172 Y-50.82616
G01 X26.54742 Y-50.80366
G01 X26.40909 Y-50.72974
G01 X26.36022 Y-50.69705
G01 X26.21717 Y-50.57780
G01 X26.09792 Y-50.43477
G01 X26.06520 Y-50.38585
G01 X25.99131 Y-50.24755
G01 X25.96881 Y-50.19322
G01 X25.91610 Y-50.01458
G01 X25.89642 Y-49.82939
G04 P0 
G00 Z2.00000 M3 ; restart from line 2172

G00 X23.35500 Y-49.79998 
G01 F30.00000

G01 Z-0.07500
G04 P0 
G01 F40.00000
G01 X23.35500 Y-49.79998
G01 X23.37181 Y-49.61451
G01 X23.38327 Y-49.55682
G01 X23.43498 Y-49.39185
G01 X23.45131 Y-49.35243
G01 X23.52523 Y-49.21410
G01 X23.55792 Y-49.16521
G01 X23.67717 Y-49.02218
G01 X23.82022 Y-48.90290
G01 X23.86912 Y-48.87024
G01 X24.03404 Y-48.78372
G01 X24.21184 Y-48.72827
G01 X24.26952 Y-48.71679
G01 X24.42558 Y-48.70143
G01 X24.48438 Y-48.70143
G01 X24.64046 Y-48.71679
G01 X24.69815 Y-48.72827
G01 X24.87595 Y-48.78372
G01 X25.04087 Y-48.87024
G01 X25.08976 Y-48.90290
G01 X25.23282 Y-49.02218
G01 X25.35207 Y-49.16521
G01 X25.38473 Y-49.21410
G01 X25.47125 Y-49.37905
G01 X25.52670 Y-49.55682
G01 X25.53815 Y-49.61451
G01 X25.55499 Y-49.79998
G01 X25.53815 Y-49.98547
G01 X25.52670 Y-50.04316
G01 X25.48118 Y-50.19322
G01 X25.45867 Y-50.24755
G01 X25.38473 Y-50.38585
G01 X25.35207 Y-50.43477
G01 X25.23282 Y-50.57780
G01 X25.08976 Y-50.69705
G01 X25.04087 Y-50.72974
G01 X24.87595 Y-50.81626
G01 X24.69815 Y-50.87168
G01 X24.64046 Y-50.88316
G01 X24.48438 Y-50.89855
G01 X24.42558 Y-50.89855
G01 X24.26952 Y-50.88316
G01 X24.21184 Y-50.87168
G01 X24.03404 Y-50.81626
G01 X23.86912 Y-50.72974
G01 X23.82022 Y-50.69705
G01 X23.67717 Y-50.57780
G01 X23.55792 Y-50.43477
G01 X23.52523 Y-50.38585
G01 X23.45131 Y-50.24755
G01 X23.43498 Y-50.20813
G01 X23.38327 Y-50.04316
G01 X23.37181 Y-49.98547
G01 X23.35500 Y-49.79998
G04 P0 
G00 Z2.00000 M3 ; restart from line 2235

G00 X20.81500 Y-49.79998 
G01 F30.00000

G01 Z-0.07500
G04 P0 
G01 F40.00000
G01 X20.81500 Y-49.79998
G01 X20.83181 Y-49.61451
G01 X20.84327 Y-49.55682
G01 X20.88881 Y-49.40676
G01 X20.91131 Y-49.35243
G01 X20.98523 Y-49.21410
G01 X21.01792 Y-49.16521
G01 X21.13717 Y-49.02218
G01 X21.28022 Y-48.90290
G01 X21.32912 Y-48.87024
G01 X21.49404 Y-48.78372
G01 X21.67184 Y-48.72827
G01 X21.72952 Y-48.71679
G01 X21.88558 Y-48.70143
G01 X21.94438 Y-48.70143
G01 X22.10046 Y-48.71679
G01 X22.15815 Y-48.72827
G01 X22.33595 Y-48.78372
G01 X22.50087 Y-48.87024
G01 X22.54976 Y-48.90290
G01 X22.69282 Y-49.02218
G01 X22.81207 Y-49.16521
G01 X22.84473 Y-49.21410
G01 X22.93125 Y-49.37905
G01 X22.98670 Y-49.55682
G01 X22.99818 Y-49.61451
G01 X23.01499 Y-49.79998
G01 X22.99818 Y-49.98547
G01 X22.98670 Y-50.04316
G01 X22.94118 Y-50.19322
G01 X22.91867 Y-50.24755
G01 X22.84473 Y-50.38585
G01 X22.81207 Y-50.43477
G01 X22.69282 Y-50.57780
G01 X22.54976 Y-50.69705
G01 X22.50087 Y-50.72974
G01 X22.33595 Y-50.81626
G01 X22.15815 Y-50.87168
G01 X22.10046 Y-50.88316
G01 X21.94438 Y-50.89855
G01 X21.88558 Y-50.89855
G01 X21.72952 Y-50.88316
G01 X21.67184 Y-50.87168
G01 X21.49404 Y-50.81626
G01 X21.32912 Y-50.72974
G01 X21.28022 Y-50.69705
G01 X21.13717 Y-50.57780
G01 X21.01792 Y-50.43477
G01 X20.98523 Y-50.38585
G01 X20.91131 Y-50.24755
G01 X20.88881 Y-50.19322
G01 X20.84327 Y-50.04316
G01 X20.83181 Y-49.98547
G01 X20.81500 Y-49.79998
G04 P0 
G00 Z2.00000 M3 ; restart from line 2298

G00 X10.47143 Y-50.02939 
G01 F30.00000

G01 Z-0.07500
G04 P0 
G01 F40.00000
G01 X10.47143 Y-50.02939
G01 X10.47143 Y-49.97059
G01 X10.49208 Y-49.77564
G01 X10.54760 Y-49.58763
G01 X10.57011 Y-49.53328
G01 X10.66381 Y-49.36109
G01 X10.78705 Y-49.20864
G01 X10.82863 Y-49.16703
G01 X10.98108 Y-49.04379
G01 X11.15329 Y-48.95012
G01 X11.20762 Y-48.92761
G01 X11.39563 Y-48.87209
G01 X11.59058 Y-48.85144
G01 X11.64938 Y-48.85144
G01 X11.84435 Y-48.87209
G01 X12.03236 Y-48.92761
G01 X12.08669 Y-48.95012
G01 X12.25890 Y-49.04379
G01 X12.41135 Y-49.16703
G01 X12.45293 Y-49.20864
G01 X12.57617 Y-49.36109
G01 X12.66985 Y-49.53328
G01 X12.69235 Y-49.58763
G01 X12.74788 Y-49.77564
G01 X12.76855 Y-49.97059
G01 X12.76855 Y-50.02939
G01 X12.74788 Y-50.22433
G01 X12.69235 Y-50.41235
G01 X12.66985 Y-50.46668
G01 X12.57617 Y-50.63889
G01 X12.45293 Y-50.79134
G01 X12.41135 Y-50.83294
G01 X12.25890 Y-50.95618
G01 X12.08669 Y-51.04986
G01 X12.03236 Y-51.07236
G01 X11.84435 Y-51.12789
G01 X11.64938 Y-51.14854
G01 X11.59058 Y-51.14854
G01 X11.39563 Y-51.12789
G01 X11.20762 Y-51.07236
G01 X11.15329 Y-51.04986
G01 X11.00633 Y-50.97132
G01 X10.95743 Y-50.93863
G01 X10.82863 Y-50.83294
G01 X10.78705 Y-50.79134
G01 X10.66381 Y-50.63889
G01 X10.57011 Y-50.46668
G01 X10.54760 Y-50.41235
G01 X10.49208 Y-50.22433
G01 X10.47143 Y-50.02939
G04 P0 
G00 Z2.00000 M3 ; restart from line 2357

G00 X7.93143 Y-50.02939 
G01 F30.00000

G01 Z-0.07500
G04 P0 
G01 F40.00000
G01 X7.93143 Y-50.02939
G01 X7.93143 Y-49.97059
G01 X7.95208 Y-49.77564
G01 X8.00760 Y-49.58763
G01 X8.03011 Y-49.53328
G01 X8.12381 Y-49.36109
G01 X8.24705 Y-49.20864
G01 X8.28863 Y-49.16703
G01 X8.44108 Y-49.04379
G01 X8.61329 Y-48.95012
G01 X8.66762 Y-48.92761
G01 X8.85563 Y-48.87209
G01 X9.05058 Y-48.85144
G01 X9.10938 Y-48.85144
G01 X9.30435 Y-48.87209
G01 X9.49236 Y-48.92761
G01 X9.54669 Y-48.95012
G01 X9.71890 Y-49.04379
G01 X9.87135 Y-49.16703
G01 X9.91293 Y-49.20864
G01 X10.03618 Y-49.36109
G01 X10.12985 Y-49.53328
G01 X10.15235 Y-49.58763
G01 X10.20788 Y-49.77564
G01 X10.22855 Y-49.97059
G01 X10.22855 Y-50.02939
G01 X10.20788 Y-50.22433
G01 X10.15235 Y-50.41235
G01 X10.12985 Y-50.46668
G01 X10.03618 Y-50.63889
G01 X9.91293 Y-50.79134
G01 X9.87135 Y-50.83294
G01 X9.71890 Y-50.95618
G01 X9.54669 Y-51.04986
G01 X9.49236 Y-51.07236
G01 X9.30435 Y-51.12789
G01 X9.10938 Y-51.14854
G01 X9.05058 Y-51.14854
G01 X8.85563 Y-51.12789
G01 X8.66762 Y-51.07236
G01 X8.61329 Y-51.04986
G01 X8.46633 Y-50.97132
G01 X8.41743 Y-50.93863
G01 X8.28863 Y-50.83294
G01 X8.24705 Y-50.79134
G01 X8.12381 Y-50.63889
G01 X8.03011 Y-50.46668
G01 X8.00760 Y-50.41235
G01 X7.95208 Y-50.22433
G01 X7.93143 Y-50.02939
G04 P0 
G00 Z2.00000 M3 ; restart from line 2416

G00 X5.39143 Y-50.02939 
G01 F30.00000

G01 Z-0.07500
G04 P0 
G01 F40.00000
G01 X5.39143 Y-50.02939
G01 X5.39143 Y-49.97059
G01 X5.41208 Y-49.77564
G01 X5.46760 Y-49.58763
G01 X5.49011 Y-49.53328
G01 X5.58381 Y-49.36109
G01 X5.70705 Y-49.20864
G01 X5.74863 Y-49.16703
G01 X5.87743 Y-49.06134
G01 X5.92633 Y-49.02865
G01 X6.07329 Y-48.95012
G01 X6.12762 Y-48.92761
G01 X6.28708 Y-48.87923
G01 X6.34477 Y-48.86777
G01 X6.51058 Y-48.85144
G01 X6.56938 Y-48.85144
G01 X6.73522 Y-48.86777
G01 X6.79290 Y-48.87923
G01 X6.95236 Y-48.92761
G01 X7.00669 Y-48.95012
G01 X7.17890 Y-49.04379
G01 X7.33135 Y-49.16703
G01 X7.37293 Y-49.20864
G01 X7.49618 Y-49.36109
G01 X7.58985 Y-49.53328
G01 X7.61235 Y-49.58763
G01 X7.66074 Y-49.74707
G01 X7.67222 Y-49.80475
G01 X7.68855 Y-49.97059
G01 X7.68855 Y-50.02939
G01 X7.66788 Y-50.22433
G01 X7.62333 Y-50.37623
G01 X8.44636 Y-51.19924
G01 X15.66847 Y-51.19924
G01 X17.42133 Y-49.44641
G01 X17.47345 Y-49.40176
G01 X17.55694 Y-49.35060
G01 X17.61127 Y-49.32810
G01 X17.67733 Y-49.30958
G01 X17.70647 Y-49.30526
G01 X17.77489 Y-49.29995
G01 X18.27500 Y-49.29998
G01 X18.27500 Y-48.99998
G01 X18.28076 Y-48.94146
G01 X18.29783 Y-48.88517
G01 X18.32554 Y-48.83333
G01 X18.36285 Y-48.78786
G01 X18.40832 Y-48.75055
G01 X18.46019 Y-48.72281
G01 X18.51645 Y-48.70574
G01 X18.57499 Y-48.69998
G01 X20.17499 Y-48.69998
G01 X20.23351 Y-48.70574
G01 X20.28980 Y-48.72281
G01 X20.34167 Y-48.75055
G01 X20.38711 Y-48.78786
G01 X20.42442 Y-48.83333
G01 X20.45216 Y-48.88517
G01 X20.46922 Y-48.94146
G01 X20.47499 Y-48.99998
G01 X20.47499 Y-50.59997
G01 X20.46922 Y-50.65852
G01 X20.45216 Y-50.71478
G01 X20.42442 Y-50.76665
G01 X20.38711 Y-50.81212
G01 X20.34167 Y-50.84940
G01 X20.28980 Y-50.87714
G01 X20.23351 Y-50.89421
G01 X20.17499 Y-50.90000
G01 X18.57499 Y-50.90000
G01 X18.51647 Y-50.89421
G01 X18.46019 Y-50.87714
G01 X18.40832 Y-50.84940
G01 X18.36285 Y-50.81212
G01 X18.32554 Y-50.76665
G01 X18.29783 Y-50.71478
G01 X18.28076 Y-50.65852
G01 X18.27500 Y-50.60000
G01 X18.27500 Y-50.29998
G01 X17.98198 Y-50.29998
G01 X16.22913 Y-52.05283
G01 X16.15336 Y-52.11501
G01 X16.09352 Y-52.14864
G01 X16.00167 Y-52.18252
G01 X15.97312 Y-52.18966
G01 X15.90497 Y-52.19784
G01 X8.20788 Y-52.19682
G01 X8.16099 Y-52.19311
G01 X8.11527 Y-52.18214
G01 X8.01228 Y-52.14478
G01 X7.92150 Y-52.08341
G01 X7.88571 Y-52.05283
G01 X6.91624 Y-51.08334
G01 X6.76435 Y-51.12789
G01 X6.56938 Y-51.14854
G01 X6.51058 Y-51.14854
G01 X6.34477 Y-51.13218
G01 X6.28708 Y-51.12073
G01 X6.12762 Y-51.07236
G01 X6.07329 Y-51.04986
G01 X5.92633 Y-50.97132
G01 X5.87743 Y-50.93863
G01 X5.74863 Y-50.83294
G01 X5.70705 Y-50.79134
G01 X5.60133 Y-50.66254
G01 X5.56867 Y-50.61364
G01 X5.49011 Y-50.46668
G01 X5.46760 Y-50.41235
G01 X5.41208 Y-50.22433
G01 X5.39143 Y-50.02939
G04 P0 
G00 Z2.00000 M3 ; restart from line 2535

G00 X2.84998 Y-50.84999 
G01 F30.00000

G01 Z-0.07500
G04 P0 
G01 F40.00000
G01 X2.84998 Y-50.84999
G01 X2.84998 Y-49.14999
G01 X2.85575 Y-49.09147
G01 X2.87282 Y-49.03518
G01 X2.90055 Y-48.98332
G01 X2.93787 Y-48.93785
G01 X2.98331 Y-48.90054
G01 X3.03517 Y-48.87283
G01 X3.09146 Y-48.85576
G01 X3.14998 Y-48.84999
G01 X4.84998 Y-48.84999
G01 X4.90852 Y-48.85576
G01 X4.96479 Y-48.87283
G01 X5.01665 Y-48.90054
G01 X5.06212 Y-48.93785
G01 X5.09943 Y-48.98332
G01 X5.12714 Y-49.03518
G01 X5.14421 Y-49.09147
G01 X5.14998 Y-49.14999
G01 X5.14998 Y-50.84999
G01 X5.14421 Y-50.90848
G01 X5.12714 Y-50.96480
G01 X5.09943 Y-51.01666
G01 X5.06212 Y-51.06213
G01 X5.01665 Y-51.09942
G01 X4.96479 Y-51.12715
G01 X4.90852 Y-51.14420
G01 X4.84998 Y-51.14999
G01 X3.14998 Y-51.14999
G01 X3.09146 Y-51.14420
G01 X3.03517 Y-51.12715
G01 X2.98331 Y-51.09942
G01 X2.93787 Y-51.06213
G01 X2.90055 Y-51.01666
G01 X2.87282 Y-50.96480
G01 X2.85575 Y-50.90848
G01 X2.84998 Y-50.84999
G04 P0 
G00 Z2.00000 M3 ; restart from line 2581

G00 X2.90144 Y-41.02938 
G01 F30.00000

G01 Z-0.07500
G04 P0 
G01 F40.00000
G01 X2.90144 Y-41.02938
G01 X2.90144 Y-40.97058
G01 X2.92113 Y-40.78539
G01 X2.97381 Y-40.60675
G01 X2.99631 Y-40.55242
G01 X3.08536 Y-40.38887
G01 X3.22217 Y-40.22217
G01 X3.36522 Y-40.10292
G01 X3.41412 Y-40.07023
G01 X3.57904 Y-39.98371
G01 X3.75684 Y-39.92827
G01 X3.81452 Y-39.91681
G01 X3.97058 Y-39.90144
G01 X4.02938 Y-39.90144
G01 X4.18546 Y-39.91681
G01 X4.24315 Y-39.92827
G01 X4.42095 Y-39.98371
G01 X4.58587 Y-40.07023
G01 X4.63476 Y-40.10292
G01 X4.77782 Y-40.22217
G01 X4.89707 Y-40.36522
G01 X4.92973 Y-40.41412
G01 X5.01625 Y-40.57904
G01 X5.07886 Y-40.78539
G01 X5.09854 Y-40.97058
G01 X5.09854 Y-41.02938
G01 X5.07886 Y-41.21460
G01 X5.02618 Y-41.39321
G01 X5.00367 Y-41.44754
G01 X4.91460 Y-41.61112
G01 X4.77782 Y-41.77779
G01 X4.63476 Y-41.89707
G01 X4.58587 Y-41.92974
G01 X4.42095 Y-42.01625
G01 X4.24315 Y-42.07170
G01 X4.18546 Y-42.08318
G01 X4.02938 Y-42.09854
G01 X3.97058 Y-42.09854
G01 X3.81452 Y-42.08318
G01 X3.75684 Y-42.07170
G01 X3.57904 Y-42.01625
G01 X3.41412 Y-41.92974
G01 X3.36522 Y-41.89707
G01 X3.24399 Y-41.79758
G01 X3.20241 Y-41.75600
G01 X3.08536 Y-41.61112
G01 X2.99631 Y-41.44754
G01 X2.97381 Y-41.39321
G01 X2.92113 Y-41.21460
G01 X2.90144 Y-41.02938
G04 P0 
G00 Z2.00000 M3 ; restart from line 2640

G00 X17.19999 Y-30.49999 
G01 F30.00000

G01 Z-0.07500
G04 P0 
G01 F40.00000
G01 X17.19999 Y-30.49999
G01 X17.21681 Y-30.31452
G01 X17.22829 Y-30.25684
G01 X17.27380 Y-30.10675
G01 X17.29631 Y-30.05242
G01 X17.38536 Y-29.88887
G01 X17.50240 Y-29.74398
G01 X17.54398 Y-29.70240
G01 X17.66522 Y-29.60291
G01 X17.71411 Y-29.57022
G01 X17.87903 Y-29.48371
G01 X18.05683 Y-29.42829
G01 X18.11452 Y-29.41681
G01 X18.27058 Y-29.40144
G01 X18.32940 Y-29.40144
G01 X18.48546 Y-29.41681
G01 X18.54314 Y-29.42829
G01 X18.63631 Y-29.45653
G01 X23.82482 Y-24.26802
G01 X23.87694 Y-24.22337
G01 X23.92583 Y-24.19071
G01 X23.98702 Y-24.15964
G01 X24.05228 Y-24.13833
G01 X24.10996 Y-24.12688
G01 X24.17839 Y-24.12157
G01 X31.32958 Y-24.12159
G01 X35.11916 Y-20.33199
G01 X32.14248 Y-17.35539
G01 X22.73539 Y-17.35539
G01 X22.66696 Y-17.35008
G01 X22.60928 Y-17.33862
G01 X22.54402 Y-17.31731
G01 X22.48284 Y-17.28625
G01 X22.43394 Y-17.25358
G01 X22.38182 Y-17.20893
G01 X21.21632 Y-16.04343
G01 X21.12315 Y-16.07170
G01 X21.06546 Y-16.08318
G01 X20.87999 Y-16.09999
G01 X20.69450 Y-16.08318
G01 X20.63684 Y-16.07170
G01 X20.45904 Y-16.01625
G01 X20.29412 Y-15.92974
G01 X20.24522 Y-15.89707
G01 X20.12399 Y-15.79758
G01 X20.08241 Y-15.75600
G01 X19.98292 Y-15.63477
G01 X19.95023 Y-15.58587
G01 X19.86371 Y-15.42095
G01 X19.80827 Y-15.24315
G01 X19.79681 Y-15.18547
G01 X19.78000 Y-15.00000
G01 X19.79681 Y-14.81450
G01 X19.80827 Y-14.75684
G01 X19.85381 Y-14.60675
G01 X19.87631 Y-14.55242
G01 X19.96537 Y-14.38887
G01 X20.08241 Y-14.24399
G01 X20.12399 Y-14.20241
G01 X20.24522 Y-14.10292
G01 X20.29412 Y-14.07023
G01 X20.43242 Y-13.99631
G01 X20.48675 Y-13.97381
G01 X20.63684 Y-13.92827
G01 X20.69450 Y-13.91681
G01 X20.85058 Y-13.90142
G01 X20.90938 Y-13.90142
G01 X21.06546 Y-13.91681
G01 X21.12315 Y-13.92827
G01 X21.30095 Y-13.98372
G01 X21.46587 Y-14.07023
G01 X21.51477 Y-14.10292
G01 X21.65779 Y-14.22217
G01 X21.77707 Y-14.36522
G01 X21.80974 Y-14.41412
G01 X21.89625 Y-14.57904
G01 X21.95170 Y-14.75684
G01 X21.96318 Y-14.81450
G01 X21.97999 Y-15.00000
G01 X21.96318 Y-15.18547
G01 X21.95170 Y-15.24315
G01 X21.92343 Y-15.33632
G01 X22.94247 Y-16.35536
G01 X32.34959 Y-16.35536
G01 X32.41799 Y-16.36067
G01 X32.47568 Y-16.37213
G01 X32.56752 Y-16.40601
G01 X32.65101 Y-16.45717
G01 X32.70313 Y-16.50182
G01 X37.40127 Y-21.19996
G01 X38.02436 Y-21.19996
G01 X38.07023 Y-21.11411
G01 X38.10292 Y-21.06521
G01 X38.22217 Y-20.92216
G01 X38.36520 Y-20.80290
G01 X38.41412 Y-20.77024
G01 X38.57904 Y-20.68373
G01 X38.75682 Y-20.62828
G01 X38.81450 Y-20.61680
G01 X38.97058 Y-20.60143
G01 X39.02939 Y-20.60143
G01 X39.18547 Y-20.61680
G01 X39.24315 Y-20.62828
G01 X39.39322 Y-20.67380
G01 X39.44755 Y-20.69630
G01 X39.61112 Y-20.78538
G01 X39.75598 Y-20.90240
G01 X39.79758 Y-20.94398
G01 X39.89708 Y-21.06521
G01 X39.92974 Y-21.11411
G01 X39.97564 Y-21.19996
G01 X40.88989 Y-21.19996
G01 X40.95829 Y-21.20527
G01 X41.01597 Y-21.21672
G01 X41.08122 Y-21.23803
G01 X41.16766 Y-21.28423
G01 X41.22161 Y-21.32665
G01 X41.55697 Y-21.65995
G01 X41.96791 Y-21.65998
G01 X42.02867 Y-21.54634
G01 X42.06133 Y-21.49744
G01 X42.16705 Y-21.36864
G01 X42.20863 Y-21.32703
G01 X42.36108 Y-21.20379
G01 X42.53329 Y-21.11012
G01 X42.58762 Y-21.08761
G01 X42.77563 Y-21.03209
G01 X42.97058 Y-21.01144
G01 X43.02940 Y-21.01144
G01 X43.22435 Y-21.03209
G01 X43.41236 Y-21.08761
G01 X43.46669 Y-21.11012
G01 X43.63890 Y-21.20379
G01 X43.79135 Y-21.32703
G01 X43.83293 Y-21.36864
G01 X43.93865 Y-21.49744
G01 X43.97131 Y-21.54634
G01 X44.04987 Y-21.69328
G01 X44.07238 Y-21.74763
G01 X44.12074 Y-21.90707
G01 X44.13222 Y-21.96475
G01 X44.14855 Y-22.13059
G01 X44.14855 Y-22.18939
G01 X44.13222 Y-22.35523
G01 X44.12074 Y-22.41291
G01 X44.06245 Y-22.60008
G01 X43.97131 Y-22.77364
G01 X43.93865 Y-22.82253
G01 X43.83293 Y-22.95134
G01 X43.79135 Y-22.99294
G01 X43.63890 Y-23.11618
G01 X43.46669 Y-23.20986
G01 X43.41236 Y-23.23236
G01 X43.22435 Y-23.28789
G01 X43.02940 Y-23.30854
G01 X42.97058 Y-23.30854
G01 X42.77563 Y-23.28789
G01 X42.58762 Y-23.23236
G01 X42.53329 Y-23.20986
G01 X42.36108 Y-23.11618
G01 X42.20863 Y-22.99294
G01 X42.16705 Y-22.95134
G01 X42.06133 Y-22.82253
G01 X42.02867 Y-22.77364
G01 X41.96791 Y-22.65997
G01 X41.32047 Y-22.65853
G01 X41.22377 Y-22.64321
G01 X41.15852 Y-22.62190
G01 X41.13192 Y-22.60933
G01 X41.07208 Y-22.57570
G01 X40.99631 Y-22.51352
G01 X40.68277 Y-22.19998
G01 X39.97564 Y-22.19998
G01 X39.92974 Y-22.28586
G01 X39.89708 Y-22.33475
G01 X39.79758 Y-22.45599
G01 X39.75598 Y-22.49757
G01 X39.63477 Y-22.59706
G01 X39.58587 Y-22.62975
G01 X39.44755 Y-22.70366
G01 X39.39322 Y-22.72617
G01 X39.24315 Y-22.77171
G01 X39.18547 Y-22.78316
G01 X39.02939 Y-22.79853
G01 X38.97058 Y-22.79853
G01 X38.81450 Y-22.78316
G01 X38.75682 Y-22.77171
G01 X38.60676 Y-22.72617
G01 X38.55242 Y-22.70366
G01 X38.38885 Y-22.61461
G01 X38.24399 Y-22.49757
G01 X38.20239 Y-22.45599
G01 X38.10292 Y-22.33475
G01 X38.07023 Y-22.28586
G01 X38.02433 Y-22.19998
G01 X37.19416 Y-22.19998
G01 X37.08542 Y-22.18649
G01 X37.03965 Y-22.17550
G01 X36.94041 Y-22.12906
G01 X36.90043 Y-22.10460
G01 X36.86477 Y-22.07420
G01 X35.82655 Y-21.03879
G01 X31.89023 Y-24.97513
G01 X31.81447 Y-25.03731
G01 X31.75462 Y-25.07094
G01 X31.72803 Y-25.08352
G01 X31.66278 Y-25.10483
G01 X31.60509 Y-25.11628
G01 X31.53669 Y-25.12159
G01 X24.38547 Y-25.12159
G01 X19.34342 Y-30.16364
G01 X19.37169 Y-30.25684
G01 X19.38317 Y-30.31452
G01 X19.39999 Y-30.49999
G01 X19.38317 Y-30.68546
G01 X19.37169 Y-30.74314
G01 X19.32617 Y-30.89321
G01 X19.30367 Y-30.94756
G01 X19.22973 Y-31.08587
G01 X19.19707 Y-31.13476
G01 X19.07781 Y-31.27781
G01 X18.93476 Y-31.39707
G01 X18.88587 Y-31.42973
G01 X18.72094 Y-31.51624
G01 X18.54314 Y-31.57169
G01 X18.48546 Y-31.58317
G01 X18.32940 Y-31.59854
G01 X18.27058 Y-31.59854
G01 X18.11452 Y-31.58317
G01 X18.05683 Y-31.57169
G01 X17.90675 Y-31.52618
G01 X17.85242 Y-31.50367
G01 X17.71411 Y-31.42973
G01 X17.66522 Y-31.39707
G01 X17.54398 Y-31.29758
G01 X17.50240 Y-31.25600
G01 X17.40291 Y-31.13476
G01 X17.37025 Y-31.08587
G01 X17.29631 Y-30.94756
G01 X17.27380 Y-30.89321
G01 X17.22829 Y-30.74314
G01 X17.21681 Y-30.68546
G01 X17.19999 Y-30.49999
G04 P0 
G00 Z2.00000 M3 ; restart from line 2892

G00 X19.73999 Y-30.49999 
G01 F30.00000

G01 Z-0.07500
G04 P0 
G01 F40.00000
G01 X19.73999 Y-30.49999
G01 X19.75681 Y-30.31452
G01 X19.76829 Y-30.25684
G01 X19.81380 Y-30.10675
G01 X19.83631 Y-30.05242
G01 X19.91025 Y-29.91411
G01 X19.94291 Y-29.86522
G01 X20.06216 Y-29.72217
G01 X20.20522 Y-29.60291
G01 X20.25411 Y-29.57022
G01 X20.41903 Y-29.48371
G01 X20.59683 Y-29.42829
G01 X20.65452 Y-29.41681
G01 X20.76709 Y-29.40571
G01 X20.86940 Y-29.40144
G01 X21.02546 Y-29.41681
G01 X21.08314 Y-29.42829
G01 X21.17631 Y-29.45653
G01 X25.14633 Y-25.48651
G01 X25.22210 Y-25.42433
G01 X25.28194 Y-25.39070
G01 X25.33627 Y-25.36820
G01 X25.40234 Y-25.34968
G01 X25.49990 Y-25.34006
G01 X35.59266 Y-25.34006
G01 X37.04633 Y-23.88641
G01 X37.09845 Y-23.84176
G01 X37.14735 Y-23.80910
G01 X37.23627 Y-23.76810
G01 X37.27379 Y-23.75672
G01 X37.37049 Y-23.74141
G01 X38.02433 Y-23.73996
G01 X38.07023 Y-23.65411
G01 X38.10292 Y-23.60521
G01 X38.22217 Y-23.46216
G01 X38.36520 Y-23.34290
G01 X38.41412 Y-23.31024
G01 X38.57904 Y-23.22373
G01 X38.75682 Y-23.16828
G01 X38.81450 Y-23.15680
G01 X39.00000 Y-23.13998
G01 X39.18547 Y-23.15680
G01 X39.24315 Y-23.16828
G01 X39.39322 Y-23.21380
G01 X39.44755 Y-23.23630
G01 X39.58587 Y-23.31024
G01 X39.63477 Y-23.34290
G01 X39.77780 Y-23.46216
G01 X39.89708 Y-23.60521
G01 X39.92974 Y-23.65411
G01 X39.97564 Y-23.73996
G01 X40.88986 Y-23.73996
G01 X40.95829 Y-23.74527
G01 X41.01597 Y-23.75672
G01 X41.08122 Y-23.77803
G01 X41.16766 Y-23.82423
G01 X41.22161 Y-23.86665
G01 X41.55697 Y-24.19995
G01 X41.96794 Y-24.19995
G01 X42.02867 Y-24.08634
G01 X42.06133 Y-24.03744
G01 X42.16705 Y-23.90864
G01 X42.20863 Y-23.86703
G01 X42.36108 Y-23.74379
G01 X42.53329 Y-23.65012
G01 X42.58762 Y-23.62761
G01 X42.77563 Y-23.57209
G01 X42.97058 Y-23.55144
G01 X43.02940 Y-23.55144
G01 X43.19521 Y-23.56777
G01 X43.25290 Y-23.57923
G01 X43.41236 Y-23.62761
G01 X43.46669 Y-23.65012
G01 X43.61363 Y-23.72865
G01 X43.66255 Y-23.76134
G01 X43.79135 Y-23.86703
G01 X43.83293 Y-23.90864
G01 X43.93865 Y-24.03744
G01 X43.97131 Y-24.08634
G01 X44.04987 Y-24.23328
G01 X44.07238 Y-24.28763
G01 X44.12790 Y-24.47564
G01 X44.14855 Y-24.67059
G01 X44.14855 Y-24.72939
G01 X44.12790 Y-24.92433
G01 X44.06245 Y-25.14008
G01 X43.97131 Y-25.31364
G01 X43.93865 Y-25.36253
G01 X43.83293 Y-25.49131
G01 X43.79135 Y-25.53294
G01 X43.63890 Y-25.65618
G01 X43.46669 Y-25.74986
G01 X43.41236 Y-25.77234
G01 X43.25290 Y-25.82073
G01 X43.19521 Y-25.83218
G01 X43.02940 Y-25.84854
G01 X42.97058 Y-25.84854
G01 X42.80477 Y-25.83218
G01 X42.74708 Y-25.82073
G01 X42.58762 Y-25.77234
G01 X42.53329 Y-25.74986
G01 X42.36108 Y-25.65618
G01 X42.20863 Y-25.53294
G01 X42.16705 Y-25.49131
G01 X42.06133 Y-25.36253
G01 X42.02867 Y-25.31364
G01 X41.96789 Y-25.19995
G01 X41.34988 Y-25.19997
G01 X41.28145 Y-25.19467
G01 X41.22377 Y-25.18321
G01 X41.15852 Y-25.16190
G01 X41.07208 Y-25.11570
G01 X41.01813 Y-25.07328
G01 X40.68277 Y-24.73998
G01 X39.97564 Y-24.73998
G01 X39.92974 Y-24.82586
G01 X39.89708 Y-24.87475
G01 X39.77780 Y-25.01781
G01 X39.63477 Y-25.13706
G01 X39.58587 Y-25.16975
G01 X39.44755 Y-25.24366
G01 X39.39322 Y-25.26617
G01 X39.24315 Y-25.31171
G01 X39.18547 Y-25.32316
G01 X39.00000 Y-25.33998
G01 X38.81450 Y-25.32316
G01 X38.75682 Y-25.31171
G01 X38.59177 Y-25.25997
G01 X38.55242 Y-25.24366
G01 X38.41412 Y-25.16975
G01 X38.36520 Y-25.13706
G01 X38.22217 Y-25.01781
G01 X38.10292 Y-24.87475
G01 X38.07023 Y-24.82586
G01 X38.02433 Y-24.73998
G01 X37.60699 Y-24.73998
G01 X36.15332 Y-26.19362
G01 X36.10120 Y-26.23825
G01 X36.01771 Y-26.28943
G01 X35.92586 Y-26.32332
G01 X35.86818 Y-26.33477
G01 X35.79978 Y-26.34005
G01 X25.70698 Y-26.34005
G01 X21.88342 Y-30.16364
G01 X21.91169 Y-30.25684
G01 X21.92317 Y-30.31452
G01 X21.93999 Y-30.49999
G01 X21.92317 Y-30.68546
G01 X21.91169 Y-30.74314
G01 X21.86617 Y-30.89321
G01 X21.84367 Y-30.94756
G01 X21.76973 Y-31.08587
G01 X21.73707 Y-31.13476
G01 X21.61781 Y-31.27781
G01 X21.47476 Y-31.39707
G01 X21.42587 Y-31.42973
G01 X21.26094 Y-31.51624
G01 X21.08314 Y-31.57169
G01 X21.02546 Y-31.58317
G01 X20.86940 Y-31.59854
G01 X20.81058 Y-31.59854
G01 X20.65452 Y-31.58317
G01 X20.59683 Y-31.57169
G01 X20.44675 Y-31.52618
G01 X20.39242 Y-31.50367
G01 X20.25411 Y-31.42973
G01 X20.20522 Y-31.39707
G01 X20.08398 Y-31.29758
G01 X20.04240 Y-31.25600
G01 X19.94291 Y-31.13476
G01 X19.91025 Y-31.08587
G01 X19.83631 Y-30.94756
G01 X19.81380 Y-30.89321
G01 X19.76829 Y-30.74314
G01 X19.75681 Y-30.68546
G01 X19.73999 Y-30.49999
G04 P0 
G00 Z2.00000 M3 ; restart from line 3077

G00 X22.27999 Y-30.49999 
G01 F30.00000

G01 Z-0.07500
G04 P0 
G01 F40.00000
G01 X22.27999 Y-30.49999
G01 X22.29681 Y-30.31452
G01 X22.30829 Y-30.25684
G01 X22.35380 Y-30.10675
G01 X22.37631 Y-30.05242
G01 X22.46536 Y-29.88887
G01 X22.58240 Y-29.74398
G01 X22.62398 Y-29.70240
G01 X22.74522 Y-29.60291
G01 X22.79411 Y-29.57022
G01 X22.95903 Y-29.48371
G01 X23.13683 Y-29.42829
G01 X23.19452 Y-29.41681
G01 X23.30709 Y-29.40571
G01 X23.40940 Y-29.40144
G01 X23.56546 Y-29.41681
G01 X23.62314 Y-29.42829
G01 X23.71631 Y-29.45653
G01 X26.68613 Y-26.48669
G01 X26.76190 Y-26.42451
G01 X26.82174 Y-26.39090
G01 X26.87607 Y-26.36840
G01 X26.94214 Y-26.34986
G01 X27.03970 Y-26.34026
G01 X37.16388 Y-26.34026
G01 X37.23630 Y-26.30810
G01 X37.27381 Y-26.29672
G01 X37.37049 Y-26.28141
G01 X38.02436 Y-26.27993
G01 X38.07023 Y-26.19411
G01 X38.10292 Y-26.14521
G01 X38.22217 Y-26.00213
G01 X38.36520 Y-25.88290
G01 X38.41412 Y-25.85021
G01 X38.57904 Y-25.76373
G01 X38.75682 Y-25.70828
G01 X38.81450 Y-25.69680
G01 X38.97058 Y-25.68143
G01 X39.02939 Y-25.68143
G01 X39.18547 Y-25.69680
G01 X39.24315 Y-25.70828
G01 X39.39322 Y-25.75380
G01 X39.44755 Y-25.77630
G01 X39.58587 Y-25.85021
G01 X39.63477 Y-25.88290
G01 X39.77780 Y-26.00213
G01 X39.89708 Y-26.14521
G01 X39.92974 Y-26.19411
G01 X39.97564 Y-26.27993
G01 X40.88989 Y-26.27993
G01 X40.98742 Y-26.28958
G01 X41.05349 Y-26.30810
G01 X41.10782 Y-26.33061
G01 X41.16766 Y-26.36423
G01 X41.24343 Y-26.42641
G01 X41.55697 Y-26.73998
G01 X41.96791 Y-26.73998
G01 X42.04381 Y-26.60109
G01 X42.16705 Y-26.44864
G01 X42.20863 Y-26.40703
G01 X42.36108 Y-26.28377
G01 X42.53329 Y-26.19012
G01 X42.58762 Y-26.16761
G01 X42.77563 Y-26.11209
G01 X42.97058 Y-26.09144
G01 X43.02940 Y-26.09144
G01 X43.19521 Y-26.10777
G01 X43.25290 Y-26.11923
G01 X43.41236 Y-26.16761
G01 X43.46669 Y-26.19012
G01 X43.61363 Y-26.26865
G01 X43.66255 Y-26.30132
G01 X43.79135 Y-26.40703
G01 X43.83293 Y-26.44864
G01 X43.95617 Y-26.60109
G01 X44.04987 Y-26.77328
G01 X44.07238 Y-26.82763
G01 X44.12790 Y-27.01564
G01 X44.14855 Y-27.21059
G01 X44.14855 Y-27.26939
G01 X44.12790 Y-27.46433
G01 X44.07238 Y-27.65235
G01 X44.04987 Y-27.70668
G01 X43.97131 Y-27.85364
G01 X43.93865 Y-27.90253
G01 X43.83293 Y-28.03134
G01 X43.79135 Y-28.07294
G01 X43.66255 Y-28.17863
G01 X43.61363 Y-28.21132
G01 X43.46669 Y-28.28986
G01 X43.41236 Y-28.31236
G01 X43.22435 Y-28.36789
G01 X43.02940 Y-28.38854
G01 X42.97058 Y-28.38854
G01 X42.80477 Y-28.37221
G01 X42.74708 Y-28.36073
G01 X42.58762 Y-28.31236
G01 X42.53329 Y-28.28986
G01 X42.36108 Y-28.19618
G01 X42.20863 Y-28.07294
G01 X42.16705 Y-28.03134
G01 X42.04381 Y-27.87889
G01 X41.96791 Y-27.73997
G01 X41.32047 Y-27.73853
G01 X41.25232 Y-27.73035
G01 X41.22377 Y-27.72321
G01 X41.13192 Y-27.68933
G01 X41.07208 Y-27.65570
G01 X40.99631 Y-27.59352
G01 X40.68277 Y-27.27996
G01 X39.97566 Y-27.27998
G01 X39.92974 Y-27.36586
G01 X39.89708 Y-27.41475
G01 X39.77780 Y-27.55781
G01 X39.63477 Y-27.67706
G01 X39.58587 Y-27.70975
G01 X39.44755 Y-27.78366
G01 X39.40820 Y-27.79997
G01 X39.24315 Y-27.85171
G01 X39.18547 Y-27.86316
G01 X39.02939 Y-27.87853
G01 X38.97058 Y-27.87853
G01 X38.81450 Y-27.86316
G01 X38.75682 Y-27.85171
G01 X38.60676 Y-27.80617
G01 X38.55242 Y-27.78366
G01 X38.41412 Y-27.70975
G01 X38.36520 Y-27.67706
G01 X38.22217 Y-27.55781
G01 X38.10292 Y-27.41475
G01 X38.07023 Y-27.36586
G01 X38.02433 Y-27.27998
G01 X37.57557 Y-27.27998
G01 X37.50315 Y-27.31214
G01 X37.46563 Y-27.32352
G01 X37.40798 Y-27.33497
G01 X37.33957 Y-27.34028
G01 X27.24678 Y-27.34028
G01 X24.42342 Y-30.16364
G01 X24.45169 Y-30.25684
G01 X24.46317 Y-30.31452
G01 X24.47999 Y-30.49999
G01 X24.46317 Y-30.68546
G01 X24.45169 Y-30.74314
G01 X24.40617 Y-30.89321
G01 X24.38367 Y-30.94756
G01 X24.30973 Y-31.08587
G01 X24.27707 Y-31.13476
G01 X24.17757 Y-31.25600
G01 X24.13599 Y-31.29758
G01 X24.01476 Y-31.39707
G01 X23.96587 Y-31.42973
G01 X23.82756 Y-31.50367
G01 X23.77323 Y-31.52618
G01 X23.62314 Y-31.57169
G01 X23.56546 Y-31.58317
G01 X23.40940 Y-31.59854
G01 X23.35058 Y-31.59854
G01 X23.19452 Y-31.58317
G01 X23.13683 Y-31.57169
G01 X22.95903 Y-31.51624
G01 X22.79411 Y-31.42973
G01 X22.74522 Y-31.39707
G01 X22.60216 Y-31.27781
G01 X22.48291 Y-31.13476
G01 X22.45025 Y-31.08587
G01 X22.37631 Y-30.94756
G01 X22.35380 Y-30.89321
G01 X22.30829 Y-30.74314
G01 X22.29681 Y-30.68546
G01 X22.27999 Y-30.49999
G04 P0 
G00 Z2.00000 M3 ; restart from line 3257

G00 X24.81999 Y-30.49999 
G01 F30.00000

G01 Z-0.07500
G04 P0 
G01 F40.00000
G01 X24.81999 Y-30.49999
G01 X24.83681 Y-30.31452
G01 X24.84829 Y-30.25684
G01 X24.89380 Y-30.10675
G01 X24.91631 Y-30.05242
G01 X25.00536 Y-29.88887
G01 X25.12240 Y-29.74398
G01 X25.16398 Y-29.70240
G01 X25.28522 Y-29.60291
G01 X25.33411 Y-29.57022
G01 X25.49903 Y-29.48371
G01 X25.67683 Y-29.42829
G01 X25.73449 Y-29.41681
G01 X25.89058 Y-29.40144
G01 X25.94940 Y-29.40144
G01 X26.13459 Y-29.42112
G01 X26.25631 Y-29.45653
G01 X27.20444 Y-28.51046
G01 X27.25839 Y-28.46804
G01 X27.28364 Y-28.45290
G01 X27.37256 Y-28.41191
G01 X27.43863 Y-28.39339
G01 X27.53619 Y-28.38376
G01 X36.96368 Y-28.38376
G01 X37.03208 Y-28.38907
G01 X37.12728 Y-28.41191
G01 X37.18161 Y-28.43441
G01 X37.26510 Y-28.48557
G01 X37.31722 Y-28.53022
G01 X37.60699 Y-28.81996
G01 X38.02433 Y-28.81996
G01 X38.07023 Y-28.73411
G01 X38.10292 Y-28.68521
G01 X38.22217 Y-28.54216
G01 X38.36520 Y-28.42290
G01 X38.41412 Y-28.39024
G01 X38.57904 Y-28.30373
G01 X38.75682 Y-28.24828
G01 X38.81450 Y-28.23680
G01 X38.97058 Y-28.22143
G01 X39.02939 Y-28.22143
G01 X39.21458 Y-28.24112
G01 X39.39322 Y-28.29380
G01 X39.44755 Y-28.31630
G01 X39.58587 Y-28.39024
G01 X39.63477 Y-28.42290
G01 X39.77780 Y-28.54216
G01 X39.89708 Y-28.68521
G01 X39.92974 Y-28.73411
G01 X39.97564 Y-28.81996
G01 X40.88986 Y-28.81996
G01 X40.98742 Y-28.82958
G01 X41.05349 Y-28.84810
G01 X41.10782 Y-28.87061
G01 X41.16766 Y-28.90423
G01 X41.24343 Y-28.96641
G01 X41.55697 Y-29.27995
G01 X41.96794 Y-29.27995
G01 X42.04381 Y-29.14109
G01 X42.16705 Y-28.98864
G01 X42.20863 Y-28.94703
G01 X42.36108 Y-28.82379
G01 X42.53329 Y-28.73012
G01 X42.58762 Y-28.70761
G01 X42.77563 Y-28.65209
G01 X42.97058 Y-28.63144
G01 X43.02940 Y-28.63144
G01 X43.19521 Y-28.64777
G01 X43.25290 Y-28.65923
G01 X43.41236 Y-28.70761
G01 X43.46669 Y-28.73012
G01 X43.63890 Y-28.82379
G01 X43.79135 Y-28.94703
G01 X43.83293 Y-28.98864
G01 X43.93865 Y-29.11744
G01 X43.97131 Y-29.16634
G01 X44.04987 Y-29.31328
G01 X44.07238 Y-29.36763
G01 X44.12790 Y-29.55564
G01 X44.14855 Y-29.75059
G01 X44.14855 Y-29.80939
G01 X44.12790 Y-30.00433
G01 X44.07238 Y-30.19234
G01 X44.04987 Y-30.24668
G01 X43.95617 Y-30.41889
G01 X43.83293 Y-30.57134
G01 X43.79135 Y-30.61294
G01 X43.63890 Y-30.73618
G01 X43.46669 Y-30.82986
G01 X43.41236 Y-30.85236
G01 X43.22435 Y-30.90789
G01 X43.02940 Y-30.92854
G01 X42.97058 Y-30.92854
G01 X42.77563 Y-30.90789
G01 X42.58762 Y-30.85236
G01 X42.53329 Y-30.82986
G01 X42.36108 Y-30.73618
G01 X42.20863 Y-30.61294
G01 X42.16705 Y-30.57134
G01 X42.04381 Y-30.41889
G01 X41.96789 Y-30.27995
G01 X41.32047 Y-30.27853
G01 X41.25232 Y-30.27035
G01 X41.22377 Y-30.26321
G01 X41.13192 Y-30.22933
G01 X41.07208 Y-30.19570
G01 X40.99631 Y-30.13352
G01 X40.68277 Y-29.81998
G01 X39.97564 Y-29.81998
G01 X39.92974 Y-29.90586
G01 X39.89708 Y-29.95475
G01 X39.77780 Y-30.09781
G01 X39.63477 Y-30.21706
G01 X39.58587 Y-30.24975
G01 X39.44755 Y-30.32366
G01 X39.39322 Y-30.34617
G01 X39.24315 Y-30.39171
G01 X39.18547 Y-30.40316
G01 X39.02939 Y-30.41853
G01 X38.97058 Y-30.41853
G01 X38.81450 Y-30.40316
G01 X38.75682 Y-30.39171
G01 X38.60676 Y-30.34617
G01 X38.55242 Y-30.32366
G01 X38.41412 Y-30.24975
G01 X38.36520 Y-30.21706
G01 X38.24399 Y-30.11757
G01 X38.20239 Y-30.07599
G01 X38.10292 Y-29.95475
G01 X38.07023 Y-29.90586
G01 X38.02433 Y-29.81998
G01 X37.39987 Y-29.81998
G01 X37.33147 Y-29.81467
G01 X37.23627 Y-29.79184
G01 X37.14737 Y-29.75084
G01 X37.06815 Y-29.69331
G01 X36.75657 Y-29.38379
G01 X27.74328 Y-29.38379
G01 X26.96342 Y-30.16364
G01 X26.99169 Y-30.25684
G01 X27.00317 Y-30.31452
G01 X27.01854 Y-30.47058
G01 X27.01854 Y-30.52940
G01 X26.99885 Y-30.71459
G01 X26.94617 Y-30.89321
G01 X26.92367 Y-30.94756
G01 X26.84973 Y-31.08587
G01 X26.81707 Y-31.13476
G01 X26.69781 Y-31.27781
G01 X26.55476 Y-31.39707
G01 X26.50587 Y-31.42973
G01 X26.36754 Y-31.50367
G01 X26.31323 Y-31.52618
G01 X26.13459 Y-31.57885
G01 X25.94940 Y-31.59854
G01 X25.89058 Y-31.59854
G01 X25.70536 Y-31.57885
G01 X25.52675 Y-31.52618
G01 X25.47239 Y-31.50367
G01 X25.30886 Y-31.41459
G01 X25.14216 Y-31.27781
G01 X25.02291 Y-31.13476
G01 X24.99025 Y-31.08587
G01 X24.91631 Y-30.94756
G01 X24.89380 Y-30.89321
G01 X24.84829 Y-30.74314
G01 X24.83681 Y-30.68546
G01 X24.81999 Y-30.49999
G04 P0 
G00 Z2.00000 M3 ; restart from line 3434

G00 X27.36144 Y-30.52940 
G01 F30.00000

G01 Z-0.07500
G04 P0 
G01 F40.00000
G01 X27.36144 Y-30.52940
G01 X27.36144 Y-30.47058
G01 X27.37681 Y-30.31452
G01 X27.38829 Y-30.25684
G01 X27.43380 Y-30.10675
G01 X27.45631 Y-30.05242
G01 X27.53025 Y-29.91411
G01 X27.56291 Y-29.86522
G01 X27.66240 Y-29.74398
G01 X27.70398 Y-29.70240
G01 X27.82522 Y-29.60291
G01 X27.87411 Y-29.57022
G01 X28.03903 Y-29.48371
G01 X28.21683 Y-29.42829
G01 X28.27452 Y-29.41681
G01 X28.43058 Y-29.40144
G01 X28.48940 Y-29.40144
G01 X28.67459 Y-29.42112
G01 X28.85323 Y-29.47380
G01 X28.90756 Y-29.49631
G01 X29.04587 Y-29.57022
G01 X29.09476 Y-29.60291
G01 X29.23781 Y-29.72217
G01 X29.35707 Y-29.86522
G01 X29.38973 Y-29.91411
G01 X29.46367 Y-30.05242
G01 X29.48617 Y-30.10675
G01 X29.53169 Y-30.25684
G01 X29.54317 Y-30.31452
G01 X29.55854 Y-30.47058
G01 X29.55854 Y-30.52940
G01 X29.54317 Y-30.68546
G01 X29.53169 Y-30.74314
G01 X29.48617 Y-30.89321
G01 X29.46367 Y-30.94756
G01 X29.38973 Y-31.08587
G01 X29.35707 Y-31.13476
G01 X29.25757 Y-31.25600
G01 X29.21599 Y-31.29758
G01 X29.09476 Y-31.39707
G01 X29.04587 Y-31.42973
G01 X28.95996 Y-31.47565
G01 X28.95999 Y-32.01589
G01 X33.00547 Y-36.06137
G01 X37.37199 Y-36.06137
G01 X37.44039 Y-36.06668
G01 X37.53559 Y-36.08951
G01 X37.62449 Y-36.13048
G01 X37.70104 Y-36.18586
G01 X61.45647 Y-36.18588
G01 X61.47786 Y-36.11537
G01 X61.50036 Y-36.06101
G01 X61.56170 Y-35.94933
G01 X61.66119 Y-35.82810
G01 X61.75878 Y-35.74616
G01 X61.80767 Y-35.71347
G01 X61.89414 Y-35.66726
G01 X61.94847 Y-35.64476
G01 X62.07082 Y-35.60915
G01 X62.19749 Y-35.59523
G01 X62.25629 Y-35.59523
G01 X62.38296 Y-35.60915
G01 X62.53302 Y-35.65469
G01 X62.64610 Y-35.71347
G01 X62.69500 Y-35.74616
G01 X62.77077 Y-35.80834
G01 X62.81235 Y-35.84992
G01 X62.87452 Y-35.92568
G01 X62.90719 Y-35.97458
G01 X62.95339 Y-36.06101
G01 X62.97592 Y-36.11537
G01 X63.00437 Y-36.20915
G01 X63.01583 Y-36.26683
G01 X63.02690 Y-36.39378
G01 X63.01583 Y-36.52073
G01 X63.00437 Y-36.57841
G01 X62.97592 Y-36.67222
G01 X62.95339 Y-36.72655
G01 X62.89205 Y-36.83825
G01 X62.81235 Y-36.93767
G01 X62.77077 Y-36.97925
G01 X62.69500 Y-37.04143
G01 X62.64610 Y-37.07409
G01 X62.53302 Y-37.13289
G01 X62.38296 Y-37.17841
G01 X62.25629 Y-37.19233
G01 X62.19749 Y-37.19233
G01 X62.09993 Y-37.18273
G01 X62.04555 Y-37.17191
G01 X61.93478 Y-37.18588
G01 X37.49650 Y-37.18588
G01 X37.42807 Y-37.18057
G01 X37.33287 Y-37.15774
G01 X37.24397 Y-37.11677
G01 X37.16741 Y-37.06139
G01 X32.79838 Y-37.06139
G01 X32.70082 Y-37.05177
G01 X32.63476 Y-37.03325
G01 X32.58043 Y-37.01075
G01 X32.52059 Y-36.97712
G01 X32.44482 Y-36.91494
G01 X28.10642 Y-32.57654
G01 X28.06177 Y-32.52442
G01 X28.04424 Y-32.50077
G01 X28.01061 Y-32.44093
G01 X27.98811 Y-32.38660
G01 X27.96959 Y-32.32053
G01 X27.96141 Y-32.25239
G01 X27.95999 Y-31.47563
G01 X27.87411 Y-31.42973
G01 X27.82522 Y-31.39707
G01 X27.68216 Y-31.27781
G01 X27.56291 Y-31.13476
G01 X27.53025 Y-31.08587
G01 X27.45631 Y-30.94756
G01 X27.43380 Y-30.89321
G01 X27.38112 Y-30.71459
G01 X27.36144 Y-30.52940
G04 P0 
G00 Z2.00000 M3 ; restart from line 3561

G00 X29.90144 Y-30.52940 
G01 F30.00000

G01 Z-0.07500
G04 P0 
G01 F40.00000
G01 X29.90144 Y-30.52940
G01 X29.90144 Y-30.47058
G01 X29.92112 Y-30.28539
G01 X29.97380 Y-30.10675
G01 X29.99631 Y-30.05242
G01 X30.07025 Y-29.91411
G01 X30.10291 Y-29.86522
G01 X30.22216 Y-29.72217
G01 X30.36522 Y-29.60291
G01 X30.41411 Y-29.57022
G01 X30.55242 Y-29.49631
G01 X30.60675 Y-29.47380
G01 X30.75683 Y-29.42829
G01 X30.81452 Y-29.41681
G01 X30.97058 Y-29.40144
G01 X31.02940 Y-29.40144
G01 X31.21459 Y-29.42112
G01 X31.39323 Y-29.47380
G01 X31.44756 Y-29.49631
G01 X31.58587 Y-29.57022
G01 X31.63476 Y-29.60291
G01 X31.77781 Y-29.72217
G01 X31.89707 Y-29.86522
G01 X31.92973 Y-29.91411
G01 X32.01624 Y-30.07904
G01 X32.07169 Y-30.25684
G01 X32.08317 Y-30.31452
G01 X32.09854 Y-30.47058
G01 X32.09854 Y-30.52940
G01 X32.07885 Y-30.71459
G01 X32.02617 Y-30.89321
G01 X32.00367 Y-30.94756
G01 X31.92973 Y-31.08587
G01 X31.89707 Y-31.13476
G01 X31.79757 Y-31.25600
G01 X31.75599 Y-31.29758
G01 X31.63476 Y-31.39707
G01 X31.58587 Y-31.42973
G01 X31.49999 Y-31.47565
G01 X31.49999 Y-31.89298
G01 X33.79084 Y-34.18383
G01 X33.83549 Y-34.23595
G01 X33.86816 Y-34.28484
G01 X33.90915 Y-34.37377
G01 X33.92767 Y-34.43983
G01 X33.93730 Y-34.53737
G01 X33.93730 Y-34.63973
G01 X34.00298 Y-34.69551
G01 X34.08492 Y-34.79307
G01 X34.11761 Y-34.84199
G01 X34.16381 Y-34.92843
G01 X34.18632 Y-34.98276
G01 X34.22193 Y-35.10511
G01 X34.23585 Y-35.23178
G01 X34.23585 Y-35.29058
G01 X34.22193 Y-35.41725
G01 X34.18632 Y-35.53960
G01 X34.16381 Y-35.59396
G01 X34.11761 Y-35.68040
G01 X34.08492 Y-35.72929
G01 X34.02274 Y-35.80506
G01 X33.98116 Y-35.84664
G01 X33.90539 Y-35.90882
G01 X33.85650 Y-35.94151
G01 X33.74344 Y-36.00028
G01 X33.59335 Y-36.04583
G01 X33.46668 Y-36.05974
G01 X33.40788 Y-36.05974
G01 X33.28121 Y-36.04583
G01 X33.13115 Y-36.00028
G01 X33.01809 Y-35.94151
G01 X32.96917 Y-35.90882
G01 X32.87161 Y-35.82688
G01 X32.78965 Y-35.72929
G01 X32.75698 Y-35.68040
G01 X32.69818 Y-35.56734
G01 X32.65980 Y-35.44583
G01 X32.64835 Y-35.38814
G01 X32.63872 Y-35.29058
G01 X32.63872 Y-35.23178
G01 X32.65267 Y-35.10511
G01 X32.69818 Y-34.95505
G01 X32.75698 Y-34.84199
G01 X32.78965 Y-34.79307
G01 X32.88035 Y-34.68756
G01 X30.64642 Y-32.45363
G01 X30.58424 Y-32.37786
G01 X30.55061 Y-32.31802
G01 X30.52811 Y-32.26369
G01 X30.50959 Y-32.19762
G01 X30.50141 Y-32.12948
G01 X30.49996 Y-31.47563
G01 X30.41411 Y-31.42973
G01 X30.36522 Y-31.39707
G01 X30.22216 Y-31.27781
G01 X30.10291 Y-31.13476
G01 X30.07025 Y-31.08587
G01 X29.99631 Y-30.94756
G01 X29.97380 Y-30.89321
G01 X29.92112 Y-30.71459
G01 X29.90144 Y-30.52940
G04 P0 
G00 Z2.00000 M3 ; restart from line 3671

G00 X27.36144 Y-22.90940 
G01 F30.00000

G01 Z-0.07500
G04 P0 
G01 F40.00000
G01 X27.36144 Y-22.90940
G01 X27.36144 Y-22.85058
G01 X27.37681 Y-22.69452
G01 X27.38829 Y-22.63684
G01 X27.44371 Y-22.45904
G01 X27.53025 Y-22.29411
G01 X27.56291 Y-22.24522
G01 X27.68216 Y-22.10217
G01 X27.82522 Y-21.98291
G01 X27.87411 Y-21.95022
G01 X27.95999 Y-21.90433
G01 X27.95996 Y-21.27989
G01 X27.96527 Y-21.21146
G01 X27.97673 Y-21.15378
G01 X28.01061 Y-21.06193
G01 X28.06177 Y-20.97844
G01 X28.08666 Y-20.94814
G01 X28.12824 Y-20.90656
G01 X28.18219 Y-20.86414
G01 X28.24203 Y-20.83051
G01 X28.29636 Y-20.80801
G01 X28.39156 Y-20.78518
G01 X28.45999 Y-20.77987
G01 X28.57558 Y-20.77987
G01 X31.06529 Y-18.29013
G01 X31.05973 Y-18.23369
G01 X31.05973 Y-18.17489
G01 X31.06933 Y-18.07733
G01 X31.08081 Y-18.01965
G01 X31.11919 Y-17.89814
G01 X31.17797 Y-17.78508
G01 X31.21066 Y-17.73618
G01 X31.29260 Y-17.63860
G01 X31.39018 Y-17.55666
G01 X31.43908 Y-17.52397
G01 X31.52551 Y-17.47777
G01 X31.57987 Y-17.45526
G01 X31.70222 Y-17.41965
G01 X31.82889 Y-17.40573
G01 X31.88769 Y-17.40573
G01 X32.01436 Y-17.41965
G01 X32.13672 Y-17.45526
G01 X32.19105 Y-17.47777
G01 X32.30275 Y-17.53911
G01 X32.42224 Y-17.63702
G01 X32.50593 Y-17.73618
G01 X32.53859 Y-17.78508
G01 X32.59739 Y-17.89814
G01 X32.64291 Y-18.04822
G01 X32.65683 Y-18.17489
G01 X32.65683 Y-18.23369
G01 X32.64291 Y-18.36036
G01 X32.59739 Y-18.51043
G01 X32.53859 Y-18.62348
G01 X32.50593 Y-18.67238
G01 X32.44375 Y-18.74815
G01 X32.40217 Y-18.78975
G01 X32.30275 Y-18.86946
G01 X32.19105 Y-18.93080
G01 X32.13672 Y-18.95330
G01 X32.04291 Y-18.98175
G01 X31.98523 Y-18.99323
G01 X31.88769 Y-19.00283
G01 X31.82889 Y-19.00283
G01 X31.77238 Y-18.99727
G01 X29.13624 Y-21.63343
G01 X29.04983 Y-21.70079
G01 X29.00967 Y-21.72538
G01 X28.95996 Y-21.74542
G01 X28.95996 Y-21.90433
G01 X29.07111 Y-21.96536
G01 X29.21599 Y-22.08240
G01 X29.25757 Y-22.12398
G01 X29.35707 Y-22.24522
G01 X29.38973 Y-22.29411
G01 X29.47624 Y-22.45904
G01 X29.53169 Y-22.63684
G01 X29.54317 Y-22.69452
G01 X29.55854 Y-22.85058
G01 X29.55854 Y-22.90940
G01 X29.54317 Y-23.06546
G01 X29.53169 Y-23.12314
G01 X29.48617 Y-23.27321
G01 X29.46367 Y-23.32756
G01 X29.38973 Y-23.46587
G01 X29.35707 Y-23.51476
G01 X29.23781 Y-23.65781
G01 X29.09476 Y-23.77707
G01 X29.04587 Y-23.80973
G01 X28.90756 Y-23.88367
G01 X28.85323 Y-23.90618
G01 X28.70314 Y-23.95169
G01 X28.64546 Y-23.96317
G01 X28.48940 Y-23.97854
G01 X28.43058 Y-23.97854
G01 X28.27452 Y-23.96317
G01 X28.21683 Y-23.95169
G01 X28.06675 Y-23.90618
G01 X28.01242 Y-23.88367
G01 X27.87411 Y-23.80973
G01 X27.82522 Y-23.77707
G01 X27.70398 Y-23.67758
G01 X27.66240 Y-23.63600
G01 X27.56291 Y-23.51476
G01 X27.53025 Y-23.46587
G01 X27.45631 Y-23.32756
G01 X27.43380 Y-23.27321
G01 X27.38829 Y-23.12314
G01 X27.37681 Y-23.06546
G01 X27.36144 Y-22.90940
G04 P0 
G00 Z2.00000 M3 ; restart from line 3790

G00 X29.90144 Y-22.90940 
G01 F30.00000

G01 Z-0.07500
G04 P0 
G01 F40.00000
G01 X29.90144 Y-22.90940
G01 X29.90144 Y-22.85058
G01 X29.91681 Y-22.69452
G01 X29.92829 Y-22.63684
G01 X29.98371 Y-22.45904
G01 X30.07025 Y-22.29411
G01 X30.10291 Y-22.24522
G01 X30.22216 Y-22.10217
G01 X30.36522 Y-21.98291
G01 X30.41411 Y-21.95022
G01 X30.57903 Y-21.86371
G01 X30.75683 Y-21.80829
G01 X30.81452 Y-21.79681
G01 X30.99999 Y-21.77999
G01 X31.18546 Y-21.79681
G01 X31.24314 Y-21.80829
G01 X31.39323 Y-21.85380
G01 X31.44756 Y-21.87631
G01 X31.61111 Y-21.96536
G01 X31.75599 Y-22.08240
G01 X31.79757 Y-22.12398
G01 X31.89707 Y-22.24522
G01 X31.92973 Y-22.29411
G01 X32.01624 Y-22.45904
G01 X32.07169 Y-22.63684
G01 X32.08317 Y-22.69452
G01 X32.09854 Y-22.85058
G01 X32.09854 Y-22.90940
G01 X32.08317 Y-23.06546
G01 X32.07169 Y-23.12314
G01 X32.01624 Y-23.30094
G01 X31.92973 Y-23.46587
G01 X31.89707 Y-23.51476
G01 X31.77781 Y-23.65781
G01 X31.63476 Y-23.77707
G01 X31.58587 Y-23.80973
G01 X31.44756 Y-23.88367
G01 X31.39323 Y-23.90618
G01 X31.24314 Y-23.95169
G01 X31.18546 Y-23.96317
G01 X30.99999 Y-23.97999
G01 X30.81452 Y-23.96317
G01 X30.75683 Y-23.95169
G01 X30.60675 Y-23.90618
G01 X30.55242 Y-23.88367
G01 X30.38886 Y-23.79459
G01 X30.24398 Y-23.67758
G01 X30.20240 Y-23.63600
G01 X30.10291 Y-23.51476
G01 X30.07025 Y-23.46587
G01 X29.98371 Y-23.30094
G01 X29.92829 Y-23.12314
G01 X29.91681 Y-23.06546
G01 X29.90144 Y-22.90940
G04 P0 
G00 Z2.00000 M3 ; restart from line 3853

G00 X24.81999 Y-22.87999 
G01 F30.00000

G01 Z-0.07500
G04 P0 
G01 F40.00000
G01 X24.81999 Y-22.87999
G01 X24.83681 Y-22.69452
G01 X24.84829 Y-22.63684
G01 X24.89380 Y-22.48675
G01 X24.91631 Y-22.43242
G01 X25.00536 Y-22.26887
G01 X25.12240 Y-22.12398
G01 X25.16398 Y-22.08240
G01 X25.28522 Y-21.98291
G01 X25.33411 Y-21.95022
G01 X25.49903 Y-21.86371
G01 X25.67683 Y-21.80829
G01 X25.73449 Y-21.79681
G01 X25.91999 Y-21.77999
G01 X26.10546 Y-21.79681
G01 X26.16314 Y-21.80829
G01 X26.31323 Y-21.85380
G01 X26.36754 Y-21.87631
G01 X26.53111 Y-21.96536
G01 X26.67599 Y-22.08240
G01 X26.71757 Y-22.12398
G01 X26.81707 Y-22.24522
G01 X26.84973 Y-22.29411
G01 X26.93624 Y-22.45904
G01 X26.99169 Y-22.63684
G01 X27.00317 Y-22.69452
G01 X27.01854 Y-22.85058
G01 X27.01854 Y-22.90940
G01 X27.00317 Y-23.06546
G01 X26.99169 Y-23.12314
G01 X26.93624 Y-23.30094
G01 X26.84973 Y-23.46587
G01 X26.81707 Y-23.51476
G01 X26.69781 Y-23.65781
G01 X26.55476 Y-23.77707
G01 X26.50587 Y-23.80973
G01 X26.36754 Y-23.88367
G01 X26.31323 Y-23.90618
G01 X26.16314 Y-23.95169
G01 X26.10546 Y-23.96317
G01 X25.91999 Y-23.97999
G01 X25.73449 Y-23.96317
G01 X25.67683 Y-23.95169
G01 X25.52675 Y-23.90618
G01 X25.47239 Y-23.88367
G01 X25.30886 Y-23.79459
G01 X25.16398 Y-23.67758
G01 X25.12240 Y-23.63600
G01 X25.02291 Y-23.51476
G01 X24.99025 Y-23.46587
G01 X24.90371 Y-23.30094
G01 X24.84829 Y-23.12314
G01 X24.83681 Y-23.06546
G01 X24.81999 Y-22.87999
G04 P0 
G00 Z2.00000 M3 ; restart from line 3916

G00 X19.73999 Y-22.87999 
G01 F30.00000

G01 Z-0.07500
G04 P0 
G01 F40.00000
G01 X19.73999 Y-22.87999
G01 X19.75681 Y-22.69452
G01 X19.76829 Y-22.63684
G01 X19.82371 Y-22.45904
G01 X19.91025 Y-22.29411
G01 X19.94291 Y-22.24522
G01 X20.06216 Y-22.10217
G01 X20.20522 Y-21.98291
G01 X20.25411 Y-21.95022
G01 X20.41903 Y-21.86371
G01 X20.59683 Y-21.80829
G01 X20.65452 Y-21.79681
G01 X20.83999 Y-21.77999
G01 X21.02546 Y-21.79681
G01 X21.08314 Y-21.80829
G01 X21.23323 Y-21.85380
G01 X21.28756 Y-21.87631
G01 X21.45111 Y-21.96536
G01 X21.59599 Y-22.08240
G01 X21.63757 Y-22.12398
G01 X21.73707 Y-22.24522
G01 X21.76973 Y-22.29411
G01 X21.85624 Y-22.45904
G01 X21.91169 Y-22.63684
G01 X21.92317 Y-22.69452
G01 X21.93999 Y-22.87999
G01 X21.92317 Y-23.06546
G01 X21.91169 Y-23.12314
G01 X21.85624 Y-23.30094
G01 X21.76973 Y-23.46587
G01 X21.73707 Y-23.51476
G01 X21.61781 Y-23.65781
G01 X21.47476 Y-23.77707
G01 X21.42587 Y-23.80973
G01 X21.26094 Y-23.89624
G01 X21.08314 Y-23.95169
G01 X21.02546 Y-23.96317
G01 X20.83999 Y-23.97999
G01 X20.65452 Y-23.96317
G01 X20.59683 Y-23.95169
G01 X20.44675 Y-23.90618
G01 X20.39242 Y-23.88367
G01 X20.22886 Y-23.79459
G01 X20.08398 Y-23.67758
G01 X20.04240 Y-23.63600
G01 X19.94291 Y-23.51476
G01 X19.91025 Y-23.46587
G01 X19.82371 Y-23.30094
G01 X19.76829 Y-23.12314
G01 X19.75681 Y-23.06546
G01 X19.73999 Y-22.87999
G04 P0 
G00 Z2.00000 M3 ; restart from line 3976

G00 X17.19999 Y-22.87999 
G01 F30.00000

G01 Z-0.07500
G04 P0 
G01 F40.00000
G01 X17.19999 Y-22.87999
G01 X17.21681 Y-22.69452
G01 X17.22829 Y-22.63684
G01 X17.27380 Y-22.48675
G01 X17.29631 Y-22.43242
G01 X17.38536 Y-22.26887
G01 X17.50240 Y-22.12398
G01 X17.54398 Y-22.08240
G01 X17.66522 Y-21.98291
G01 X17.71411 Y-21.95022
G01 X17.87903 Y-21.86371
G01 X18.05683 Y-21.80829
G01 X18.11452 Y-21.79681
G01 X18.29999 Y-21.77999
G01 X18.48546 Y-21.79681
G01 X18.54314 Y-21.80829
G01 X18.69323 Y-21.85380
G01 X18.74756 Y-21.87631
G01 X18.91111 Y-21.96536
G01 X19.05599 Y-22.08240
G01 X19.09757 Y-22.12398
G01 X19.19707 Y-22.24522
G01 X19.22973 Y-22.29411
G01 X19.31624 Y-22.45904
G01 X19.37169 Y-22.63684
G01 X19.38317 Y-22.69452
G01 X19.39999 Y-22.87999
G01 X19.38317 Y-23.06546
G01 X19.37169 Y-23.12314
G01 X19.31624 Y-23.30094
G01 X19.22973 Y-23.46587
G01 X19.19707 Y-23.51476
G01 X19.07781 Y-23.65781
G01 X18.93476 Y-23.77707
G01 X18.88587 Y-23.80973
G01 X18.72094 Y-23.89624
G01 X18.54314 Y-23.95169
G01 X18.48546 Y-23.96317
G01 X18.29999 Y-23.97999
G01 X18.11452 Y-23.96317
G01 X18.05683 Y-23.95169
G01 X17.90675 Y-23.90618
G01 X17.85242 Y-23.88367
G01 X17.68886 Y-23.79459
G01 X17.54398 Y-23.67758
G01 X17.50240 Y-23.63600
G01 X17.40291 Y-23.51476
G01 X17.37025 Y-23.46587
G01 X17.28371 Y-23.30094
G01 X17.22829 Y-23.12314
G01 X17.21681 Y-23.06546
G01 X17.19999 Y-22.87999
G04 P0 
G00 Z2.00000 M3 ; restart from line 4037

G00 X14.65999 Y-22.87999 
G01 F30.00000

G01 Z-0.07500
G04 P0 
G01 F40.00000
G01 X14.65999 Y-22.87999
G01 X14.67681 Y-22.69452
G01 X14.68829 Y-22.63684
G01 X14.73380 Y-22.48675
G01 X14.75631 Y-22.43242
G01 X14.84536 Y-22.26887
G01 X14.96240 Y-22.12398
G01 X15.00398 Y-22.08240
G01 X15.12522 Y-21.98291
G01 X15.17411 Y-21.95022
G01 X15.33903 Y-21.86371
G01 X15.51683 Y-21.80829
G01 X15.57452 Y-21.79681
G01 X15.75999 Y-21.77999
G01 X15.94546 Y-21.79681
G01 X16.00314 Y-21.80829
G01 X16.15323 Y-21.85380
G01 X16.20756 Y-21.87631
G01 X16.37111 Y-21.96536
G01 X16.51599 Y-22.08240
G01 X16.55757 Y-22.12398
G01 X16.65707 Y-22.24522
G01 X16.68973 Y-22.29411
G01 X16.77624 Y-22.45904
G01 X16.83169 Y-22.63684
G01 X16.84317 Y-22.69452
G01 X16.85999 Y-22.87999
G01 X16.84317 Y-23.06546
G01 X16.83169 Y-23.12314
G01 X16.77624 Y-23.30094
G01 X16.68973 Y-23.46587
G01 X16.65707 Y-23.51476
G01 X16.53781 Y-23.65781
G01 X16.39476 Y-23.77707
G01 X16.34587 Y-23.80973
G01 X16.18094 Y-23.89624
G01 X16.00314 Y-23.95169
G01 X15.94546 Y-23.96317
G01 X15.75999 Y-23.97999
G01 X15.57452 Y-23.96317
G01 X15.51683 Y-23.95169
G01 X15.36675 Y-23.90618
G01 X15.31242 Y-23.88367
G01 X15.14886 Y-23.79459
G01 X15.00398 Y-23.67758
G01 X14.96240 Y-23.63600
G01 X14.86291 Y-23.51476
G01 X14.83025 Y-23.46587
G01 X14.74371 Y-23.30094
G01 X14.68829 Y-23.12314
G01 X14.67681 Y-23.06546
G01 X14.65999 Y-22.87999
G04 P0 
G00 Z2.00000 M3 ; restart from line 4098

G00 X11.15977 Y-17.04188 
G01 F30.00000

G01 Z-0.07500
G04 P0 
G01 F40.00000
G01 X11.15977 Y-17.04188
G01 X11.15977 Y-10.58029
G01 X11.16508 Y-10.51187
G01 X11.17653 Y-10.45418
G01 X11.19784 Y-10.38893
G01 X11.22891 Y-10.32774
G01 X11.26157 Y-10.27885
G01 X11.30623 Y-10.22673
G01 X12.75994 Y-8.77298
G01 X12.75994 Y-8.35563
G01 X12.64887 Y-8.29460
G01 X12.50399 Y-8.17758
G01 X12.46241 Y-8.13600
G01 X12.36292 Y-8.01477
G01 X12.33023 Y-7.96587
G01 X12.24371 Y-7.80095
G01 X12.18113 Y-7.59457
G01 X12.16144 Y-7.40938
G01 X12.16144 Y-7.35058
G01 X12.18113 Y-7.16539
G01 X12.24371 Y-6.95904
G01 X12.33023 Y-6.79412
G01 X12.36292 Y-6.74522
G01 X12.46241 Y-6.62399
G01 X12.50399 Y-6.58241
G01 X12.64887 Y-6.46537
G01 X12.81242 Y-6.37629
G01 X12.86675 Y-6.35378
G01 X13.01684 Y-6.30827
G01 X13.07450 Y-6.29681
G01 X13.23058 Y-6.28142
G01 X13.28938 Y-6.28142
G01 X13.44546 Y-6.29681
G01 X13.50315 Y-6.30827
G01 X13.65321 Y-6.35378
G01 X13.70754 Y-6.37629
G01 X13.87112 Y-6.46537
G01 X14.03779 Y-6.60217
G01 X14.15707 Y-6.74522
G01 X14.18974 Y-6.79412
G01 X14.27625 Y-6.95904
G01 X14.33170 Y-7.13684
G01 X14.34318 Y-7.19450
G01 X14.35999 Y-7.38000
G01 X14.34318 Y-7.56547
