( pcb2gcode 2.5.0 )
( Software-independent Gcode )

( This file uses 3 drill bit sizes. )
( Bit sizes: [0.5mm] [0.8mm] [1mm] )

G94       (Millimeters per minute feed rate.)
G21       (Units == Millimeters.)
G90       (Absolute coordinates.)
G00 S600     (RPM spindle speed.)

G53 G00 Z0.00000 (Retract)
T1
M5      (Spindle stop.)
G04 P1.00000
(MSG, Change tool bit to drill size 0.5mm)
M0      (Temporary machine stop.)
M3      (Spindle on clockwise.)
G0 Z2.00000
G04 P1.00000

G1 F30.00000
G0 X0.00000 Y0.00000
G1 Z-2.50000
G1 Z2.00000
G0 X10.29000 Y-10.09800
G1 Z-2.50000
G1 Z2.00000
G0 X10.02600 Y-18.54700
G1 Z-2.50000
G1 Z2.00000
G0 X16.27500 Y-20.41000
G1 Z-2.50000
G1 Z2.00000
G0 X20.65500 Y-17.36300
G1 Z-2.50000
G1 Z2.00000
G0 X8.48800 Y-26.08600
G1 Z-2.50000
G1 Z2.00000
G0 X7.11500 Y-24.83200
G1 Z-2.50000
G1 Z2.00000
G0 X32.90600 Y-32.03400
G1 Z-2.50000
G1 Z2.00000
G0 X33.60500 Y-28.79800
G1 Z-2.50000
G1 Z2.00000
G0 X34.91800 Y-24.20000
G1 Z-2.50000
G1 Z2.00000
G0 X44.51700 Y-34.99700
G1 Z-2.50000
G1 Z2.00000
G0 X45.83800 Y-38.23500
G1 Z-2.50000
G1 Z2.00000
G0 X48.04100 Y-32.33800
G1 Z-2.50000
G1 Z2.00000
G0 X47.67600 Y-27.39500
G1 Z-2.50000
G1 Z2.00000
G0 X53.47600 Y-26.93100
G1 Z-2.50000
G1 Z2.00000
G0 X50.35500 Y-20.52200
G1 Z-2.50000
G1 Z2.00000
G0 X52.71600 Y-12.25600
G1 Z-2.50000
G1 Z2.00000
G0 X62.49400 Y-4.89000
G1 Z-2.50000
G1 Z2.00000
G0 X71.85800 Y-5.49900
G1 Z-2.50000
G1 Z2.00000
G0 X79.92500 Y-8.19400
G1 Z-2.50000
G1 Z2.00000
G0 X76.10300 Y-16.41500
G1 Z-2.50000
G1 Z2.00000
G0 X76.87800 Y-20.21900
G1 Z-2.50000
G1 Z2.00000
G0 X70.68400 Y-19.41200
G1 Z-2.50000
G1 Z2.00000
G0 X62.01900 Y-26.15000
G1 Z-2.50000
G1 Z2.00000
G0 X57.69000 Y-34.99700
G1 Z-2.50000
G1 Z2.00000
G0 X60.30300 Y-37.95700
G1 Z-2.50000
G1 Z2.00000
G0 X58.51900 Y-39.41500
G1 Z-2.50000
G1 Z2.00000
G0 X62.90400 Y-37.74000
G1 Z-2.50000
G1 Z2.00000
G0 X71.97600 Y-44.90700
G1 Z-2.50000
G1 Z2.00000
G0 X74.73200 Y-45.90700
G1 Z-2.50000
G1 Z2.00000
G0 X79.44700 Y-48.66700
G1 Z-2.50000
G1 Z2.00000
G0 X84.96700 Y-39.56100
G1 Z-2.50000
G1 Z2.00000
G0 X88.61700 Y-36.57300
G1 Z-2.50000
G1 Z2.00000
G0 X91.35900 Y-41.46900
G1 Z-2.50000
G1 Z2.00000
G0 X97.59000 Y-37.88900
G1 Z-2.50000
G1 Z2.00000
G0 X102.61500 Y-33.38900
G1 Z-2.50000
G1 Z2.00000
G0 X104.81600 Y-24.60100
G1 Z-2.50000
G1 Z2.00000
G0 X108.02200 Y-19.47300
G1 Z-2.50000
G1 Z2.00000
G0 X112.93800 Y-18.03500
G1 Z-2.50000
G1 Z2.00000
G0 X115.34100 Y-13.40000
G1 Z-2.50000
G1 Z2.00000
G0 X115.41400 Y-10.33000
G1 Z-2.50000
G1 Z2.00000
G0 X123.94900 Y-12.20500
G1 Z-2.50000
G1 Z2.00000
G0 X133.28200 Y-17.61800
G1 Z-2.50000
G1 Z2.00000
G0 X127.36800 Y-26.29100
G1 Z-2.50000
G1 Z2.00000
G0 X118.21300 Y-34.70000
G1 Z-2.50000
G1 Z2.00000
G0 X115.43000 Y-24.29900
G1 Z-2.50000
G1 Z2.00000
G0 X106.02000 Y-10.57300
G1 Z-2.50000
G1 Z2.00000
G0 X81.25700 Y-39.38100
G1 Z-2.50000
G1 Z2.00000
G0 X35.72300 Y-35.74100
G1 Z-2.50000
G1 Z2.00000
G0 X34.48400 Y-47.57100
G1 Z-2.50000
G1 Z2.00000
G0 X142.93100 Y-16.28000
G1 Z-2.50000
G1 Z2.00000
G0 X144.55100 Y-12.31200
G1 Z-2.50000
G1 Z2.00000
G0 X143.39600 Y-20.41300
G1 Z-2.50000
G1 Z2.00000
G0 X145.84200 Y-23.47700
G1 Z-2.50000
G1 Z2.00000
G0 X145.94000 Y-29.56700
G1 Z-2.50000
G1 Z2.00000
G0 X145.55700 Y-33.66900
G1 Z-2.50000
G1 Z2.00000

G53 G00 Z0.00000 (Retract)
T2
M5      (Spindle stop.)
G04 P1.00000
(MSG, Change tool bit to drill size 0.8mm)
M0      (Temporary machine stop.)
M3      (Spindle on clockwise.)
G0 Z2.00000
G04 P1.00000

G1 F30.00000
G0 X13.26000 Y-7.38000
G1 Z-2.50000
G1 Z2.00000
G0 X15.80000 Y-7.38000
G1 Z-2.50000
G1 Z2.00000
G0 X18.34000 Y-7.38000
G1 Z-2.50000
G1 Z2.00000
G0 X20.88000 Y-7.38000
G1 Z-2.50000
G1 Z2.00000
G0 X23.42000 Y-7.38000
G1 Z-2.50000
G1 Z2.00000
G0 X25.96000 Y-7.38000
G1 Z-2.50000
G1 Z2.00000
G0 X28.50000 Y-7.38000
G1 Z-2.50000
G1 Z2.00000
G0 X31.04000 Y-7.38000
G1 Z-2.50000
G1 Z2.00000
G0 X23.42000 Y-15.00000
G1 Z-2.50000
G1 Z2.00000
G0 X25.96000 Y-15.00000
G1 Z-2.50000
G1 Z2.00000
G0 X28.50000 Y-15.00000
G1 Z-2.50000
G1 Z2.00000
G0 X31.04000 Y-15.00000
G1 Z-2.50000
G1 Z2.00000
G0 X23.38000 Y-22.88000
G1 Z-2.50000
G1 Z2.00000
G0 X20.84000 Y-22.88000
G1 Z-2.50000
G1 Z2.00000
G0 X18.30000 Y-22.88000
G1 Z-2.50000
G1 Z2.00000
G0 X15.76000 Y-22.88000
G1 Z-2.50000
G1 Z2.00000
G0 X13.22000 Y-22.88000
G1 Z-2.50000
G1 Z2.00000
G0 X13.22000 Y-30.50000
G1 Z-2.50000
G1 Z2.00000
G0 X15.76000 Y-30.50000
G1 Z-2.50000
G1 Z2.00000
G0 X18.30000 Y-30.50000
G1 Z-2.50000
G1 Z2.00000
G0 X20.84000 Y-30.50000
G1 Z-2.50000
G1 Z2.00000
G0 X23.38000 Y-30.50000
G1 Z-2.50000
G1 Z2.00000
G0 X25.92000 Y-30.50000
G1 Z-2.50000
G1 Z2.00000
G0 X28.46000 Y-30.50000
G1 Z-2.50000
G1 Z2.00000
G0 X31.00000 Y-30.50000
G1 Z-2.50000
G1 Z2.00000
G0 X25.92000 Y-22.88000
G1 Z-2.50000
G1 Z2.00000
G0 X28.46000 Y-22.88000
G1 Z-2.50000
G1 Z2.00000
G0 X31.00000 Y-22.88000
G1 Z-2.50000
G1 Z2.00000
G0 X39.00000 Y-16.62000
G1 Z-2.50000
G1 Z2.00000
G0 X39.00000 Y-19.16000
G1 Z-2.50000
G1 Z2.00000
G0 X39.00000 Y-21.70000
G1 Z-2.50000
G1 Z2.00000
G0 X39.00000 Y-24.24000
G1 Z-2.50000
G1 Z2.00000
G0 X39.00000 Y-26.78000
G1 Z-2.50000
G1 Z2.00000
G0 X39.00000 Y-29.32000
G1 Z-2.50000
G1 Z2.00000
G0 X26.99500 Y-42.18000
G1 Z-2.50000
G1 Z2.00000
G0 X24.45500 Y-42.18000
G1 Z-2.50000
G1 Z2.00000
G0 X21.91500 Y-42.18000
G1 Z-2.50000
G1 Z2.00000
G0 X19.37500 Y-42.18000
G1 Z-2.50000
G1 Z2.00000
G0 X14.16000 Y-41.00000
G1 Z-2.50000
G1 Z2.00000
G0 X19.37500 Y-49.80000
G1 Z-2.50000
G1 Z2.00000
G0 X21.91500 Y-49.80000
G1 Z-2.50000
G1 Z2.00000
G0 X24.45500 Y-49.80000
G1 Z-2.50000
G1 Z2.00000
G0 X26.99500 Y-49.80000
G1 Z-2.50000
G1 Z2.00000
G0 X29.53500 Y-49.80000
G1 Z-2.50000
G1 Z2.00000
G0 X32.07500 Y-49.80000
G1 Z-2.50000
G1 Z2.00000
G0 X34.61500 Y-49.80000
G1 Z-2.50000
G1 Z2.00000
G0 X29.53500 Y-42.18000
G1 Z-2.50000
G1 Z2.00000
G0 X32.07500 Y-42.18000
G1 Z-2.50000
G1 Z2.00000
G0 X34.61500 Y-42.18000
G1 Z-2.50000
G1 Z2.00000
G0 X52.00000 Y-31.62000
G1 Z-2.50000
G1 Z2.00000
G0 X54.54000 Y-31.62000
G1 Z-2.50000
G1 Z2.00000
G0 X57.08000 Y-31.62000
G1 Z-2.50000
G1 Z2.00000
G0 X59.62000 Y-31.62000
G1 Z-2.50000
G1 Z2.00000
G0 X62.16000 Y-31.62000
G1 Z-2.50000
G1 Z2.00000
G0 X64.70000 Y-31.62000
G1 Z-2.50000
G1 Z2.00000
G0 X67.24000 Y-31.62000
G1 Z-2.50000
G1 Z2.00000
G0 X69.78000 Y-31.62000
G1 Z-2.50000
G1 Z2.00000
G0 X72.32000 Y-31.62000
G1 Z-2.50000
G1 Z2.00000
G0 X74.86000 Y-31.62000
G1 Z-2.50000
G1 Z2.00000
G0 X69.78000 Y-24.00000
G1 Z-2.50000
G1 Z2.00000
G0 X72.32000 Y-24.00000
G1 Z-2.50000
G1 Z2.00000
G0 X74.86000 Y-24.00000
G1 Z-2.50000
G1 Z2.00000
G0 X67.24000 Y-24.00000
G1 Z-2.50000
G1 Z2.00000
G0 X64.70000 Y-24.00000
G1 Z-2.50000
G1 Z2.00000
G0 X62.16000 Y-24.00000
G1 Z-2.50000
G1 Z2.00000
G0 X59.62000 Y-24.00000
G1 Z-2.50000
G1 Z2.00000
G0 X57.08000 Y-24.00000
G1 Z-2.50000
G1 Z2.00000
G0 X54.54000 Y-24.00000
G1 Z-2.50000
G1 Z2.00000
G0 X52.00000 Y-24.00000
G1 Z-2.50000
G1 Z2.00000
G0 X52.22000 Y-15.63500
G1 Z-2.50000
G1 Z2.00000
G0 X54.76000 Y-15.63500
G1 Z-2.50000
G1 Z2.00000
G0 X57.30000 Y-15.63500
G1 Z-2.50000
G1 Z2.00000
G0 X59.84000 Y-15.63500
G1 Z-2.50000
G1 Z2.00000
G0 X62.38000 Y-15.63500
G1 Z-2.50000
G1 Z2.00000
G0 X64.92000 Y-15.63500
G1 Z-2.50000
G1 Z2.00000
G0 X67.46000 Y-15.63500
G1 Z-2.50000
G1 Z2.00000
G0 X70.00000 Y-15.63500
G1 Z-2.50000
G1 Z2.00000
G0 X62.38000 Y-8.01500
G1 Z-2.50000
G1 Z2.00000
G0 X59.84000 Y-8.01500
G1 Z-2.50000
G1 Z2.00000
G0 X57.30000 Y-8.01500
G1 Z-2.50000
G1 Z2.00000
G0 X54.76000 Y-8.01500
G1 Z-2.50000
G1 Z2.00000
G0 X52.22000 Y-8.01500
G1 Z-2.50000
G1 Z2.00000
G0 X64.92000 Y-8.01500
G1 Z-2.50000
G1 Z2.00000
G0 X67.46000 Y-8.01500
G1 Z-2.50000
G1 Z2.00000
G0 X70.00000 Y-8.01500
G1 Z-2.50000
G1 Z2.00000
G0 X84.00000 Y-9.00000
G1 Z-2.50000
G1 Z2.00000
G0 X84.00000 Y-11.54000
G1 Z-2.50000
G1 Z2.00000
G0 X84.00000 Y-14.08000
G1 Z-2.50000
G1 Z2.00000
G0 X84.00000 Y-16.62000
G1 Z-2.50000
G1 Z2.00000
G0 X84.00000 Y-19.16000
G1 Z-2.50000
G1 Z2.00000
G0 X84.00000 Y-21.70000
G1 Z-2.50000
G1 Z2.00000
G0 X84.00000 Y-24.24000
G1 Z-2.50000
G1 Z2.00000
G0 X84.00000 Y-26.78000
G1 Z-2.50000
G1 Z2.00000
G0 X84.00000 Y-29.32000
G1 Z-2.50000
G1 Z2.00000
G0 X96.22000 Y-22.38000
G1 Z-2.50000
G1 Z2.00000
G0 X98.76000 Y-22.38000
G1 Z-2.50000
G1 Z2.00000
G0 X101.30000 Y-22.38000
G1 Z-2.50000
G1 Z2.00000
G0 X103.84000 Y-22.38000
G1 Z-2.50000
G1 Z2.00000
G0 X106.38000 Y-22.38000
G1 Z-2.50000
G1 Z2.00000
G0 X108.92000 Y-22.38000
G1 Z-2.50000
G1 Z2.00000
G0 X111.46000 Y-22.38000
G1 Z-2.50000
G1 Z2.00000
G0 X114.00000 Y-22.38000
G1 Z-2.50000
G1 Z2.00000
G0 X108.92000 Y-15.00000
G1 Z-2.50000
G1 Z2.00000
G0 X111.46000 Y-15.00000
G1 Z-2.50000
G1 Z2.00000
G0 X114.00000 Y-15.00000
G1 Z-2.50000
G1 Z2.00000
G0 X106.38000 Y-15.00000
G1 Z-2.50000
G1 Z2.00000
G0 X103.84000 Y-15.00000
G1 Z-2.50000
G1 Z2.00000
G0 X101.30000 Y-15.00000
G1 Z-2.50000
G1 Z2.00000
G0 X98.76000 Y-15.00000
G1 Z-2.50000
G1 Z2.00000
G0 X96.22000 Y-15.00000
G1 Z-2.50000
G1 Z2.00000
G0 X96.22000 Y-7.38000
G1 Z-2.50000
G1 Z2.00000
G0 X98.76000 Y-7.38000
G1 Z-2.50000
G1 Z2.00000
G0 X101.30000 Y-7.38000
G1 Z-2.50000
G1 Z2.00000
G0 X103.84000 Y-7.38000
G1 Z-2.50000
G1 Z2.00000
G0 X106.38000 Y-7.38000
G1 Z-2.50000
G1 Z2.00000
G0 X108.92000 Y-7.38000
G1 Z-2.50000
G1 Z2.00000
G0 X111.46000 Y-7.38000
G1 Z-2.50000
G1 Z2.00000
G0 X114.00000 Y-7.38000
G1 Z-2.50000
G1 Z2.00000
G0 X126.22000 Y-7.00000
G1 Z-2.50000
G1 Z2.00000
G0 X128.76000 Y-7.00000
G1 Z-2.50000
G1 Z2.00000
G0 X131.30000 Y-7.00000
G1 Z-2.50000
G1 Z2.00000
G0 X133.84000 Y-7.00000
G1 Z-2.50000
G1 Z2.00000
G0 X136.38000 Y-7.00000
G1 Z-2.50000
G1 Z2.00000
G0 X138.92000 Y-7.00000
G1 Z-2.50000
G1 Z2.00000
G0 X141.46000 Y-7.00000
G1 Z-2.50000
G1 Z2.00000
G0 X144.00000 Y-7.00000
G1 Z-2.50000
G1 Z2.00000
G0 X138.92000 Y-14.62000
G1 Z-2.50000
G1 Z2.00000
G0 X136.38000 Y-14.62000
G1 Z-2.50000
G1 Z2.00000
G0 X133.84000 Y-14.62000
G1 Z-2.50000
G1 Z2.00000
G0 X131.30000 Y-14.62000
G1 Z-2.50000
G1 Z2.00000
G0 X128.76000 Y-14.62000
G1 Z-2.50000
G1 Z2.00000
G0 X126.22000 Y-14.62000
G1 Z-2.50000
G1 Z2.00000
G0 X126.22000 Y-22.38000
G1 Z-2.50000
G1 Z2.00000
G0 X128.76000 Y-22.38000
G1 Z-2.50000
G1 Z2.00000
G0 X131.30000 Y-22.38000
G1 Z-2.50000
G1 Z2.00000
G0 X133.84000 Y-22.38000
G1 Z-2.50000
G1 Z2.00000
G0 X136.38000 Y-22.38000
G1 Z-2.50000
G1 Z2.00000
G0 X138.92000 Y-22.38000
G1 Z-2.50000
G1 Z2.00000
G0 X141.46000 Y-22.38000
G1 Z-2.50000
G1 Z2.00000
G0 X144.00000 Y-22.38000
G1 Z-2.50000
G1 Z2.00000
G0 X138.92000 Y-30.00000
G1 Z-2.50000
G1 Z2.00000
G0 X136.38000 Y-30.00000
G1 Z-2.50000
G1 Z2.00000
G0 X133.84000 Y-30.00000
G1 Z-2.50000
G1 Z2.00000
G0 X131.30000 Y-30.00000
G1 Z-2.50000
G1 Z2.00000
G0 X128.76000 Y-30.00000
G1 Z-2.50000
G1 Z2.00000
G0 X126.22000 Y-30.00000
G1 Z-2.50000
G1 Z2.00000
G0 X122.68000 Y-42.00000
G1 Z-2.50000
G1 Z2.00000
G0 X125.22000 Y-42.00000
G1 Z-2.50000
G1 Z2.00000
G0 X127.76000 Y-42.00000
G1 Z-2.50000
G1 Z2.00000
G0 X130.30000 Y-42.00000
G1 Z-2.50000
G1 Z2.00000
G0 X132.84000 Y-42.00000
G1 Z-2.50000
G1 Z2.00000
G0 X135.38000 Y-42.00000
G1 Z-2.50000
G1 Z2.00000
G0 X137.92000 Y-42.00000
G1 Z-2.50000
G1 Z2.00000
G0 X140.46000 Y-42.00000
G1 Z-2.50000
G1 Z2.00000
G0 X143.00000 Y-42.00000
G1 Z-2.50000
G1 Z2.00000
G0 X141.46000 Y-30.00000
G1 Z-2.50000
G1 Z2.00000
G0 X144.00000 Y-30.00000
G1 Z-2.50000
G1 Z2.00000
G0 X141.46000 Y-14.62000
G1 Z-2.50000
G1 Z2.00000
G0 X144.00000 Y-14.62000
G1 Z-2.50000
G1 Z2.00000
G0 X114.00000 Y-30.00000
G1 Z-2.50000
G1 Z2.00000
G0 X111.46000 Y-30.00000
G1 Z-2.50000
G1 Z2.00000
G0 X108.92000 Y-30.00000
G1 Z-2.50000
G1 Z2.00000
G0 X106.38000 Y-30.00000
G1 Z-2.50000
G1 Z2.00000
G0 X103.84000 Y-30.00000
G1 Z-2.50000
G1 Z2.00000
G0 X101.30000 Y-30.00000
G1 Z-2.50000
G1 Z2.00000
G0 X98.76000 Y-30.00000
G1 Z-2.50000
G1 Z2.00000
G0 X96.22000 Y-30.00000
G1 Z-2.50000
G1 Z2.00000
G0 X70.00000 Y-41.01500
G1 Z-2.50000
G1 Z2.00000
G0 X67.46000 Y-41.01500
G1 Z-2.50000
G1 Z2.00000
G0 X64.92000 Y-41.01500
G1 Z-2.50000
G1 Z2.00000
G0 X62.38000 Y-41.01500
G1 Z-2.50000
G1 Z2.00000
G0 X59.84000 Y-41.01500
G1 Z-2.50000
G1 Z2.00000
G0 X57.30000 Y-41.01500
G1 Z-2.50000
G1 Z2.00000
G0 X54.76000 Y-41.01500
G1 Z-2.50000
G1 Z2.00000
G0 X52.22000 Y-41.01500
G1 Z-2.50000
G1 Z2.00000
G0 X52.22000 Y-48.63500
G1 Z-2.50000
G1 Z2.00000
G0 X54.76000 Y-48.63500
G1 Z-2.50000
G1 Z2.00000
G0 X57.30000 Y-48.63500
G1 Z-2.50000
G1 Z2.00000
G0 X59.84000 Y-48.63500
G1 Z-2.50000
G1 Z2.00000
G0 X62.38000 Y-48.63500
G1 Z-2.50000
G1 Z2.00000
G0 X64.92000 Y-48.63500
G1 Z-2.50000
G1 Z2.00000
G0 X67.46000 Y-48.63500
G1 Z-2.50000
G1 Z2.00000
G0 X70.00000 Y-48.63500
G1 Z-2.50000
G1 Z2.00000
G0 X39.00000 Y-14.08000
G1 Z-2.50000
G1 Z2.00000
G0 X39.00000 Y-11.54000
G1 Z-2.50000
G1 Z2.00000
G0 X39.00000 Y-9.00000
G1 Z-2.50000
G1 Z2.00000
G0 X20.88000 Y-15.00000
G1 Z-2.50000
G1 Z2.00000
G0 X18.34000 Y-15.00000
G1 Z-2.50000
G1 Z2.00000
G0 X15.80000 Y-15.00000
G1 Z-2.50000
G1 Z2.00000
G0 X13.26000 Y-15.00000
G1 Z-2.50000
G1 Z2.00000
G0 X4.00000 Y-41.00000
G1 Z-2.50000
G1 Z2.00000

G53 G00 Z0.00000 (Retract)
T3
M5      (Spindle stop.)
G04 P1.00000
(MSG, Change tool bit to drill size 1mm)
M0      (Temporary machine stop.)
M3      (Spindle on clockwise.)
G0 Z2.00000
G04 P1.00000

G1 F30.00000
G0 X4.00000 Y-12.00000
G1 Z-2.50000
G1 Z2.00000
G0 X4.00000 Y-14.54000
G1 Z-2.50000
G1 Z2.00000
G0 X4.00000 Y-17.08000
G1 Z-2.50000
G1 Z2.00000
G0 X4.00000 Y-19.62000
G1 Z-2.50000
G1 Z2.00000
G0 X4.00000 Y-22.16000
G1 Z-2.50000
G1 Z2.00000
G0 X4.00000 Y-24.70000
G1 Z-2.50000
G1 Z2.00000
G0 X4.00000 Y-27.24000
G1 Z-2.50000
G1 Z2.00000
G0 X4.00000 Y-29.78000
G1 Z-2.50000
G1 Z2.00000
G0 X4.00000 Y-50.00000
G1 Z-2.50000
G1 Z2.00000
G0 X6.54000 Y-50.00000
G1 Z-2.50000
G1 Z2.00000
G0 X9.08000 Y-50.00000
G1 Z-2.50000
G1 Z2.00000
G0 X11.62000 Y-50.00000
G1 Z-2.50000
G1 Z2.00000
G0 X43.00000 Y-19.62000
G1 Z-2.50000
G1 Z2.00000
G0 X43.00000 Y-22.16000
G1 Z-2.50000
G1 Z2.00000
G0 X43.00000 Y-24.70000
G1 Z-2.50000
G1 Z2.00000
G0 X43.00000 Y-27.24000
G1 Z-2.50000
G1 Z2.00000
G0 X43.00000 Y-29.78000
G1 Z-2.50000
G1 Z2.00000
G0 X43.00000 Y-17.08000
G1 Z-2.50000
G1 Z2.00000
G0 X43.00000 Y-14.54000
G1 Z-2.50000
G1 Z2.00000
G0 X43.00000 Y-12.00000
G1 Z-2.50000
G1 Z2.00000
G0 X43.00000 Y-8.00000
G1 Z-2.50000
G1 Z2.00000
G0 X48.08000 Y-8.00000
G1 Z-2.50000
G1 Z2.00000
G0 X88.00000 Y-8.00000
G1 Z-2.50000
G1 Z2.00000
G0 X88.00000 Y-12.00000
G1 Z-2.50000
G1 Z2.00000
G0 X88.00000 Y-14.54000
G1 Z-2.50000
G1 Z2.00000
G0 X88.00000 Y-17.08000
G1 Z-2.50000
G1 Z2.00000
G0 X88.00000 Y-19.62000
G1 Z-2.50000
G1 Z2.00000
G0 X88.00000 Y-22.16000
G1 Z-2.50000
G1 Z2.00000
G0 X88.00000 Y-24.70000
G1 Z-2.50000
G1 Z2.00000
G0 X88.00000 Y-27.24000
G1 Z-2.50000
G1 Z2.00000
G0 X88.00000 Y-29.78000
G1 Z-2.50000
G1 Z2.00000
G0 X97.00000 Y-40.00000
G1 Z-2.50000
G1 Z2.00000
G0 X101.00000 Y-40.00000
G1 Z-2.50000
G1 Z2.00000
G0 X105.00000 Y-39.92000
G1 Z-2.50000
G1 Z2.00000
G0 X109.00000 Y-39.92000
G1 Z-2.50000
G1 Z2.00000
G0 X105.00000 Y-45.00000
G1 Z-2.50000
G1 Z2.00000
G0 X109.00000 Y-45.00000
G1 Z-2.50000
G1 Z2.00000
G0 X105.78000 Y-50.00000
G1 Z-2.50000
G1 Z2.00000
G0 X108.32000 Y-50.00000
G1 Z-2.50000
G1 Z2.00000
G0 X110.86000 Y-50.00000
G1 Z-2.50000
G1 Z2.00000
G0 X103.24000 Y-50.00000
G1 Z-2.50000
G1 Z2.00000
G0 X100.70000 Y-50.00000
G1 Z-2.50000
G1 Z2.00000
G0 X98.16000 Y-50.00000
G1 Z-2.50000
G1 Z2.00000
G0 X95.62000 Y-50.00000
G1 Z-2.50000
G1 Z2.00000
G0 X93.08000 Y-50.00000
G1 Z-2.50000
G1 Z2.00000
G0 X90.54000 Y-50.00000
G1 Z-2.50000
G1 Z2.00000
G0 X88.00000 Y-50.00000
G1 Z-2.50000
G1 Z2.00000
G0 X97.00000 Y-45.08000
G1 Z-2.50000
G1 Z2.00000
G0 X101.00000 Y-45.08000
G1 Z-2.50000
G1 Z2.00000
G0 X120.00000 Y-27.24000
G1 Z-2.50000
G1 Z2.00000
G0 X120.00000 Y-24.70000
G1 Z-2.50000
G1 Z2.00000
G0 X120.00000 Y-22.16000
G1 Z-2.50000
G1 Z2.00000
G0 X120.00000 Y-19.62000
G1 Z-2.50000
G1 Z2.00000
G0 X120.00000 Y-17.08000
G1 Z-2.50000
G1 Z2.00000
G0 X120.00000 Y-14.54000
G1 Z-2.50000
G1 Z2.00000
G0 X120.00000 Y-12.00000
G1 Z-2.50000
G1 Z2.00000
G0 X120.00000 Y-29.78000
G1 Z-2.50000
G1 Z2.00000
G0 X120.00000 Y-50.00000
G1 Z-2.50000
G1 Z2.00000
G0 X122.54000 Y-50.00000
G1 Z-2.50000
G1 Z2.00000
G0 X125.08000 Y-50.00000
G1 Z-2.50000
G1 Z2.00000
G0 X127.62000 Y-50.00000
G1 Z-2.50000
G1 Z2.00000
G0 X143.46000 Y-47.00000
G1 Z-2.50000
G1 Z2.00000
G0 X148.54000 Y-47.00000
G1 Z-2.50000
G1 Z2.00000
G0 X150.00000 Y-29.78000
G1 Z-2.50000
G1 Z2.00000
G0 X150.00000 Y-27.24000
G1 Z-2.50000
G1 Z2.00000
G0 X150.00000 Y-24.70000
G1 Z-2.50000
G1 Z2.00000
G0 X150.00000 Y-22.16000
G1 Z-2.50000
G1 Z2.00000
G0 X150.00000 Y-19.62000
G1 Z-2.50000
G1 Z2.00000
G0 X150.00000 Y-17.08000
G1 Z-2.50000
G1 Z2.00000
G0 X150.00000 Y-14.54000
G1 Z-2.50000
G1 Z2.00000
G0 X150.00000 Y-12.00000
G1 Z-2.50000
G1 Z2.00000
G0 X93.08000 Y-8.00000
G1 Z-2.50000
G1 Z2.00000

G53 G00 Z0.000 ( All done -- retract )

M5      (Spindle off.)
G04 P1.000000
M9      (Coolant off.)
M2      (Program end.)

