( pcb2gcode 2.5.0 )
( Software-independent Gcode )

G94 
G21 ( Units == Millimeters. )

G90 ( Absolute coordinates. )
G00 S600 ( RPM spindle speed. )
G01 F40.00000 ( Feedrate. )


G53 G00 Z0.00000 (Retract to tool change height)
T1
M5      (Spindle stop.)
G04 P1.00000 (Wait for spindle to stop)
(MSG, Change tool bit to mill diameter 0.50000mm)
M0      (Temporary machine stop.)
M3 ( Spindle on clockwise. )
G04 P1.00000 (Wait for spindle to get up to speed)
G04 P0 
G00 Z2.00000 M3 ; restart from line 21

G00 X0.30000 Y-0.50000 
G01 F30.00000

G01 Z-0.07500
G04 P0 
G01 F40.00000
G01 X0.30000 Y-0.50000
G01 X0.29484 Y-0.55529
G01 X0.27958 Y-0.60871
G01 X0.25474 Y-0.65842
G01 X0.22118 Y-0.70267
G01 X0.18001 Y-0.73998
G01 X0.13266 Y-0.76906
G01 X0.08080 Y-0.78890
G01 X0.02614 Y-0.79886
G01 X-0.02939 Y-0.79855
G01 X-0.12695 Y-0.78892
G01 X-0.18461 Y-0.77747
G01 X-0.30615 Y-0.73909
G01 X-0.44445 Y-0.66518
G01 X-0.54386 Y-0.58544
G01 X-0.58544 Y-0.54386
G01 X-0.64762 Y-0.46810
G01 X-0.68029 Y-0.41920
G01 X-0.72649 Y-0.33274
G01 X-0.74902 Y-0.27841
G01 X-0.77747 Y-0.18461
G01 X-0.78892 Y-0.12695
G01 X-0.79855 Y-0.02939
G01 X-0.79886 Y0.02614
G01 X-0.78890 Y0.08080
G01 X-0.76906 Y0.13266
G01 X-0.73998 Y0.18001
G01 X-0.70267 Y0.22118
G01 X-0.65842 Y0.25474
G01 X-0.60871 Y0.27958
G01 X-0.55529 Y0.29484
G01 X-0.50000 Y0.30000
G01 X-0.00000 Y0.30000
G01 X0.05852 Y0.29423
G01 X0.11478 Y0.27714
G01 X0.16665 Y0.24943
G01 X0.21212 Y0.21212
G01 X0.24943 Y0.16665
G01 X0.27714 Y0.11478
G01 X0.29423 Y0.05852
G01 X0.30000 Y0.00000
G01 X0.30000 Y-0.50000
G04 P0 
G00 Z2.00000 M3 ; restart from line 72

G00 X-9.48949 Y-10.09838 
G01 F30.00000

G01 Z-0.07500
G04 P0 
G01 F40.00000
G01 X-9.48949 Y-10.09838
G01 X-9.50054 Y-10.22533
G01 X-9.51202 Y-10.28301
G01 X-9.54047 Y-10.37681
G01 X-9.56297 Y-10.43114
G01 X-9.60918 Y-10.51758
G01 X-9.64184 Y-10.56650
G01 X-9.70402 Y-10.64227
G01 X-9.74562 Y-10.68385
G01 X-9.82139 Y-10.74603
G01 X-9.87029 Y-10.77869
G01 X-9.98334 Y-10.83749
G01 X-10.10486 Y-10.87587
G01 X-10.16254 Y-10.88733
G01 X-10.26008 Y-10.89693
G01 X-10.31890 Y-10.89693
G01 X-10.41644 Y-10.88733
G01 X-10.47412 Y-10.87587
G01 X-10.59564 Y-10.83749
G01 X-10.70869 Y-10.77869
G01 X-10.75759 Y-10.74603
G01 X-10.83335 Y-10.68385
G01 X-10.87493 Y-10.64227
G01 X-10.93711 Y-10.56650
G01 X-10.96980 Y-10.51758
G01 X-11.02858 Y-10.40453
G01 X-11.06696 Y-10.28301
G01 X-11.07844 Y-10.22533
G01 X-11.08949 Y-10.09838
G01 X-11.07844 Y-9.97143
G01 X-11.06696 Y-9.91375
G01 X-11.03851 Y-9.81997
G01 X-11.01601 Y-9.76561
G01 X-10.96980 Y-9.67918
G01 X-10.93711 Y-9.63028
G01 X-10.87493 Y-9.55451
G01 X-10.83335 Y-9.51293
G01 X-10.78951 Y-9.47694
G01 X-10.78956 Y-8.27400
G01 X-13.83091 Y-5.23268
G01 X-57.95068 Y-5.23268
G01 X-59.33996 Y-6.62196
G01 X-59.33996 Y-7.03936
G01 X-59.25411 Y-7.08523
G01 X-59.20522 Y-7.11792
G01 X-59.08398 Y-7.21741
G01 X-59.04240 Y-7.25899
G01 X-58.92536 Y-7.40387
G01 X-58.83631 Y-7.56742
G01 X-58.81380 Y-7.62175
G01 X-58.76828 Y-7.77184
G01 X-58.75680 Y-7.82950
G01 X-58.74144 Y-7.98558
G01 X-58.74144 Y-8.04438
G01 X-58.75680 Y-8.20047
G01 X-58.76828 Y-8.25815
G01 X-58.82371 Y-8.43595
G01 X-58.92536 Y-8.62612
G01 X-59.04240 Y-8.77100
G01 X-59.08398 Y-8.81258
G01 X-59.20522 Y-8.91207
G01 X-59.25411 Y-8.94474
G01 X-59.39241 Y-9.01868
G01 X-59.44674 Y-9.04118
G01 X-59.59683 Y-9.08670
G01 X-59.65452 Y-9.09818
G01 X-59.83999 Y-9.11499
G01 X-60.02546 Y-9.09818
G01 X-60.08314 Y-9.08670
G01 X-60.26094 Y-9.03125
G01 X-60.42586 Y-8.94474
G01 X-60.47476 Y-8.91207
G01 X-60.59599 Y-8.81258
G01 X-60.63757 Y-8.77100
G01 X-60.75462 Y-8.62612
G01 X-60.84367 Y-8.46254
G01 X-60.86617 Y-8.40821
G01 X-60.91169 Y-8.25815
G01 X-60.92317 Y-8.20047
G01 X-60.93854 Y-8.04438
G01 X-60.93854 Y-7.98558
G01 X-60.92317 Y-7.82950
G01 X-60.91169 Y-7.77184
G01 X-60.86617 Y-7.62175
G01 X-60.84367 Y-7.56742
G01 X-60.75462 Y-7.40387
G01 X-60.63757 Y-7.25899
G01 X-60.59599 Y-7.21741
G01 X-60.47476 Y-7.11792
G01 X-60.42586 Y-7.08523
G01 X-60.33999 Y-7.03933
G01 X-60.33999 Y-5.91238
G01 X-62.16246 Y-4.08988
G01 X-101.44282 Y-4.08988
G01 X-103.33993 Y-5.98701
G01 X-103.33993 Y-6.40433
G01 X-103.25412 Y-6.45023
G01 X-103.20515 Y-6.48292
G01 X-103.08394 Y-6.58241
G01 X-103.04239 Y-6.62399
G01 X-102.92537 Y-6.76887
G01 X-102.83632 Y-6.93242
G01 X-102.81376 Y-6.98675
G01 X-102.76114 Y-7.16539
G01 X-102.74143 Y-7.35058
G01 X-102.74143 Y-7.40938
G01 X-102.76114 Y-7.59457
G01 X-102.81376 Y-7.77321
G01 X-102.83632 Y-7.82754
G01 X-102.92537 Y-7.99112
G01 X-103.04239 Y-8.13600
G01 X-103.08394 Y-8.17758
G01 X-103.20515 Y-8.27707
G01 X-103.25412 Y-8.30974
G01 X-103.39238 Y-8.38368
G01 X-103.44676 Y-8.40618
G01 X-103.62540 Y-8.45886
G01 X-103.83992 Y-8.47999
G01 X-104.05458 Y-8.45886
G01 X-104.23322 Y-8.40618
G01 X-104.28755 Y-8.38368
G01 X-104.42580 Y-8.30974
G01 X-104.47477 Y-8.27707
G01 X-104.59598 Y-8.17758
G01 X-104.63756 Y-8.13600
G01 X-104.75458 Y-7.99112
G01 X-104.84366 Y-7.82754
G01 X-104.85996 Y-7.78820
G01 X-104.91884 Y-7.59457
G01 X-104.93855 Y-7.40938
G01 X-104.93855 Y-7.35058
G01 X-104.92318 Y-7.19450
G01 X-104.91170 Y-7.13684
G01 X-104.85625 Y-6.95904
G01 X-104.75458 Y-6.76887
G01 X-104.63756 Y-6.62399
G01 X-104.59598 Y-6.58241
G01 X-104.47477 Y-6.48292
G01 X-104.42580 Y-6.45023
G01 X-104.33995 Y-6.40428
G01 X-104.33995 Y-5.98701
G01 X-106.50827 Y-3.81869
G01 X-143.79458 Y-3.81869
G01 X-146.11167 Y-6.13578
G01 X-146.11167 Y-7.87047
G01 X-144.84678 Y-9.13536
G01 X-136.68251 Y-9.13539
G01 X-134.88342 Y-7.33633
G01 X-134.91886 Y-7.21459
G01 X-134.93854 Y-7.02940
G01 X-134.93854 Y-6.97057
G01 X-134.91886 Y-6.78538
G01 X-134.86618 Y-6.60674
G01 X-134.84367 Y-6.55241
G01 X-134.76973 Y-6.41411
G01 X-134.73707 Y-6.36521
G01 X-134.63758 Y-6.24398
G01 X-134.59600 Y-6.20240
G01 X-134.47476 Y-6.10291
G01 X-134.42587 Y-6.07024
G01 X-134.28756 Y-5.99630
G01 X-134.23321 Y-5.97380
G01 X-134.05460 Y-5.92112
G01 X-133.86940 Y-5.90144
G01 X-133.81058 Y-5.90144
G01 X-133.62539 Y-5.92112
G01 X-133.44675 Y-5.97380
G01 X-133.39242 Y-5.99630
G01 X-133.25411 Y-6.07024
G01 X-133.20522 Y-6.10291
G01 X-133.08399 Y-6.20240
G01 X-133.04241 Y-6.24398
G01 X-132.92536 Y-6.38884
G01 X-132.83631 Y-6.55241
G01 X-132.81381 Y-6.60674
G01 X-132.76113 Y-6.78538
G01 X-132.74144 Y-6.97057
G01 X-132.74144 Y-7.02940
G01 X-132.76113 Y-7.21459
G01 X-132.81381 Y-7.39323
G01 X-132.83631 Y-7.44756
G01 X-132.92536 Y-7.61111
G01 X-133.04241 Y-7.75599
G01 X-133.08399 Y-7.79757
G01 X-133.20522 Y-7.89706
G01 X-133.25411 Y-7.92973
G01 X-133.39242 Y-8.00367
G01 X-133.44675 Y-8.02617
G01 X-133.59684 Y-8.07169
G01 X-133.65452 Y-8.08317
G01 X-133.83999 Y-8.09998
G01 X-134.05460 Y-8.07885
G01 X-134.17634 Y-8.04342
G01 X-136.13912 Y-10.00491
G01 X-136.19114 Y-10.04661
G01 X-136.22162 Y-10.06447
G01 X-136.32086 Y-10.11090
G01 X-136.36666 Y-10.12190
G01 X-136.47539 Y-10.13539
G01 X-145.05389 Y-10.13539
G01 X-145.16260 Y-10.12190
G01 X-145.20840 Y-10.11090
G01 X-145.25188 Y-10.09289
G01 X-145.33811 Y-10.04661
G01 X-145.40743 Y-9.98893
G01 X-146.96524 Y-8.43112
G01 X-147.00989 Y-8.37900
G01 X-147.06105 Y-8.29551
G01 X-147.08355 Y-8.24118
G01 X-147.10207 Y-8.17512
G01 X-147.11169 Y-8.07758
G01 X-147.11169 Y-5.92869
G01 X-147.10639 Y-5.86026
G01 X-147.09493 Y-5.80258
G01 X-147.07362 Y-5.73733
G01 X-147.04256 Y-5.67614
G01 X-147.00989 Y-5.62724
G01 X-146.96524 Y-5.57512
G01 X-144.35524 Y-2.96512
G01 X-144.28592 Y-2.90744
G01 X-144.19969 Y-2.86116
G01 X-144.15620 Y-2.84315
G01 X-144.11041 Y-2.83215
G01 X-144.00169 Y-2.81866
G01 X-106.27177 Y-2.82011
G01 X-106.17502 Y-2.83543
G01 X-106.08320 Y-2.86931
G01 X-105.99974 Y-2.92047
G01 X-105.94762 Y-2.96512
G01 X-103.83992 Y-5.07279
G01 X-102.00350 Y-3.23632
G01 X-101.96772 Y-3.20568
G01 X-101.87694 Y-3.14437
G01 X-101.83345 Y-3.12636
G01 X-101.73978 Y-3.09809
G01 X-101.64994 Y-3.08986
G01 X-61.95538 Y-3.08986
G01 X-61.84664 Y-3.10335
G01 X-61.77874 Y-3.12250
G01 X-61.71799 Y-3.14993
G01 X-61.68822 Y-3.16895
G01 X-61.60181 Y-3.23632
G01 X-59.48525 Y-5.35302
G01 X-58.51134 Y-4.37911
G01 X-58.47555 Y-4.34853
G01 X-58.38477 Y-4.28716
G01 X-58.34129 Y-4.26916
G01 X-58.24758 Y-4.24089
G01 X-58.15780 Y-4.23266
G01 X-13.62380 Y-4.23266
G01 X-13.55537 Y-4.23796
G01 X-13.49769 Y-4.24942
G01 X-13.43243 Y-4.27073
G01 X-13.37125 Y-4.30179
G01 X-13.32235 Y-4.33446
G01 X-13.27020 Y-4.37911
G01 X-9.93602 Y-7.71332
G01 X-9.89139 Y-7.76544
G01 X-9.85871 Y-7.81434
G01 X-9.81773 Y-7.90324
G01 X-9.80636 Y-7.94075
G01 X-9.79101 Y-8.03745
G01 X-9.78952 Y-9.47692
G01 X-9.74562 Y-9.51293
G01 X-9.70402 Y-9.55451
G01 X-9.64184 Y-9.63028
G01 X-9.60918 Y-9.67918
G01 X-9.56297 Y-9.76561
G01 X-9.54047 Y-9.81997
G01 X-9.51202 Y-9.91375
G01 X-9.50054 Y-9.97143
G01 X-9.48949 Y-10.09838
G04 P0 
G00 Z2.00000 M3 ; restart from line 353

G00 X-12.16144 Y-7.40938 
G01 F30.00000

G01 Z-0.07500
G04 P0 
G01 F40.00000
G01 X-12.16144 Y-7.40938
G01 X-12.18113 Y-7.59457
G01 X-12.24371 Y-7.80095
G01 X-12.34537 Y-7.99112
G01 X-12.46241 Y-8.13600
G01 X-12.50399 Y-8.17758
G01 X-12.64887 Y-8.29460
G01 X-12.81242 Y-8.38368
G01 X-12.86675 Y-8.40618
G01 X-13.01684 Y-8.45170
G01 X-13.07450 Y-8.46318
G01 X-13.25999 Y-8.47999
G01 X-13.44546 Y-8.46318
G01 X-13.50315 Y-8.45170
G01 X-13.65321 Y-8.40618
G01 X-13.70754 Y-8.38368
G01 X-13.87112 Y-8.29460
G01 X-14.01600 Y-8.17758
G01 X-14.05758 Y-8.13600
G01 X-14.15707 Y-8.01477
G01 X-14.18974 Y-7.96587
G01 X-14.26367 Y-7.82754
G01 X-14.28618 Y-7.77321
G01 X-14.33170 Y-7.62315
G01 X-14.34318 Y-7.56547
G01 X-14.35999 Y-7.38000
G01 X-14.34318 Y-7.19450
G01 X-14.33170 Y-7.13684
G01 X-14.30343 Y-7.04362
G01 X-15.09077 Y-6.25627
G01 X-43.82907 Y-6.25627
G01 X-45.92632 Y-8.35353
G01 X-45.97845 Y-8.39818
G01 X-46.02734 Y-8.43084
G01 X-46.08853 Y-8.46191
G01 X-46.15378 Y-8.48322
G01 X-46.21146 Y-8.49467
G01 X-46.27989 Y-8.49998
G01 X-46.88154 Y-8.49996
G01 X-46.98393 Y-8.69699
G01 X-47.01662 Y-8.74588
G01 X-47.14098 Y-8.89742
G01 X-47.18256 Y-8.93900
G01 X-47.33409 Y-9.06335
G01 X-47.38299 Y-9.09604
G01 X-47.58251 Y-9.20102
G01 X-47.82637 Y-9.27501
G01 X-48.05058 Y-9.29853
G01 X-48.10940 Y-9.29853
G01 X-48.30448 Y-9.27933
G01 X-48.36216 Y-9.26785
G01 X-48.54976 Y-9.21095
G01 X-48.60409 Y-9.18845
G01 X-48.77697 Y-9.09604
G01 X-48.82589 Y-9.06335
G01 X-48.99922 Y-8.91924
G01 X-49.16089 Y-8.72223
G01 X-49.27844 Y-8.49996
G01 X-49.77778 Y-8.49998
G01 X-49.82667 Y-8.50969
G01 X-49.89507 Y-8.51499
G01 X-51.24432 Y-8.51499
G01 X-51.30536 Y-8.62612
G01 X-51.42238 Y-8.77100
G01 X-51.46398 Y-8.81258
G01 X-51.58522 Y-8.91207
G01 X-51.63411 Y-8.94474
G01 X-51.79903 Y-9.03125
G01 X-51.97683 Y-9.08670
G01 X-52.03452 Y-9.09818
G01 X-52.19055 Y-9.11355
G01 X-52.24937 Y-9.11355
G01 X-52.40543 Y-9.09818
G01 X-52.46314 Y-9.08670
G01 X-52.64092 Y-9.03125
G01 X-52.80586 Y-8.94474
G01 X-52.85476 Y-8.91207
G01 X-52.95555 Y-8.82937
G01 X-53.01757 Y-8.77100
G01 X-53.13462 Y-8.62612
G01 X-53.23627 Y-8.43595
G01 X-53.29169 Y-8.25815
G01 X-53.30317 Y-8.20047
G01 X-53.31854 Y-8.04438
G01 X-53.31854 Y-7.98558
G01 X-53.30317 Y-7.82950
G01 X-53.29169 Y-7.77184
G01 X-53.23627 Y-7.59404
G01 X-53.13462 Y-7.40387
G01 X-53.01757 Y-7.25899
G01 X-52.97599 Y-7.21741
G01 X-52.85476 Y-7.11792
G01 X-52.80586 Y-7.08523
G01 X-52.64092 Y-6.99872
G01 X-52.46314 Y-6.94327
G01 X-52.40543 Y-6.93181
G01 X-52.24937 Y-6.91642
G01 X-52.19055 Y-6.91642
G01 X-52.03452 Y-6.93181
G01 X-51.97683 Y-6.94327
G01 X-51.79903 Y-6.99872
G01 X-51.63411 Y-7.08523
G01 X-51.58522 Y-7.11792
G01 X-51.46398 Y-7.21741
G01 X-51.42238 Y-7.25899
G01 X-51.30536 Y-7.40387
G01 X-51.24435 Y-7.51497
G01 X-49.99739 Y-7.51497
G01 X-49.94849 Y-7.50527
G01 X-49.88006 Y-7.49996
G01 X-49.27841 Y-7.49998
G01 X-49.16089 Y-7.27773
G01 X-49.01900 Y-7.10255
G01 X-48.97742 Y-7.06097
G01 X-48.82589 Y-6.93661
G01 X-48.77697 Y-6.90395
G01 X-48.57747 Y-6.79894
G01 X-48.33361 Y-6.72495
G01 X-48.10940 Y-6.70143
G01 X-48.05058 Y-6.70143
G01 X-47.85548 Y-6.72064
G01 X-47.79782 Y-6.73212
G01 X-47.58251 Y-6.79894
G01 X-47.38299 Y-6.90395
G01 X-47.33409 Y-6.93661
G01 X-47.16074 Y-7.08076
G01 X-47.01662 Y-7.25409
G01 X-46.98393 Y-7.30301
G01 X-46.88154 Y-7.49998
G01 X-46.48698 Y-7.49996
G01 X-44.38973 Y-5.40271
G01 X-44.31396 Y-5.34053
G01 X-44.25412 Y-5.30690
G01 X-44.16227 Y-5.27301
G01 X-44.10459 Y-5.26156
G01 X-44.03618 Y-5.25625
G01 X-14.88369 Y-5.25625
G01 X-14.77495 Y-5.26974
G01 X-14.70706 Y-5.28889
G01 X-14.64630 Y-5.31632
G01 X-14.56591 Y-5.37213
G01 X-14.53012 Y-5.40271
G01 X-13.59632 Y-6.33654
G01 X-13.50315 Y-6.30827
G01 X-13.44546 Y-6.29681
G01 X-13.28938 Y-6.28142
G01 X-13.23058 Y-6.28142
G01 X-13.07450 Y-6.29681
G01 X-13.01684 Y-6.30827
G01 X-12.86675 Y-6.35378
G01 X-12.81242 Y-6.37629
G01 X-12.67412 Y-6.45023
G01 X-12.62522 Y-6.48292
G01 X-12.50399 Y-6.58241
G01 X-12.46241 Y-6.62399
G01 X-12.34537 Y-6.76887
G01 X-12.25631 Y-6.93242
G01 X-12.23381 Y-6.98675
G01 X-12.18113 Y-7.16539
G01 X-12.16144 Y-7.35058
G01 X-12.16144 Y-7.40938
G04 P0 
G00 Z2.00000 M3 ; restart from line 523

G00 X-14.70000 Y-7.38000 
G01 F30.00000

G01 Z-0.07500
G04 P0 
G01 F40.00000
G01 X-14.70000 Y-7.38000
G01 X-14.71681 Y-7.56547
G01 X-14.72827 Y-7.62315
G01 X-14.78371 Y-7.80095
G01 X-14.87023 Y-7.96587
G01 X-14.90292 Y-8.01477
G01 X-15.02217 Y-8.15779
G01 X-15.18887 Y-8.29460
G01 X-15.35242 Y-8.38368
G01 X-15.40675 Y-8.40618
G01 X-15.55684 Y-8.45170
G01 X-15.61450 Y-8.46318
G01 X-15.79999 Y-8.47999
G01 X-15.98546 Y-8.46318
G01 X-16.04315 Y-8.45170
G01 X-16.19321 Y-8.40618
G01 X-16.24754 Y-8.38368
G01 X-16.41112 Y-8.29460
G01 X-16.57779 Y-8.15779
G01 X-16.69707 Y-8.01477
G01 X-16.72974 Y-7.96587
G01 X-16.81625 Y-7.80095
G01 X-16.87170 Y-7.62315
G01 X-16.88318 Y-7.56547
G01 X-16.89999 Y-7.38000
G01 X-16.88318 Y-7.19450
G01 X-16.87170 Y-7.13684
G01 X-16.81625 Y-6.95904
G01 X-16.72974 Y-6.79412
G01 X-16.69707 Y-6.74522
G01 X-16.57779 Y-6.60217
G01 X-16.41112 Y-6.46537
G01 X-16.24754 Y-6.37629
G01 X-16.19321 Y-6.35378
G01 X-16.04315 Y-6.30827
G01 X-15.98546 Y-6.29681
G01 X-15.79999 Y-6.28000
G01 X-15.61450 Y-6.29681
G01 X-15.55684 Y-6.30827
G01 X-15.40675 Y-6.35378
G01 X-15.35242 Y-6.37629
G01 X-15.18887 Y-6.46537
G01 X-15.04399 Y-6.58241
G01 X-15.00241 Y-6.62399
G01 X-14.88537 Y-6.76887
G01 X-14.79631 Y-6.93242
G01 X-14.77381 Y-6.98675
G01 X-14.72827 Y-7.13684
G01 X-14.71681 Y-7.19450
G01 X-14.70000 Y-7.38000
G04 P0 
G00 Z2.00000 M3 ; restart from line 582

G00 X-19.78000 Y-7.38000 
G01 F30.00000

G01 Z-0.07500
G04 P0 
G01 F40.00000
G01 X-19.78000 Y-7.38000
G01 X-19.79681 Y-7.56547
G01 X-19.80827 Y-7.62315
G01 X-19.86371 Y-7.80095
G01 X-19.95023 Y-7.96587
G01 X-19.98292 Y-8.01477
G01 X-20.10217 Y-8.15779
G01 X-20.26887 Y-8.29460
G01 X-20.43242 Y-8.38368
G01 X-20.48675 Y-8.40618
G01 X-20.63684 Y-8.45170
G01 X-20.69450 Y-8.46318
G01 X-20.87999 Y-8.47999
G01 X-21.06546 Y-8.46318
G01 X-21.12315 Y-8.45170
G01 X-21.27321 Y-8.40618
G01 X-21.32754 Y-8.38368
G01 X-21.49112 Y-8.29460
G01 X-21.65779 Y-8.15779
G01 X-21.77707 Y-8.01477
G01 X-21.80974 Y-7.96587
G01 X-21.89625 Y-7.80095
G01 X-21.95170 Y-7.62315
G01 X-21.96318 Y-7.56547
G01 X-21.97999 Y-7.38000
G01 X-21.96318 Y-7.19450
G01 X-21.95170 Y-7.13684
G01 X-21.89625 Y-6.95904
G01 X-21.80974 Y-6.79412
G01 X-21.77707 Y-6.74522
G01 X-21.65779 Y-6.60217
G01 X-21.49112 Y-6.46537
G01 X-21.32754 Y-6.37629
G01 X-21.27321 Y-6.35378
G01 X-21.12315 Y-6.30827
G01 X-21.06546 Y-6.29681
G01 X-20.87999 Y-6.28000
G01 X-20.69450 Y-6.29681
G01 X-20.63684 Y-6.30827
G01 X-20.48675 Y-6.35378
G01 X-20.43242 Y-6.37629
G01 X-20.26887 Y-6.46537
G01 X-20.12399 Y-6.58241
G01 X-20.08241 Y-6.62399
G01 X-19.96537 Y-6.76887
G01 X-19.87631 Y-6.93242
G01 X-19.85381 Y-6.98675
G01 X-19.80827 Y-7.13684
G01 X-19.79681 Y-7.19450
G01 X-19.78000 Y-7.38000
G04 P0 
G00 Z2.00000 M3 ; restart from line 641

G00 X-22.32000 Y-7.38000 
G01 F30.00000

G01 Z-0.07500
G04 P0 
G01 F40.00000
G01 X-22.32000 Y-7.38000
G01 X-22.33681 Y-7.56547
G01 X-22.34827 Y-7.62315
G01 X-22.40371 Y-7.80095
G01 X-22.49023 Y-7.96587
G01 X-22.52292 Y-8.01477
G01 X-22.64217 Y-8.15779
G01 X-22.80887 Y-8.29460
G01 X-22.97242 Y-8.38368
G01 X-23.02675 Y-8.40618
G01 X-23.17684 Y-8.45170
G01 X-23.23450 Y-8.46318
G01 X-23.41999 Y-8.47999
G01 X-23.60546 Y-8.46318
G01 X-23.66315 Y-8.45170
G01 X-23.81321 Y-8.40618
G01 X-23.86754 Y-8.38368
G01 X-24.03112 Y-8.29460
G01 X-24.19779 Y-8.15779
G01 X-24.31707 Y-8.01477
G01 X-24.34974 Y-7.96587
G01 X-24.43625 Y-7.80095
G01 X-24.49170 Y-7.62315
G01 X-24.50318 Y-7.56547
G01 X-24.51999 Y-7.38000
G01 X-24.50318 Y-7.19450
G01 X-24.49170 Y-7.13684
G01 X-24.43625 Y-6.95904
G01 X-24.34974 Y-6.79412
G01 X-24.31707 Y-6.74522
G01 X-24.19779 Y-6.60217
G01 X-24.03112 Y-6.46537
G01 X-23.86754 Y-6.37629
G01 X-23.81321 Y-6.35378
G01 X-23.66315 Y-6.30827
G01 X-23.60546 Y-6.29681
G01 X-23.41999 Y-6.28000
G01 X-23.23450 Y-6.29681
G01 X-23.17684 Y-6.30827
G01 X-23.02675 Y-6.35378
G01 X-22.97242 Y-6.37629
G01 X-22.80887 Y-6.46537
G01 X-22.66399 Y-6.58241
G01 X-22.62241 Y-6.62399
G01 X-22.50537 Y-6.76887
G01 X-22.41631 Y-6.93242
G01 X-22.39381 Y-6.98675
G01 X-22.34827 Y-7.13684
G01 X-22.33681 Y-7.19450
G01 X-22.32000 Y-7.38000
G04 P0 
G00 Z2.00000 M3 ; restart from line 700

G00 X-14.70000 Y-15.00000 
G01 F30.00000

G01 Z-0.07500
G04 P0 
G01 F40.00000
G01 X-14.70000 Y-15.00000
G01 X-14.71681 Y-15.18547
G01 X-14.72827 Y-15.24315
G01 X-14.78371 Y-15.42095
G01 X-14.87023 Y-15.58587
G01 X-14.90292 Y-15.63477
G01 X-15.02217 Y-15.77779
G01 X-15.16522 Y-15.89707
G01 X-15.21412 Y-15.92974
G01 X-15.37904 Y-16.01625
G01 X-15.55684 Y-16.07170
G01 X-15.61450 Y-16.08318
G01 X-15.79999 Y-16.09999
G01 X-15.98546 Y-16.08318
G01 X-16.04315 Y-16.07170
G01 X-16.22095 Y-16.01625
G01 X-16.38587 Y-15.92974
G01 X-16.43477 Y-15.89707
G01 X-16.57779 Y-15.77779
G01 X-16.69707 Y-15.63477
G01 X-16.72974 Y-15.58587
G01 X-16.81625 Y-15.42095
G01 X-16.87170 Y-15.24315
G01 X-16.88318 Y-15.18547
G01 X-16.89999 Y-15.00000
G01 X-16.88318 Y-14.81450
G01 X-16.87170 Y-14.75684
G01 X-16.81625 Y-14.57904
G01 X-16.72974 Y-14.41412
G01 X-16.69707 Y-14.36522
G01 X-16.57779 Y-14.22217
G01 X-16.43477 Y-14.10292
G01 X-16.38587 Y-14.07023
G01 X-16.22095 Y-13.98372
G01 X-16.04315 Y-13.92827
G01 X-15.98546 Y-13.91681
G01 X-15.79999 Y-13.90000
G01 X-15.61450 Y-13.91681
G01 X-15.55684 Y-13.92827
G01 X-15.37904 Y-13.98372
G01 X-15.21412 Y-14.07023
G01 X-15.16522 Y-14.10292
G01 X-15.04399 Y-14.20241
G01 X-15.00241 Y-14.24399
G01 X-14.88537 Y-14.38887
G01 X-14.79631 Y-14.55242
G01 X-14.77381 Y-14.60675
G01 X-14.72827 Y-14.75684
G01 X-14.71681 Y-14.81450
G01 X-14.70000 Y-15.00000
G04 P0 
G00 Z2.00000 M3 ; restart from line 759

G00 X-12.16000 Y-15.79999 
G01 F30.00000

G01 Z-0.07500
G04 P0 
G01 F40.00000
G01 X-12.16000 Y-15.79999
G01 X-12.16576 Y-15.85852
G01 X-12.18283 Y-15.91480
G01 X-12.21054 Y-15.96667
G01 X-12.24785 Y-16.01211
G01 X-12.29332 Y-16.04942
G01 X-12.34519 Y-16.07716
G01 X-12.40145 Y-16.09423
G01 X-12.46000 Y-16.09999
G01 X-12.75994 Y-16.09999
G01 X-12.75994 Y-16.60009
G01 X-12.76525 Y-16.66850
G01 X-12.77673 Y-16.72618
G01 X-12.79804 Y-16.79143
G01 X-12.82908 Y-16.85262
G01 X-12.86175 Y-16.90152
G01 X-12.90643 Y-16.95364
G01 X-15.75671 Y-19.80392
G01 X-15.70929 Y-19.84469
G01 X-15.62735 Y-19.94228
G01 X-15.59469 Y-19.99117
G01 X-15.54848 Y-20.07763
G01 X-15.52595 Y-20.13196
G01 X-15.49751 Y-20.22577
G01 X-15.48605 Y-20.28345
G01 X-15.47642 Y-20.38099
G01 X-15.47642 Y-20.43979
G01 X-15.48605 Y-20.53735
G01 X-15.49751 Y-20.59501
G01 X-15.52595 Y-20.68881
G01 X-15.54848 Y-20.74314
G01 X-15.60982 Y-20.85485
G01 X-15.68953 Y-20.95426
G01 X-15.73111 Y-20.99584
G01 X-15.83052 Y-21.07557
G01 X-15.94223 Y-21.13691
G01 X-15.99656 Y-21.15942
G01 X-16.09037 Y-21.18787
G01 X-16.14802 Y-21.19935
G01 X-16.27500 Y-21.21040
G01 X-16.40195 Y-21.19935
G01 X-16.45961 Y-21.18787
G01 X-16.55341 Y-21.15942
G01 X-16.60774 Y-21.13691
G01 X-16.71945 Y-21.07557
G01 X-16.81886 Y-20.99584
G01 X-16.86044 Y-20.95426
G01 X-16.94017 Y-20.85485
G01 X-17.00152 Y-20.74314
G01 X-17.02402 Y-20.68881
G01 X-17.05247 Y-20.59501
G01 X-17.06392 Y-20.53735
G01 X-17.07355 Y-20.43979
G01 X-17.07355 Y-20.38099
G01 X-17.06392 Y-20.28345
G01 X-17.05247 Y-20.22577
G01 X-17.02402 Y-20.13196
G01 X-17.00152 Y-20.07763
G01 X-16.95529 Y-19.99117
G01 X-16.92262 Y-19.94228
G01 X-16.84068 Y-19.84469
G01 X-16.77500 Y-19.78894
G01 X-16.77500 Y-19.61507
G01 X-16.76969 Y-19.54667
G01 X-16.74686 Y-19.45147
G01 X-16.73692 Y-19.42374
G01 X-16.70586 Y-19.36255
G01 X-16.67319 Y-19.31365
G01 X-16.62854 Y-19.26153
G01 X-13.75999 Y-16.39298
G01 X-13.75999 Y-16.09999
G01 X-14.05999 Y-16.09999
G01 X-14.11851 Y-16.09423
G01 X-14.17480 Y-16.07716
G01 X-14.22667 Y-16.04942
G01 X-14.27213 Y-16.01211
G01 X-14.30942 Y-15.96667
G01 X-14.33716 Y-15.91480
G01 X-14.35423 Y-15.85852
G01 X-14.35999 Y-15.79999
G01 X-14.35999 Y-14.20000
G01 X-14.35423 Y-14.14145
G01 X-14.33716 Y-14.08519
G01 X-14.30942 Y-14.03332
G01 X-14.27211 Y-13.98786
G01 X-14.22667 Y-13.95054
G01 X-14.17480 Y-13.92283
G01 X-14.11851 Y-13.90576
G01 X-14.05999 Y-13.90000
G01 X-12.46000 Y-13.90000
G01 X-12.39718 Y-13.90706
G01 X-12.16576 Y-14.14145
G01 X-12.16000 Y-14.20000
G01 X-12.16000 Y-15.79999
G04 P0 
G00 Z2.00000 M3 ; restart from line 862

G00 X-9.22599 Y-18.54728 
G01 F30.00000

G01 Z-0.07500
G04 P0 
G01 F40.00000
G01 X-9.22599 Y-18.54728
G01 X-9.23704 Y-18.67423
G01 X-9.24852 Y-18.73192
G01 X-9.27697 Y-18.82572
G01 X-9.29947 Y-18.88005
G01 X-9.34568 Y-18.96648
G01 X-9.37834 Y-19.01538
G01 X-9.46031 Y-19.11297
G01 X-9.55789 Y-19.19493
G01 X-9.60679 Y-19.22760
G01 X-9.69322 Y-19.27380
G01 X-9.74755 Y-19.29630
G01 X-9.84136 Y-19.32475
G01 X-9.89904 Y-19.33623
G01 X-10.02599 Y-19.34728
G01 X-10.15294 Y-19.33623
G01 X-10.21062 Y-19.32475
G01 X-10.30442 Y-19.29630
G01 X-10.35875 Y-19.27380
G01 X-10.44519 Y-19.22760
G01 X-10.49409 Y-19.19493
G01 X-10.59167 Y-19.11297
G01 X-10.67361 Y-19.01538
G01 X-10.70630 Y-18.96648
G01 X-10.75251 Y-18.88005
G01 X-10.77501 Y-18.82572
G01 X-10.80346 Y-18.73192
G01 X-10.81494 Y-18.67423
G01 X-10.82599 Y-18.54728
G01 X-10.81494 Y-18.42033
G01 X-10.80346 Y-18.36265
G01 X-10.77501 Y-18.26885
G01 X-10.75251 Y-18.21452
G01 X-10.70630 Y-18.12808
G01 X-10.67361 Y-18.07919
G01 X-10.59167 Y-17.98160
G01 X-10.52596 Y-17.92582
G01 X-10.52599 Y-15.69949
G01 X-12.49830 Y-13.72713
G01 X-22.65279 Y-13.72715
G01 X-22.72119 Y-13.72184
G01 X-22.77887 Y-13.71039
G01 X-22.87072 Y-13.67650
G01 X-22.90531 Y-13.65801
G01 X-22.95421 Y-13.62535
G01 X-23.00633 Y-13.58069
G01 X-28.16362 Y-8.42343
G01 X-28.28539 Y-8.45886
G01 X-28.47058 Y-8.47855
G01 X-28.52938 Y-8.47855
G01 X-28.71460 Y-8.45886
G01 X-28.89321 Y-8.40618
G01 X-28.94754 Y-8.38368
G01 X-29.08587 Y-8.30974
G01 X-29.13477 Y-8.27707
G01 X-29.27779 Y-8.15779
G01 X-29.39707 Y-8.01477
G01 X-29.42974 Y-7.96587
G01 X-29.50367 Y-7.82754
G01 X-29.52618 Y-7.77321
G01 X-29.57170 Y-7.62315
G01 X-29.58318 Y-7.56547
G01 X-29.59854 Y-7.40938
G01 X-29.59854 Y-7.35058
G01 X-29.58318 Y-7.19450
G01 X-29.57170 Y-7.13684
G01 X-29.51625 Y-6.95904
G01 X-29.42974 Y-6.79412
G01 X-29.39707 Y-6.74522
G01 X-29.27779 Y-6.60217
G01 X-29.11112 Y-6.46537
G01 X-28.94754 Y-6.37629
G01 X-28.89321 Y-6.35378
G01 X-28.74315 Y-6.30827
G01 X-28.68546 Y-6.29681
G01 X-28.52938 Y-6.28142
G01 X-28.47058 Y-6.28142
G01 X-28.28539 Y-6.30113
G01 X-28.10675 Y-6.35378
G01 X-28.05242 Y-6.37629
G01 X-27.91412 Y-6.45023
G01 X-27.86522 Y-6.48292
G01 X-27.74399 Y-6.58241
G01 X-27.70241 Y-6.62399
G01 X-27.60292 Y-6.74522
G01 X-27.57023 Y-6.79412
G01 X-27.48371 Y-6.95904
G01 X-27.42827 Y-7.13684
G01 X-27.41681 Y-7.19450
G01 X-27.40144 Y-7.35058
G01 X-27.40144 Y-7.40938
G01 X-27.41681 Y-7.56547
G01 X-27.42827 Y-7.62315
G01 X-27.45654 Y-7.71632
G01 X-22.44568 Y-12.72710
G01 X-12.29119 Y-12.72710
G01 X-12.20135 Y-12.73533
G01 X-12.10767 Y-12.76363
G01 X-12.06419 Y-12.78164
G01 X-12.02403 Y-12.80622
G01 X-11.93762 Y-12.87358
G01 X-9.67242 Y-15.13883
G01 X-9.62777 Y-15.19095
G01 X-9.57661 Y-15.27444
G01 X-9.54273 Y-15.36629
G01 X-9.53127 Y-15.42397
G01 X-9.52597 Y-15.49237
G01 X-9.52597 Y-17.92585
G01 X-9.46031 Y-17.98160
G01 X-9.37834 Y-18.07919
G01 X-9.34568 Y-18.12808
G01 X-9.29947 Y-18.21452
G01 X-9.27697 Y-18.26885
G01 X-9.24852 Y-18.36265
G01 X-9.23704 Y-18.42033
G01 X-9.22599 Y-18.54728
G04 P0 
G00 Z2.00000 M3 ; restart from line 987

G00 X-12.11999 Y-22.87999 
G01 F30.00000

G01 Z-0.07500
G04 P0 
G01 F40.00000
G01 X-12.11999 Y-22.87999
G01 X-12.13681 Y-23.06546
G01 X-12.14829 Y-23.12314
G01 X-12.19380 Y-23.27321
G01 X-12.21631 Y-23.32756
G01 X-12.30536 Y-23.49111
G01 X-12.42240 Y-23.63600
G01 X-12.46398 Y-23.67758
G01 X-12.60886 Y-23.79459
G01 X-12.77242 Y-23.88367
G01 X-12.82675 Y-23.90618
G01 X-12.97683 Y-23.95169
G01 X-13.03452 Y-23.96317
G01 X-13.21999 Y-23.97999
G01 X-13.40546 Y-23.96317
G01 X-13.46314 Y-23.95169
G01 X-13.64094 Y-23.89624
G01 X-13.80587 Y-23.80973
G01 X-13.85476 Y-23.77707
G01 X-13.99781 Y-23.65781
G01 X-14.11707 Y-23.51476
G01 X-14.14973 Y-23.46587
G01 X-14.23624 Y-23.30094
G01 X-14.29169 Y-23.12314
G01 X-14.30317 Y-23.06546
G01 X-14.31999 Y-22.87999
G01 X-14.30317 Y-22.69452
G01 X-14.29169 Y-22.63684
G01 X-14.23624 Y-22.45904
G01 X-14.14973 Y-22.29411
G01 X-14.11707 Y-22.24522
G01 X-14.01757 Y-22.12398
G01 X-13.97599 Y-22.08240
G01 X-13.83111 Y-21.96536
G01 X-13.66756 Y-21.87631
G01 X-13.61323 Y-21.85380
G01 X-13.46314 Y-21.80829
G01 X-13.40546 Y-21.79681
G01 X-13.21999 Y-21.77999
G01 X-13.03452 Y-21.79681
G01 X-12.97683 Y-21.80829
G01 X-12.79903 Y-21.86371
G01 X-12.63411 Y-21.95022
G01 X-12.58522 Y-21.98291
G01 X-12.46398 Y-22.08240
G01 X-12.42240 Y-22.12398
G01 X-12.30536 Y-22.26887
G01 X-12.21631 Y-22.43242
G01 X-12.19380 Y-22.48675
G01 X-12.14829 Y-22.63684
G01 X-12.13681 Y-22.69452
G01 X-12.11999 Y-22.87999
G04 P0 
G00 Z2.00000 M3 ; restart from line 1048

G00 X-14.65999 Y-22.87999 
G01 F30.00000

G01 Z-0.07500
G04 P0 
G01 F40.00000
G01 X-14.65999 Y-22.87999
G01 X-14.67681 Y-23.06546
G01 X-14.68829 Y-23.12314
G01 X-14.74371 Y-23.30094
G01 X-14.83025 Y-23.46587
G01 X-14.86291 Y-23.51476
G01 X-14.96240 Y-23.63600
G01 X-15.00398 Y-23.67758
G01 X-15.14886 Y-23.79459
G01 X-15.31242 Y-23.88367
G01 X-15.36675 Y-23.90618
G01 X-15.51683 Y-23.95169
G01 X-15.57452 Y-23.96317
G01 X-15.75999 Y-23.97999
G01 X-15.94546 Y-23.96317
G01 X-16.00314 Y-23.95169
G01 X-16.18094 Y-23.89624
G01 X-16.34587 Y-23.80973
G01 X-16.39476 Y-23.77707
G01 X-16.53781 Y-23.65781
G01 X-16.65707 Y-23.51476
G01 X-16.68973 Y-23.46587
G01 X-16.77624 Y-23.30094
G01 X-16.83169 Y-23.12314
G01 X-16.84317 Y-23.06546
G01 X-16.85999 Y-22.87999
G01 X-16.84317 Y-22.69452
G01 X-16.83169 Y-22.63684
G01 X-16.77624 Y-22.45904
G01 X-16.68973 Y-22.29411
G01 X-16.65707 Y-22.24522
G01 X-16.55757 Y-22.12398
G01 X-16.51599 Y-22.08240
G01 X-16.37111 Y-21.96536
G01 X-16.20756 Y-21.87631
G01 X-16.15323 Y-21.85380
G01 X-16.00314 Y-21.80829
G01 X-15.94546 Y-21.79681
G01 X-15.75999 Y-21.77999
G01 X-15.57452 Y-21.79681
G01 X-15.51683 Y-21.80829
G01 X-15.33903 Y-21.86371
G01 X-15.17411 Y-21.95022
G01 X-15.12522 Y-21.98291
G01 X-15.00398 Y-22.08240
G01 X-14.96240 Y-22.12398
G01 X-14.84536 Y-22.26887
G01 X-14.75631 Y-22.43242
G01 X-14.73380 Y-22.48675
G01 X-14.68829 Y-22.63684
G01 X-14.67681 Y-22.69452
G01 X-14.65999 Y-22.87999
G04 P0 
G00 Z2.00000 M3 ; restart from line 1109

G00 X-17.19999 Y-22.87999 
G01 F30.00000

G01 Z-0.07500
G04 P0 
G01 F40.00000
G01 X-17.19999 Y-22.87999
G01 X-17.21681 Y-23.06546
G01 X-17.22829 Y-23.12314
G01 X-17.28371 Y-23.30094
G01 X-17.37025 Y-23.46587
G01 X-17.40291 Y-23.51476
G01 X-17.50240 Y-23.63600
G01 X-17.54398 Y-23.67758
G01 X-17.68886 Y-23.79459
G01 X-17.85242 Y-23.88367
G01 X-17.90675 Y-23.90618
G01 X-18.05683 Y-23.95169
G01 X-18.11452 Y-23.96317
G01 X-18.27058 Y-23.97854
G01 X-18.32940 Y-23.97854
G01 X-18.48546 Y-23.96317
G01 X-18.54314 Y-23.95169
G01 X-18.72094 Y-23.89624
G01 X-18.88587 Y-23.80973
G01 X-18.93476 Y-23.77707
G01 X-19.05599 Y-23.67758
G01 X-19.09757 Y-23.63600
G01 X-19.19707 Y-23.51476
G01 X-19.22973 Y-23.46587
G01 X-19.30367 Y-23.32756
G01 X-19.32617 Y-23.27321
G01 X-19.37169 Y-23.12314
G01 X-19.38317 Y-23.06546
G01 X-19.39999 Y-22.87999
G01 X-19.38317 Y-22.69452
G01 X-19.37169 Y-22.63684
G01 X-19.32617 Y-22.48675
G01 X-19.30367 Y-22.43242
G01 X-19.22973 Y-22.29411
G01 X-19.19707 Y-22.24522
G01 X-19.09757 Y-22.12398
G01 X-19.05599 Y-22.08240
G01 X-18.91111 Y-21.96536
G01 X-18.79996 Y-21.90433
G01 X-18.79996 Y-16.79585
G01 X-18.82323 Y-16.72618
G01 X-18.83468 Y-16.66850
G01 X-18.83999 Y-16.60009
G01 X-18.83999 Y-15.97563
G01 X-18.92587 Y-15.92974
G01 X-18.97477 Y-15.89707
G01 X-19.09600 Y-15.79758
G01 X-19.13758 Y-15.75600
G01 X-19.23707 Y-15.63477
G01 X-19.26974 Y-15.58587
G01 X-19.35625 Y-15.42095
G01 X-19.41170 Y-15.24315
G01 X-19.42318 Y-15.18547
G01 X-19.43854 Y-15.02938
G01 X-19.43854 Y-14.97058
G01 X-19.42318 Y-14.81450
G01 X-19.41170 Y-14.75684
G01 X-19.35625 Y-14.57904
G01 X-19.26974 Y-14.41412
G01 X-19.23707 Y-14.36522
G01 X-19.13758 Y-14.24399
G01 X-19.09600 Y-14.20241
G01 X-18.97477 Y-14.10292
G01 X-18.92587 Y-14.07023
G01 X-18.76095 Y-13.98372
G01 X-18.58315 Y-13.92827
G01 X-18.52546 Y-13.91681
G01 X-18.33999 Y-13.90000
G01 X-18.15450 Y-13.91681
G01 X-18.09684 Y-13.92827
G01 X-17.91904 Y-13.98372
G01 X-17.75412 Y-14.07023
G01 X-17.70522 Y-14.10292
G01 X-17.56217 Y-14.22217
G01 X-17.44292 Y-14.36522
G01 X-17.41023 Y-14.41412
G01 X-17.32371 Y-14.57904
G01 X-17.26827 Y-14.75684
G01 X-17.25681 Y-14.81450
G01 X-17.24000 Y-15.00000
G01 X-17.25681 Y-15.18547
G01 X-17.26827 Y-15.24315
G01 X-17.31381 Y-15.39321
G01 X-17.33631 Y-15.44754
G01 X-17.41023 Y-15.58587
G01 X-17.44292 Y-15.63477
G01 X-17.56217 Y-15.77779
G01 X-17.70522 Y-15.89707
G01 X-17.75412 Y-15.92974
G01 X-17.83999 Y-15.97563
G01 X-17.83997 Y-16.44432
G01 X-17.81673 Y-16.51399
G01 X-17.80527 Y-16.57167
G01 X-17.79996 Y-16.64007
G01 X-17.79996 Y-21.90435
G01 X-17.71411 Y-21.95022
G01 X-17.66522 Y-21.98291
G01 X-17.54398 Y-22.08240
G01 X-17.50240 Y-22.12398
G01 X-17.38536 Y-22.26887
G01 X-17.29631 Y-22.43242
G01 X-17.27380 Y-22.48675
G01 X-17.22829 Y-22.63684
G01 X-17.21681 Y-22.69452
G01 X-17.19999 Y-22.87999
G04 P0 
G00 Z2.00000 M3 ; restart from line 1223

G00 X-19.73999 Y-22.87999 
G01 F30.00000

G01 Z-0.07500
G04 P0 
G01 F40.00000
G01 X-19.73999 Y-22.87999
G01 X-19.75681 Y-23.06546
G01 X-19.76829 Y-23.12314
G01 X-19.82371 Y-23.30094
G01 X-19.91025 Y-23.46587
G01 X-19.94291 Y-23.51476
G01 X-20.04240 Y-23.63600
G01 X-20.08398 Y-23.67758
G01 X-20.22886 Y-23.79459
G01 X-20.39242 Y-23.88367
G01 X-20.44675 Y-23.90618
G01 X-20.59683 Y-23.95169
G01 X-20.65452 Y-23.96317
G01 X-20.81058 Y-23.97854
G01 X-20.86940 Y-23.97854
G01 X-21.02546 Y-23.96317
G01 X-21.08314 Y-23.95169
G01 X-21.26094 Y-23.89624
G01 X-21.42587 Y-23.80973
G01 X-21.47476 Y-23.77707
G01 X-21.59599 Y-23.67758
G01 X-21.63757 Y-23.63600
G01 X-21.73707 Y-23.51476
G01 X-21.76973 Y-23.46587
G01 X-21.84367 Y-23.32756
G01 X-21.86617 Y-23.27321
G01 X-21.91169 Y-23.12314
G01 X-21.92317 Y-23.06546
G01 X-21.93999 Y-22.87999
G01 X-21.92317 Y-22.69452
G01 X-21.91169 Y-22.63684
G01 X-21.86617 Y-22.48675
G01 X-21.84367 Y-22.43242
G01 X-21.76973 Y-22.29411
G01 X-21.73707 Y-22.24522
G01 X-21.63757 Y-22.12398
G01 X-21.59599 Y-22.08240
G01 X-21.45111 Y-21.96536
G01 X-21.33999 Y-21.90433
G01 X-21.33996 Y-17.77332
G01 X-21.38169 Y-17.69524
G01 X-21.40420 Y-17.64091
G01 X-21.43267 Y-17.54711
G01 X-21.44413 Y-17.48945
G01 X-21.45518 Y-17.36247
G01 X-21.44413 Y-17.23553
G01 X-21.43267 Y-17.17787
G01 X-21.40420 Y-17.08407
G01 X-21.38169 Y-17.02973
G01 X-21.32035 Y-16.91803
G01 X-21.22086 Y-16.79679
G01 X-21.09965 Y-16.69730
G01 X-20.98794 Y-16.63596
G01 X-20.93361 Y-16.61345
G01 X-20.83981 Y-16.58501
G01 X-20.78213 Y-16.57355
G01 X-20.65518 Y-16.56248
G01 X-20.52823 Y-16.57355
G01 X-20.47055 Y-16.58501
G01 X-20.37677 Y-16.61345
G01 X-20.32244 Y-16.63596
G01 X-20.21073 Y-16.69730
G01 X-20.08949 Y-16.79679
G01 X-19.99000 Y-16.91803
G01 X-19.92866 Y-17.02973
G01 X-19.90616 Y-17.08407
G01 X-19.87771 Y-17.17787
G01 X-19.86623 Y-17.23553
G01 X-19.85518 Y-17.36247
G01 X-19.86623 Y-17.48945
G01 X-19.87771 Y-17.54711
G01 X-19.90616 Y-17.64091
G01 X-19.92866 Y-17.69524
G01 X-19.97486 Y-17.78170
G01 X-20.00755 Y-17.83060
G01 X-20.06973 Y-17.90637
G01 X-20.11131 Y-17.94794
G01 X-20.21073 Y-18.02768
G01 X-20.33999 Y-18.09628
G01 X-20.33996 Y-21.90435
G01 X-20.25411 Y-21.95022
G01 X-20.20522 Y-21.98291
G01 X-20.06216 Y-22.10217
G01 X-19.94291 Y-22.24522
G01 X-19.91025 Y-22.29411
G01 X-19.82371 Y-22.45904
G01 X-19.76829 Y-22.63684
G01 X-19.75681 Y-22.69452
G01 X-19.73999 Y-22.87999
G04 P0 
G00 Z2.00000 M3 ; restart from line 1321

G00 X-22.27999 Y-22.87999 
G01 F30.00000

G01 Z-0.07500
G04 P0 
G01 F40.00000
G01 X-22.27999 Y-22.87999
G01 X-22.29681 Y-23.06546
G01 X-22.30829 Y-23.12314
G01 X-22.36371 Y-23.30094
G01 X-22.45025 Y-23.46587
G01 X-22.48291 Y-23.51476
G01 X-22.58240 Y-23.63600
G01 X-22.62398 Y-23.67758
G01 X-22.76886 Y-23.79459
G01 X-22.93242 Y-23.88367
G01 X-22.98675 Y-23.90618
G01 X-23.13683 Y-23.95169
G01 X-23.19452 Y-23.96317
G01 X-23.37999 Y-23.97999
G01 X-23.56546 Y-23.96317
G01 X-23.62314 Y-23.95169
G01 X-23.80094 Y-23.89624
G01 X-23.96587 Y-23.80973
G01 X-24.01476 Y-23.77707
G01 X-24.15781 Y-23.65781
G01 X-24.27707 Y-23.51476
G01 X-24.30973 Y-23.46587
G01 X-24.39624 Y-23.30094
G01 X-24.45169 Y-23.12314
G01 X-24.46317 Y-23.06546
G01 X-24.47999 Y-22.87999
G01 X-24.46317 Y-22.69452
G01 X-24.45169 Y-22.63684
G01 X-24.39624 Y-22.45904
G01 X-24.30973 Y-22.29411
G01 X-24.27707 Y-22.24522
G01 X-24.17757 Y-22.12398
G01 X-24.13599 Y-22.08240
G01 X-23.99111 Y-21.96536
G01 X-23.82756 Y-21.87631
G01 X-23.77323 Y-21.85380
G01 X-23.62314 Y-21.80829
G01 X-23.56546 Y-21.79681
G01 X-23.37999 Y-21.77999
G01 X-23.19452 Y-21.79681
G01 X-23.13683 Y-21.80829
G01 X-22.95903 Y-21.86371
G01 X-22.79411 Y-21.95022
G01 X-22.74522 Y-21.98291
G01 X-22.62398 Y-22.08240
G01 X-22.58240 Y-22.12398
G01 X-22.46536 Y-22.26887
G01 X-22.37631 Y-22.43242
G01 X-22.35380 Y-22.48675
G01 X-22.30829 Y-22.63684
G01 X-22.29681 Y-22.69452
G01 X-22.27999 Y-22.87999
G04 P0 
G00 Z2.00000 M3 ; restart from line 1382

G00 X-24.81999 Y-22.87999 
G01 F30.00000

G01 Z-0.07500
G04 P0 
G01 F40.00000
G01 X-24.81999 Y-22.87999
G01 X-24.83681 Y-23.06546
G01 X-24.84829 Y-23.12314
G01 X-24.90371 Y-23.30094
G01 X-24.99025 Y-23.46587
G01 X-25.02291 Y-23.51476
G01 X-25.12240 Y-23.63600
G01 X-25.16398 Y-23.67758
G01 X-25.30886 Y-23.79459
G01 X-25.47239 Y-23.88367
G01 X-25.52675 Y-23.90618
G01 X-25.67683 Y-23.95169
G01 X-25.73449 Y-23.96317
G01 X-25.91999 Y-23.97999
G01 X-26.10546 Y-23.96317
G01 X-26.16314 Y-23.95169
G01 X-26.31323 Y-23.90618
G01 X-26.36754 Y-23.88367
G01 X-26.50587 Y-23.80973
G01 X-26.55476 Y-23.77707
G01 X-26.69781 Y-23.65781
G01 X-26.81707 Y-23.51476
G01 X-26.84973 Y-23.46587
G01 X-26.93624 Y-23.30094
G01 X-26.99169 Y-23.12314
G01 X-27.00317 Y-23.06546
G01 X-27.01854 Y-22.90940
G01 X-27.01854 Y-22.85058
G01 X-27.00317 Y-22.69452
G01 X-26.99169 Y-22.63684
G01 X-26.93624 Y-22.45904
G01 X-26.84973 Y-22.29411
G01 X-26.81707 Y-22.24522
G01 X-26.71757 Y-22.12398
G01 X-26.67599 Y-22.08240
G01 X-26.53111 Y-21.96536
G01 X-26.36754 Y-21.87631
G01 X-26.31323 Y-21.85380
G01 X-26.16314 Y-21.80829
G01 X-26.10546 Y-21.79681
G01 X-25.91999 Y-21.77999
G01 X-25.73449 Y-21.79681
G01 X-25.67683 Y-21.80829
G01 X-25.49903 Y-21.86371
G01 X-25.33411 Y-21.95022
G01 X-25.28522 Y-21.98291
G01 X-25.16398 Y-22.08240
G01 X-25.12240 Y-22.12398
G01 X-25.00536 Y-22.26887
G01 X-24.91631 Y-22.43242
G01 X-24.89380 Y-22.48675
G01 X-24.84829 Y-22.63684
G01 X-24.83681 Y-22.69452
G01 X-24.81999 Y-22.87999
G04 P0 
G00 Z2.00000 M3 ; restart from line 1445

G00 X-27.36144 Y-22.90940 
G01 F30.00000

G01 Z-0.07500
G04 P0 
G01 F40.00000
G01 X-27.36144 Y-22.90940
G01 X-27.37681 Y-23.06546
G01 X-27.38829 Y-23.12314
G01 X-27.44371 Y-23.30094
G01 X-27.53025 Y-23.46587
G01 X-27.56291 Y-23.51476
G01 X-27.66240 Y-23.63600
G01 X-27.70398 Y-23.67758
G01 X-27.84886 Y-23.79459
G01 X-28.01242 Y-23.88367
G01 X-28.06675 Y-23.90618
G01 X-28.21683 Y-23.95169
G01 X-28.27452 Y-23.96317
G01 X-28.45999 Y-23.97999
G01 X-28.64546 Y-23.96317
G01 X-28.70314 Y-23.95169
G01 X-28.85323 Y-23.90618
G01 X-28.90756 Y-23.88367
G01 X-29.04587 Y-23.80973
G01 X-29.09476 Y-23.77707
G01 X-29.23781 Y-23.65781
G01 X-29.35707 Y-23.51476
G01 X-29.38973 Y-23.46587
G01 X-29.47624 Y-23.30094
G01 X-29.53169 Y-23.12314
G01 X-29.54317 Y-23.06546
G01 X-29.55854 Y-22.90940
G01 X-29.55854 Y-22.85058
G01 X-29.54317 Y-22.69452
G01 X-29.53169 Y-22.63684
G01 X-29.47624 Y-22.45904
G01 X-29.38973 Y-22.29411
G01 X-29.35707 Y-22.24522
G01 X-29.25757 Y-22.12398
G01 X-29.21599 Y-22.08240
G01 X-29.07111 Y-21.96536
G01 X-28.90756 Y-21.87631
G01 X-28.85323 Y-21.85380
G01 X-28.70314 Y-21.80829
G01 X-28.64546 Y-21.79681
G01 X-28.45999 Y-21.77999
G01 X-28.27452 Y-21.79681
G01 X-28.21683 Y-21.80829
G01 X-28.03903 Y-21.86371
G01 X-27.87411 Y-21.95022
G01 X-27.82522 Y-21.98291
G01 X-27.68216 Y-22.10217
G01 X-27.56291 Y-22.24522
G01 X-27.53025 Y-22.29411
G01 X-27.44371 Y-22.45904
G01 X-27.38829 Y-22.63684
G01 X-27.37681 Y-22.69452
G01 X-27.36144 Y-22.85058
G01 X-27.36144 Y-22.90940
G04 P0 
G00 Z2.00000 M3 ; restart from line 1508

G00 X-29.90144 Y-22.90940 
G01 F30.00000

G01 Z-0.07500
G04 P0 
G01 F40.00000
G01 X-29.90144 Y-22.90940
G01 X-29.91681 Y-23.06546
G01 X-29.92829 Y-23.12314
G01 X-29.98371 Y-23.30094
G01 X-30.07025 Y-23.46587
G01 X-30.10291 Y-23.51476
G01 X-30.20240 Y-23.63600
G01 X-30.24398 Y-23.67758
G01 X-30.38886 Y-23.79459
G01 X-30.55242 Y-23.88367
G01 X-30.60675 Y-23.90618
G01 X-30.75683 Y-23.95169
G01 X-30.81452 Y-23.96317
G01 X-30.99999 Y-23.97999
G01 X-31.18546 Y-23.96317
G01 X-31.24314 Y-23.95169
G01 X-31.39323 Y-23.90618
G01 X-31.44756 Y-23.88367
G01 X-31.58587 Y-23.80973
G01 X-31.63476 Y-23.77707
G01 X-31.77781 Y-23.65781
G01 X-31.89707 Y-23.51476
G01 X-31.92973 Y-23.46587
G01 X-32.01624 Y-23.30094
G01 X-32.07169 Y-23.12314
G01 X-32.08317 Y-23.06546
G01 X-32.09854 Y-22.90940
G01 X-32.09854 Y-22.85058
G01 X-32.08317 Y-22.69452
G01 X-32.07169 Y-22.63684
G01 X-32.01624 Y-22.45904
G01 X-31.92973 Y-22.29411
G01 X-31.89707 Y-22.24522
G01 X-31.79757 Y-22.12398
G01 X-31.75599 Y-22.08240
G01 X-31.61111 Y-21.96536
G01 X-31.44756 Y-21.87631
G01 X-31.39323 Y-21.85380
G01 X-31.24314 Y-21.80829
G01 X-31.18546 Y-21.79681
G01 X-30.99999 Y-21.77999
G01 X-30.81452 Y-21.79681
G01 X-30.75683 Y-21.80829
G01 X-30.57903 Y-21.86371
G01 X-30.41411 Y-21.95022
G01 X-30.36522 Y-21.98291
G01 X-30.22216 Y-22.10217
G01 X-30.10291 Y-22.24522
G01 X-30.07025 Y-22.29411
G01 X-29.98371 Y-22.45904
G01 X-29.92829 Y-22.63684
G01 X-29.91681 Y-22.69452
G01 X-29.90144 Y-22.85058
G01 X-29.90144 Y-22.90940
G04 P0 
G00 Z2.00000 M3 ; restart from line 1571

G00 X-24.81999 Y-30.49999 
G01 F30.00000

G01 Z-0.07500
G04 P0 
G01 F40.00000
G01 X-24.81999 Y-30.49999
G01 X-24.83681 Y-30.68546
G01 X-24.84829 Y-30.74314
G01 X-24.89380 Y-30.89321
G01 X-24.91631 Y-30.94756
G01 X-24.99025 Y-31.08587
G01 X-25.02291 Y-31.13476
G01 X-25.14216 Y-31.27781
G01 X-25.30886 Y-31.41459
G01 X-25.47239 Y-31.50367
G01 X-25.52675 Y-31.52618
G01 X-25.70536 Y-31.57885
G01 X-25.89058 Y-31.59854
G01 X-25.94940 Y-31.59854
G01 X-26.13459 Y-31.57885
G01 X-26.31323 Y-31.52618
G01 X-26.36754 Y-31.50367
G01 X-26.50587 Y-31.42973
G01 X-26.55476 Y-31.39707
G01 X-26.69781 Y-31.27781
G01 X-26.81707 Y-31.13476
G01 X-26.84973 Y-31.08587
G01 X-26.92367 Y-30.94756
G01 X-26.94617 Y-30.89321
G01 X-26.99885 Y-30.71459
G01 X-27.01854 Y-30.52940
G01 X-27.01854 Y-30.47058
G01 X-27.00317 Y-30.31452
G01 X-26.99169 Y-30.25684
G01 X-26.93624 Y-30.07904
G01 X-26.84973 Y-29.91411
G01 X-26.81707 Y-29.86522
G01 X-26.69781 Y-29.72217
G01 X-26.55476 Y-29.60291
G01 X-26.50587 Y-29.57022
G01 X-26.36754 Y-29.49631
G01 X-26.31323 Y-29.47380
G01 X-26.13459 Y-29.42112
G01 X-25.94940 Y-29.40144
G01 X-25.89058 Y-29.40144
G01 X-25.73449 Y-29.41681
G01 X-25.67683 Y-29.42829
G01 X-25.49903 Y-29.48371
G01 X-25.33411 Y-29.57022
G01 X-25.28522 Y-29.60291
G01 X-25.16398 Y-29.70240
G01 X-25.12240 Y-29.74398
G01 X-25.00536 Y-29.88887
G01 X-24.91631 Y-30.05242
G01 X-24.89380 Y-30.10675
G01 X-24.84829 Y-30.25684
G01 X-24.83681 Y-30.31452
G01 X-24.81999 Y-30.49999
G04 P0 
G00 Z2.00000 M3 ; restart from line 1633

G00 X-22.27999 Y-30.49999 
G01 F30.00000

G01 Z-0.07500
G04 P0 
G01 F40.00000
G01 X-22.27999 Y-30.49999
G01 X-22.29681 Y-30.68546
G01 X-22.30829 Y-30.74314
G01 X-22.35380 Y-30.89321
G01 X-22.37631 Y-30.94756
G01 X-22.45025 Y-31.08587
G01 X-22.48291 Y-31.13476
G01 X-22.60216 Y-31.27781
G01 X-22.74522 Y-31.39707
G01 X-22.79411 Y-31.42973
G01 X-22.93242 Y-31.50367
G01 X-22.98675 Y-31.52618
G01 X-23.13683 Y-31.57169
G01 X-23.19452 Y-31.58317
G01 X-23.35058 Y-31.59854
G01 X-23.40940 Y-31.59854
G01 X-23.56546 Y-31.58317
G01 X-23.62314 Y-31.57169
G01 X-23.80094 Y-31.51624
G01 X-23.96587 Y-31.42973
G01 X-24.01476 Y-31.39707
G01 X-24.13599 Y-31.29758
G01 X-24.17757 Y-31.25600
G01 X-24.27707 Y-31.13476
G01 X-24.30973 Y-31.08587
G01 X-24.38367 Y-30.94756
G01 X-24.40617 Y-30.89321
G01 X-24.45169 Y-30.74314
G01 X-24.46317 Y-30.68546
G01 X-24.47999 Y-30.49999
G01 X-24.46317 Y-30.31452
G01 X-24.45169 Y-30.25684
G01 X-24.42342 Y-30.16364
G01 X-29.00898 Y-25.57808
G01 X-31.08429 Y-25.57808
G01 X-31.15269 Y-25.57277
G01 X-31.21038 Y-25.56132
G01 X-31.27563 Y-25.54000
G01 X-31.36207 Y-25.49380
G01 X-31.43783 Y-25.43160
G01 X-32.96663 Y-23.90282
G01 X-33.01129 Y-23.85070
G01 X-33.06244 Y-23.76721
G01 X-33.08495 Y-23.71288
G01 X-33.10346 Y-23.64682
G01 X-33.11309 Y-23.54928
G01 X-33.11309 Y-22.17308
G01 X-33.09960 Y-22.06434
G01 X-33.08045 Y-21.99645
G01 X-33.05302 Y-21.93569
G01 X-33.03400 Y-21.90593
G01 X-32.96663 Y-21.81951
G01 X-27.37180 Y-16.22676
G01 X-27.34150 Y-16.20187
G01 X-27.25801 Y-16.15072
G01 X-27.16616 Y-16.11683
G01 X-27.10848 Y-16.10538
G01 X-27.04008 Y-16.10007
G01 X-26.45997 Y-16.10007
G01 X-26.45997 Y-15.97566
G01 X-26.54587 Y-15.92974
G01 X-26.59474 Y-15.89707
G01 X-26.73779 Y-15.77779
G01 X-26.85707 Y-15.63477
G01 X-26.88974 Y-15.58587
G01 X-26.97625 Y-15.42095
G01 X-27.03170 Y-15.24315
G01 X-27.04318 Y-15.18547
G01 X-27.05854 Y-15.02938
G01 X-27.05854 Y-14.97058
G01 X-27.04318 Y-14.81450
G01 X-27.03170 Y-14.75684
G01 X-26.98618 Y-14.60675
G01 X-26.96367 Y-14.55242
G01 X-26.88974 Y-14.41412
G01 X-26.85707 Y-14.36522
G01 X-26.73779 Y-14.22217
G01 X-26.59474 Y-14.10292
G01 X-26.54587 Y-14.07023
G01 X-26.40752 Y-13.99631
G01 X-26.35321 Y-13.97381
G01 X-26.20315 Y-13.92827
G01 X-26.14546 Y-13.91681
G01 X-25.95997 Y-13.90000
G01 X-25.77450 Y-13.91681
G01 X-25.71684 Y-13.92827
G01 X-25.53904 Y-13.98372
G01 X-25.37412 Y-14.07023
G01 X-25.32522 Y-14.10292
G01 X-25.20399 Y-14.20241
G01 X-25.16241 Y-14.24399
G01 X-25.04537 Y-14.38887
G01 X-24.95631 Y-14.55242
G01 X-24.93381 Y-14.60675
G01 X-24.88827 Y-14.75684
G01 X-24.87681 Y-14.81450
G01 X-24.86144 Y-14.97058
G01 X-24.86144 Y-15.02938
G01 X-24.87681 Y-15.18547
G01 X-24.88827 Y-15.24315
G01 X-24.94371 Y-15.42095
G01 X-25.03023 Y-15.58587
G01 X-25.06292 Y-15.63477
G01 X-25.18217 Y-15.77779
G01 X-25.34887 Y-15.91460
G01 X-25.45992 Y-15.97561
G01 X-25.46137 Y-16.62948
G01 X-25.46957 Y-16.69763
G01 X-25.48809 Y-16.76370
G01 X-25.52908 Y-16.85262
G01 X-25.58661 Y-16.93182
G01 X-25.62822 Y-16.97340
G01 X-25.68217 Y-17.01582
G01 X-25.76860 Y-17.06202
G01 X-25.83383 Y-17.08333
G01 X-25.89154 Y-17.09478
G01 X-25.95997 Y-17.10009
G01 X-26.83297 Y-17.10009
G01 X-32.11307 Y-22.38017
G01 X-32.11307 Y-23.34217
G01 X-30.87718 Y-24.57808
G01 X-28.80190 Y-24.57806
G01 X-28.73347 Y-24.58336
G01 X-28.63827 Y-24.60620
G01 X-28.58394 Y-24.62870
G01 X-28.52410 Y-24.66233
G01 X-28.44833 Y-24.72451
G01 X-23.71631 Y-29.45653
G01 X-23.62314 Y-29.42829
G01 X-23.56546 Y-29.41681
G01 X-23.40940 Y-29.40144
G01 X-23.35058 Y-29.40144
G01 X-23.19452 Y-29.41681
G01 X-23.13683 Y-29.42829
G01 X-22.95903 Y-29.48371
G01 X-22.79411 Y-29.57022
G01 X-22.74522 Y-29.60291
G01 X-22.62398 Y-29.70240
G01 X-22.58240 Y-29.74398
G01 X-22.46536 Y-29.88887
G01 X-22.37631 Y-30.05242
G01 X-22.35380 Y-30.10675
G01 X-22.30829 Y-30.25684
G01 X-22.29681 Y-30.31452
G01 X-22.27999 Y-30.49999
G04 P0 
G00 Z2.00000 M3 ; restart from line 1787

G00 X-19.73999 Y-30.49999 
G01 F30.00000

G01 Z-0.07500
G04 P0 
G01 F40.00000
G01 X-19.73999 Y-30.49999
G01 X-19.75681 Y-30.68546
G01 X-19.76829 Y-30.74314
G01 X-19.81380 Y-30.89321
G01 X-19.83631 Y-30.94756
G01 X-19.91025 Y-31.08587
G01 X-19.94291 Y-31.13476
G01 X-20.06216 Y-31.27781
G01 X-20.20522 Y-31.39707
G01 X-20.25411 Y-31.42973
G01 X-20.41903 Y-31.51624
G01 X-20.59683 Y-31.57169
G01 X-20.65452 Y-31.58317
G01 X-20.81058 Y-31.59854
G01 X-20.86940 Y-31.59854
G01 X-21.02546 Y-31.58317
G01 X-21.08314 Y-31.57169
G01 X-21.26094 Y-31.51624
G01 X-21.42587 Y-31.42973
G01 X-21.47476 Y-31.39707
G01 X-21.61781 Y-31.27781
G01 X-21.73707 Y-31.13476
G01 X-21.76973 Y-31.08587
G01 X-21.84367 Y-30.94756
G01 X-21.86617 Y-30.89321
G01 X-21.91169 Y-30.74314
G01 X-21.92317 Y-30.68546
G01 X-21.93999 Y-30.49999
G01 X-21.92317 Y-30.31452
G01 X-21.91169 Y-30.25684
G01 X-21.85624 Y-30.07904
G01 X-21.76973 Y-29.91411
G01 X-21.73707 Y-29.86522
G01 X-21.61781 Y-29.72217
G01 X-21.47476 Y-29.60291
G01 X-21.42587 Y-29.57022
G01 X-21.26094 Y-29.48371
G01 X-21.08314 Y-29.42829
G01 X-21.02546 Y-29.41681
G01 X-20.86940 Y-29.40144
G01 X-20.81058 Y-29.40144
G01 X-20.65452 Y-29.41681
G01 X-20.59683 Y-29.42829
G01 X-20.41903 Y-29.48371
G01 X-20.25411 Y-29.57022
G01 X-20.20522 Y-29.60291
G01 X-20.06216 Y-29.72217
G01 X-19.94291 Y-29.86522
G01 X-19.91025 Y-29.91411
G01 X-19.83631 Y-30.05242
G01 X-19.81998 Y-30.09184
G01 X-19.76829 Y-30.25684
G01 X-19.75681 Y-30.31452
G01 X-19.73999 Y-30.49999
G04 P0 
G00 Z2.00000 M3 ; restart from line 1850

G00 X-17.19999 Y-30.49999 
G01 F30.00000

G01 Z-0.07500
G04 P0 
G01 F40.00000
G01 X-17.19999 Y-30.49999
G01 X-17.21681 Y-30.68546
G01 X-17.22829 Y-30.74314
G01 X-17.27380 Y-30.89321
G01 X-17.29631 Y-30.94756
G01 X-17.37025 Y-31.08587
G01 X-17.40291 Y-31.13476
G01 X-17.52216 Y-31.27781
G01 X-17.66522 Y-31.39707
G01 X-17.71411 Y-31.42973
G01 X-17.87903 Y-31.51624
G01 X-18.05683 Y-31.57169
G01 X-18.11452 Y-31.58317
G01 X-18.27058 Y-31.59854
G01 X-18.32940 Y-31.59854
G01 X-18.48546 Y-31.58317
G01 X-18.54314 Y-31.57169
G01 X-18.72094 Y-31.51624
G01 X-18.88587 Y-31.42973
G01 X-18.93476 Y-31.39707
G01 X-19.07781 Y-31.27781
G01 X-19.19707 Y-31.13476
G01 X-19.22973 Y-31.08587
G01 X-19.30367 Y-30.94756
G01 X-19.32617 Y-30.89321
G01 X-19.37169 Y-30.74314
G01 X-19.38317 Y-30.68546
G01 X-19.39999 Y-30.49999
G01 X-19.38317 Y-30.31452
G01 X-19.37169 Y-30.25684
G01 X-19.31624 Y-30.07904
G01 X-19.22973 Y-29.91411
G01 X-19.19707 Y-29.86522
G01 X-19.07781 Y-29.72217
G01 X-18.93476 Y-29.60291
G01 X-18.88587 Y-29.57022
G01 X-18.72094 Y-29.48371
G01 X-18.54314 Y-29.42829
G01 X-18.48546 Y-29.41681
G01 X-18.32940 Y-29.40144
G01 X-18.27058 Y-29.40144
G01 X-18.11452 Y-29.41681
G01 X-18.05683 Y-29.42829
G01 X-17.87903 Y-29.48371
G01 X-17.71411 Y-29.57022
G01 X-17.66522 Y-29.60291
G01 X-17.54398 Y-29.70240
G01 X-17.50240 Y-29.74398
G01 X-17.38536 Y-29.88887
G01 X-17.29631 Y-30.05242
G01 X-17.27380 Y-30.10675
G01 X-17.22829 Y-30.25684
G01 X-17.21681 Y-30.31452
G01 X-17.19999 Y-30.49999
G04 P0 
G00 Z2.00000 M3 ; restart from line 1913

G00 X-27.36144 Y-30.52940 
G01 F30.00000

G01 Z-0.07500
G04 P0 
G01 F40.00000
G01 X-27.36144 Y-30.52940
G01 X-27.38112 Y-30.71459
G01 X-27.43380 Y-30.89321
G01 X-27.45631 Y-30.94756
G01 X-27.53025 Y-31.08587
G01 X-27.56291 Y-31.13476
G01 X-27.68216 Y-31.27781
G01 X-27.82522 Y-31.39707
G01 X-27.87411 Y-31.42973
G01 X-28.01242 Y-31.50367
G01 X-28.06675 Y-31.52618
G01 X-28.24538 Y-31.57885
G01 X-28.43058 Y-31.59854
G01 X-28.48940 Y-31.59854
G01 X-28.67459 Y-31.57885
G01 X-28.85323 Y-31.52618
G01 X-28.90756 Y-31.50367
G01 X-29.04587 Y-31.42973
G01 X-29.09476 Y-31.39707
G01 X-29.23781 Y-31.27781
G01 X-29.35707 Y-31.13476
G01 X-29.38973 Y-31.08587
G01 X-29.46367 Y-30.94756
G01 X-29.48617 Y-30.89321
G01 X-29.53885 Y-30.71459
G01 X-29.55854 Y-30.52940
G01 X-29.55854 Y-30.47058
G01 X-29.54317 Y-30.31452
G01 X-29.53169 Y-30.25684
G01 X-29.47624 Y-30.07904
G01 X-29.38973 Y-29.91411
G01 X-29.35707 Y-29.86522
G01 X-29.23781 Y-29.72217
G01 X-29.09476 Y-29.60291
G01 X-29.04587 Y-29.57022
G01 X-28.90756 Y-29.49631
G01 X-28.85323 Y-29.47380
G01 X-28.67459 Y-29.42112
G01 X-28.48940 Y-29.40144
G01 X-28.43058 Y-29.40144
G01 X-28.27452 Y-29.41681
G01 X-28.21683 Y-29.42829
G01 X-28.03903 Y-29.48371
G01 X-27.87411 Y-29.57022
G01 X-27.82522 Y-29.60291
G01 X-27.68216 Y-29.72217
G01 X-27.56291 Y-29.86522
G01 X-27.53025 Y-29.91411
G01 X-27.45631 Y-30.05242
G01 X-27.43380 Y-30.10675
G01 X-27.38112 Y-30.28539
G01 X-27.36144 Y-30.47058
G01 X-27.36144 Y-30.52940
G04 P0 
G00 Z2.00000 M3 ; restart from line 1975

G00 X-34.92434 Y-35.77029 
G01 F30.00000

G01 Z-0.07500
G04 P0 
G01 F40.00000
G01 X-34.92434 Y-35.77029
G01 X-34.93826 Y-35.89696
G01 X-34.98378 Y-36.04704
G01 X-35.04258 Y-36.16010
G01 X-35.07524 Y-36.20900
G01 X-35.15721 Y-36.30658
G01 X-35.25479 Y-36.38852
G01 X-35.30369 Y-36.42119
G01 X-35.41674 Y-36.47999
G01 X-35.56681 Y-36.52550
G01 X-35.69348 Y-36.53945
G01 X-35.75230 Y-36.53945
G01 X-35.87895 Y-36.52550
G01 X-36.02904 Y-36.47999
G01 X-36.14209 Y-36.42119
G01 X-36.19099 Y-36.38852
G01 X-36.28857 Y-36.30658
G01 X-36.34435 Y-36.24090
G01 X-39.41069 Y-36.24090
G01 X-39.45760 Y-36.23719
G01 X-39.55392 Y-36.21984
G01 X-39.64805 Y-36.18083
G01 X-39.72844 Y-36.12502
G01 X-39.76423 Y-36.09444
G01 X-45.01652 Y-30.84213
G01 X-45.06117 Y-30.79001
G01 X-45.09384 Y-30.74111
G01 X-45.11233 Y-30.70652
G01 X-45.14621 Y-30.61467
G01 X-45.15767 Y-30.55699
G01 X-45.16298 Y-30.48859
G01 X-45.16298 Y-23.82299
G01 X-45.15767 Y-23.75456
G01 X-45.14621 Y-23.69688
G01 X-45.11233 Y-23.60503
G01 X-45.06117 Y-23.52154
G01 X-45.03628 Y-23.49124
G01 X-44.08333 Y-22.53623
G01 X-44.12790 Y-22.38433
G01 X-44.14855 Y-22.18939
G01 X-44.14855 Y-22.13059
G01 X-44.12790 Y-21.93564
G01 X-44.07238 Y-21.74763
G01 X-44.04987 Y-21.69328
G01 X-43.97131 Y-21.54634
G01 X-43.93865 Y-21.49744
G01 X-43.83293 Y-21.36864
G01 X-43.79135 Y-21.32703
G01 X-43.66255 Y-21.22134
G01 X-43.61363 Y-21.18865
G01 X-43.46669 Y-21.11012
G01 X-43.41236 Y-21.08761
G01 X-43.25290 Y-21.03923
G01 X-43.19521 Y-21.02777
G01 X-43.02940 Y-21.01144
G01 X-42.97058 Y-21.01144
G01 X-42.80477 Y-21.02777
G01 X-42.74708 Y-21.03923
G01 X-42.58762 Y-21.08761
G01 X-42.53329 Y-21.11012
G01 X-42.38633 Y-21.18865
G01 X-42.33743 Y-21.22134
G01 X-42.20863 Y-21.32703
G01 X-42.16705 Y-21.36864
G01 X-42.06133 Y-21.49744
G01 X-42.02867 Y-21.54634
G01 X-41.95011 Y-21.69328
G01 X-41.92760 Y-21.74763
G01 X-41.87208 Y-21.93564
G01 X-41.85143 Y-22.13059
G01 X-41.85143 Y-22.18939
G01 X-41.87208 Y-22.38433
G01 X-41.92760 Y-22.57234
G01 X-41.95011 Y-22.62668
G01 X-42.02867 Y-22.77364
G01 X-42.06133 Y-22.82253
G01 X-42.16705 Y-22.95134
G01 X-42.20863 Y-22.99294
G01 X-42.33743 Y-23.09863
G01 X-42.38633 Y-23.13132
G01 X-42.53329 Y-23.20986
G01 X-42.58762 Y-23.23236
G01 X-42.74708 Y-23.28073
G01 X-42.80477 Y-23.29221
G01 X-42.97058 Y-23.30854
G01 X-43.02940 Y-23.30854
G01 X-43.22435 Y-23.28789
G01 X-43.37621 Y-23.24334
G01 X-44.16295 Y-24.03008
G01 X-44.16295 Y-30.28147
G01 X-39.20358 Y-35.24087
G01 X-36.34435 Y-35.24087
G01 X-36.28857 Y-35.17519
G01 X-36.19099 Y-35.09325
G01 X-36.14209 Y-35.06059
G01 X-36.02904 Y-35.00178
G01 X-35.90752 Y-34.96340
G01 X-35.84984 Y-34.95195
G01 X-35.75230 Y-34.94232
G01 X-35.69348 Y-34.94232
G01 X-35.59594 Y-34.95195
G01 X-35.53826 Y-34.96340
G01 X-35.44446 Y-34.99185
G01 X-35.39012 Y-35.01438
G01 X-35.30369 Y-35.06059
G01 X-35.25479 Y-35.09325
G01 X-35.17903 Y-35.15543
G01 X-35.13742 Y-35.19701
G01 X-35.07524 Y-35.27278
G01 X-35.04258 Y-35.32167
G01 X-34.98378 Y-35.43475
G01 X-34.93826 Y-35.58482
G01 X-34.92434 Y-35.71149
G01 X-34.92434 Y-35.77029
G04 P0 
G00 Z2.00000 M3 ; restart from line 2098

G00 X-33.51644 Y-42.20939 
G01 F30.00000

G01 Z-0.07500
G04 P0 
G01 F40.00000
G01 X-33.51644 Y-42.20939
G01 X-33.53613 Y-42.39458
G01 X-33.58881 Y-42.57322
G01 X-33.61131 Y-42.62755
G01 X-33.68523 Y-42.76585
G01 X-33.71792 Y-42.81477
G01 X-33.83717 Y-42.95780
G01 X-33.98022 Y-43.07705
G01 X-34.02912 Y-43.10974
G01 X-34.16742 Y-43.18366
G01 X-34.22175 Y-43.20616
G01 X-34.40039 Y-43.25884
G01 X-34.58558 Y-43.27855
G01 X-34.64438 Y-43.27855
G01 X-34.82960 Y-43.25884
G01 X-35.00821 Y-43.20616
G01 X-35.06254 Y-43.18366
G01 X-35.20087 Y-43.10974
G01 X-35.24976 Y-43.07705
G01 X-35.39282 Y-42.95780
G01 X-35.51207 Y-42.81477
G01 X-35.54473 Y-42.76585
G01 X-35.61867 Y-42.62755
G01 X-35.64118 Y-42.57322
G01 X-35.69386 Y-42.39458
G01 X-35.71354 Y-42.20939
G01 X-35.71354 Y-42.15059
G01 X-35.69818 Y-41.99451
G01 X-35.68670 Y-41.93682
G01 X-35.63125 Y-41.75905
G01 X-35.54473 Y-41.59410
G01 X-35.51207 Y-41.54521
G01 X-35.39282 Y-41.40218
G01 X-35.24976 Y-41.28290
G01 X-35.20087 Y-41.25023
G01 X-35.06254 Y-41.17630
G01 X-35.00821 Y-41.15379
G01 X-34.82960 Y-41.10111
G01 X-34.64438 Y-41.08143
G01 X-34.58558 Y-41.08143
G01 X-34.42952 Y-41.09679
G01 X-34.37184 Y-41.10827
G01 X-34.19404 Y-41.16372
G01 X-34.02912 Y-41.25023
G01 X-33.98022 Y-41.28290
G01 X-33.83717 Y-41.40218
G01 X-33.71792 Y-41.54521
G01 X-33.68523 Y-41.59410
G01 X-33.61131 Y-41.73243
G01 X-33.58881 Y-41.78676
G01 X-33.53613 Y-41.96540
G01 X-33.51644 Y-42.15059
G01 X-33.51644 Y-42.20939
G04 P0 
G00 Z2.00000 M3 ; restart from line 2160

G00 X-28.43644 Y-42.20939 
G01 F30.00000

G01 Z-0.07500
G04 P0 
G01 F40.00000
G01 X-28.43644 Y-42.20939
G01 X-28.45613 Y-42.39458
G01 X-28.50881 Y-42.57322
G01 X-28.53131 Y-42.62755
G01 X-28.60523 Y-42.76585
G01 X-28.63792 Y-42.81477
G01 X-28.73741 Y-42.93598
G01 X-28.77899 Y-42.97759
G01 X-28.90022 Y-43.07705
G01 X-28.94912 Y-43.10974
G01 X-29.08742 Y-43.18366
G01 X-29.14175 Y-43.20616
G01 X-29.32039 Y-43.25884
G01 X-29.50558 Y-43.27855
G01 X-29.56438 Y-43.27855
G01 X-29.72046 Y-43.26316
G01 X-29.77815 Y-43.25170
G01 X-29.92821 Y-43.20616
G01 X-29.98254 Y-43.18366
G01 X-30.12087 Y-43.10974
G01 X-30.16976 Y-43.07705
G01 X-30.31282 Y-42.95780
G01 X-30.43207 Y-42.81477
G01 X-30.46473 Y-42.76585
G01 X-30.51066 Y-42.67998
G01 X-31.09933 Y-42.67998
G01 X-31.14523 Y-42.76585
G01 X-31.17792 Y-42.81477
G01 X-31.27741 Y-42.93598
G01 X-31.31899 Y-42.97759
G01 X-31.44022 Y-43.07705
G01 X-31.48912 Y-43.10974
G01 X-31.62742 Y-43.18366
G01 X-31.68175 Y-43.20616
G01 X-31.86039 Y-43.25884
G01 X-32.04558 Y-43.27855
G01 X-32.10438 Y-43.27855
G01 X-32.28960 Y-43.25884
G01 X-32.46821 Y-43.20616
G01 X-32.52254 Y-43.18366
G01 X-32.66087 Y-43.10974
G01 X-32.70976 Y-43.07705
G01 X-32.83100 Y-42.97759
G01 X-32.87258 Y-42.93598
G01 X-32.97207 Y-42.81477
G01 X-33.00473 Y-42.76585
G01 X-33.07867 Y-42.62755
G01 X-33.10118 Y-42.57322
G01 X-33.15386 Y-42.39458
G01 X-33.17354 Y-42.20939
G01 X-33.17354 Y-42.15059
G01 X-33.15818 Y-41.99451
G01 X-33.14670 Y-41.93682
G01 X-33.10118 Y-41.78676
G01 X-33.07867 Y-41.73243
G01 X-33.00473 Y-41.59410
G01 X-32.97207 Y-41.54521
G01 X-32.85282 Y-41.40218
G01 X-32.70976 Y-41.28290
G01 X-32.66087 Y-41.25023
G01 X-32.57499 Y-41.20434
G01 X-32.57499 Y-40.78696
G01 X-34.58012 Y-38.78184
G01 X-34.64230 Y-38.70607
G01 X-34.67593 Y-38.64623
G01 X-34.70981 Y-38.55438
G01 X-34.71695 Y-38.52583
G01 X-34.72513 Y-38.45768
G01 X-34.72513 Y-31.30687
G01 X-34.70981 Y-31.21017
G01 X-34.69843 Y-31.17266
G01 X-34.67593 Y-31.11833
G01 X-34.62477 Y-31.03484
G01 X-34.58012 Y-30.98272
G01 X-34.27329 Y-30.67588
G01 X-35.27839 Y-29.66872
G01 X-35.32081 Y-29.61477
G01 X-35.35444 Y-29.55493
G01 X-35.38832 Y-29.46309
G01 X-35.39978 Y-29.40540
G01 X-35.40509 Y-29.33700
G01 X-35.40509 Y-24.83142
G01 X-35.48327 Y-24.76538
G01 X-35.56523 Y-24.66779
G01 X-35.59790 Y-24.61890
G01 X-35.65670 Y-24.50584
G01 X-35.70221 Y-24.35576
G01 X-35.71613 Y-24.22909
G01 X-35.71613 Y-24.17028
G01 X-35.70221 Y-24.04361
G01 X-35.66660 Y-23.92126
G01 X-35.64410 Y-23.86693
G01 X-35.59790 Y-23.78047
G01 X-35.56523 Y-23.73158
G01 X-35.48327 Y-23.63401
G01 X-35.40509 Y-23.56795
G01 X-35.40509 Y-20.46516
G01 X-35.39546 Y-20.36763
G01 X-35.37694 Y-20.30156
G01 X-35.35444 Y-20.24723
G01 X-35.30328 Y-20.16374
G01 X-35.25863 Y-20.11162
G01 X-31.53999 Y-16.39298
G01 X-31.53999 Y-15.97563
G01 X-31.62587 Y-15.92974
G01 X-31.67477 Y-15.89707
G01 X-31.81779 Y-15.77779
G01 X-31.93707 Y-15.63477
G01 X-31.96974 Y-15.58587
G01 X-32.05625 Y-15.42095
G01 X-32.11170 Y-15.24315
G01 X-32.12318 Y-15.18547
G01 X-32.13854 Y-15.02938
G01 X-32.13854 Y-14.97058
G01 X-32.12318 Y-14.81450
G01 X-32.11170 Y-14.75684
G01 X-32.06618 Y-14.60675
G01 X-32.04367 Y-14.55242
G01 X-31.96974 Y-14.41412
G01 X-31.93707 Y-14.36522
G01 X-31.83758 Y-14.24399
G01 X-31.79600 Y-14.20241
G01 X-31.67477 Y-14.10292
G01 X-31.62587 Y-14.07023
G01 X-31.48754 Y-13.99631
G01 X-31.43321 Y-13.97381
G01 X-31.28315 Y-13.92827
G01 X-31.22546 Y-13.91681
G01 X-31.06938 Y-13.90142
G01 X-31.01058 Y-13.90142
G01 X-30.85450 Y-13.91681
G01 X-30.79684 Y-13.92827
G01 X-30.61904 Y-13.98372
G01 X-30.45412 Y-14.07023
G01 X-30.40522 Y-14.10292
G01 X-30.28399 Y-14.20241
G01 X-30.24241 Y-14.24399
G01 X-30.14292 Y-14.36522
G01 X-30.11023 Y-14.41412
G01 X-30.02371 Y-14.57904
G01 X-29.96827 Y-14.75684
G01 X-29.95681 Y-14.81450
G01 X-29.94144 Y-14.97058
G01 X-29.94144 Y-15.02938
G01 X-29.95681 Y-15.18547
G01 X-29.96827 Y-15.24315
G01 X-30.01381 Y-15.39321
G01 X-30.03631 Y-15.44754
G01 X-30.11023 Y-15.58587
G01 X-30.14292 Y-15.63477
G01 X-30.26217 Y-15.77779
G01 X-30.40522 Y-15.89707
G01 X-30.45412 Y-15.92974
G01 X-30.53999 Y-15.97563
G01 X-30.54142 Y-16.62948
G01 X-30.54960 Y-16.69763
G01 X-30.55673 Y-16.72618
G01 X-30.59062 Y-16.81803
G01 X-30.64177 Y-16.90152
G01 X-30.68643 Y-16.95364
G01 X-34.40506 Y-20.67227
G01 X-34.40509 Y-23.58850
G01 X-34.35190 Y-23.63401
G01 X-34.26996 Y-23.73158
G01 X-34.23727 Y-23.78047
G01 X-34.17849 Y-23.89355
G01 X-34.13295 Y-24.04361
G01 X-34.11903 Y-24.17028
G01 X-34.11903 Y-24.22909
G01 X-34.13295 Y-24.35576
G01 X-34.16856 Y-24.47811
G01 X-34.19107 Y-24.53244
G01 X-34.23727 Y-24.61890
G01 X-34.26996 Y-24.66779
G01 X-34.35190 Y-24.76538
G01 X-34.40509 Y-24.81087
G01 X-34.40509 Y-29.12989
G01 X-33.51779 Y-30.01716
G01 X-33.45868 Y-30.00527
G01 X-33.39026 Y-29.99997
G01 X-31.97563 Y-29.99999
G01 X-31.92973 Y-29.91411
G01 X-31.89707 Y-29.86522
G01 X-31.79757 Y-29.74398
G01 X-31.75599 Y-29.70240
G01 X-31.63476 Y-29.60291
G01 X-31.58587 Y-29.57022
G01 X-31.44756 Y-29.49631
G01 X-31.39323 Y-29.47380
G01 X-31.21459 Y-29.42112
G01 X-31.02940 Y-29.40144
G01 X-30.97058 Y-29.40144
G01 X-30.81452 Y-29.41681
G01 X-30.75683 Y-29.42829
G01 X-30.60675 Y-29.47380
G01 X-30.55242 Y-29.49631
G01 X-30.41411 Y-29.57022
G01 X-30.36522 Y-29.60291
G01 X-30.24398 Y-29.70240
G01 X-30.20240 Y-29.74398
G01 X-30.10291 Y-29.86522
G01 X-30.07025 Y-29.91411
G01 X-29.99631 Y-30.05242
G01 X-29.97380 Y-30.10675
G01 X-29.92112 Y-30.28539
G01 X-29.90144 Y-30.47058
G01 X-29.90144 Y-30.52940
G01 X-29.91681 Y-30.68546
G01 X-29.92829 Y-30.74314
G01 X-29.97380 Y-30.89321
G01 X-29.99631 Y-30.94756
G01 X-30.07025 Y-31.08587
G01 X-30.10291 Y-31.13476
G01 X-30.22216 Y-31.27781
G01 X-30.36522 Y-31.39707
G01 X-30.41411 Y-31.42973
G01 X-30.55242 Y-31.50367
G01 X-30.60675 Y-31.52618
G01 X-30.78538 Y-31.57885
G01 X-30.97058 Y-31.59854
G01 X-31.02940 Y-31.59854
G01 X-31.18546 Y-31.58317
G01 X-31.24314 Y-31.57169
G01 X-31.39323 Y-31.52618
G01 X-31.44756 Y-31.50367
G01 X-31.58587 Y-31.42973
G01 X-31.63476 Y-31.39707
G01 X-31.77781 Y-31.27781
G01 X-31.89707 Y-31.13476
G01 X-31.92973 Y-31.08587
G01 X-31.97565 Y-30.99996
G01 X-33.18317 Y-30.99996
G01 X-33.72658 Y-31.54337
G01 X-33.72658 Y-38.22118
G01 X-31.72142 Y-40.22631
G01 X-31.67677 Y-40.27843
G01 X-31.65925 Y-40.30208
G01 X-31.62562 Y-40.36192
G01 X-31.60311 Y-40.41625
G01 X-31.58460 Y-40.48232
G01 X-31.58028 Y-40.51145
G01 X-31.57497 Y-40.57985
G01 X-31.57497 Y-41.20434
G01 X-31.48912 Y-41.25023
G01 X-31.44022 Y-41.28290
G01 X-31.29717 Y-41.40218
G01 X-31.17792 Y-41.54521
G01 X-31.14523 Y-41.59410
G01 X-31.09935 Y-41.67995
G01 X-30.51063 Y-41.67995
G01 X-30.46473 Y-41.59410
G01 X-30.43207 Y-41.54521
G01 X-30.31282 Y-41.40218
G01 X-30.16976 Y-41.28290
G01 X-30.12087 Y-41.25023
G01 X-29.98254 Y-41.17630
G01 X-29.92821 Y-41.15379
G01 X-29.77815 Y-41.10827
G01 X-29.72046 Y-41.09679
G01 X-29.56438 Y-41.08143
G01 X-29.50558 Y-41.08143
G01 X-29.34952 Y-41.09679
G01 X-29.29184 Y-41.10827
G01 X-29.11404 Y-41.16372
G01 X-28.94912 Y-41.25023
G01 X-28.90022 Y-41.28290
G01 X-28.75717 Y-41.40218
G01 X-28.63792 Y-41.54521
G01 X-28.60523 Y-41.59410
G01 X-28.53131 Y-41.73243
G01 X-28.50881 Y-41.78676
G01 X-28.46327 Y-41.93682
G01 X-28.45181 Y-41.99451
G01 X-28.43644 Y-42.15059
G01 X-28.43644 Y-42.20939
G04 P0 
G00 Z2.00000 M3 ; restart from line 2444

G00 X-25.89642 Y-42.20939 
G01 F30.00000

G01 Z-0.07500
G04 P0 
G01 F40.00000
G01 X-25.89642 Y-42.20939
G01 X-25.91610 Y-42.39458
G01 X-25.96881 Y-42.57322
G01 X-25.99131 Y-42.62755
G01 X-26.06520 Y-42.76585
G01 X-26.09792 Y-42.81477
G01 X-26.21717 Y-42.95780
G01 X-26.36022 Y-43.07705
G01 X-26.40909 Y-43.10974
G01 X-26.54742 Y-43.18366
G01 X-26.60172 Y-43.20616
G01 X-26.78039 Y-43.25884
G01 X-26.96558 Y-43.27855
G01 X-27.02438 Y-43.27855
G01 X-27.20960 Y-43.25884
G01 X-27.38821 Y-43.20616
G01 X-27.44254 Y-43.18366
G01 X-27.58087 Y-43.10974
G01 X-27.62976 Y-43.07705
G01 X-27.77282 Y-42.95780
G01 X-27.89207 Y-42.81477
G01 X-27.92473 Y-42.76585
G01 X-27.99867 Y-42.62755
G01 X-28.02118 Y-42.57322
G01 X-28.07386 Y-42.39458
G01 X-28.09354 Y-42.20939
G01 X-28.09354 Y-42.15059
G01 X-28.07818 Y-41.99451
G01 X-28.06670 Y-41.93682
G01 X-28.01125 Y-41.75905
G01 X-27.92473 Y-41.59410
G01 X-27.89207 Y-41.54521
G01 X-27.77282 Y-41.40218
G01 X-27.62976 Y-41.28290
G01 X-27.58087 Y-41.25023
G01 X-27.44254 Y-41.17630
G01 X-27.38821 Y-41.15379
G01 X-27.20960 Y-41.10111
G01 X-27.02438 Y-41.08143
G01 X-26.96558 Y-41.08143
G01 X-26.80952 Y-41.09679
G01 X-26.75184 Y-41.10827
G01 X-26.57404 Y-41.16372
G01 X-26.40909 Y-41.25023
G01 X-26.36022 Y-41.28290
G01 X-26.21717 Y-41.40218
G01 X-26.09792 Y-41.54521
G01 X-26.06520 Y-41.59410
G01 X-25.99131 Y-41.73243
G01 X-25.96881 Y-41.78676
G01 X-25.91610 Y-41.96540
G01 X-25.89642 Y-42.15059
G01 X-25.89642 Y-42.20939
G04 P0 
G00 Z2.00000 M3 ; restart from line 2506

G00 X-23.35500 Y-42.17998 
G01 F30.00000

G01 Z-0.07500
G04 P0 
G01 F40.00000
G01 X-23.35500 Y-42.17998
G01 X-23.37181 Y-42.36547
G01 X-23.38327 Y-42.42316
G01 X-23.43498 Y-42.58813
G01 X-23.45131 Y-42.62755
G01 X-23.52523 Y-42.76585
G01 X-23.55792 Y-42.81477
G01 X-23.67717 Y-42.95780
G01 X-23.82022 Y-43.07705
G01 X-23.86912 Y-43.10974
G01 X-24.03404 Y-43.19626
G01 X-24.21184 Y-43.25170
G01 X-24.26952 Y-43.26316
G01 X-24.42558 Y-43.27855
G01 X-24.48438 Y-43.27855
G01 X-24.64046 Y-43.26316
G01 X-24.69815 Y-43.25170
G01 X-24.87595 Y-43.19626
G01 X-25.04087 Y-43.10974
G01 X-25.08976 Y-43.07705
G01 X-25.23282 Y-42.95780
G01 X-25.35207 Y-42.81477
G01 X-25.38473 Y-42.76585
G01 X-25.45867 Y-42.62755
G01 X-25.48118 Y-42.57322
G01 X-25.52670 Y-42.42316
G01 X-25.53815 Y-42.36547
G01 X-25.55499 Y-42.17998
G01 X-25.53815 Y-41.99451
G01 X-25.52670 Y-41.93682
G01 X-25.47125 Y-41.75905
G01 X-25.38473 Y-41.59410
G01 X-25.35207 Y-41.54521
G01 X-25.23282 Y-41.40218
G01 X-25.08976 Y-41.28290
G01 X-25.04087 Y-41.25023
G01 X-24.87595 Y-41.16372
G01 X-24.69815 Y-41.10827
G01 X-24.64046 Y-41.09679
G01 X-24.48438 Y-41.08143
G01 X-24.42558 Y-41.08143
G01 X-24.26952 Y-41.09679
G01 X-24.21184 Y-41.10827
G01 X-24.03404 Y-41.16372
G01 X-23.86912 Y-41.25023
G01 X-23.82022 Y-41.28290
G01 X-23.67717 Y-41.40218
G01 X-23.55792 Y-41.54521
G01 X-23.52523 Y-41.59410
G01 X-23.45131 Y-41.73243
G01 X-23.43498 Y-41.77185
G01 X-23.38327 Y-41.93682
G01 X-23.37181 Y-41.99451
G01 X-23.35500 Y-42.17998
G04 P0 
G00 Z2.00000 M3 ; restart from line 2569

G00 X-18.27500 Y-42.17998 
G01 F30.00000

G01 Z-0.07500
G04 P0 
G01 F40.00000
G01 X-18.27500 Y-42.17998
G01 X-18.29181 Y-42.36547
G01 X-18.30327 Y-42.42316
G01 X-18.34881 Y-42.57322
G01 X-18.37131 Y-42.62755
G01 X-18.44523 Y-42.76585
G01 X-18.47792 Y-42.81477
G01 X-18.59717 Y-42.95780
G01 X-18.74022 Y-43.07705
G01 X-18.78912 Y-43.10974
G01 X-18.95404 Y-43.19626
G01 X-19.13184 Y-43.25170
G01 X-19.18952 Y-43.26316
G01 X-19.34558 Y-43.27855
G01 X-19.40438 Y-43.27855
G01 X-19.56046 Y-43.26316
G01 X-19.61815 Y-43.25170
G01 X-19.79595 Y-43.19626
G01 X-19.96087 Y-43.10974
G01 X-20.00976 Y-43.07705
G01 X-20.15282 Y-42.95780
G01 X-20.27207 Y-42.81477
G01 X-20.30473 Y-42.76585
G01 X-20.37867 Y-42.62755
G01 X-20.40118 Y-42.57322
G01 X-20.44670 Y-42.42316
G01 X-20.45818 Y-42.36547
G01 X-20.47499 Y-42.17998
G01 X-20.45818 Y-41.99451
G01 X-20.44670 Y-41.93682
G01 X-20.39125 Y-41.75905
G01 X-20.30473 Y-41.59410
G01 X-20.27207 Y-41.54521
G01 X-20.15282 Y-41.40218
G01 X-20.00976 Y-41.28290
G01 X-19.96087 Y-41.25023
G01 X-19.79595 Y-41.16372
G01 X-19.61815 Y-41.10827
G01 X-19.56046 Y-41.09679
G01 X-19.40438 Y-41.08143
G01 X-19.34558 Y-41.08143
G01 X-19.18952 Y-41.09679
G01 X-19.13184 Y-41.10827
G01 X-18.95404 Y-41.16372
G01 X-18.78912 Y-41.25023
G01 X-18.74022 Y-41.28290
G01 X-18.61899 Y-41.38239
G01 X-18.57741 Y-41.42400
G01 X-18.46036 Y-41.56885
G01 X-18.37131 Y-41.73243
G01 X-18.34881 Y-41.78676
G01 X-18.30327 Y-41.93682
G01 X-18.29181 Y-41.99451
G01 X-18.27500 Y-42.17998
G04 P0 
G00 Z2.00000 M3 ; restart from line 2632

G00 X-20.81500 Y-49.79998 
G01 F30.00000

G01 Z-0.07500
G04 P0 
G01 F40.00000
G01 X-20.81500 Y-49.79998
G01 X-20.83181 Y-49.98547
G01 X-20.84327 Y-50.04316
G01 X-20.88881 Y-50.19322
G01 X-20.91131 Y-50.24755
G01 X-20.98523 Y-50.38585
G01 X-21.01792 Y-50.43477
G01 X-21.11741 Y-50.55598
G01 X-21.15899 Y-50.59759
G01 X-21.28022 Y-50.69705
G01 X-21.32912 Y-50.72974
G01 X-21.46742 Y-50.80366
G01 X-21.52175 Y-50.82616
G01 X-21.67184 Y-50.87168
G01 X-21.72952 Y-50.88316
G01 X-21.88558 Y-50.89855
G01 X-21.94438 Y-50.89855
G01 X-22.10046 Y-50.88316
G01 X-22.15815 Y-50.87168
G01 X-22.30821 Y-50.82616
G01 X-22.36254 Y-50.80366
G01 X-22.50087 Y-50.72974
G01 X-22.54976 Y-50.69705
G01 X-22.69282 Y-50.57780
G01 X-22.81207 Y-50.43477
G01 X-22.84473 Y-50.38585
G01 X-22.91867 Y-50.24755
G01 X-22.94118 Y-50.19322
G01 X-22.98670 Y-50.04316
G01 X-22.99818 Y-49.98547
G01 X-23.01499 Y-49.79998
G01 X-22.99818 Y-49.61451
G01 X-22.98670 Y-49.55682
G01 X-22.95842 Y-49.46363
G01 X-26.65158 Y-45.77050
G01 X-33.80925 Y-45.77050
G01 X-33.90682 Y-45.76087
G01 X-33.97288 Y-45.74235
G01 X-34.02721 Y-45.71985
G01 X-34.08705 Y-45.68622
G01 X-34.16282 Y-45.62404
G01 X-43.31078 Y-36.47402
G01 X-43.35320 Y-36.42007
G01 X-43.38683 Y-36.36023
G01 X-43.42072 Y-36.26838
G01 X-43.42785 Y-36.23983
G01 X-43.43603 Y-36.17168
G01 X-43.43748 Y-34.22338
G01 X-50.70823 Y-26.95260
G01 X-50.75288 Y-26.90048
G01 X-50.78555 Y-26.85158
G01 X-50.80404 Y-26.81699
G01 X-50.83792 Y-26.72514
G01 X-50.84938 Y-26.66746
G01 X-50.85466 Y-26.59906
G01 X-50.85466 Y-21.14375
G01 X-50.92035 Y-21.08797
G01 X-51.00234 Y-20.99038
G01 X-51.03500 Y-20.94149
G01 X-51.08118 Y-20.85505
G01 X-51.10371 Y-20.80072
G01 X-51.13216 Y-20.70692
G01 X-51.14364 Y-20.64923
G01 X-51.15469 Y-20.52229
G01 X-51.14364 Y-20.39534
G01 X-51.13216 Y-20.33765
G01 X-51.09378 Y-20.21614
G01 X-51.03500 Y-20.10308
G01 X-51.00234 Y-20.05419
G01 X-50.92035 Y-19.95660
G01 X-50.82278 Y-19.87466
G01 X-50.77389 Y-19.84197
G01 X-50.68745 Y-19.79577
G01 X-50.63312 Y-19.77326
G01 X-50.51077 Y-19.73765
G01 X-50.38410 Y-19.72373
G01 X-50.32527 Y-19.72373
G01 X-50.19860 Y-19.73765
G01 X-50.12268 Y-19.75917
G01 X-50.07625 Y-19.77326
G01 X-50.02192 Y-19.79577
G01 X-49.93549 Y-19.84197
G01 X-49.88659 Y-19.87466
G01 X-49.78900 Y-19.95660
G01 X-49.70704 Y-20.05419
G01 X-49.67437 Y-20.10308
G01 X-49.61557 Y-20.21614
G01 X-49.57006 Y-20.36620
G01 X-49.55614 Y-20.49287
G01 X-49.55614 Y-20.55170
G01 X-49.56574 Y-20.64923
G01 X-49.57722 Y-20.70692
G01 X-49.61557 Y-20.82843
G01 X-49.67437 Y-20.94149
G01 X-49.70704 Y-20.99038
G01 X-49.78900 Y-21.08797
G01 X-49.85469 Y-21.14375
G01 X-49.85466 Y-26.39195
G01 X-42.58391 Y-33.66272
G01 X-42.53926 Y-33.71484
G01 X-42.48810 Y-33.79833
G01 X-42.46560 Y-33.85266
G01 X-42.44277 Y-33.94786
G01 X-42.43746 Y-34.01626
G01 X-42.43746 Y-35.93518
G01 X-33.60217 Y-44.77047
G01 X-26.44450 Y-44.77047
G01 X-26.37605 Y-44.77578
G01 X-26.28087 Y-44.79861
G01 X-26.19195 Y-44.83961
G01 X-26.14303 Y-44.87227
G01 X-26.09093 Y-44.91693
G01 X-22.25131 Y-48.75654
G01 X-22.15815 Y-48.72827
G01 X-22.10046 Y-48.71679
G01 X-21.94438 Y-48.70143
G01 X-21.88558 Y-48.70143
G01 X-21.72952 Y-48.71679
G01 X-21.67184 Y-48.72827
G01 X-21.49404 Y-48.78372
G01 X-21.32912 Y-48.87024
G01 X-21.28022 Y-48.90290
G01 X-21.13717 Y-49.02218
G01 X-21.01792 Y-49.16521
G01 X-20.98523 Y-49.21410
G01 X-20.91131 Y-49.35243
G01 X-20.88881 Y-49.40676
G01 X-20.84327 Y-49.55682
G01 X-20.83181 Y-49.61451
G01 X-20.81500 Y-49.79998
G04 P0 
G00 Z2.00000 M3 ; restart from line 2771

G00 X-18.27500 Y-50.59997 
G01 F30.00000

G01 Z-0.07500
G04 P0 
G01 F40.00000
G01 X-18.27500 Y-50.59997
G01 X-18.28076 Y-50.65852
G01 X-18.29783 Y-50.71478
G01 X-18.31053 Y-50.73856
G01 X-18.37322 Y-50.82060
G01 X-18.40832 Y-50.84940
G01 X-18.46019 Y-50.87714
G01 X-18.51645 Y-50.89421
G01 X-18.57499 Y-50.90000
G01 X-20.17499 Y-50.90000
G01 X-20.18388 Y-50.89911
G01 X-20.40539 Y-50.78984
G01 X-20.42442 Y-50.76665
G01 X-20.45216 Y-50.71478
G01 X-20.46922 Y-50.65852
G01 X-20.47499 Y-50.59997
G01 X-20.47499 Y-48.99998
G01 X-20.46922 Y-48.94146
G01 X-20.45216 Y-48.88517
G01 X-20.42442 Y-48.83333
G01 X-20.38711 Y-48.78786
G01 X-20.34167 Y-48.75055
G01 X-20.28980 Y-48.72281
G01 X-20.23351 Y-48.70574
G01 X-20.17499 Y-48.69998
G01 X-18.57499 Y-48.69998
G01 X-18.51645 Y-48.70574
G01 X-18.46019 Y-48.72281
G01 X-18.40832 Y-48.75055
G01 X-18.36285 Y-48.78786
G01 X-18.32554 Y-48.83333
G01 X-18.29783 Y-48.88517
G01 X-18.28076 Y-48.94146
G01 X-18.27500 Y-48.99998
G01 X-18.27500 Y-50.59997
G04 P0 
G00 Z2.00000 M3 ; restart from line 2815

G00 X-23.35500 Y-49.79998 
G01 F30.00000

G01 Z-0.07500
G04 P0 
G01 F40.00000
G01 X-23.35500 Y-49.79998
G01 X-23.37181 Y-49.98547
G01 X-23.38327 Y-50.04316
G01 X-23.42881 Y-50.19322
G01 X-23.45131 Y-50.24755
G01 X-23.52523 Y-50.38585
G01 X-23.55792 Y-50.43477
G01 X-23.65741 Y-50.55598
G01 X-23.69899 Y-50.59759
G01 X-23.82022 Y-50.69705
G01 X-23.86912 Y-50.72974
G01 X-24.00742 Y-50.80366
G01 X-24.06175 Y-50.82616
G01 X-24.21184 Y-50.87168
G01 X-24.26952 Y-50.88316
G01 X-24.42558 Y-50.89855
G01 X-24.48438 Y-50.89855
G01 X-24.64046 Y-50.88316
G01 X-24.69815 Y-50.87168
G01 X-24.87595 Y-50.81626
G01 X-25.04087 Y-50.72974
G01 X-25.08976 Y-50.69705
G01 X-25.23282 Y-50.57780
G01 X-25.35207 Y-50.43477
G01 X-25.38473 Y-50.38585
G01 X-25.45867 Y-50.24755
G01 X-25.48118 Y-50.19322
G01 X-25.52670 Y-50.04316
G01 X-25.53815 Y-49.98547
G01 X-25.55354 Y-49.82939
G01 X-25.55354 Y-49.77059
G01 X-25.53815 Y-49.61451
G01 X-25.52670 Y-49.55682
G01 X-25.49843 Y-49.46360
G01 X-26.52636 Y-48.43569
G01 X-32.28056 Y-48.43569
G01 X-32.38932 Y-48.42220
G01 X-32.43509 Y-48.41121
G01 X-32.47857 Y-48.39320
G01 X-32.57433 Y-48.34026
G01 X-32.61004 Y-48.30983
G01 X-34.15248 Y-46.77059
G01 X-34.22368 Y-46.77059
G01 X-34.29208 Y-46.76529
G01 X-34.32122 Y-46.76097
G01 X-34.38728 Y-46.74245
G01 X-34.44161 Y-46.71995
G01 X-34.50145 Y-46.68632
G01 X-34.57722 Y-46.62414
G01 X-44.87042 Y-36.33094
G01 X-44.93260 Y-36.25517
G01 X-44.96623 Y-36.19533
G01 X-44.98873 Y-36.14100
G01 X-45.00725 Y-36.07493
G01 X-45.01688 Y-35.97740
G01 X-45.01688 Y-35.61806
G01 X-45.06077 Y-35.58205
G01 X-45.10235 Y-35.54047
G01 X-45.16453 Y-35.46470
G01 X-45.19719 Y-35.41578
G01 X-45.25599 Y-35.30272
G01 X-45.30151 Y-35.15266
G01 X-45.31545 Y-35.02599
G01 X-45.31545 Y-34.96719
G01 X-45.30151 Y-34.84052
G01 X-45.25599 Y-34.69043
G01 X-45.19719 Y-34.57738
G01 X-45.16453 Y-34.52848
G01 X-45.08256 Y-34.43089
G01 X-44.99783 Y-34.35947
G01 X-44.93608 Y-34.31626
G01 X-44.84964 Y-34.27006
G01 X-44.79531 Y-34.24756
G01 X-44.67296 Y-34.21197
G01 X-44.54629 Y-34.19803
G01 X-44.48749 Y-34.19803
G01 X-44.36082 Y-34.21197
G01 X-44.21073 Y-34.25749
G01 X-44.09768 Y-34.31626
G01 X-44.04878 Y-34.34895
G01 X-43.95119 Y-34.43089
G01 X-43.86925 Y-34.52848
G01 X-43.83656 Y-34.57738
G01 X-43.77779 Y-34.69043
G01 X-43.73225 Y-34.84052
G01 X-43.71833 Y-34.96719
G01 X-43.71833 Y-35.02599
G01 X-43.73225 Y-35.15266
G01 X-43.76786 Y-35.27501
G01 X-43.79036 Y-35.32934
G01 X-43.83656 Y-35.41578
G01 X-43.86925 Y-35.46470
G01 X-43.95119 Y-35.56226
G01 X-44.01685 Y-35.61804
G01 X-44.01685 Y-35.77029
G01 X-34.01522 Y-45.77194
G01 X-33.86574 Y-45.77700
G01 X-33.76206 Y-45.80707
G01 X-33.71855 Y-45.82508
G01 X-33.67842 Y-45.84969
G01 X-33.59201 Y-45.91703
G01 X-32.07344 Y-47.43567
G01 X-26.31928 Y-47.43567
G01 X-26.25085 Y-47.44098
G01 X-26.19314 Y-47.45243
G01 X-26.10132 Y-47.48632
G01 X-26.06672 Y-47.50481
G01 X-26.01783 Y-47.53747
G01 X-25.96571 Y-47.58212
G01 X-24.79131 Y-48.75654
G01 X-24.69815 Y-48.72827
G01 X-24.64046 Y-48.71679
G01 X-24.48438 Y-48.70143
G01 X-24.42558 Y-48.70143
G01 X-24.26952 Y-48.71679
G01 X-24.21184 Y-48.72827
G01 X-24.06175 Y-48.77379
G01 X-24.00742 Y-48.79630
G01 X-23.86912 Y-48.87024
G01 X-23.82022 Y-48.90290
G01 X-23.69899 Y-49.00239
G01 X-23.65741 Y-49.04400
G01 X-23.55792 Y-49.16521
G01 X-23.52523 Y-49.21410
G01 X-23.45131 Y-49.35243
G01 X-23.42881 Y-49.40676
G01 X-23.38327 Y-49.55682
G01 X-23.37181 Y-49.61451
G01 X-23.35500 Y-49.79998
G04 P0 
G00 Z2.00000 M3 ; restart from line 2953

G00 X-30.97644 Y-49.82939 
G01 F30.00000

G01 Z-0.07500
G04 P0 
G01 F40.00000
G01 X-30.97644 Y-49.82939
G01 X-30.99613 Y-50.01458
G01 X-31.04881 Y-50.19322
G01 X-31.07131 Y-50.24755
G01 X-31.14523 Y-50.38585
G01 X-31.17792 Y-50.43477
G01 X-31.29717 Y-50.57780
G01 X-31.44022 Y-50.69705
G01 X-31.48912 Y-50.72974
G01 X-31.62742 Y-50.80366
G01 X-31.68175 Y-50.82616
G01 X-31.86039 Y-50.87884
G01 X-32.04558 Y-50.89855
G01 X-32.10438 Y-50.89855
G01 X-32.28960 Y-50.87884
G01 X-32.46821 Y-50.82616
G01 X-32.52254 Y-50.80366
G01 X-32.66087 Y-50.72974
G01 X-32.70976 Y-50.69705
G01 X-32.85282 Y-50.57780
G01 X-32.97207 Y-50.43477
G01 X-33.00473 Y-50.38585
G01 X-33.07867 Y-50.24755
G01 X-33.10118 Y-50.19322
G01 X-33.15386 Y-50.01458
G01 X-33.17354 Y-49.82939
G01 X-33.17354 Y-49.77059
G01 X-33.15818 Y-49.61451
G01 X-33.14670 Y-49.55682
G01 X-33.09125 Y-49.37905
G01 X-33.00473 Y-49.21410
G01 X-32.97207 Y-49.16521
G01 X-32.85282 Y-49.02218
G01 X-32.70976 Y-48.90290
G01 X-32.66087 Y-48.87024
G01 X-32.52254 Y-48.79630
G01 X-32.46821 Y-48.77379
G01 X-32.28960 Y-48.72111
G01 X-32.10438 Y-48.70143
G01 X-32.04558 Y-48.70143
G01 X-31.88952 Y-48.71679
G01 X-31.83184 Y-48.72827
G01 X-31.65404 Y-48.78372
G01 X-31.48912 Y-48.87024
G01 X-31.44022 Y-48.90290
G01 X-31.29717 Y-49.02218
G01 X-31.17792 Y-49.16521
G01 X-31.14523 Y-49.21410
G01 X-31.07131 Y-49.35243
G01 X-31.04881 Y-49.40676
G01 X-30.99613 Y-49.58540
G01 X-30.97644 Y-49.77059
G01 X-30.97644 Y-49.82939
G04 P0 
G00 Z2.00000 M3 ; restart from line 3015

G00 X-33.68553 Y-47.60008 
G01 F30.00000

G01 Z-0.07500
G04 P0 
G01 F40.00000
G01 X-33.68553 Y-47.60008
G01 X-33.69945 Y-47.72675
G01 X-33.73506 Y-47.84910
G01 X-33.75757 Y-47.90346
G01 X-33.80377 Y-47.98990
G01 X-33.83646 Y-48.03879
G01 X-33.91840 Y-48.13638
G01 X-34.01598 Y-48.21832
G01 X-34.06488 Y-48.25101
G01 X-34.17794 Y-48.30978
G01 X-34.29945 Y-48.34816
G01 X-34.35713 Y-48.35964
G01 X-34.45469 Y-48.36925
G01 X-34.51349 Y-48.36925
G01 X-34.64016 Y-48.35533
G01 X-34.76252 Y-48.31972
G01 X-34.81685 Y-48.29721
G01 X-34.90328 Y-48.25101
G01 X-34.95218 Y-48.21832
G01 X-35.02795 Y-48.15614
G01 X-35.06955 Y-48.11456
G01 X-35.13173 Y-48.03879
G01 X-35.16439 Y-47.98990
G01 X-35.22320 Y-47.87684
G01 X-35.26155 Y-47.75533
G01 X-35.27303 Y-47.69764
G01 X-35.28263 Y-47.60008
G01 X-35.28263 Y-47.54128
G01 X-35.27707 Y-47.48477
G01 X-46.32620 Y-36.43361
G01 X-46.36861 Y-36.37966
G01 X-46.38375 Y-36.35441
G01 X-46.42475 Y-36.26548
G01 X-46.44326 Y-36.19942
G01 X-46.45289 Y-36.10186
G01 X-46.45287 Y-32.79417
G01 X-53.14699 Y-26.10005
G01 X-54.56939 Y-26.09860
G01 X-54.63753 Y-26.09042
G01 X-54.66608 Y-26.08329
G01 X-54.75793 Y-26.04938
G01 X-54.81777 Y-26.01577
G01 X-54.89354 Y-25.95359
G01 X-54.93819 Y-25.90147
G01 X-54.98935 Y-25.81798
G01 X-55.01185 Y-25.76363
G01 X-55.03037 Y-25.69759
G01 X-55.04000 Y-25.60005
G01 X-55.04000 Y-24.97564
G01 X-55.12587 Y-24.92974
G01 X-55.17477 Y-24.89705
G01 X-55.29600 Y-24.79759
G01 X-55.33758 Y-24.75598
G01 X-55.45460 Y-24.61113
G01 X-55.55625 Y-24.42093
G01 X-55.61170 Y-24.24316
G01 X-55.62318 Y-24.18547
G01 X-55.63855 Y-24.02939
G01 X-55.63855 Y-23.97059
G01 X-55.62318 Y-23.81451
G01 X-55.61170 Y-23.75682
G01 X-55.56618 Y-23.60676
G01 X-55.54368 Y-23.55243
G01 X-55.45460 Y-23.38885
G01 X-55.33758 Y-23.24397
G01 X-55.29600 Y-23.20239
G01 X-55.17477 Y-23.10290
G01 X-55.12587 Y-23.07024
G01 X-54.96093 Y-22.98372
G01 X-54.78315 Y-22.92828
G01 X-54.72547 Y-22.91679
G01 X-54.54000 Y-22.89998
G01 X-54.35450 Y-22.91679
G01 X-54.29682 Y-22.92828
G01 X-54.11904 Y-22.98372
G01 X-53.95412 Y-23.07024
G01 X-53.90520 Y-23.10290
G01 X-53.76217 Y-23.22218
G01 X-53.62537 Y-23.38885
G01 X-53.53632 Y-23.55243
G01 X-53.51381 Y-23.60676
G01 X-53.46827 Y-23.75682
G01 X-53.45681 Y-23.81451
G01 X-53.44142 Y-23.97059
G01 X-53.44142 Y-24.02939
G01 X-53.45681 Y-24.18547
G01 X-53.46827 Y-24.24316
G01 X-53.52372 Y-24.42093
G01 X-53.62537 Y-24.61113
G01 X-53.74239 Y-24.75598
G01 X-53.78399 Y-24.79759
G01 X-53.90520 Y-24.89705
G01 X-53.95412 Y-24.92974
G01 X-54.03997 Y-24.97564
G01 X-54.03997 Y-25.10003
G01 X-52.93987 Y-25.10003
G01 X-52.83116 Y-25.11351
G01 X-52.78537 Y-25.12451
G01 X-52.74188 Y-25.14252
G01 X-52.64600 Y-25.19550
G01 X-52.61026 Y-25.22606
G01 X-45.57956 Y-32.25533
G01 X-45.52201 Y-32.33453
G01 X-45.48101 Y-32.42346
G01 X-45.45818 Y-32.51865
G01 X-45.45287 Y-32.58706
G01 X-45.45287 Y-35.89477
G01 X-34.56996 Y-46.77768
G01 X-34.51349 Y-46.77214
G01 X-34.45469 Y-46.77214
G01 X-34.35713 Y-46.78175
G01 X-34.29945 Y-46.79320
G01 X-34.17794 Y-46.83158
G01 X-34.06488 Y-46.89038
G01 X-34.01598 Y-46.92305
G01 X-33.92482 Y-46.99917
G01 X-33.83646 Y-47.10257
G01 X-33.80377 Y-47.15149
G01 X-33.74499 Y-47.26455
G01 X-33.70661 Y-47.38606
G01 X-33.69513 Y-47.44375
G01 X-33.51644 Y-49.82939
G01 X-33.53613 Y-50.01458
G01 X-33.58881 Y-50.19322
G01 X-33.61131 Y-50.24755
G01 X-33.68523 Y-50.38585
G01 X-33.71792 Y-50.43477
G01 X-33.81741 Y-50.55598
G01 X-33.85899 Y-50.59759
G01 X-33.98022 Y-50.69705
G01 X-34.02912 Y-50.72974
G01 X-34.16742 Y-50.80366
G01 X-34.22175 Y-50.82616
G01 X-34.40039 Y-50.87884
G01 X-34.58558 Y-50.89855
G01 X-34.64438 Y-50.89855
G01 X-34.82960 Y-50.87884
G01 X-35.00821 Y-50.82616
G01 X-35.06254 Y-50.80366
G01 X-35.20087 Y-50.72974
G01 X-35.24976 Y-50.69705
G01 X-35.37100 Y-50.59759
G01 X-35.41258 Y-50.55598
G01 X-35.51207 Y-50.43477
G01 X-35.54473 Y-50.38585
G01 X-35.61867 Y-50.24755
G01 X-35.64118 Y-50.19322
G01 X-35.68670 Y-50.04316
G01 X-35.69818 Y-49.98547
G01 X-35.71354 Y-49.82939
G01 X-35.71354 Y-49.77059
G01 X-35.69818 Y-49.61451
G01 X-35.68670 Y-49.55682
G01 X-35.64118 Y-49.40676
G01 X-35.61867 Y-49.35243
G01 X-35.54473 Y-49.21410
G01 X-35.51207 Y-49.16521
G01 X-35.39282 Y-49.02218
G01 X-35.24976 Y-48.90290
G01 X-35.20087 Y-48.87024
G01 X-35.06254 Y-48.79630
G01 X-35.00821 Y-48.77379
G01 X-34.94232 Y-48.75380
G01 X-34.82960 Y-48.72111
G01 X-34.64438 Y-48.70143
G01 X-34.58558 Y-48.70143
G01 X-34.42952 Y-48.71679
G01 X-34.37184 Y-48.72827
G01 X-34.19404 Y-48.78372
G01 X-34.02912 Y-48.87024
G01 X-33.98022 Y-48.90290
G01 X-33.83717 Y-49.02218
G01 X-33.71792 Y-49.16521
G01 X-33.68523 Y-49.21410
G01 X-33.61131 Y-49.35243
G01 X-33.58881 Y-49.40676
G01 X-33.53613 Y-49.58540
G01 X-33.51644 Y-49.77059
G01 X-33.51644 Y-49.82939
G04 P0 
G00 Z2.00000 M3 ; restart from line 3203

G00 X-45.03913 Y-38.26408 
G01 F30.00000

G01 Z-0.07500
G04 P0 
G01 F40.00000
G01 X-45.03913 Y-38.26408
G01 X-45.05305 Y-38.39075
G01 X-45.08866 Y-38.51311
G01 X-45.11116 Y-38.56744
G01 X-45.15736 Y-38.65390
G01 X-45.19005 Y-38.70279
G01 X-45.27199 Y-38.80038
G01 X-45.33768 Y-38.85613
G01 X-45.33765 Y-40.65257
G01 X-45.35114 Y-40.76131
G01 X-45.36214 Y-40.80711
G01 X-45.38015 Y-40.85059
G01 X-45.43313 Y-40.94645
G01 X-45.46366 Y-40.98221
G01 X-51.71996 Y-47.24192
G01 X-51.71996 Y-47.53498
G01 X-51.41999 Y-47.53498
G01 X-51.36144 Y-47.54075
G01 X-51.30518 Y-47.55782
G01 X-51.25331 Y-47.58555
G01 X-51.20785 Y-47.62287
G01 X-51.17051 Y-47.66831
G01 X-51.14282 Y-47.72017
G01 X-51.12573 Y-47.77646
G01 X-51.11999 Y-47.83498
G01 X-51.11999 Y-49.43498
G01 X-51.12573 Y-49.49353
G01 X-51.14282 Y-49.54979
G01 X-51.17051 Y-49.60165
G01 X-51.20785 Y-49.64712
G01 X-51.25331 Y-49.68443
G01 X-51.30518 Y-49.71214
G01 X-51.36144 Y-49.72921
G01 X-51.41999 Y-49.73498
G01 X-53.01996 Y-49.73498
G01 X-53.07851 Y-49.72921
G01 X-53.13479 Y-49.71214
G01 X-53.18666 Y-49.68443
G01 X-53.23213 Y-49.64712
G01 X-53.26944 Y-49.60165
G01 X-53.29715 Y-49.54979
G01 X-53.31422 Y-49.49353
G01 X-53.31998 Y-49.43498
G01 X-53.31998 Y-47.83498
G01 X-53.31422 Y-47.77646
G01 X-53.29715 Y-47.72017
G01 X-53.26944 Y-47.66831
G01 X-53.23213 Y-47.62287
G01 X-53.18666 Y-47.58555
G01 X-53.13479 Y-47.55782
G01 X-53.07851 Y-47.54075
G01 X-53.01996 Y-47.53498
G01 X-52.71999 Y-47.53498
G01 X-52.71999 Y-47.03488
G01 X-52.71628 Y-46.98794
G01 X-52.69548 Y-46.88035
G01 X-52.67747 Y-46.83686
G01 X-52.62451 Y-46.74100
G01 X-52.59395 Y-46.70524
G01 X-46.33768 Y-40.44554
G01 X-46.33765 Y-38.85616
G01 X-46.40336 Y-38.80038
G01 X-46.48533 Y-38.70279
G01 X-46.51799 Y-38.65390
G01 X-46.56419 Y-38.56744
G01 X-46.58670 Y-38.51311
G01 X-46.62231 Y-38.39075
G01 X-46.63625 Y-38.26408
G01 X-46.63625 Y-38.20528
G01 X-46.62663 Y-38.10775
G01 X-46.61517 Y-38.05006
G01 X-46.57679 Y-37.92855
G01 X-46.51799 Y-37.81549
G01 X-46.48533 Y-37.76657
G01 X-46.40336 Y-37.66901
G01 X-46.30580 Y-37.58705
G01 X-46.25688 Y-37.55438
G01 X-46.14382 Y-37.49558
G01 X-46.02231 Y-37.45720
G01 X-45.96463 Y-37.44575
G01 X-45.86709 Y-37.43612
G01 X-45.80829 Y-37.43612
G01 X-45.68162 Y-37.45006
G01 X-45.55927 Y-37.48568
G01 X-45.50494 Y-37.50818
G01 X-45.41848 Y-37.55438
G01 X-45.36958 Y-37.58705
G01 X-45.27199 Y-37.66901
G01 X-45.19005 Y-37.76657
G01 X-45.15736 Y-37.81549
G01 X-45.09859 Y-37.92855
G01 X-45.06021 Y-38.05006
G01 X-45.04873 Y-38.10775
G01 X-45.03913 Y-38.20528
G01 X-45.03913 Y-38.26408
G04 P0 
G00 Z2.00000 M3 ; restart from line 3307

G00 X-49.88682 Y-37.61057 
G01 F30.00000

G01 Z-0.07500
G04 P0 
G01 F40.00000
G01 X-49.88682 Y-37.61057
G01 X-49.89053 Y-37.65751
G01 X-49.90150 Y-37.70328
G01 X-49.93886 Y-37.80627
G01 X-49.96345 Y-37.84643
G01 X-50.03081 Y-37.93284
G01 X-51.71996 Y-39.62197
G01 X-51.71996 Y-40.03934
G01 X-51.63411 Y-40.08524
G01 X-51.58522 Y-40.11790
G01 X-51.46398 Y-40.21739
G01 X-51.42238 Y-40.25897
G01 X-51.32291 Y-40.38021
G01 X-51.29025 Y-40.42910
G01 X-51.21631 Y-40.56743
G01 X-51.19380 Y-40.62176
G01 X-51.14112 Y-40.80038
G01 X-51.12144 Y-40.98559
G01 X-51.12144 Y-41.04439
G01 X-51.14112 Y-41.22958
G01 X-51.19380 Y-41.40822
G01 X-51.21631 Y-41.46255
G01 X-51.30536 Y-41.62610
G01 X-51.44214 Y-41.79280
G01 X-51.58522 Y-41.91206
G01 X-51.63411 Y-41.94475
G01 X-51.79903 Y-42.03126
G01 X-52.00538 Y-42.09385
G01 X-52.19055 Y-42.11353
G01 X-52.24937 Y-42.11353
G01 X-52.43457 Y-42.09385
G01 X-52.64092 Y-42.03126
G01 X-52.80586 Y-41.94475
G01 X-52.85476 Y-41.91206
G01 X-52.97599 Y-41.81257
G01 X-53.01757 Y-41.77099
G01 X-53.13462 Y-41.62610
G01 X-53.22364 Y-41.46255
G01 X-53.24615 Y-41.40822
G01 X-53.29885 Y-41.22958
G01 X-53.31854 Y-41.04439
G01 X-53.31854 Y-40.98559
G01 X-53.30317 Y-40.82951
G01 X-53.29169 Y-40.77183
G01 X-53.24615 Y-40.62176
G01 X-53.22364 Y-40.56743
G01 X-53.13462 Y-40.40386
G01 X-53.01757 Y-40.25897
G01 X-52.97599 Y-40.21739
G01 X-52.85476 Y-40.11790
G01 X-52.80586 Y-40.08524
G01 X-52.71996 Y-40.03932
G01 X-52.71999 Y-39.41488
G01 X-52.70650 Y-39.30614
G01 X-52.69548 Y-39.26035
G01 X-52.67747 Y-39.21686
G01 X-52.62453 Y-39.12108
G01 X-52.59410 Y-39.08539
G01 X-50.88435 Y-37.37234
G01 X-50.88435 Y-30.23047
G01 X-53.39039 Y-27.72448
G01 X-53.44688 Y-27.73004
G01 X-53.50568 Y-27.73004
G01 X-53.60325 Y-27.72044
G01 X-53.66093 Y-27.70896
G01 X-53.78244 Y-27.67058
G01 X-53.89550 Y-27.61181
G01 X-53.94439 Y-27.57912
G01 X-54.02016 Y-27.51694
G01 X-54.06174 Y-27.47536
G01 X-54.14147 Y-27.37594
G01 X-54.20281 Y-27.26426
G01 X-54.22532 Y-27.20990
G01 X-54.25377 Y-27.11613
G01 X-54.26525 Y-27.05844
G01 X-54.27629 Y-26.93149
G01 X-54.26525 Y-26.80454
G01 X-54.25377 Y-26.74686
G01 X-54.22532 Y-26.65306
G01 X-54.20281 Y-26.59873
G01 X-54.14147 Y-26.48704
G01 X-54.04198 Y-26.36581
G01 X-53.94439 Y-26.28384
G01 X-53.89550 Y-26.25118
G01 X-53.80904 Y-26.20498
G01 X-53.75471 Y-26.18245
G01 X-53.63235 Y-26.14686
G01 X-53.50568 Y-26.13294
G01 X-53.44688 Y-26.13294
G01 X-53.32021 Y-26.14686
G01 X-53.19786 Y-26.18245
G01 X-53.14351 Y-26.20498
G01 X-53.05709 Y-26.25118
G01 X-53.00817 Y-26.28384
G01 X-52.91061 Y-26.36581
G01 X-52.81112 Y-26.48704
G01 X-52.74978 Y-26.59873
G01 X-52.72728 Y-26.65306
G01 X-52.69878 Y-26.74686
G01 X-52.68732 Y-26.80454
G01 X-52.67627 Y-26.93149
G01 X-52.68328 Y-27.01734
G01 X-50.03081 Y-29.66982
G01 X-49.96345 Y-29.75623
G01 X-49.93886 Y-29.79638
G01 X-49.92086 Y-29.83987
G01 X-49.89053 Y-29.94515
G01 X-49.88682 Y-29.99209
G01 X-49.88682 Y-37.61057
G04 P0 
G00 Z2.00000 M3 ; restart from line 3425

G00 X-53.66144 Y-41.04439 
G01 F30.00000

G01 Z-0.07500
G04 P0 
G01 F40.00000
G01 X-53.66144 Y-41.04439
G01 X-53.68112 Y-41.22958
G01 X-53.73380 Y-41.40822
G01 X-53.75631 Y-41.46255
G01 X-53.84536 Y-41.62610
G01 X-53.98216 Y-41.79280
G01 X-54.12522 Y-41.91206
G01 X-54.17411 Y-41.94475
G01 X-54.33903 Y-42.03126
G01 X-54.54538 Y-42.09385
G01 X-54.73057 Y-42.11353
G01 X-54.78940 Y-42.11353
G01 X-54.97459 Y-42.09385
G01 X-55.18094 Y-42.03126
G01 X-55.34586 Y-41.94475
G01 X-55.39476 Y-41.91206
G01 X-55.53781 Y-41.79280
G01 X-55.67462 Y-41.62610
G01 X-55.76367 Y-41.46255
G01 X-55.78617 Y-41.40822
G01 X-55.83885 Y-41.22958
G01 X-55.85854 Y-41.04439
G01 X-55.85854 Y-40.98559
G01 X-55.84317 Y-40.82951
G01 X-55.83169 Y-40.77183
G01 X-55.77627 Y-40.59403
G01 X-55.67462 Y-40.40386
G01 X-55.53781 Y-40.23718
G01 X-55.39476 Y-40.11790
G01 X-55.34586 Y-40.08524
G01 X-55.18094 Y-39.99873
G01 X-54.97459 Y-39.93612
G01 X-54.78940 Y-39.91643
G01 X-54.73057 Y-39.91643
G01 X-54.54538 Y-39.93612
G01 X-54.33903 Y-39.99873
G01 X-54.17411 Y-40.08524
G01 X-54.12522 Y-40.11790
G01 X-53.98216 Y-40.23718
G01 X-53.84536 Y-40.40386
G01 X-53.75631 Y-40.56743
G01 X-53.73380 Y-40.62176
G01 X-53.68112 Y-40.80038
G01 X-53.66144 Y-40.98559
G01 X-53.66144 Y-41.04439
G04 P0 
G00 Z2.00000 M3 ; restart from line 3479

G00 X-56.20144 Y-41.04439 
G01 F30.00000

G01 Z-0.07500
G04 P0 
G01 F40.00000
G01 X-56.20144 Y-41.04439
G01 X-56.22112 Y-41.22958
G01 X-56.27380 Y-41.40822
G01 X-56.29631 Y-41.46255
G01 X-56.38536 Y-41.62610
G01 X-56.50240 Y-41.77099
G01 X-56.54398 Y-41.81257
G01 X-56.66522 Y-41.91206
G01 X-56.71411 Y-41.94475
G01 X-56.85241 Y-42.01866
G01 X-56.90674 Y-42.04117
G01 X-57.08538 Y-42.09385
G01 X-57.27057 Y-42.11353
G01 X-57.32940 Y-42.11353
G01 X-57.51459 Y-42.09385
G01 X-57.63633 Y-42.05844
G01 X-59.54672 Y-43.96882
G01 X-59.63313 Y-44.03618
G01 X-59.67329 Y-44.06077
G01 X-59.77628 Y-44.09813
G01 X-59.82203 Y-44.10911
G01 X-59.86892 Y-44.11281
G01 X-71.42902 Y-44.11528
G01 X-71.50669 Y-44.10680
G01 X-74.17989 Y-44.10680
G01 X-78.65440 Y-48.58128
G01 X-78.64739 Y-48.66719
G01 X-78.65844 Y-48.79414
G01 X-78.66992 Y-48.85182
G01 X-78.69837 Y-48.94562
G01 X-78.72087 Y-48.99995
G01 X-78.78221 Y-49.11164
G01 X-78.86192 Y-49.21105
G01 X-78.90353 Y-49.25263
G01 X-78.97929 Y-49.31484
G01 X-79.02819 Y-49.34750
G01 X-79.14124 Y-49.40630
G01 X-79.26276 Y-49.44466
G01 X-79.32044 Y-49.45614
G01 X-79.41798 Y-49.46574
G01 X-79.47680 Y-49.46574
G01 X-79.57434 Y-49.45614
G01 X-79.63202 Y-49.44466
G01 X-79.72582 Y-49.41621
G01 X-79.78016 Y-49.39370
G01 X-79.86659 Y-49.34750
G01 X-79.91549 Y-49.31484
G01 X-80.01307 Y-49.23287
G01 X-80.11257 Y-49.11164
G01 X-80.17391 Y-48.99995
G01 X-80.19641 Y-48.94562
G01 X-80.22486 Y-48.85182
G01 X-80.23634 Y-48.79414
G01 X-80.24594 Y-48.69660
G01 X-80.24594 Y-48.63777
G01 X-80.23634 Y-48.54024
G01 X-80.22486 Y-48.48255
G01 X-80.19641 Y-48.38875
G01 X-80.17391 Y-48.33442
G01 X-80.12770 Y-48.24799
G01 X-80.09501 Y-48.19909
G01 X-80.01307 Y-48.10150
G01 X-79.91549 Y-48.01954
G01 X-79.86659 Y-47.98687
G01 X-79.78016 Y-47.94067
G01 X-79.72582 Y-47.91817
G01 X-79.63202 Y-47.88972
G01 X-79.57434 Y-47.87824
G01 X-79.47680 Y-47.86864
G01 X-79.41798 Y-47.86864
G01 X-79.36151 Y-47.87420
G01 X-74.74054 Y-43.25323
G01 X-74.70475 Y-43.22265
G01 X-74.62436 Y-43.16684
G01 X-74.53023 Y-43.12783
G01 X-74.43391 Y-43.11048
G01 X-74.38700 Y-43.10677
G01 X-71.43758 Y-43.10677
G01 X-71.35998 Y-43.11526
G01 X-60.10737 Y-43.11526
G01 X-58.34344 Y-41.35133
G01 X-58.37885 Y-41.22958
G01 X-58.39854 Y-41.04439
G01 X-58.39854 Y-40.98559
G01 X-58.38317 Y-40.82951
G01 X-58.37169 Y-40.77183
G01 X-58.31627 Y-40.59403
G01 X-58.21462 Y-40.40386
G01 X-58.07781 Y-40.23718
G01 X-57.93476 Y-40.11790
G01 X-57.88586 Y-40.08524
G01 X-57.74756 Y-40.01130
G01 X-57.69323 Y-39.98879
G01 X-57.54314 Y-39.94328
G01 X-57.48546 Y-39.93180
G01 X-57.32940 Y-39.91643
G01 X-57.27057 Y-39.91643
G01 X-57.11452 Y-39.93180
G01 X-57.05683 Y-39.94328
G01 X-56.87903 Y-39.99873
G01 X-56.71411 Y-40.08524
G01 X-56.66522 Y-40.11790
G01 X-56.52216 Y-40.23718
G01 X-56.40291 Y-40.38021
G01 X-56.37025 Y-40.42910
G01 X-56.29631 Y-40.56743
G01 X-56.27380 Y-40.62176
G01 X-56.22112 Y-40.80038
G01 X-56.20144 Y-40.98559
G01 X-56.20144 Y-41.04439
G04 P0 
G00 Z2.00000 M3 ; restart from line 3598

G00 X-58.74144 Y-41.04439 
G01 F30.00000

G01 Z-0.07500
G04 P0 
G01 F40.00000
G01 X-58.74144 Y-41.04439
G01 X-58.76112 Y-41.22958
G01 X-58.81380 Y-41.40822
G01 X-58.83631 Y-41.46255
G01 X-58.92536 Y-41.62610
G01 X-59.04240 Y-41.77099
G01 X-59.08398 Y-41.81257
G01 X-59.20522 Y-41.91206
G01 X-59.25411 Y-41.94475
G01 X-59.41903 Y-42.03126
G01 X-59.62538 Y-42.09385
G01 X-59.81057 Y-42.11353
G01 X-59.86940 Y-42.11353
G01 X-60.02546 Y-42.09816
G01 X-60.08314 Y-42.08671
G01 X-60.23323 Y-42.04117
G01 X-60.28756 Y-42.01866
G01 X-60.42586 Y-41.94475
G01 X-60.47476 Y-41.91206
G01 X-60.61781 Y-41.79280
G01 X-60.75462 Y-41.62610
G01 X-60.84367 Y-41.46255
G01 X-60.86617 Y-41.40822
G01 X-60.91885 Y-41.22958
G01 X-60.93854 Y-41.04439
G01 X-60.93854 Y-40.98559
G01 X-60.92317 Y-40.82951
G01 X-60.91169 Y-40.77183
G01 X-60.86617 Y-40.62176
G01 X-60.84367 Y-40.56743
G01 X-60.75462 Y-40.40386
G01 X-60.63757 Y-40.25897
G01 X-60.59599 Y-40.21739
G01 X-60.47476 Y-40.11790
G01 X-60.42586 Y-40.08524
G01 X-60.33996 Y-40.03932
G01 X-60.33999 Y-39.62197
G01 X-60.65703 Y-39.30493
G01 X-60.72439 Y-39.21851
G01 X-60.74898 Y-39.17836
G01 X-60.78634 Y-39.07536
G01 X-60.80008 Y-39.00620
G01 X-60.80349 Y-38.95138
G01 X-60.80349 Y-38.57887
G01 X-60.86917 Y-38.52306
G01 X-60.88896 Y-38.50127
G01 X-60.95114 Y-38.42550
G01 X-60.98380 Y-38.37658
G01 X-61.03000 Y-38.29014
G01 X-61.05251 Y-38.23581
G01 X-61.08095 Y-38.14201
G01 X-61.09244 Y-38.08433
G01 X-61.10280 Y-37.97165
G01 X-61.09244 Y-37.83043
G01 X-61.08095 Y-37.77275
G01 X-61.05251 Y-37.67897
G01 X-61.03000 Y-37.62464
G01 X-60.98380 Y-37.53818
G01 X-60.95114 Y-37.48928
G01 X-60.88896 Y-37.41351
G01 X-60.84735 Y-37.37193
G01 X-60.77158 Y-37.30976
G01 X-60.72269 Y-37.27707
G01 X-60.63625 Y-37.23086
G01 X-60.58192 Y-37.20836
G01 X-60.45957 Y-37.17275
G01 X-60.33290 Y-37.15883
G01 X-60.27407 Y-37.15883
G01 X-60.14740 Y-37.17275
G01 X-59.99734 Y-37.21829
G01 X-59.88428 Y-37.27707
G01 X-59.83539 Y-37.30976
G01 X-59.73780 Y-37.39170
G01 X-59.63831 Y-37.51293
G01 X-59.57697 Y-37.62464
G01 X-59.55447 Y-37.67897
G01 X-59.52602 Y-37.77275
G01 X-59.51454 Y-37.83043
G01 X-59.50349 Y-37.95738
G01 X-59.51454 Y-38.08433
G01 X-59.52602 Y-38.14201
G01 X-59.55447 Y-38.23581
G01 X-59.57697 Y-38.29014
G01 X-59.63831 Y-38.40185
G01 X-59.73780 Y-38.52306
G01 X-59.80346 Y-38.57884
G01 X-59.80346 Y-38.74427
G01 X-59.48642 Y-39.06131
G01 X-59.41906 Y-39.14772
G01 X-59.38462 Y-39.20927
G01 X-59.36102 Y-39.27163
G01 X-59.35345 Y-39.30614
G01 X-59.33996 Y-39.41486
G01 X-59.33996 Y-40.03934
G01 X-59.25411 Y-40.08524
G01 X-59.20522 Y-40.11790
G01 X-59.06216 Y-40.23718
G01 X-58.94291 Y-40.38021
G01 X-58.91025 Y-40.42910
G01 X-58.83631 Y-40.56743
G01 X-58.81380 Y-40.62176
G01 X-58.76828 Y-40.77183
G01 X-58.75680 Y-40.82951
G01 X-58.74144 Y-40.98559
G01 X-58.74144 Y-41.04439
G04 P0 
G00 Z2.00000 M3 ; restart from line 3712

G00 X-62.10437 Y-37.75212 
G01 F30.00000

G01 Z-0.07500
G04 P0 
G01 F40.00000
G01 X-62.10437 Y-37.75212
G01 X-62.11484 Y-37.86693
G01 X-62.12632 Y-37.92461
G01 X-62.15477 Y-38.01842
G01 X-62.17727 Y-38.07275
G01 X-62.23861 Y-38.18445
G01 X-62.31834 Y-38.28387
G01 X-62.35992 Y-38.32545
G01 X-62.43569 Y-38.38763
G01 X-62.48458 Y-38.42029
G01 X-62.57102 Y-38.46650
G01 X-62.62535 Y-38.48900
G01 X-62.71915 Y-38.51747
G01 X-62.77684 Y-38.52893
G01 X-62.87437 Y-38.53853
G01 X-62.93320 Y-38.53853
G01 X-63.03073 Y-38.52893
G01 X-63.08842 Y-38.51747
G01 X-63.20993 Y-38.47910
G01 X-63.32299 Y-38.42029
G01 X-63.37188 Y-38.38763
G01 X-63.44765 Y-38.32545
G01 X-63.48926 Y-38.28387
G01 X-63.56896 Y-38.18445
G01 X-63.63030 Y-38.07275
G01 X-63.65281 Y-38.01842
G01 X-63.68125 Y-37.92461
G01 X-63.69274 Y-37.86693
G01 X-63.70378 Y-37.73998
G01 X-63.69677 Y-37.65408
G01 X-67.35303 Y-33.99785
G01 X-67.41523 Y-34.02541
G01 X-67.52283 Y-34.04619
G01 X-67.56979 Y-34.04989
G01 X-71.02820 Y-34.04987
G01 X-80.88401 Y-43.90225
G01 X-80.91980 Y-43.93281
G01 X-81.01566 Y-43.98579
G01 X-81.05915 Y-44.00380
G01 X-81.10494 Y-44.01480
G01 X-81.21368 Y-44.02828
G01 X-86.40117 Y-44.02828
G01 X-91.99664 Y-49.62375
G01 X-91.95923 Y-49.74707
G01 X-91.94777 Y-49.80475
G01 X-91.93144 Y-49.97059
G01 X-91.93144 Y-50.02939
G01 X-91.94777 Y-50.19523
G01 X-91.95923 Y-50.25291
G01 X-92.01752 Y-50.44008
G01 X-92.10865 Y-50.61364
G01 X-92.14134 Y-50.66254
G01 X-92.24703 Y-50.79134
G01 X-92.28864 Y-50.83294
G01 X-92.41744 Y-50.93863
G01 X-92.46634 Y-50.97132
G01 X-92.61328 Y-51.04986
G01 X-92.66763 Y-51.07236
G01 X-92.82707 Y-51.12073
G01 X-92.88475 Y-51.13218
G01 X-93.05059 Y-51.14854
G01 X-93.10939 Y-51.14854
G01 X-93.30433 Y-51.12789
G01 X-93.49235 Y-51.07236
G01 X-93.54668 Y-51.04986
G01 X-93.69364 Y-50.97132
G01 X-93.74254 Y-50.93863
G01 X-93.87134 Y-50.83294
G01 X-93.91292 Y-50.79134
G01 X-94.01863 Y-50.66254
G01 X-94.05132 Y-50.61364
G01 X-94.14246 Y-50.44008
G01 X-94.20073 Y-50.25291
G01 X-94.21221 Y-50.19523
G01 X-94.22854 Y-50.02939
G01 X-94.22854 Y-49.97059
G01 X-94.20789 Y-49.77564
G01 X-94.15236 Y-49.58763
G01 X-94.12986 Y-49.53328
G01 X-94.05132 Y-49.38634
G01 X-94.01863 Y-49.33744
G01 X-93.89316 Y-49.18682
G01 X-93.74254 Y-49.06134
G01 X-93.69364 Y-49.02865
G01 X-93.54668 Y-48.95012
G01 X-93.49235 Y-48.92761
G01 X-93.30433 Y-48.87209
G01 X-93.10939 Y-48.85144
G01 X-93.05059 Y-48.85144
G01 X-92.85564 Y-48.87209
G01 X-92.70370 Y-48.91667
G01 X-86.93790 Y-43.15427
G01 X-86.90214 Y-43.12374
G01 X-86.80628 Y-43.07075
G01 X-86.76279 Y-43.05275
G01 X-86.71700 Y-43.04175
G01 X-86.60826 Y-43.02826
G01 X-81.42074 Y-43.02826
G01 X-71.56493 Y-33.17591
G01 X-71.52914 Y-33.14535
G01 X-71.43328 Y-33.09236
G01 X-71.38980 Y-33.07436
G01 X-71.34400 Y-33.06336
G01 X-71.23527 Y-33.04987
G01 X-67.77693 Y-33.04990
G01 X-67.74000 Y-33.01294
G01 X-67.74000 Y-32.59564
G01 X-67.82587 Y-32.54974
G01 X-67.87477 Y-32.51705
G01 X-67.99600 Y-32.41759
G01 X-68.03758 Y-32.37598
G01 X-68.13707 Y-32.25475
G01 X-68.16974 Y-32.20585
G01 X-68.24368 Y-32.06755
G01 X-68.26618 Y-32.01322
G01 X-68.31170 Y-31.86316
G01 X-68.32318 Y-31.80547
G01 X-68.33855 Y-31.64939
G01 X-68.33855 Y-31.59059
G01 X-68.32318 Y-31.43451
G01 X-68.31170 Y-31.37682
G01 X-68.26618 Y-31.22676
G01 X-68.24368 Y-31.17243
G01 X-68.15460 Y-31.00885
G01 X-68.01780 Y-30.84218
G01 X-67.87477 Y-30.72290
G01 X-67.82587 Y-30.69024
G01 X-67.66093 Y-30.60372
G01 X-67.45458 Y-30.54111
G01 X-67.26939 Y-30.52143
G01 X-67.21058 Y-30.52143
G01 X-67.02539 Y-30.54111
G01 X-66.81904 Y-30.60372
G01 X-66.65412 Y-30.69024
G01 X-66.60520 Y-30.72290
G01 X-66.46217 Y-30.84218
G01 X-66.32537 Y-31.00885
G01 X-66.23632 Y-31.17243
G01 X-66.21381 Y-31.22676
G01 X-66.16113 Y-31.40540
G01 X-66.14142 Y-31.59059
G01 X-66.14142 Y-31.64939
G01 X-66.15681 Y-31.80547
G01 X-66.16827 Y-31.86316
G01 X-66.21381 Y-32.01322
G01 X-66.23632 Y-32.06755
G01 X-66.31023 Y-32.20585
G01 X-66.34292 Y-32.25475
G01 X-66.44239 Y-32.37598
G01 X-66.48399 Y-32.41759
G01 X-66.60520 Y-32.51705
G01 X-66.65412 Y-32.54974
G01 X-66.73997 Y-32.59564
G01 X-66.73997 Y-33.19668
G01 X-62.98966 Y-36.94699
G01 X-62.93320 Y-36.94143
G01 X-62.87437 Y-36.94143
G01 X-62.77684 Y-36.95103
G01 X-62.71915 Y-36.96251
G01 X-62.62535 Y-36.99096
G01 X-62.57102 Y-37.01346
G01 X-62.48458 Y-37.05967
G01 X-62.43569 Y-37.09236
G01 X-62.33810 Y-37.17430
G01 X-62.23861 Y-37.29553
G01 X-62.17727 Y-37.40722
G01 X-62.15477 Y-37.46157
G01 X-62.12632 Y-37.55535
G01 X-62.11484 Y-37.61303
G01 X-62.10437 Y-37.75212
G04 P0 
G00 Z2.00000 M3 ; restart from line 3891

G00 X-63.82144 Y-41.04439 
G01 F30.00000

G01 Z-0.07500
G04 P0 
G01 F40.00000
G01 X-63.82144 Y-41.04439
G01 X-63.84112 Y-41.22958
G01 X-63.89380 Y-41.40822
G01 X-63.91631 Y-41.46255
G01 X-64.00536 Y-41.62610
G01 X-64.12240 Y-41.77099
G01 X-64.16398 Y-41.81257
G01 X-64.28522 Y-41.91206
G01 X-64.33411 Y-41.94475
G01 X-64.49903 Y-42.03126
G01 X-64.70538 Y-42.09385
G01 X-64.89057 Y-42.11353
G01 X-64.94940 Y-42.11353
G01 X-65.13459 Y-42.09385
G01 X-65.25633 Y-42.05844
G01 X-66.16662 Y-42.96872
G01 X-66.25303 Y-43.03608
G01 X-66.29319 Y-43.06067
G01 X-66.39618 Y-43.09803
G01 X-66.44188 Y-43.10901
G01 X-66.48872 Y-43.11272
G01 X-71.01472 Y-43.11518
G01 X-71.09249 Y-43.10667
G01 X-74.74717 Y-43.10670
G01 X-77.52273 Y-45.88223
G01 X-77.57485 Y-45.92688
G01 X-77.62375 Y-45.95955
G01 X-77.65834 Y-45.97804
G01 X-77.75019 Y-46.01192
G01 X-77.80787 Y-46.02338
G01 X-77.87630 Y-46.02869
G01 X-81.67146 Y-46.02869
G01 X-86.01814 Y-50.37328
G01 X-86.04844 Y-50.39817
G01 X-86.13193 Y-50.44933
G01 X-86.22378 Y-50.48321
G01 X-86.28146 Y-50.49467
G01 X-86.34989 Y-50.49998
G01 X-86.84999 Y-50.49998
G01 X-86.84999 Y-50.84999
G01 X-86.85576 Y-50.90848
G01 X-86.87283 Y-50.96480
G01 X-86.90054 Y-51.01666
G01 X-86.91298 Y-51.03180
G01 X-87.14999 Y-51.14999
G01 X-88.84999 Y-51.14999
G01 X-89.07968 Y-51.04072
G01 X-89.09944 Y-51.01666
G01 X-89.12715 Y-50.96480
G01 X-89.14422 Y-50.90848
G01 X-89.14999 Y-50.84999
G01 X-89.14999 Y-49.14999
G01 X-89.14023 Y-49.07831
G01 X-88.92167 Y-48.85974
G01 X-88.84999 Y-48.84999
G01 X-87.14999 Y-48.84999
G01 X-87.09790 Y-48.85454
G01 X-87.04737 Y-48.86808
G01 X-86.99998 Y-48.89017
G01 X-86.95715 Y-48.92017
G01 X-86.92017 Y-48.95715
G01 X-86.89017 Y-48.99998
G01 X-86.86808 Y-49.04737
G01 X-86.85454 Y-49.09790
G01 X-86.84999 Y-49.14999
G01 X-86.84999 Y-49.49995
G01 X-86.55698 Y-49.49995
G01 X-82.23212 Y-45.17512
G01 X-82.18000 Y-45.13047
G01 X-82.13110 Y-45.09780
G01 X-82.09651 Y-45.07931
G01 X-82.00466 Y-45.04543
G01 X-81.94698 Y-45.03397
G01 X-81.87858 Y-45.02866
G01 X-78.08338 Y-45.02866
G01 X-75.30782 Y-42.25313
G01 X-75.25570 Y-42.20848
G01 X-75.20681 Y-42.17581
G01 X-75.11788 Y-42.13482
G01 X-75.02268 Y-42.11198
G01 X-74.95428 Y-42.10667
G01 X-71.02338 Y-42.10667
G01 X-70.94576 Y-42.11518
G01 X-66.72727 Y-42.11518
G01 X-65.96344 Y-41.35133
G01 X-65.99885 Y-41.22958
G01 X-66.01854 Y-41.04439
G01 X-66.01854 Y-40.98559
G01 X-66.00317 Y-40.82951
G01 X-65.99169 Y-40.77183
G01 X-65.93627 Y-40.59403
G01 X-65.84973 Y-40.42910
G01 X-65.81706 Y-40.38021
G01 X-65.71757 Y-40.25897
G01 X-65.67599 Y-40.21739
G01 X-65.55476 Y-40.11790
G01 X-65.50586 Y-40.08524
G01 X-65.36756 Y-40.01130
G01 X-65.31323 Y-39.98879
G01 X-65.13459 Y-39.93612
G01 X-64.94940 Y-39.91643
G01 X-64.89057 Y-39.91643
G01 X-64.70538 Y-39.93612
G01 X-64.49903 Y-39.99873
G01 X-64.33411 Y-40.08524
G01 X-64.28522 Y-40.11790
G01 X-64.14216 Y-40.23718
G01 X-64.00536 Y-40.40386
G01 X-63.91631 Y-40.56743
G01 X-63.89380 Y-40.62176
G01 X-63.84112 Y-40.80038
G01 X-63.82144 Y-40.98559
G01 X-63.82144 Y-41.04439
G04 P0 
G00 Z2.00000 M3 ; restart from line 4013

G00 X-66.36144 Y-41.04439 
G01 F30.00000

G01 Z-0.07500
G04 P0 
G01 F40.00000
G01 X-66.36144 Y-41.04439
G01 X-66.38112 Y-41.22958
G01 X-66.43380 Y-41.40822
G01 X-66.45631 Y-41.46255
G01 X-66.54536 Y-41.62610
G01 X-66.68216 Y-41.79280
G01 X-66.82522 Y-41.91206
G01 X-66.87411 Y-41.94475
G01 X-67.03903 Y-42.03126
G01 X-67.24538 Y-42.09385
G01 X-67.43057 Y-42.11353
G01 X-67.48940 Y-42.11353
G01 X-67.67459 Y-42.09385
G01 X-67.88094 Y-42.03126
G01 X-68.04586 Y-41.94475
G01 X-68.09476 Y-41.91206
G01 X-68.23781 Y-41.79280
G01 X-68.37462 Y-41.62610
G01 X-68.46367 Y-41.46255
