( pcb2gcode 2.5.0 )
( Software-independent Gcode )

G94 ( Millimeters per minute feed rate. )
G21 ( Units == Millimeters. )

G90 ( Absolute coordinates. )
G00 S700 ( RPM spindle speed. )
G01 F40.00000 ( Feedrate. )


G53 G00 Z0.00000 (Retract to tool change height)
T1
M5      (Spindle stop.)
G04 P1.00000 (Wait for spindle to stop)
(MSG, Change tool bit to mill diameter 0.50000mm)
M0      (Temporary machine stop.)
M3 ( Spindle on clockwise. )
G04 P1.00000 (Wait for spindle to get up to speed)
G04 P0 ( dwell for no time -- G64 should not smooth over this point )
G00 Z2.00000 ( retract )

G00 X-0.30000 Y-0.50000 ( rapid move to begin. )
G01 F30.00000
( Mill infeed pass 1/2 )
G01 Z-0.07500
G04 P0 ( dwell for no time -- G64 should not smooth over this point )
G01 F40.00000
G01 X-0.30000 Y-0.50000
G01 X-0.30000 Y0.00000
G01 X-0.29423 Y0.05852
G01 X-0.27714 Y0.11478
G01 X-0.24943 Y0.16665
G01 X-0.21212 Y0.21212
G01 X-0.16665 Y0.24943
G01 X-0.11478 Y0.27714
G01 X-0.05852 Y0.29423
G01 X0.00000 Y0.30000
G01 X0.50000 Y0.30000
G01 X0.55529 Y0.29484
G01 X0.60871 Y0.27958
G01 X0.65842 Y0.25474
G01 X0.70267 Y0.22118
G01 X0.73998 Y0.18001
G01 X0.76906 Y0.13266
G01 X0.78890 Y0.08080
G01 X0.79886 Y0.02614
G01 X0.79855 Y-0.02939
G01 X0.78892 Y-0.12695
G01 X0.77747 Y-0.18461
G01 X0.74902 Y-0.27841
G01 X0.72649 Y-0.33274
G01 X0.68029 Y-0.41920
G01 X0.64762 Y-0.46810
G01 X0.58544 Y-0.54386
G01 X0.54386 Y-0.58544
G01 X0.44445 Y-0.66518
G01 X0.30615 Y-0.73909
G01 X0.18461 Y-0.77747
G01 X0.12695 Y-0.78892
G01 X0.02939 Y-0.79855
G01 X-0.02614 Y-0.79886
G01 X-0.08080 Y-0.78890
G01 X-0.13266 Y-0.76906
G01 X-0.18001 Y-0.73998
G01 X-0.22118 Y-0.70267
G01 X-0.25474 Y-0.65842
G01 X-0.27958 Y-0.60871
G01 X-0.29484 Y-0.55529
G01 X-0.30000 Y-0.50000
( Mill infeed pass 2/2 )
G01 Z-0.15000
G04 P0 ( dwell for no time -- G64 should not smooth over this point )
G01 F40.00000
G01 X-0.30000 Y-0.50000
G01 X-0.30000 Y0.00000
G01 X-0.29423 Y0.05852
G01 X-0.27714 Y0.11478
G01 X-0.24943 Y0.16665
G01 X-0.21212 Y0.21212
G01 X-0.16665 Y0.24943
G01 X-0.11478 Y0.27714
G01 X-0.05852 Y0.29423
G01 X0.00000 Y0.30000
G01 X0.50000 Y0.30000
G01 X0.55529 Y0.29484
G01 X0.60871 Y0.27958
G01 X0.65842 Y0.25474
G01 X0.70267 Y0.22118
G01 X0.73998 Y0.18001
G01 X0.76906 Y0.13266
G01 X0.78890 Y0.08080
G01 X0.79886 Y0.02614
G01 X0.79855 Y-0.02939
G01 X0.78892 Y-0.12695
G01 X0.77747 Y-0.18461
G01 X0.74902 Y-0.27841
G01 X0.72649 Y-0.33274
G01 X0.68029 Y-0.41920
G01 X0.64762 Y-0.46810
G01 X0.58544 Y-0.54386
G01 X0.54386 Y-0.58544
G01 X0.44445 Y-0.66518
G01 X0.30615 Y-0.73909
G01 X0.18461 Y-0.77747
G01 X0.12695 Y-0.78892
G01 X0.02939 Y-0.79855
G01 X-0.02614 Y-0.79886
G01 X-0.08080 Y-0.78890
G01 X-0.13266 Y-0.76906
G01 X-0.18001 Y-0.73998
G01 X-0.22118 Y-0.70267
G01 X-0.25474 Y-0.65842
G01 X-0.27958 Y-0.60871
G01 X-0.29484 Y-0.55529
G01 X-0.30000 Y-0.50000
G04 P0 ( dwell for no time -- G64 should not smooth over this point )
G00 Z2.00000 ( retract )

G00 X2.84998 Y-12.84999 ( rapid move to begin. )
G01 F30.00000
( Mill infeed pass 1/2 )
G01 Z-0.07500
G04 P0 ( dwell for no time -- G64 should not smooth over this point )
G01 F40.00000
G01 X2.84998 Y-12.84999
G01 X2.84998 Y-11.14999
G01 X2.85575 Y-11.09147
G01 X2.87282 Y-11.03518
G01 X2.90055 Y-10.98332
G01 X2.93787 Y-10.93785
G01 X2.98331 Y-10.90054
G01 X3.03517 Y-10.87283
G01 X3.09146 Y-10.85576
G01 X3.14998 Y-10.84999
G01 X4.84998 Y-10.84999
G01 X4.90852 Y-10.85576
G01 X4.96479 Y-10.87283
G01 X5.01665 Y-10.90054
G01 X5.06212 Y-10.93785
G01 X5.09943 Y-10.98332
G01 X5.12714 Y-11.03518
G01 X5.14421 Y-11.09147
G01 X5.14998 Y-11.14999
G01 X5.14998 Y-12.85004
G01 X5.04010 Y-13.08019
G01 X5.01665 Y-13.09944
G01 X4.96479 Y-13.12713
G01 X4.90852 Y-13.14422
G01 X4.84998 Y-13.14996
G01 X3.14998 Y-13.14996
G01 X3.09146 Y-13.14422
G01 X3.03517 Y-13.12713
G01 X2.98331 Y-13.09944
G01 X2.93787 Y-13.06210
G01 X2.90055 Y-13.01666
G01 X2.87282 Y-12.96480
G01 X2.85575 Y-12.90851
G01 X2.84998 Y-12.84999
G01 X2.84998 Y-14.53998
G01 X2.86776 Y-14.34475
G01 X2.87924 Y-14.28707
G01 X2.92760 Y-14.12763
G01 X2.95011 Y-14.07328
G01 X3.02867 Y-13.92634
G01 X3.06133 Y-13.87744
G01 X3.18681 Y-13.72682
G01 X3.33743 Y-13.60134
G01 X3.38633 Y-13.56865
G01 X3.53329 Y-13.49012
G01 X3.58762 Y-13.46761
G01 X3.77563 Y-13.41209
G01 X3.99999 Y-13.38999
G01 X4.19522 Y-13.40777
G01 X4.25290 Y-13.41923
G01 X4.41236 Y-13.46761
G01 X4.46669 Y-13.49012
G01 X4.61363 Y-13.56865
G01 X4.66255 Y-13.60134
G01 X4.81315 Y-13.72682
G01 X4.93865 Y-13.87744
G01 X4.97131 Y-13.92634
G01 X5.03204 Y-14.03995
G01 X5.15005 Y-14.03995
G01 X5.15005 Y-11.18108
G01 X5.16354 Y-11.07234
G01 X5.17454 Y-11.02655
G01 X5.19255 Y-10.98306
G01 X5.24553 Y-10.88720
G01 X5.27609 Y-10.85141
G01 X13.28245 Y-2.84155
G01 X13.33464 Y-2.79684
G01 X13.38354 Y-2.76418
G01 X13.44473 Y-2.73312
G01 X13.50998 Y-2.71181
G01 X13.56766 Y-2.70035
G01 X13.63609 Y-2.69504
G01 X144.09445 Y-2.69751
G01 X144.14139 Y-2.70121
G01 X144.18716 Y-2.71219
G01 X144.29016 Y-2.74955
G01 X144.33032 Y-2.77414
G01 X144.41673 Y-2.84150
G01 X152.04082 Y-10.46561
G01 X152.08547 Y-10.51773
G01 X152.13663 Y-10.60122
G01 X152.17051 Y-10.69307
G01 X152.18197 Y-10.75075
G01 X152.18727 Y-10.81918
G01 X152.18727 Y-30.44398
G01 X152.18197 Y-30.51239
G01 X152.17051 Y-30.57007
G01 X152.13663 Y-30.66191
G01 X152.11814 Y-30.69651
G01 X152.08547 Y-30.74540
G01 X152.04082 Y-30.79753
G01 X148.81583 Y-34.02254
G01 X148.78004 Y-34.05312
G01 X148.69965 Y-34.10892
G01 X148.60552 Y-34.14794
G01 X148.50920 Y-34.16529
G01 X148.46226 Y-34.16899
G01 X146.17885 Y-34.16899
G01 X146.14284 Y-34.21286
G01 X146.10126 Y-34.25444
G01 X146.02549 Y-34.31662
G01 X145.97659 Y-34.34931
G01 X145.89016 Y-34.39551
G01 X145.83580 Y-34.41802
G01 X145.71345 Y-34.45363
G01 X145.58678 Y-34.46755
G01 X145.52798 Y-34.46755
G01 X145.40131 Y-34.45363
G01 X145.27896 Y-34.41802
G01 X145.22463 Y-34.39551
G01 X145.11294 Y-34.33417
G01 X145.01353 Y-34.25444
G01 X144.97192 Y-34.21286
G01 X144.90974 Y-34.13709
G01 X144.87708 Y-34.08820
G01 X144.81828 Y-33.97514
G01 X144.77992 Y-33.85363
G01 X144.76844 Y-33.79594
G01 X144.75884 Y-33.69838
G01 X144.75884 Y-33.63958
G01 X144.77276 Y-33.51291
G01 X144.81828 Y-33.36285
G01 X144.87708 Y-33.24979
G01 X144.90974 Y-33.20087
G01 X144.97192 Y-33.12511
G01 X145.01353 Y-33.08353
G01 X145.08930 Y-33.02135
G01 X145.13819 Y-32.98868
G01 X145.22463 Y-32.94248
G01 X145.27896 Y-32.91997
G01 X145.37276 Y-32.89150
G01 X145.43044 Y-32.88005
G01 X145.52798 Y-32.87042
G01 X145.58678 Y-32.87042
G01 X145.71345 Y-32.88436
G01 X145.83580 Y-32.91997
G01 X145.89016 Y-32.94248
G01 X145.97659 Y-32.98868
G01 X146.02549 Y-33.02135
G01 X146.10126 Y-33.08353
G01 X146.14284 Y-33.12511
G01 X146.17883 Y-33.16897
G01 X148.25518 Y-33.16897
G01 X151.18725 Y-30.23687
G01 X151.18725 Y-11.02624
G01 X143.85607 Y-3.69506
G01 X13.84318 Y-3.69506
G01 X6.15008 Y-11.38817
G01 X6.15008 Y-14.53998
G01 X6.14477 Y-14.60838
G01 X6.13331 Y-14.66606
G01 X6.11200 Y-14.73131
G01 X6.08094 Y-14.79250
G01 X6.04827 Y-14.84140
G01 X5.98180 Y-14.91328
G01 X5.92785 Y-14.95570
G01 X5.84142 Y-15.00190
G01 X5.77616 Y-15.02321
G01 X5.71848 Y-15.03467
G01 X5.65005 Y-15.03998
G01 X5.03207 Y-15.03998
G01 X4.97131 Y-15.15364
G01 X4.93865 Y-15.20253
G01 X4.81315 Y-15.35316
G01 X4.66255 Y-15.47863
G01 X4.61363 Y-15.51132
G01 X4.46669 Y-15.58986
G01 X4.41236 Y-15.61236
G01 X4.25290 Y-15.66073
G01 X4.19522 Y-15.67221
G01 X3.99999 Y-15.68999
G01 X3.80477 Y-15.67221
G01 X3.74708 Y-15.66073
G01 X3.58762 Y-15.61236
G01 X3.53329 Y-15.58986
G01 X3.38633 Y-15.51132
G01 X3.33743 Y-15.47863
G01 X3.20858 Y-15.37294
G01 X3.16705 Y-15.33134
G01 X3.06133 Y-15.20253
G01 X3.02867 Y-15.15364
G01 X2.93754 Y-14.98008
G01 X2.87924 Y-14.79291
G01 X2.86776 Y-14.73523
G01 X2.84998 Y-14.53998
G01 X2.84998 Y-17.07998
G01 X2.86776 Y-16.88475
G01 X2.87924 Y-16.82707
G01 X2.93754 Y-16.63990
G01 X3.02867 Y-16.46634
G01 X3.06133 Y-16.41744
G01 X3.18681 Y-16.26682
G01 X3.33743 Y-16.14134
G01 X3.38633 Y-16.10865
G01 X3.53329 Y-16.03012
G01 X3.58762 Y-16.00761
G01 X3.77563 Y-15.95209
G01 X3.99999 Y-15.92999
G01 X4.19522 Y-15.94777
G01 X4.25290 Y-15.95923
G01 X4.41236 Y-16.00761
G01 X4.46669 Y-16.03012
G01 X4.61363 Y-16.10865
G01 X4.66255 Y-16.14134
G01 X4.81315 Y-16.26682
G01 X4.93865 Y-16.41744
G01 X4.97131 Y-16.46634
G01 X5.06245 Y-16.63990
G01 X5.12074 Y-16.82707
G01 X5.13222 Y-16.88475
G01 X5.14998 Y-17.07998
G01 X5.13222 Y-17.27523
G01 X5.12074 Y-17.33291
G01 X5.06245 Y-17.52008
G01 X4.97131 Y-17.69364
G01 X4.93865 Y-17.74253
G01 X4.81315 Y-17.89316
G01 X4.66255 Y-18.01863
G01 X4.61363 Y-18.05132
G01 X4.46669 Y-18.12986
G01 X4.41236 Y-18.15236
G01 X4.22435 Y-18.20789
G01 X3.99999 Y-18.22999
G01 X3.77563 Y-18.20789
G01 X3.58762 Y-18.15236
G01 X3.53329 Y-18.12986
G01 X3.38633 Y-18.05132
G01 X3.33743 Y-18.01863
G01 X3.18681 Y-17.89316
G01 X3.06133 Y-17.74253
G01 X3.02867 Y-17.69364
G01 X2.93754 Y-17.52008
G01 X2.87924 Y-17.33291
G01 X2.86776 Y-17.27523
G01 X2.84998 Y-17.07998
G01 X2.84998 Y-19.61998
G01 X2.86776 Y-19.42475
G01 X2.87924 Y-19.36707
G01 X2.93754 Y-19.17990
G01 X3.02867 Y-19.00634
G01 X3.06133 Y-18.95744
G01 X3.16705 Y-18.82864
G01 X3.20858 Y-18.78703
G01 X3.33743 Y-18.68134
G01 X3.38633 Y-18.64865
G01 X3.53329 Y-18.57012
G01 X3.58762 Y-18.54761
G01 X3.77563 Y-18.49209
G01 X3.97058 Y-18.47144
G01 X4.02938 Y-18.47144
G01 X4.19522 Y-18.48777
G01 X4.25290 Y-18.49923
G01 X4.37619 Y-18.53664
G01 X6.57344 Y-16.33939
G01 X6.57344 Y-11.27056
G01 X6.57878 Y-11.20216
G01 X6.59023 Y-11.14448
G01 X6.61154 Y-11.07923
G01 X6.64258 Y-11.01804
G01 X6.67527 Y-10.96914
G01 X6.71993 Y-10.91702
G01 X12.21062 Y-5.42633
G01 X12.27993 Y-5.36865
G01 X12.36617 Y-5.32237
G01 X12.40965 Y-5.30436
G01 X12.45545 Y-5.29336
G01 X12.56419 Y-5.27987
G01 X23.21288 Y-5.27987
G01 X24.67285 Y-3.82196
G01 X24.75205 Y-3.76441
G01 X24.81323 Y-3.73334
G01 X24.87849 Y-3.71203
G01 X24.93617 Y-3.70058
G01 X25.00460 Y-3.69527
G01 X61.79919 Y-3.69527
G01 X61.90790 Y-3.70876
G01 X61.95370 Y-3.71975
G01 X61.99718 Y-3.73776
G01 X62.09254 Y-3.79039
G01 X62.12792 Y-3.82041
G01 X62.40706 Y-4.09710
G01 X62.49388 Y-4.08998
G01 X62.52329 Y-4.09143
G01 X62.62083 Y-4.10103
G01 X62.67851 Y-4.11251
G01 X62.80003 Y-4.15089
G01 X62.91308 Y-4.20967
G01 X62.96200 Y-4.24236
G01 X63.05956 Y-4.32430
G01 X63.14153 Y-4.42189
G01 X63.17419 Y-4.47078
G01 X63.22040 Y-4.55722
G01 X63.24290 Y-4.61155
G01 X63.27137 Y-4.70535
G01 X63.28283 Y-4.76303
G01 X63.29388 Y-4.88998
G01 X63.28283 Y-5.01693
G01 X63.27137 Y-5.07462
G01 X63.24290 Y-5.16842
G01 X63.22040 Y-5.22275
G01 X63.17419 Y-5.30918
G01 X63.14153 Y-5.35808
G01 X63.07935 Y-5.43385
G01 X63.03777 Y-5.47545
G01 X62.96200 Y-5.53763
G01 X62.91308 Y-5.57030
G01 X62.80003 Y-5.62910
G01 X62.67851 Y-5.66745
G01 X62.62083 Y-5.67893
G01 X62.49388 Y-5.68998
G01 X62.36693 Y-5.67893
G01 X62.30925 Y-5.66745
G01 X62.18773 Y-5.62910
G01 X62.07468 Y-5.57030
G01 X62.02578 Y-5.53763
G01 X61.91900 Y-5.44553
G01 X61.84626 Y-5.35808
G01 X61.81357 Y-5.30918
G01 X61.76736 Y-5.22275
G01 X61.74486 Y-5.16842
G01 X61.71641 Y-5.07462
G01 X61.70493 Y-5.01693
G01 X61.69388 Y-4.88998
G01 X61.70089 Y-4.80411
G01 X61.59208 Y-4.69529
G01 X25.21168 Y-4.69529
G01 X23.91999 Y-5.98701
G01 X23.91999 Y-6.40433
G01 X24.03112 Y-6.46537
G01 X24.17600 Y-6.58241
G01 X24.21758 Y-6.62399
G01 X24.31707 Y-6.74522
G01 X24.34974 Y-6.79412
G01 X24.43625 Y-6.95904
G01 X24.49170 Y-7.13684
G01 X24.50318 Y-7.19450
G01 X24.51999 Y-7.38000
G01 X24.50318 Y-7.56547
G01 X24.49170 Y-7.62315
G01 X24.44618 Y-7.77321
G01 X24.42367 Y-7.82754
G01 X24.34974 Y-7.96587
G01 X24.31707 Y-8.01477
G01 X24.21758 Y-8.13600
G01 X24.17600 Y-8.17758
G01 X24.03112 Y-8.29460
G01 X23.86754 Y-8.38368
G01 X23.81321 Y-8.40618
G01 X23.66315 Y-8.45170
G01 X23.60546 Y-8.46318
G01 X23.41999 Y-8.47999
G01 X23.23450 Y-8.46318
G01 X23.17684 Y-8.45170
G01 X23.02675 Y-8.40618
G01 X22.97242 Y-8.38368
G01 X22.83412 Y-8.30974
G01 X22.78522 Y-8.27707
G01 X22.64217 Y-8.15779
G01 X22.52292 Y-8.01477
G01 X22.49023 Y-7.96587
G01 X22.40371 Y-7.80095
G01 X22.34827 Y-7.62315
G01 X22.33681 Y-7.56547
G01 X22.32000 Y-7.38000
G01 X22.33681 Y-7.19450
G01 X22.34827 Y-7.13684
G01 X22.39381 Y-6.98675
G01 X22.41631 Y-6.93242
G01 X22.50537 Y-6.76887
G01 X22.62241 Y-6.62399
G01 X22.66399 Y-6.58241
G01 X22.80887 Y-6.46537
G01 X22.91997 Y-6.40433
G01 X22.91997 Y-6.27990
G01 X12.77127 Y-6.27990
G01 X7.57349 Y-11.47768
G01 X7.57349 Y-16.54650
G01 X7.56001 Y-16.65521
G01 X7.54901 Y-16.70101
G01 X7.50258 Y-16.80025
G01 X7.47804 Y-16.84030
G01 X7.44756 Y-16.87604
G01 X5.08328 Y-19.24357
G01 X5.12074 Y-19.36707
G01 X5.13222 Y-19.42475
G01 X5.14855 Y-19.59059
G01 X5.14855 Y-19.64939
G01 X5.13222 Y-19.81523
G01 X5.12074 Y-19.87291
G01 X5.06245 Y-20.06008
G01 X4.97131 Y-20.23364
G01 X4.93865 Y-20.28253
G01 X4.81315 Y-20.43316
G01 X4.66255 Y-20.55863
G01 X4.61363 Y-20.59132
G01 X4.46669 Y-20.66986
G01 X4.41236 Y-20.69236
G01 X4.22435 Y-20.74789
G01 X3.99999 Y-20.76999
G01 X3.77563 Y-20.74789
G01 X3.58762 Y-20.69236
G01 X3.53329 Y-20.66986
G01 X3.38633 Y-20.59132
G01 X3.33743 Y-20.55863
G01 X3.18681 Y-20.43316
G01 X3.06133 Y-20.28253
G01 X3.02867 Y-20.23364
G01 X2.95011 Y-20.08668
G01 X2.92760 Y-20.03234
G01 X2.87924 Y-19.87291
G01 X2.86776 Y-19.81523
G01 X2.84998 Y-19.61998
G01 X2.84998 Y-22.15998
G01 X2.86776 Y-21.96475
G01 X2.87924 Y-21.90707
G01 X2.93754 Y-21.71990
G01 X3.02867 Y-21.54634
G01 X3.06133 Y-21.49744
G01 X3.18681 Y-21.34682
G01 X3.33743 Y-21.22134
G01 X3.38633 Y-21.18865
G01 X3.53329 Y-21.11012
G01 X3.58762 Y-21.08761
G01 X3.77563 Y-21.03209
G01 X3.99999 Y-21.00999
G01 X4.19522 Y-21.02777
G01 X4.25290 Y-21.03923
G01 X4.41236 Y-21.08761
G01 X4.46669 Y-21.11012
G01 X4.61363 Y-21.18865
G01 X4.66255 Y-21.22134
G01 X4.81315 Y-21.34682
G01 X4.93865 Y-21.49744
G01 X4.97131 Y-21.54634
G01 X5.06245 Y-21.71990
G01 X5.12074 Y-21.90707
G01 X5.13222 Y-21.96475
G01 X5.14998 Y-22.15998
G01 X5.13222 Y-22.35523
G01 X5.12074 Y-22.41291
G01 X5.06245 Y-22.60008
G01 X4.97131 Y-22.77364
G01 X4.93865 Y-22.82253
G01 X4.81315 Y-22.97316
G01 X4.66255 Y-23.09863
G01 X4.61363 Y-23.13132
G01 X4.46669 Y-23.20986
G01 X4.41236 Y-23.23236
G01 X4.22435 Y-23.28789
G01 X3.99999 Y-23.30999
G01 X3.77563 Y-23.28789
G01 X3.58762 Y-23.23236
G01 X3.53329 Y-23.20986
G01 X3.38633 Y-23.13132
G01 X3.33743 Y-23.09863
G01 X3.18681 Y-22.97316
G01 X3.06133 Y-22.82253
G01 X3.02867 Y-22.77364
G01 X2.93754 Y-22.60008
G01 X2.87924 Y-22.41291
G01 X2.86776 Y-22.35523
G01 X2.84998 Y-22.15998
G01 X2.84998 Y-24.69998
G01 X2.86776 Y-24.50475
G01 X2.87924 Y-24.44707
G01 X2.92760 Y-24.28763
G01 X2.95011 Y-24.23328
G01 X3.02867 Y-24.08634
G01 X3.06133 Y-24.03744
G01 X3.18681 Y-23.88682
G01 X3.33743 Y-23.76134
G01 X3.38633 Y-23.72865
G01 X3.53329 Y-23.65012
G01 X3.58762 Y-23.62761
G01 X3.74708 Y-23.57923
G01 X3.80477 Y-23.56777
G01 X3.99999 Y-23.54999
G01 X4.19522 Y-23.56777
G01 X4.25290 Y-23.57923
G01 X4.41236 Y-23.62761
G01 X4.46669 Y-23.65012
G01 X4.61363 Y-23.72865
G01 X4.66255 Y-23.76134
G01 X4.81315 Y-23.88682
G01 X4.93865 Y-24.03744
G01 X4.97131 Y-24.08634
G01 X5.03204 Y-24.19995
G01 X5.65005 Y-24.19995
G01 X5.71848 Y-24.20526
G01 X5.77616 Y-24.21672
G01 X5.84142 Y-24.23803
G01 X5.92785 Y-24.28423
G01 X5.98180 Y-24.32665
G01 X6.04827 Y-24.39853
G01 X6.08094 Y-24.44742
G01 X6.11200 Y-24.50861
G01 X6.13331 Y-24.57386
G01 X6.14477 Y-24.63155
G01 X6.15008 Y-24.69998
G01 X6.15008 Y-24.99827
G01 X9.11898 Y-27.96715
G01 X11.56579 Y-27.96715
G01 X15.25996 Y-24.27298
G01 X15.25996 Y-23.85563
G01 X15.14886 Y-23.79459
G01 X15.00398 Y-23.67758
G01 X14.96240 Y-23.63600
G01 X14.86291 Y-23.51476
G01 X14.83025 Y-23.46587
G01 X14.74371 Y-23.30094
G01 X14.68829 Y-23.12314
G01 X14.67681 Y-23.06546
G01 X14.65999 Y-22.87999
G01 X14.67681 Y-22.69452
G01 X14.68829 Y-22.63684
G01 X14.73380 Y-22.48675
G01 X14.75631 Y-22.43242
G01 X14.84536 Y-22.26887
G01 X14.96240 Y-22.12398
G01 X15.00398 Y-22.08240
G01 X15.12522 Y-21.98291
G01 X15.17411 Y-21.95022
G01 X15.33903 Y-21.86371
G01 X15.51683 Y-21.80829
G01 X15.57452 Y-21.79681
G01 X15.75999 Y-21.77999
G01 X15.94546 Y-21.79681
G01 X16.00314 Y-21.80829
G01 X16.15323 Y-21.85380
G01 X16.20756 Y-21.87631
G01 X16.37111 Y-21.96536
G01 X16.51599 Y-22.08240
G01 X16.55757 Y-22.12398
G01 X16.65707 Y-22.24522
G01 X16.68973 Y-22.29411
G01 X16.76367 Y-22.43242
G01 X16.78617 Y-22.48675
G01 X16.83169 Y-22.63684
G01 X16.84317 Y-22.69452
G01 X16.85999 Y-22.87999
G01 X16.84317 Y-23.06546
G01 X16.83169 Y-23.12314
G01 X16.77624 Y-23.30094
G01 X16.68973 Y-23.46587
G01 X16.65707 Y-23.51476
G01 X16.55757 Y-23.63600
G01 X16.51599 Y-23.67758
G01 X16.39476 Y-23.77707
G01 X16.34587 Y-23.80973
G01 X16.25999 Y-23.85565
G01 X16.25854 Y-24.50948
G01 X16.24322 Y-24.60617
G01 X16.23184 Y-24.64369
G01 X16.22191 Y-24.67143
G01 X16.19085 Y-24.73261
G01 X16.15818 Y-24.78151
G01 X16.11353 Y-24.83363
G01 X12.10579 Y-28.83835
G01 X12.10579 Y-31.42849
G01 X19.75658 Y-39.07930
G01 X47.08606 Y-39.07927
G01 X47.17372 Y-38.99855
G01 X47.26808 Y-38.94666
G01 X47.31156 Y-38.92865
G01 X47.35736 Y-38.91765
G01 X47.46610 Y-38.90416
G01 X53.14920 Y-38.90416
G01 X53.25791 Y-38.91765
G01 X53.32580 Y-38.93680
G01 X53.38656 Y-38.96423
G01 X53.46695 Y-39.02004
G01 X53.50274 Y-39.05062
G01 X54.42364 Y-39.97155
G01 X54.54538 Y-39.93612
G01 X54.73057 Y-39.91643
G01 X54.78940 Y-39.91643
G01 X54.97459 Y-39.93612
G01 X55.15323 Y-39.98879
G01 X55.20756 Y-40.01130
G01 X55.34586 Y-40.08524
G01 X55.39476 Y-40.11790
G01 X55.53781 Y-40.23718
G01 X55.65706 Y-40.38021
G01 X55.68973 Y-40.42910
G01 X55.77627 Y-40.59403
G01 X55.83169 Y-40.77183
G01 X55.84317 Y-40.82951
G01 X55.85854 Y-40.98559
G01 X55.85854 Y-41.04439
G01 X55.83885 Y-41.22958
G01 X55.80342 Y-41.35133
G01 X56.57268 Y-42.12057
G01 X71.56320 Y-42.12057
G01 X82.56422 Y-31.12300
G01 X82.60001 Y-31.09244
G01 X82.69587 Y-31.03946
G01 X82.73936 Y-31.02145
G01 X82.78515 Y-31.01045
G01 X82.89387 Y-30.99697
G01 X89.43586 Y-30.99697
G01 X97.71654 Y-22.71631
G01 X97.68827 Y-22.62314
G01 X97.67679 Y-22.56546
G01 X97.66143 Y-22.40940
G01 X97.66143 Y-22.35058
G01 X97.67679 Y-22.19452
G01 X97.68827 Y-22.13684
G01 X97.73379 Y-21.98675
G01 X97.75632 Y-21.93242
G01 X97.83023 Y-21.79411
G01 X97.86290 Y-21.74522
G01 X97.98218 Y-21.60217
G01 X98.12520 Y-21.48291
G01 X98.17412 Y-21.45022
G01 X98.31243 Y-21.37631
G01 X98.36676 Y-21.35381
G01 X98.51682 Y-21.30829
G01 X98.57450 Y-21.29681
G01 X98.75998 Y-21.27999
G01 X98.94547 Y-21.29681
G01 X99.00315 Y-21.30829
G01 X99.18093 Y-21.36371
G01 X99.34585 Y-21.45022
G01 X99.39477 Y-21.48291
G01 X99.51598 Y-21.58241
G01 X99.55759 Y-21.62399
G01 X99.67460 Y-21.76887
G01 X99.77625 Y-21.95904
G01 X99.83170 Y-22.13684
G01 X99.84318 Y-22.19452
G01 X99.85855 Y-22.35058
G01 X99.85855 Y-22.40940
G01 X99.84318 Y-22.56546
G01 X99.83170 Y-22.62314
G01 X99.77625 Y-22.80094
G01 X99.67460 Y-22.99111
G01 X99.53780 Y-23.15781
G01 X99.39477 Y-23.27707
G01 X99.34585 Y-23.30973
G01 X99.18093 Y-23.39624
G01 X99.00315 Y-23.45169
G01 X98.94547 Y-23.46317
G01 X98.78939 Y-23.47854
G01 X98.73059 Y-23.47854
G01 X98.57450 Y-23.46317
G01 X98.51682 Y-23.45169
G01 X98.42363 Y-23.42342
G01 X89.99652 Y-31.85053
G01 X89.96073 Y-31.88111
G01 X89.88034 Y-31.93692
G01 X89.78621 Y-31.97593
G01 X89.68989 Y-31.99328
G01 X89.64298 Y-31.99699
G01 X83.10098 Y-31.99699
G01 X72.12383 Y-42.97413
G01 X72.03742 Y-43.04149
G01 X72.00765 Y-43.06052
G01 X71.94690 Y-43.08795
G01 X71.87900 Y-43.10710
G01 X71.77024 Y-43.12059
G01 X56.33425 Y-43.11813
G01 X56.28734 Y-43.11442
G01 X56.24159 Y-43.10344
G01 X56.13860 Y-43.06608
G01 X56.09844 Y-43.04149
G01 X56.01203 Y-42.97413
G01 X55.09633 Y-42.05844
G01 X54.97459 Y-42.09385
G01 X54.78940 Y-42.11353
G01 X54.73057 Y-42.11353
G01 X54.54538 Y-42.09385
G01 X54.33903 Y-42.03126
G01 X54.17411 Y-41.94475
G01 X54.12522 Y-41.91206
G01 X53.98216 Y-41.79280
G01 X53.84536 Y-41.62610
G01 X53.75631 Y-41.46255
G01 X53.73380 Y-41.40822
G01 X53.68112 Y-41.22958
G01 X53.66144 Y-41.04439
G01 X53.66144 Y-40.98559
G01 X53.68112 Y-40.80038
G01 X53.71655 Y-40.67863
G01 X52.94208 Y-39.90419
G01 X47.67097 Y-39.90419
G01 X47.58334 Y-39.98488
G01 X47.48898 Y-40.03680
G01 X47.44550 Y-40.05481
G01 X47.39970 Y-40.06581
G01 X47.29099 Y-40.07929
G01 X19.54949 Y-40.07929
G01 X19.45193 Y-40.06967
G01 X19.38586 Y-40.05115
G01 X19.33153 Y-40.02865
G01 X19.24804 Y-39.97749
G01 X19.19592 Y-39.93284
G01 X11.25223 Y-31.98914
G01 X11.20757 Y-31.93702
G01 X11.15642 Y-31.85353
G01 X11.13391 Y-31.79920
G01 X11.11108 Y-31.70400
G01 X11.10577 Y-31.63560
G01 X11.10577 Y-28.96718
G01 X8.91189 Y-28.96718
G01 X8.84347 Y-28.96187
G01 X8.78578 Y-28.95041
G01 X8.69394 Y-28.91653
G01 X8.65934 Y-28.89804
G01 X8.61045 Y-28.86537
G01 X8.55833 Y-28.82072
G01 X5.29651 Y-25.55893
G01 X5.22915 Y-25.47252
G01 X5.20456 Y-25.43236
G01 X5.18655 Y-25.38887
G01 X5.15640 Y-25.28468
G01 X5.15226 Y-25.19997
G01 X5.03207 Y-25.19997
G01 X4.97131 Y-25.31364
G01 X4.93865 Y-25.36253
G01 X4.81315 Y-25.51316
G01 X4.66255 Y-25.63863
G01 X4.61363 Y-25.67132
G01 X4.46669 Y-25.74986
G01 X4.41236 Y-25.77234
G01 X4.25290 Y-25.82073
G01 X4.19522 Y-25.83218
G01 X4.02938 Y-25.84854
G01 X3.97058 Y-25.84854
G01 X3.77563 Y-25.82786
G01 X3.58762 Y-25.77234
G01 X3.53329 Y-25.74986
G01 X3.38633 Y-25.67132
G01 X3.33743 Y-25.63863
G01 X3.18681 Y-25.51316
G01 X3.06133 Y-25.36253
G01 X3.02867 Y-25.31364
G01 X2.95011 Y-25.16668
G01 X2.92760 Y-25.11234
G01 X2.87924 Y-24.95291
G01 X2.86776 Y-24.89523
G01 X2.84998 Y-24.69998
G01 X2.85143 Y-27.26939
G01 X2.85143 Y-27.21059
G01 X2.87208 Y-27.01564
G01 X2.92760 Y-26.82763
G01 X2.95011 Y-26.77328
G01 X3.04381 Y-26.60109
G01 X3.16705 Y-26.44864
G01 X3.20858 Y-26.40703
G01 X3.36108 Y-26.28377
G01 X3.53329 Y-26.19012
G01 X3.58762 Y-26.16761
G01 X3.77563 Y-26.11209
G01 X3.97058 Y-26.09144
G01 X4.02938 Y-26.09144
G01 X4.22435 Y-26.11209
G01 X4.44007 Y-26.17752
G01 X4.63890 Y-26.28377
G01 X4.79135 Y-26.40703
G01 X4.83293 Y-26.44864
G01 X4.95617 Y-26.60109
G01 X5.04985 Y-26.77328
G01 X5.07235 Y-26.82763
G01 X5.12788 Y-27.01564
G01 X5.14855 Y-27.21059
G01 X5.14855 Y-27.26939
G01 X5.12788 Y-27.46433
G01 X5.07235 Y-27.65235
G01 X5.04985 Y-27.70668
G01 X4.95617 Y-27.87889
G01 X4.83293 Y-28.03134
G01 X4.79135 Y-28.07294
G01 X4.63890 Y-28.19618
G01 X4.46669 Y-28.28986
G01 X4.41236 Y-28.31236
G01 X4.22435 Y-28.36789
G01 X4.02938 Y-28.38854
G01 X3.97058 Y-28.38854
G01 X3.77563 Y-28.36789
G01 X3.58762 Y-28.31236
G01 X3.53329 Y-28.28986
G01 X3.36108 Y-28.19618
G01 X3.20858 Y-28.07294
G01 X3.16705 Y-28.03134
G01 X3.04381 Y-27.87889
G01 X2.95011 Y-27.70668
G01 X2.92760 Y-27.65235
G01 X2.87208 Y-27.46433
G01 X2.85143 Y-27.26939
G01 X2.85143 Y-29.75059
G01 X2.87208 Y-29.55564
G01 X2.92760 Y-29.36763
G01 X2.95011 Y-29.31328
G01 X3.04381 Y-29.14109
G01 X3.16705 Y-28.98864
G01 X3.20858 Y-28.94703
G01 X3.36108 Y-28.82379
G01 X3.53329 Y-28.73012
G01 X3.58762 Y-28.70761
G01 X3.77563 Y-28.65209
G01 X3.97058 Y-28.63144
G01 X4.02938 Y-28.63144
G01 X4.22435 Y-28.65209
G01 X4.44007 Y-28.71752
G01 X4.63890 Y-28.82379
G01 X4.79135 Y-28.94703
G01 X4.83293 Y-28.98864
G01 X4.95617 Y-29.14109
G01 X5.04985 Y-29.31328
G01 X5.07235 Y-29.36763
G01 X5.12788 Y-29.55564
G01 X5.14855 Y-29.75059
G01 X5.14855 Y-29.80939
G01 X5.12788 Y-30.00433
G01 X5.07235 Y-30.19234
G01 X5.04985 Y-30.24668
G01 X4.95617 Y-30.41889
G01 X4.83293 Y-30.57134
G01 X4.79135 Y-30.61294
G01 X4.63890 Y-30.73618
G01 X4.46669 Y-30.82986
G01 X4.41236 Y-30.85236
G01 X4.22435 Y-30.90789
G01 X4.02938 Y-30.92854
G01 X3.97058 Y-30.92854
G01 X3.77563 Y-30.90789
G01 X3.58762 Y-30.85236
G01 X3.53329 Y-30.82986
G01 X3.36108 Y-30.73618
G01 X3.20858 Y-30.61294
G01 X3.16705 Y-30.57134
G01 X3.04381 Y-30.41889
G01 X2.95011 Y-30.24668
G01 X2.92760 Y-30.19234
G01 X2.87208 Y-30.00433
G01 X2.85143 Y-29.80939
G01 X2.85143 Y-29.75059
( Mill infeed pass 2/2 )
G00 Z2.00000 ( retract )
G00 X2.84998 Y-12.84999 ( rapid move to begin. )
G01 Z-0.15000
G04 P0 ( dwell for no time -- G64 should not smooth over this point )
G01 F40.00000
G01 X2.84998 Y-12.84999
G01 X2.84998 Y-11.14999
G01 X2.85575 Y-11.09147
G01 X2.87282 Y-11.03518
G01 X2.90055 Y-10.98332
G01 X2.93787 Y-10.93785
G01 X2.98331 Y-10.90054
G01 X3.03517 Y-10.87283
G01 X3.09146 Y-10.85576
G01 X3.14998 Y-10.84999
G01 X4.84998 Y-10.84999
G01 X4.90852 Y-10.85576
G01 X4.96479 Y-10.87283
G01 X5.01665 Y-10.90054
G01 X5.06212 Y-10.93785
G01 X5.09943 Y-10.98332
G01 X5.12714 Y-11.03518
G01 X5.14421 Y-11.09147
G01 X5.14998 Y-11.14999
G01 X5.14998 Y-12.85004
G01 X5.04010 Y-13.08019
G01 X5.01665 Y-13.09944
G01 X4.96479 Y-13.12713
G01 X4.90852 Y-13.14422
G01 X4.84998 Y-13.14996
G01 X3.14998 Y-13.14996
G01 X3.09146 Y-13.14422
G01 X3.03517 Y-13.12713
G01 X2.98331 Y-13.09944
G01 X2.93787 Y-13.06210
G01 X2.90055 Y-13.01666
G01 X2.87282 Y-12.96480
G01 X2.85575 Y-12.90851
G01 X2.84998 Y-12.84999
G01 X2.84998 Y-14.53998
G01 X2.86776 Y-14.34475
G01 X2.87924 Y-14.28707
G01 X2.92760 Y-14.12763
G01 X2.95011 Y-14.07328
G01 X3.02867 Y-13.92634
G01 X3.06133 Y-13.87744
G01 X3.18681 Y-13.72682
G01 X3.33743 Y-13.60134
G01 X3.38633 Y-13.56865
G01 X3.53329 Y-13.49012
G01 X3.58762 Y-13.46761
G01 X3.77563 Y-13.41209
G01 X3.99999 Y-13.38999
G01 X4.19522 Y-13.40777
G01 X4.25290 Y-13.41923
G01 X4.41236 Y-13.46761
G01 X4.46669 Y-13.49012
G01 X4.61363 Y-13.56865
G01 X4.66255 Y-13.60134
G01 X4.81315 Y-13.72682
G01 X4.93865 Y-13.87744
G01 X4.97131 Y-13.92634
G01 X5.03204 Y-14.03995
G01 X5.15005 Y-14.03995
G01 X5.15005 Y-11.18108
G01 X5.16354 Y-11.07234
G01 X5.17454 Y-11.02655
G01 X5.19255 Y-10.98306
G01 X5.24553 Y-10.88720
G01 X5.27609 Y-10.85141
G01 X13.28245 Y-2.84155
G01 X13.33464 Y-2.79684
G01 X13.38354 Y-2.76418
G01 X13.44473 Y-2.73312
G01 X13.50998 Y-2.71181
G01 X13.56766 Y-2.70035
G01 X13.63609 Y-2.69504
G01 X144.09445 Y-2.69751
G01 X144.14139 Y-2.70121
G01 X144.18716 Y-2.71219
G01 X144.29016 Y-2.74955
G01 X144.33032 Y-2.77414
G01 X144.41673 Y-2.84150
G01 X152.04082 Y-10.46561
G01 X152.08547 Y-10.51773
G01 X152.13663 Y-10.60122
G01 X152.17051 Y-10.69307
G01 X152.18197 Y-10.75075
G01 X152.18727 Y-10.81918
G01 X152.18727 Y-30.44398
G01 X152.18197 Y-30.51239
G01 X152.17051 Y-30.57007
G01 X152.13663 Y-30.66191
G01 X152.11814 Y-30.69651
G01 X152.08547 Y-30.74540
G01 X152.04082 Y-30.79753
G01 X148.81583 Y-34.02254
G01 X148.78004 Y-34.05312
G01 X148.69965 Y-34.10892
G01 X148.60552 Y-34.14794
G01 X148.50920 Y-34.16529
G01 X148.46226 Y-34.16899
G01 X146.17885 Y-34.16899
G01 X146.14284 Y-34.21286
G01 X146.10126 Y-34.25444
G01 X146.02549 Y-34.31662
G01 X145.97659 Y-34.34931
G01 X145.89016 Y-34.39551
G01 X145.83580 Y-34.41802
G01 X145.71345 Y-34.45363
G01 X145.58678 Y-34.46755
G01 X145.52798 Y-34.46755
G01 X145.40131 Y-34.45363
G01 X145.27896 Y-34.41802
G01 X145.22463 Y-34.39551
G01 X145.11294 Y-34.33417
G01 X145.01353 Y-34.25444
G01 X144.97192 Y-34.21286
G01 X144.90974 Y-34.13709
G01 X144.87708 Y-34.08820
G01 X144.81828 Y-33.97514
G01 X144.77992 Y-33.85363
G01 X144.76844 Y-33.79594
G01 X144.75884 Y-33.69838
G01 X144.75884 Y-33.63958
G01 X144.77276 Y-33.51291
G01 X144.81828 Y-33.36285
G01 X144.87708 Y-33.24979
G01 X144.90974 Y-33.20087
G01 X144.97192 Y-33.12511
G01 X145.01353 Y-33.08353
G01 X145.08930 Y-33.02135
G01 X145.13819 Y-32.98868
G01 X145.22463 Y-32.94248
G01 X145.27896 Y-32.91997
G01 X145.37276 Y-32.89150
G01 X145.43044 Y-32.88005
G01 X145.52798 Y-32.87042
G01 X145.58678 Y-32.87042
G01 X145.71345 Y-32.88436
G01 X145.83580 Y-32.91997
G01 X145.89016 Y-32.94248
G01 X145.97659 Y-32.98868
G01 X146.02549 Y-33.02135
G01 X146.10126 Y-33.08353
G01 X146.14284 Y-33.12511
G01 X146.17883 Y-33.16897
G01 X148.25518 Y-33.16897
G01 X151.18725 Y-30.23687
G01 X151.18725 Y-11.02624
G01 X143.85607 Y-3.69506
G01 X13.84318 Y-3.69506
G01 X6.15008 Y-11.38817
G01 X6.15008 Y-14.53998
G01 X6.14477 Y-14.60838
G01 X6.13331 Y-14.66606
G01 X6.11200 Y-14.73131
G01 X6.08094 Y-14.79250
G01 X6.04827 Y-14.84140
G01 X5.98180 Y-14.91328
G01 X5.92785 Y-14.95570
G01 X5.84142 Y-15.00190
G01 X5.77616 Y-15.02321
G01 X5.71848 Y-15.03467
G01 X5.65005 Y-15.03998
G01 X5.03207 Y-15.03998
G01 X4.97131 Y-15.15364
G01 X4.93865 Y-15.20253
G01 X4.81315 Y-15.35316
G01 X4.66255 Y-15.47863
G01 X4.61363 Y-15.51132
G01 X4.46669 Y-15.58986
G01 X4.41236 Y-15.61236
G01 X4.25290 Y-15.66073
G01 X4.19522 Y-15.67221
G01 X3.99999 Y-15.68999
G01 X3.80477 Y-15.67221
G01 X3.74708 Y-15.66073
G01 X3.58762 Y-15.61236
G01 X3.53329 Y-15.58986
G01 X3.38633 Y-15.51132
G01 X3.33743 Y-15.47863
G01 X3.20858 Y-15.37294
G01 X3.16705 Y-15.33134
G01 X3.06133 Y-15.20253
G01 X3.02867 Y-15.15364
G01 X2.93754 Y-14.98008
G01 X2.87924 Y-14.79291
G01 X2.86776 Y-14.73523
G01 X2.84998 Y-14.53998
G01 X2.84998 Y-17.07998
G01 X2.86776 Y-16.88475
G01 X2.87924 Y-16.82707
G01 X2.93754 Y-16.63990
G01 X3.02867 Y-16.46634
G01 X3.06133 Y-16.41744
G01 X3.18681 Y-16.26682
G01 X3.33743 Y-16.14134
G01 X3.38633 Y-16.10865
G01 X3.53329 Y-16.03012
G01 X3.58762 Y-16.00761
G01 X3.77563 Y-15.95209
G01 X3.99999 Y-15.92999
G01 X4.19522 Y-15.94777
G01 X4.25290 Y-15.95923
G01 X4.41236 Y-16.00761
G01 X4.46669 Y-16.03012
G01 X4.61363 Y-16.10865
G01 X4.66255 Y-16.14134
G01 X4.81315 Y-16.26682
G01 X4.93865 Y-16.41744
G01 X4.97131 Y-16.46634
G01 X5.06245 Y-16.63990
G01 X5.12074 Y-16.82707
G01 X5.13222 Y-16.88475
G01 X5.14998 Y-17.07998
G01 X5.13222 Y-17.27523
G01 X5.12074 Y-17.33291
G01 X5.06245 Y-17.52008
G01 X4.97131 Y-17.69364
G01 X4.93865 Y-17.74253
G01 X4.81315 Y-17.89316
G01 X4.66255 Y-18.01863
G01 X4.61363 Y-18.05132
G01 X4.46669 Y-18.12986
G01 X4.41236 Y-18.15236
G01 X4.22435 Y-18.20789
G01 X3.99999 Y-18.22999
G01 X3.77563 Y-18.20789
G01 X3.58762 Y-18.15236
G01 X3.53329 Y-18.12986
G01 X3.38633 Y-18.05132
G01 X3.33743 Y-18.01863
G01 X3.18681 Y-17.89316
G01 X3.06133 Y-17.74253
G01 X3.02867 Y-17.69364
G01 X2.93754 Y-17.52008
G01 X2.87924 Y-17.33291
G01 X2.86776 Y-17.27523
G01 X2.84998 Y-17.07998
G01 X2.84998 Y-19.61998
G01 X2.86776 Y-19.42475
G01 X2.87924 Y-19.36707
G01 X2.93754 Y-19.17990
G01 X3.02867 Y-19.00634
G01 X3.06133 Y-18.95744
G01 X3.16705 Y-18.82864
G01 X3.20858 Y-18.78703
G01 X3.33743 Y-18.68134
G01 X3.38633 Y-18.64865
G01 X3.53329 Y-18.57012
G01 X3.58762 Y-18.54761
G01 X3.77563 Y-18.49209
G01 X3.97058 Y-18.47144
G01 X4.02938 Y-18.47144
G01 X4.19522 Y-18.48777
G01 X4.25290 Y-18.49923
G01 X4.37619 Y-18.53664
G01 X6.57344 Y-16.33939
G01 X6.57344 Y-11.27056
G01 X6.57878 Y-11.20216
G01 X6.59023 Y-11.14448
G01 X6.61154 Y-11.07923
G01 X6.64258 Y-11.01804
G01 X6.67527 Y-10.96914
G01 X6.71993 Y-10.91702
G01 X12.21062 Y-5.42633
G01 X12.27993 Y-5.36865
G01 X12.36617 Y-5.32237
G01 X12.40965 Y-5.30436
G01 X12.45545 Y-5.29336
G01 X12.56419 Y-5.27987
G01 X23.21288 Y-5.27987
G01 X24.67285 Y-3.82196
G01 X24.75205 Y-3.76441
G01 X24.81323 Y-3.73334
G01 X24.87849 Y-3.71203
G01 X24.93617 Y-3.70058
G01 X25.00460 Y-3.69527
G01 X61.79919 Y-3.69527
G01 X61.90790 Y-3.70876
G01 X61.95370 Y-3.71975
G01 X61.99718 Y-3.73776
G01 X62.09254 Y-3.79039
G01 X62.12792 Y-3.82041
G01 X62.40706 Y-4.09710
G01 X62.49388 Y-4.08998
G01 X62.52329 Y-4.09143
G01 X62.62083 Y-4.10103
G01 X62.67851 Y-4.11251
G01 X62.80003 Y-4.15089
G01 X62.91308 Y-4.20967
G01 X62.96200 Y-4.24236
G01 X63.05956 Y-4.32430
G01 X63.14153 Y-4.42189
G01 X63.17419 Y-4.47078
G01 X63.22040 Y-4.55722
G01 X63.24290 Y-4.61155
G01 X63.27137 Y-4.70535
G01 X63.28283 Y-4.76303
G01 X63.29388 Y-4.88998
G01 X63.28283 Y-5.01693
G01 X63.27137 Y-5.07462
G01 X63.24290 Y-5.16842
G01 X63.22040 Y-5.22275
G01 X63.17419 Y-5.30918
G01 X63.14153 Y-5.35808
G01 X63.07935 Y-5.43385
G01 X63.03777 Y-5.47545
G01 X62.96200 Y-5.53763
G01 X62.91308 Y-5.57030
G01 X62.80003 Y-5.62910
G01 X62.67851 Y-5.66745
G01 X62.62083 Y-5.67893
G01 X62.49388 Y-5.68998
G01 X62.36693 Y-5.67893
G01 X62.30925 Y-5.66745
G01 X62.18773 Y-5.62910
G01 X62.07468 Y-5.57030
G01 X62.02578 Y-5.53763
G01 X61.91900 Y-5.44553
G01 X61.84626 Y-5.35808
G01 X61.81357 Y-5.30918
G01 X61.76736 Y-5.22275
G01 X61.74486 Y-5.16842
G01 X61.71641 Y-5.07462
G01 X61.70493 Y-5.01693
G01 X61.69388 Y-4.88998
G01 X61.70089 Y-4.80411
G01 X61.59208 Y-4.69529
G01 X25.21168 Y-4.69529
G01 X23.91999 Y-5.98701
G01 X23.91999 Y-6.40433
G01 X24.03112 Y-6.46537
G01 X24.17600 Y-6.58241
G01 X24.21758 Y-6.62399
G01 X24.31707 Y-6.74522
G01 X24.34974 Y-6.79412
G01 X24.43625 Y-6.95904
G01 X24.49170 Y-7.13684
G01 X24.50318 Y-7.19450
G01 X24.51999 Y-7.38000
G01 X24.50318 Y-7.56547
G01 X24.49170 Y-7.62315
G01 X24.44618 Y-7.77321
G01 X24.42367 Y-7.82754
G01 X24.34974 Y-7.96587
G01 X24.31707 Y-8.01477
G01 X24.21758 Y-8.13600
G01 X24.17600 Y-8.17758
G01 X24.03112 Y-8.29460
G01 X23.86754 Y-8.38368
G01 X23.81321 Y-8.40618
G01 X23.66315 Y-8.45170
G01 X23.60546 Y-8.46318
G01 X23.41999 Y-8.47999
G01 X23.23450 Y-8.46318
G01 X23.17684 Y-8.45170
G01 X23.02675 Y-8.40618
G01 X22.97242 Y-8.38368
G01 X22.83412 Y-8.30974
G01 X22.78522 Y-8.27707
G01 X22.64217 Y-8.15779
G01 X22.52292 Y-8.01477
G01 X22.49023 Y-7.96587
G01 X22.40371 Y-7.80095
G01 X22.34827 Y-7.62315
G01 X22.33681 Y-7.56547
G01 X22.32000 Y-7.38000
G01 X22.33681 Y-7.19450
G01 X22.34827 Y-7.13684
G01 X22.39381 Y-6.98675
G01 X22.41631 Y-6.93242
G01 X22.50537 Y-6.76887
G01 X22.62241 Y-6.62399
G01 X22.66399 Y-6.58241
G01 X22.80887 Y-6.46537
G01 X22.91997 Y-6.40433
G01 X22.91997 Y-6.27990
G01 X12.77127 Y-6.27990
G01 X7.57349 Y-11.47768
G01 X7.57349 Y-16.54650
G01 X7.56001 Y-16.65521
G01 X7.54901 Y-16.70101
G01 X7.50258 Y-16.80025
G01 X7.47804 Y-16.84030
G01 X7.44756 Y-16.87604
G01 X5.08328 Y-19.24357
G01 X5.12074 Y-19.36707
G01 X5.13222 Y-19.42475
G01 X5.14855 Y-19.59059
G01 X5.14855 Y-19.64939
G01 X5.13222 Y-19.81523
G01 X5.12074 Y-19.87291
G01 X5.06245 Y-20.06008
G01 X4.97131 Y-20.23364
G01 X4.93865 Y-20.28253
G01 X4.81315 Y-20.43316
G01 X4.66255 Y-20.55863
G01 X4.61363 Y-20.59132
G01 X4.46669 Y-20.66986
G01 X4.41236 Y-20.69236
G01 X4.22435 Y-20.74789
G01 X3.99999 Y-20.76999
G01 X3.77563 Y-20.74789
G01 X3.58762 Y-20.69236
G01 X3.53329 Y-20.66986
G01 X3.38633 Y-20.59132
G01 X3.33743 Y-20.55863
G01 X3.18681 Y-20.43316
G01 X3.06133 Y-20.28253
G01 X3.02867 Y-20.23364
G01 X2.95011 Y-20.08668
G01 X2.92760 Y-20.03234
G01 X2.87924 Y-19.87291
G01 X2.86776 Y-19.81523
G01 X2.84998 Y-19.61998
G01 X2.84998 Y-22.15998
G01 X2.86776 Y-21.96475
G01 X2.87924 Y-21.90707
G01 X2.93754 Y-21.71990
G01 X3.02867 Y-21.54634
G01 X3.06133 Y-21.49744
G01 X3.18681 Y-21.34682
G01 X3.33743 Y-21.22134
G01 X3.38633 Y-21.18865
G01 X3.53329 Y-21.11012
G01 X3.58762 Y-21.08761
G01 X3.77563 Y-21.03209
G01 X3.99999 Y-21.00999
G01 X4.19522 Y-21.02777
G01 X4.25290 Y-21.03923
G01 X4.41236 Y-21.08761
G01 X4.46669 Y-21.11012
G01 X4.61363 Y-21.18865
G01 X4.66255 Y-21.22134
G01 X4.81315 Y-21.34682
G01 X4.93865 Y-21.49744
G01 X4.97131 Y-21.54634
G01 X5.06245 Y-21.71990
G01 X5.12074 Y-21.90707
G01 X5.13222 Y-21.96475
G01 X5.14998 Y-22.15998
G01 X5.13222 Y-22.35523
G01 X5.12074 Y-22.41291
G01 X5.06245 Y-22.60008
G01 X4.97131 Y-22.77364
G01 X4.93865 Y-22.82253
G01 X4.81315 Y-22.97316
G01 X4.66255 Y-23.09863
G01 X4.61363 Y-23.13132
G01 X4.46669 Y-23.20986
G01 X4.41236 Y-23.23236
G01 X4.22435 Y-23.28789
G01 X3.99999 Y-23.30999
G01 X3.77563 Y-23.28789
G01 X3.58762 Y-23.23236
G01 X3.53329 Y-23.20986
G01 X3.38633 Y-23.13132
G01 X3.33743 Y-23.09863
G01 X3.18681 Y-22.97316
G01 X3.06133 Y-22.82253
G01 X3.02867 Y-22.77364
G01 X2.93754 Y-22.60008
G01 X2.87924 Y-22.41291
G01 X2.86776 Y-22.35523
G01 X2.84998 Y-22.15998
G01 X2.84998 Y-24.69998
G01 X2.86776 Y-24.50475
G01 X2.87924 Y-24.44707
G01 X2.92760 Y-24.28763
G01 X2.95011 Y-24.23328
G01 X3.02867 Y-24.08634
G01 X3.06133 Y-24.03744
G01 X3.18681 Y-23.88682
G01 X3.33743 Y-23.76134
G01 X3.38633 Y-23.72865
G01 X3.53329 Y-23.65012
G01 X3.58762 Y-23.62761
G01 X3.74708 Y-23.57923
G01 X3.80477 Y-23.56777
G01 X3.99999 Y-23.54999
G01 X4.19522 Y-23.56777
G01 X4.25290 Y-23.57923
G01 X4.41236 Y-23.62761
G01 X4.46669 Y-23.65012
G01 X4.61363 Y-23.72865
G01 X4.66255 Y-23.76134
G01 X4.81315 Y-23.88682
G01 X4.93865 Y-24.03744
G01 X4.97131 Y-24.08634
G01 X5.03204 Y-24.19995
G01 X5.65005 Y-24.19995
G01 X5.71848 Y-24.20526
G01 X5.77616 Y-24.21672
G01 X5.84142 Y-24.23803
G01 X5.92785 Y-24.28423
G01 X5.98180 Y-24.32665
G01 X6.04827 Y-24.39853
G01 X6.08094 Y-24.44742
G01 X6.11200 Y-24.50861
G01 X6.13331 Y-24.57386
G01 X6.14477 Y-24.63155
G01 X6.15008 Y-24.69998
G01 X6.15008 Y-24.99827
G01 X9.11898 Y-27.96715
G01 X11.56579 Y-27.96715
G01 X15.25996 Y-24.27298
G01 X15.25996 Y-23.85563
G01 X15.14886 Y-23.79459
G01 X15.00398 Y-23.67758
G01 X14.96240 Y-23.63600
G01 X14.86291 Y-23.51476
G01 X14.83025 Y-23.46587
G01 X14.74371 Y-23.30094
G01 X14.68829 Y-23.12314
G01 X14.67681 Y-23.06546
G01 X14.65999 Y-22.87999
G01 X14.67681 Y-22.69452
G01 X14.68829 Y-22.63684
G01 X14.73380 Y-22.48675
G01 X14.75631 Y-22.43242
G01 X14.84536 Y-22.26887
G01 X14.96240 Y-22.12398
G01 X15.00398 Y-22.08240
G01 X15.12522 Y-21.98291
G01 X15.17411 Y-21.95022
G01 X15.33903 Y-21.86371
G01 X15.51683 Y-21.80829
G01 X15.57452 Y-21.79681
G01 X15.75999 Y-21.77999
G01 X15.94546 Y-21.79681
G01 X16.00314 Y-21.80829
G01 X16.15323 Y-21.85380
G01 X16.20756 Y-21.87631
G01 X16.37111 Y-21.96536
G01 X16.51599 Y-22.08240
G01 X16.55757 Y-22.12398
G01 X16.65707 Y-22.24522
G01 X16.68973 Y-22.29411
G01 X16.76367 Y-22.43242
G01 X16.78617 Y-22.48675
G01 X16.83169 Y-22.63684
G01 X16.84317 Y-22.69452
G01 X16.85999 Y-22.87999
G01 X16.84317 Y-23.06546
G01 X16.83169 Y-23.12314
G01 X16.77624 Y-23.30094
G01 X16.68973 Y-23.46587
G01 X16.65707 Y-23.51476
G01 X16.55757 Y-23.63600
G01 X16.51599 Y-23.67758
G01 X16.39476 Y-23.77707
G01 X16.34587 Y-23.80973
G01 X16.25999 Y-23.85565
G01 X16.25854 Y-24.50948
G01 X16.24322 Y-24.60617
G01 X16.23184 Y-24.64369
G01 X16.22191 Y-24.67143
G01 X16.19085 Y-24.73261
G01 X16.15818 Y-24.78151
G01 X16.11353 Y-24.83363
G01 X12.10579 Y-28.83835
G01 X12.10579 Y-31.42849
G01 X19.75658 Y-39.07930
G01 X47.08606 Y-39.07927
G01 X47.17372 Y-38.99855
G01 X47.26808 Y-38.94666
G01 X47.31156 Y-38.92865
G01 X47.35736 Y-38.91765
G01 X47.46610 Y-38.90416
G01 X53.14920 Y-38.90416
G01 X53.25791 Y-38.91765
G01 X53.32580 Y-38.93680
G01 X53.38656 Y-38.96423
G01 X53.46695 Y-39.02004
G01 X53.50274 Y-39.05062
G01 X54.42364 Y-39.97155
G01 X54.54538 Y-39.93612
G01 X54.73057 Y-39.91643
G01 X54.78940 Y-39.91643
G01 X54.97459 Y-39.93612
G01 X55.15323 Y-39.98879
G01 X55.20756 Y-40.01130
G01 X55.34586 Y-40.08524
G01 X55.39476 Y-40.11790
G01 X55.53781 Y-40.23718
G01 X55.65706 Y-40.38021
G01 X55.68973 Y-40.42910
G01 X55.77627 Y-40.59403
G01 X55.83169 Y-40.77183
G01 X55.84317 Y-40.82951
G01 X55.85854 Y-40.98559
G01 X55.85854 Y-41.04439
G01 X55.83885 Y-41.22958
G01 X55.80342 Y-41.35133
G01 X56.57268 Y-42.12057
G01 X71.56320 Y-42.12057
G01 X82.56422 Y-31.12300
G01 X82.60001 Y-31.09244
G01 X82.69587 Y-31.03946
G01 X82.73936 Y-31.02145
G01 X82.78515 Y-31.01045
G01 X82.89387 Y-30.99697
G01 X89.43586 Y-30.99697
G01 X97.71654 Y-22.71631
G01 X97.68827 Y-22.62314
G01 X97.67679 Y-22.56546
G01 X97.66143 Y-22.40940
G01 X97.66143 Y-22.35058
G01 X97.67679 Y-22.19452
G01 X97.68827 Y-22.13684
G01 X97.73379 Y-21.98675
G01 X97.75632 Y-21.93242
G01 X97.83023 Y-21.79411
G01 X97.86290 Y-21.74522
G01 X97.98218 Y-21.60217
G01 X98.12520 Y-21.48291
G01 X98.17412 Y-21.45022
G01 X98.31243 Y-21.37631
G01 X98.36676 Y-21.35381
G01 X98.51682 Y-21.30829
G01 X98.57450 Y-21.29681
G01 X98.75998 Y-21.27999
G01 X98.94547 Y-21.29681
G01 X99.00315 Y-21.30829
G01 X99.18093 Y-21.36371
G01 X99.34585 Y-21.45022
G01 X99.39477 Y-21.48291
G01 X99.51598 Y-21.58241
G01 X99.55759 Y-21.62399
G01 X99.67460 Y-21.76887
G01 X99.77625 Y-21.95904
G01 X99.83170 Y-22.13684
G01 X99.84318 Y-22.19452
G01 X99.85855 Y-22.35058
G01 X99.85855 Y-22.40940
G01 X99.84318 Y-22.56546
G01 X99.83170 Y-22.62314
G01 X99.77625 Y-22.80094
G01 X99.67460 Y-22.99111
G01 X99.53780 Y-23.15781
G01 X99.39477 Y-23.27707
G01 X99.34585 Y-23.30973
G01 X99.18093 Y-23.39624
G01 X99.00315 Y-23.45169
G01 X98.94547 Y-23.46317
G01 X98.78939 Y-23.47854
G01 X98.73059 Y-23.47854
G01 X98.57450 Y-23.46317
G01 X98.51682 Y-23.45169
G01 X98.42363 Y-23.42342
G01 X89.99652 Y-31.85053
G01 X89.96073 Y-31.88111
G01 X89.88034 Y-31.93692
G01 X89.78621 Y-31.97593
G01 X89.68989 Y-31.99328
G01 X89.64298 Y-31.99699
G01 X83.10098 Y-31.99699
G01 X72.12383 Y-42.97413
G01 X72.03742 Y-43.04149
G01 X72.00765 Y-43.06052
G01 X71.94690 Y-43.08795
G01 X71.87900 Y-43.10710
G01 X71.77024 Y-43.12059
G01 X56.33425 Y-43.11813
G01 X56.28734 Y-43.11442
G01 X56.24159 Y-43.10344
G01 X56.13860 Y-43.06608
G01 X56.09844 Y-43.04149
G01 X56.01203 Y-42.97413
G01 X55.09633 Y-42.05844
G01 X54.97459 Y-42.09385
G01 X54.78940 Y-42.11353
G01 X54.73057 Y-42.11353
G01 X54.54538 Y-42.09385
G01 X54.33903 Y-42.03126
G01 X54.17411 Y-41.94475
G01 X54.12522 Y-41.91206
G01 X53.98216 Y-41.79280
G01 X53.84536 Y-41.62610
G01 X53.75631 Y-41.46255
G01 X53.73380 Y-41.40822
G01 X53.68112 Y-41.22958
G01 X53.66144 Y-41.04439
G01 X53.66144 Y-40.98559
G01 X53.68112 Y-40.80038
G01 X53.71655 Y-40.67863
G01 X52.94208 Y-39.90419
G01 X47.67097 Y-39.90419
G01 X47.58334 Y-39.98488
G01 X47.48898 Y-40.03680
G01 X47.44550 Y-40.05481
G01 X47.39970 Y-40.06581
G01 X47.29099 Y-40.07929
G01 X19.54949 Y-40.07929
G01 X19.45193 Y-40.06967
G01 X19.38586 Y-40.05115
G01 X19.33153 Y-40.02865
G01 X19.24804 Y-39.97749
G01 X19.19592 Y-39.93284
G01 X11.25223 Y-31.98914
G01 X11.20757 Y-31.93702
G01 X11.15642 Y-31.85353
G01 X11.13391 Y-31.79920
G01 X11.11108 Y-31.70400
G01 X11.10577 Y-31.63560
G01 X11.10577 Y-28.96718
G01 X8.91189 Y-28.96718
G01 X8.84347 Y-28.96187
G01 X8.78578 Y-28.95041
G01 X8.69394 Y-28.91653
G01 X8.65934 Y-28.89804
G01 X8.61045 Y-28.86537
G01 X8.55833 Y-28.82072
G01 X5.29651 Y-25.55893
G01 X5.22915 Y-25.47252
G01 X5.20456 Y-25.43236
G01 X5.18655 Y-25.38887
G01 X5.15640 Y-25.28468
G01 X5.15226 Y-25.19997
G01 X5.03207 Y-25.19997
G01 X4.97131 Y-25.31364
G01 X4.93865 Y-25.36253
G01 X4.81315 Y-25.51316
G01 X4.66255 Y-25.63863
G01 X4.61363 Y-25.67132
G01 X4.46669 Y-25.74986
G01 X4.41236 Y-25.77234
G01 X4.25290 Y-25.82073
G01 X4.19522 Y-25.83218
G01 X4.02938 Y-25.84854
G01 X3.97058 Y-25.84854
G01 X3.77563 Y-25.82786
G01 X3.58762 Y-25.77234
G01 X3.53329 Y-25.74986
G01 X3.38633 Y-25.67132
G01 X3.33743 Y-25.63863
G01 X3.18681 Y-25.51316
G01 X3.06133 Y-25.36253
G01 X3.02867 Y-25.31364
G01 X2.95011 Y-25.16668
G01 X2.92760 Y-25.11234
G01 X2.87924 Y-24.95291
G01 X2.86776 Y-24.89523
G01 X2.84998 Y-24.69998
G01 X2.85143 Y-27.26939
G01 X2.85143 Y-27.21059
G01 X2.87208 Y-27.01564
G01 X2.92760 Y-26.82763
G01 X2.95011 Y-26.77328
G01 X3.04381 Y-26.60109
G01 X3.16705 Y-26.44864
G01 X3.20858 Y-26.40703
G01 X3.36108 Y-26.28377
G01 X3.53329 Y-26.19012
G01 X3.58762 Y-26.16761
G01 X3.77563 Y-26.11209
G01 X3.97058 Y-26.09144
G01 X4.02938 Y-26.09144
G01 X4.22435 Y-26.11209
G01 X4.44007 Y-26.17752
G01 X4.63890 Y-26.28377
G01 X4.79135 Y-26.40703
G01 X4.83293 Y-26.44864
G01 X4.95617 Y-26.60109
G01 X5.04985 Y-26.77328
G01 X5.07235 Y-26.82763
G01 X5.12788 Y-27.01564
G01 X5.14855 Y-27.21059
G01 X5.14855 Y-27.26939
G01 X5.12788 Y-27.46433
G01 X5.07235 Y-27.65235
G01 X5.04985 Y-27.70668
G01 X4.95617 Y-27.87889
G01 X4.83293 Y-28.03134
G01 X4.79135 Y-28.07294
G01 X4.63890 Y-28.19618
G01 X4.46669 Y-28.28986
G01 X4.41236 Y-28.31236
G01 X4.22435 Y-28.36789
G01 X4.02938 Y-28.38854
G01 X3.97058 Y-28.38854
G01 X3.77563 Y-28.36789
G01 X3.58762 Y-28.31236
G01 X3.53329 Y-28.28986
G01 X3.36108 Y-28.19618
G01 X3.20858 Y-28.07294
G01 X3.16705 Y-28.03134
G01 X3.04381 Y-27.87889
G01 X2.95011 Y-27.70668
G01 X2.92760 Y-27.65235
G01 X2.87208 Y-27.46433
G01 X2.85143 Y-27.26939
G01 X2.85143 Y-29.75059
G01 X2.87208 Y-29.55564
G01 X2.92760 Y-29.36763
G01 X2.95011 Y-29.31328
G01 X3.04381 Y-29.14109
G01 X3.16705 Y-28.98864
G01 X3.20858 Y-28.94703
G01 X3.36108 Y-28.82379
G01 X3.53329 Y-28.73012
G01 X3.58762 Y-28.70761
G01 X3.77563 Y-28.65209
G01 X3.97058 Y-28.63144
G01 X4.02938 Y-28.63144
G01 X4.22435 Y-28.65209
G01 X4.44007 Y-28.71752
G01 X4.63890 Y-28.82379
G01 X4.79135 Y-28.94703
G01 X4.83293 Y-28.98864
G01 X4.95617 Y-29.14109
G01 X5.04985 Y-29.31328
G01 X5.07235 Y-29.36763
G01 X5.12788 Y-29.55564
G01 X5.14855 Y-29.75059
G01 X5.14855 Y-29.80939
G01 X5.12788 Y-30.00433
G01 X5.07235 Y-30.19234
G01 X5.04985 Y-30.24668
G01 X4.95617 Y-30.41889
G01 X4.83293 Y-30.57134
G01 X4.79135 Y-30.61294
G01 X4.63890 Y-30.73618
G01 X4.46669 Y-30.82986
G01 X4.41236 Y-30.85236
G01 X4.22435 Y-30.90789
G01 X4.02938 Y-30.92854
G01 X3.97058 Y-30.92854
G01 X3.77563 Y-30.90789
G01 X3.58762 Y-30.85236
G01 X3.53329 Y-30.82986
G01 X3.36108 Y-30.73618
G01 X3.20858 Y-30.61294
G01 X3.16705 Y-30.57134
G01 X3.04381 Y-30.41889
G01 X2.95011 Y-30.24668
G01 X2.92760 Y-30.19234
G01 X2.87208 Y-30.00433
G01 X2.85143 Y-29.80939
G01 X2.85143 Y-29.75059
G04 P0 ( dwell for no time -- G64 should not smooth over this point )
G00 Z2.00000 ( retract )

G00 X7.68934 Y-26.11529 ( rapid move to begin. )
G01 F30.00000
( Mill infeed pass 1/2 )
G01 Z-0.07500
G04 P0 ( dwell for no time -- G64 should not smooth over this point )
G01 F40.00000
G01 X7.68934 Y-26.11529
G01 X7.68934 Y-26.05649
G01 X7.70326 Y-25.92982
G01 X7.73887 Y-25.80744
G01 X7.76138 Y-25.75314
G01 X7.82272 Y-25.64143
G01 X7.92221 Y-25.52019
G01 X8.01980 Y-25.43825
G01 X8.06869 Y-25.40559
G01 X8.15513 Y-25.35936
G01 X8.20946 Y-25.33686
G01 X8.30326 Y-25.30841
G01 X8.36094 Y-25.29693
G01 X8.45848 Y-25.28733
G01 X8.51728 Y-25.28733
G01 X8.57374 Y-25.29289
G01 X9.52597 Y-24.34067
G01 X9.52599 Y-19.16874
G01 X9.46031 Y-19.11297
G01 X9.37834 Y-19.01538
G01 X9.34568 Y-18.96648
G01 X9.28687 Y-18.85343
G01 X9.24852 Y-18.73192
G01 X9.23704 Y-18.67423
G01 X9.22599 Y-18.54728
G01 X9.23704 Y-18.42033
G01 X9.24852 Y-18.36265
G01 X9.28687 Y-18.24114
G01 X9.34568 Y-18.12808
G01 X9.37834 Y-18.07919
G01 X9.46031 Y-17.98160
G01 X9.55789 Y-17.89966
G01 X9.60679 Y-17.86697
G01 X9.69322 Y-17.82077
G01 X9.74755 Y-17.79826
G01 X9.84136 Y-17.76981
G01 X9.89904 Y-17.75833
G01 X10.02599 Y-17.74728
G01 X10.15294 Y-17.75833
G01 X10.21062 Y-17.76981
G01 X10.30442 Y-17.79826
G01 X10.35875 Y-17.82077
G01 X10.44519 Y-17.86697
G01 X10.49409 Y-17.89966
G01 X10.58197 Y-17.97279
G01 X10.67361 Y-18.07919
G01 X10.70630 Y-18.12808
G01 X10.75251 Y-18.21452
G01 X10.77501 Y-18.26885
G01 X10.80346 Y-18.36265
G01 X10.81494 Y-18.42033
G01 X10.82599 Y-18.54728
G01 X10.81494 Y-18.67423
G01 X10.80346 Y-18.73192
G01 X10.77501 Y-18.82572
G01 X10.75251 Y-18.88005
G01 X10.70630 Y-18.96648
G01 X10.67361 Y-19.01538
G01 X10.59167 Y-19.11297
G01 X10.52599 Y-19.16874
G01 X10.52599 Y-24.54775
G01 X10.52068 Y-24.61618
G01 X10.49785 Y-24.71138
G01 X10.48791 Y-24.73912
G01 X10.45685 Y-24.80031
G01 X10.42419 Y-24.84920
G01 X10.37953 Y-24.90132
G01 X9.28088 Y-25.99995
G01 X9.28644 Y-26.05649
G01 X9.28644 Y-26.11529
G01 X9.27252 Y-26.24196
G01 X9.23691 Y-26.36431
G01 X9.21441 Y-26.41862
G01 X9.16821 Y-26.50510
G01 X9.13552 Y-26.55400
G01 X9.07334 Y-26.62977
G01 X9.03176 Y-26.67135
G01 X8.95599 Y-26.73353
G01 X8.90709 Y-26.76619
G01 X8.82066 Y-26.81239
G01 X8.76630 Y-26.83490
G01 X8.64395 Y-26.87051
G01 X8.51728 Y-26.88445
G01 X8.45848 Y-26.88445
G01 X8.36094 Y-26.87483
G01 X8.30326 Y-26.86337
G01 X8.18175 Y-26.82499
G01 X8.06869 Y-26.76619
G01 X8.01980 Y-26.73353
G01 X7.92221 Y-26.65158
G01 X7.84024 Y-26.55400
G01 X7.80758 Y-26.50510
G01 X7.76138 Y-26.41862
G01 X7.73887 Y-26.36431
G01 X7.70326 Y-26.24196
G01 X7.68934 Y-26.11529
( Mill infeed pass 2/2 )
G01 Z-0.15000
G04 P0 ( dwell for no time -- G64 should not smooth over this point )
G01 F40.00000
G01 X7.68934 Y-26.11529
G01 X7.68934 Y-26.05649
G01 X7.70326 Y-25.92982
G01 X7.73887 Y-25.80744
G01 X7.76138 Y-25.75314
G01 X7.82272 Y-25.64143
G01 X7.92221 Y-25.52019
G01 X8.01980 Y-25.43825
G01 X8.06869 Y-25.40559
G01 X8.15513 Y-25.35936
G01 X8.20946 Y-25.33686
G01 X8.30326 Y-25.30841
G01 X8.36094 Y-25.29693
G01 X8.45848 Y-25.28733
G01 X8.51728 Y-25.28733
G01 X8.57374 Y-25.29289
G01 X9.52597 Y-24.34067
G01 X9.52599 Y-19.16874
G01 X9.46031 Y-19.11297
G01 X9.37834 Y-19.01538
G01 X9.34568 Y-18.96648
G01 X9.28687 Y-18.85343
G01 X9.24852 Y-18.73192
G01 X9.23704 Y-18.67423
G01 X9.22599 Y-18.54728
G01 X9.23704 Y-18.42033
G01 X9.24852 Y-18.36265
G01 X9.28687 Y-18.24114
G01 X9.34568 Y-18.12808
G01 X9.37834 Y-18.07919
G01 X9.46031 Y-17.98160
G01 X9.55789 Y-17.89966
G01 X9.60679 Y-17.86697
G01 X9.69322 Y-17.82077
G01 X9.74755 Y-17.79826
G01 X9.84136 Y-17.76981
G01 X9.89904 Y-17.75833
G01 X10.02599 Y-17.74728
G01 X10.15294 Y-17.75833
G01 X10.21062 Y-17.76981
G01 X10.30442 Y-17.79826
G01 X10.35875 Y-17.82077
G01 X10.44519 Y-17.86697
G01 X10.49409 Y-17.89966
G01 X10.58197 Y-17.97279
G01 X10.67361 Y-18.07919
G01 X10.70630 Y-18.12808
G01 X10.75251 Y-18.21452
G01 X10.77501 Y-18.26885
G01 X10.80346 Y-18.36265
G01 X10.81494 Y-18.42033
G01 X10.82599 Y-18.54728
G01 X10.81494 Y-18.67423
G01 X10.80346 Y-18.73192
G01 X10.77501 Y-18.82572
G01 X10.75251 Y-18.88005
G01 X10.70630 Y-18.96648
G01 X10.67361 Y-19.01538
G01 X10.59167 Y-19.11297
G01 X10.52599 Y-19.16874
G01 X10.52599 Y-24.54775
G01 X10.52068 Y-24.61618
G01 X10.49785 Y-24.71138
G01 X10.48791 Y-24.73912
G01 X10.45685 Y-24.80031
G01 X10.42419 Y-24.84920
G01 X10.37953 Y-24.90132
G01 X9.28088 Y-25.99995
G01 X9.28644 Y-26.05649
G01 X9.28644 Y-26.11529
G01 X9.27252 Y-26.24196
G01 X9.23691 Y-26.36431
G01 X9.21441 Y-26.41862
G01 X9.16821 Y-26.50510
G01 X9.13552 Y-26.55400
G01 X9.07334 Y-26.62977
G01 X9.03176 Y-26.67135
G01 X8.95599 Y-26.73353
G01 X8.90709 Y-26.76619
G01 X8.82066 Y-26.81239
G01 X8.76630 Y-26.83490
G01 X8.64395 Y-26.87051
G01 X8.51728 Y-26.88445
G01 X8.45848 Y-26.88445
G01 X8.36094 Y-26.87483
G01 X8.30326 Y-26.86337
G01 X8.18175 Y-26.82499
G01 X8.06869 Y-26.76619
G01 X8.01980 Y-26.73353
G01 X7.92221 Y-26.65158
G01 X7.84024 Y-26.55400
G01 X7.80758 Y-26.50510
G01 X7.76138 Y-26.41862
G01 X7.73887 Y-26.36431
G01 X7.70326 Y-26.24196
G01 X7.68934 Y-26.11529
G04 P0 ( dwell for no time -- G64 should not smooth over this point )
G00 Z2.00000 ( retract )

G00 X6.31500 Y-24.83167 ( rapid move to begin. )
G01 F30.00000
( Mill infeed pass 1/2 )
G01 Z-0.07500
G04 P0 ( dwell for no time -- G64 should not smooth over this point )
G01 F40.00000
G01 X6.31500 Y-24.83167
G01 X6.32605 Y-24.70473
G01 X6.33750 Y-24.64707
G01 X6.37588 Y-24.52553
G01 X6.43468 Y-24.41247
G01 X6.46735 Y-24.36358
G01 X6.54931 Y-24.26599
G01 X6.67052 Y-24.16650
G01 X6.78223 Y-24.10516
G01 X6.83656 Y-24.08265
G01 X6.93036 Y-24.05421
G01 X6.98805 Y-24.04275
G01 X7.11500 Y-24.03168
G01 X7.20085 Y-24.03869
G01 X8.00905 Y-23.23048
G01 X8.00905 Y-11.87879
G01 X8.01436 Y-11.81037
G01 X8.02582 Y-11.75268
G01 X8.04713 Y-11.68743
G01 X8.07819 Y-11.62624
G01 X8.11086 Y-11.57735
G01 X8.15551 Y-11.52522
G01 X9.49650 Y-10.18423
G01 X9.48949 Y-10.09838
G01 X9.50054 Y-9.97143
G01 X9.51202 Y-9.91375
G01 X9.55037 Y-9.79223
G01 X9.60918 Y-9.67918
G01 X9.64184 Y-9.63028
G01 X9.70402 Y-9.55451
G01 X9.74562 Y-9.51293
G01 X9.82139 Y-9.45076
G01 X9.87029 Y-9.41807
G01 X9.98334 Y-9.35929
G01 X10.10486 Y-9.32091
G01 X10.16254 Y-9.30943
G01 X10.28949 Y-9.29838
G01 X10.41644 Y-9.30943
G01 X10.47412 Y-9.32091
G01 X10.59564 Y-9.35929
G01 X10.70869 Y-9.41807
G01 X10.75759 Y-9.45076
G01 X10.83335 Y-9.51293
G01 X10.87493 Y-9.55451
G01 X10.93711 Y-9.63028
G01 X10.96980 Y-9.67918
G01 X11.01601 Y-9.76561
G01 X11.03851 Y-9.81997
G01 X11.06696 Y-9.91375
G01 X11.07844 Y-9.97143
G01 X11.08949 Y-10.09838
G01 X11.07844 Y-10.22533
G01 X11.06696 Y-10.28301
G01 X11.03851 Y-10.37681
G01 X11.01601 Y-10.43114
G01 X10.96980 Y-10.51758
G01 X10.93711 Y-10.56650
G01 X10.87493 Y-10.64227
G01 X10.83335 Y-10.68385
G01 X10.75759 Y-10.74603
G01 X10.70869 Y-10.77869
G01 X10.59564 Y-10.83749
G01 X10.47412 Y-10.87587
G01 X10.41644 Y-10.88733
G01 X10.31890 Y-10.89693
G01 X10.28949 Y-10.89838
G01 X10.20356 Y-10.89137
G01 X9.00908 Y-12.08588
G01 X9.00908 Y-23.43760
G01 X9.00377 Y-23.50600
G01 X8.99231 Y-23.56368
G01 X8.97100 Y-23.62893
G01 X8.93994 Y-23.69012
G01 X8.90727 Y-23.73902
G01 X8.86262 Y-23.79114
G01 X7.90799 Y-24.74577
G01 X7.91500 Y-24.83167
G01 X7.91355 Y-24.86109
G01 X7.90395 Y-24.95865
G01 X7.89247 Y-25.01631
G01 X7.85409 Y-25.13785
G01 X7.79531 Y-25.25090
G01 X7.76262 Y-25.29980
G01 X7.70044 Y-25.37557
G01 X7.65886 Y-25.41714
G01 X7.55945 Y-25.49688
G01 X7.44774 Y-25.55817
G01 X7.39341 Y-25.58072
G01 X7.29963 Y-25.60917
G01 X7.24195 Y-25.62062
G01 X7.14438 Y-25.63025
G01 X7.08558 Y-25.63025
G01 X6.98805 Y-25.62062
G01 X6.93036 Y-25.60917
G01 X6.83656 Y-25.58072
G01 X6.78223 Y-25.55817
G01 X6.67052 Y-25.49688
G01 X6.57111 Y-25.41714
G01 X6.53999 Y-25.38710
G01 X6.46735 Y-25.29980
G01 X6.43468 Y-25.25090
G01 X6.37588 Y-25.13785
G01 X6.33750 Y-25.01631
G01 X6.32605 Y-24.95865
G01 X6.31500 Y-24.83167
( Mill infeed pass 2/2 )
G01 Z-0.15000
G04 P0 ( dwell for no time -- G64 should not smooth over this point )
G01 F40.00000
G01 X6.31500 Y-24.83167
G01 X6.32605 Y-24.70473
G01 X6.33750 Y-24.64707
G01 X6.37588 Y-24.52553
G01 X6.43468 Y-24.41247
G01 X6.46735 Y-24.36358
G01 X6.54931 Y-24.26599
G01 X6.67052 Y-24.16650
G01 X6.78223 Y-24.10516
G01 X6.83656 Y-24.08265
G01 X6.93036 Y-24.05421
G01 X6.98805 Y-24.04275
G01 X7.11500 Y-24.03168
G01 X7.20085 Y-24.03869
G01 X8.00905 Y-23.23048
G01 X8.00905 Y-11.87879
G01 X8.01436 Y-11.81037
G01 X8.02582 Y-11.75268
G01 X8.04713 Y-11.68743
G01 X8.07819 Y-11.62624
G01 X8.11086 Y-11.57735
G01 X8.15551 Y-11.52522
G01 X9.49650 Y-10.18423
G01 X9.48949 Y-10.09838
G01 X9.50054 Y-9.97143
G01 X9.51202 Y-9.91375
G01 X9.55037 Y-9.79223
G01 X9.60918 Y-9.67918
G01 X9.64184 Y-9.63028
G01 X9.70402 Y-9.55451
G01 X9.74562 Y-9.51293
G01 X9.82139 Y-9.45076
G01 X9.87029 Y-9.41807
G01 X9.98334 Y-9.35929
G01 X10.10486 Y-9.32091
G01 X10.16254 Y-9.30943
G01 X10.28949 Y-9.29838
G01 X10.41644 Y-9.30943
G01 X10.47412 Y-9.32091
G01 X10.59564 Y-9.35929
G01 X10.70869 Y-9.41807
G01 X10.75759 Y-9.45076
G01 X10.83335 Y-9.51293
G01 X10.87493 Y-9.55451
G01 X10.93711 Y-9.63028
G01 X10.96980 Y-9.67918
G01 X11.01601 Y-9.76561
G01 X11.03851 Y-9.81997
G01 X11.06696 Y-9.91375
G01 X11.07844 Y-9.97143
G01 X11.08949 Y-10.09838
G01 X11.07844 Y-10.22533
G01 X11.06696 Y-10.28301
G01 X11.03851 Y-10.37681
G01 X11.01601 Y-10.43114
G01 X10.96980 Y-10.51758
G01 X10.93711 Y-10.56650
G01 X10.87493 Y-10.64227
G01 X10.83335 Y-10.68385
G01 X10.75759 Y-10.74603
G01 X10.70869 Y-10.77869
G01 X10.59564 Y-10.83749
G01 X10.47412 Y-10.87587
G01 X10.41644 Y-10.88733
G01 X10.31890 Y-10.89693
G01 X10.28949 Y-10.89838
G01 X10.20356 Y-10.89137
G01 X9.00908 Y-12.08588
G01 X9.00908 Y-23.43760
G01 X9.00377 Y-23.50600
G01 X8.99231 Y-23.56368
G01 X8.97100 Y-23.62893
G01 X8.93994 Y-23.69012
G01 X8.90727 Y-23.73902
G01 X8.86262 Y-23.79114
G01 X7.90799 Y-24.74577
G01 X7.91500 Y-24.83167
G01 X7.91355 Y-24.86109
G01 X7.90395 Y-24.95865
G01 X7.89247 Y-25.01631
G01 X7.85409 Y-25.13785
G01 X7.79531 Y-25.25090
G01 X7.76262 Y-25.29980
G01 X7.70044 Y-25.37557
G01 X7.65886 Y-25.41714
G01 X7.55945 Y-25.49688
G01 X7.44774 Y-25.55817
G01 X7.39341 Y-25.58072
G01 X7.29963 Y-25.60917
G01 X7.24195 Y-25.62062
G01 X7.14438 Y-25.63025
G01 X7.08558 Y-25.63025
G01 X6.98805 Y-25.62062
G01 X6.93036 Y-25.60917
G01 X6.83656 Y-25.58072
G01 X6.78223 Y-25.55817
G01 X6.67052 Y-25.49688
G01 X6.57111 Y-25.41714
G01 X6.53999 Y-25.38710
G01 X6.46735 Y-25.29980
G01 X6.43468 Y-25.25090
G01 X6.37588 Y-25.13785
G01 X6.33750 Y-25.01631
G01 X6.32605 Y-24.95865
G01 X6.31500 Y-24.83167
G04 P0 ( dwell for no time -- G64 should not smooth over this point )
G00 Z2.00000 ( retract )

G00 X12.11999 Y-31.29999 ( rapid move to begin. )
G01 F30.00000
( Mill infeed pass 1/2 )
G01 Z-0.07500
G04 P0 ( dwell for no time -- G64 should not smooth over this point )
G01 F40.00000
G01 X12.11999 Y-31.29999
G01 X12.11999 Y-29.69999
G01 X12.12174 Y-29.68226
G01 X12.22665 Y-29.47243
G01 X12.25332 Y-29.45054
G01 X12.30518 Y-29.42283
G01 X12.36147 Y-29.40576
G01 X12.41999 Y-29.39999
G01 X14.01999 Y-29.39999
G01 X14.07851 Y-29.40576
G01 X14.13480 Y-29.42283
G01 X14.18666 Y-29.45054
G01 X14.23213 Y-29.48785
G01 X14.26944 Y-29.53332
G01 X14.29715 Y-29.58518
G01 X14.31422 Y-29.64147
G01 X14.31999 Y-29.69999
G01 X14.31999 Y-30.89290
G01 X21.16178 Y-37.73470
G01 X45.21624 Y-37.73467
G01 X45.27199 Y-37.66901
G01 X45.36958 Y-37.58705
G01 X45.41848 Y-37.55438
G01 X45.53153 Y-37.49558
G01 X45.68162 Y-37.45006
G01 X45.80829 Y-37.43612
G01 X45.86709 Y-37.43612
G01 X45.99376 Y-37.45006
G01 X46.11611 Y-37.48568
G01 X46.17044 Y-37.50818
G01 X46.25688 Y-37.55438
G01 X46.30580 Y-37.58705
G01 X46.40336 Y-37.66901
G01 X46.48533 Y-37.76657
G01 X46.51799 Y-37.81549
G01 X46.57679 Y-37.92855
G01 X46.62231 Y-38.07861
G01 X46.63625 Y-38.20528
G01 X46.63625 Y-38.26408
G01 X46.62231 Y-38.39075
G01 X46.57679 Y-38.54084
G01 X46.51799 Y-38.65390
G01 X46.48533 Y-38.70279
G01 X46.42315 Y-38.77856
G01 X46.38157 Y-38.82014
G01 X46.30580 Y-38.88232
G01 X46.25688 Y-38.91501
G01 X46.14382 Y-38.97379
G01 X45.99376 Y-39.01933
G01 X45.86709 Y-39.03325
G01 X45.80829 Y-39.03325
G01 X45.68162 Y-39.01933
G01 X45.53153 Y-38.97379
G01 X45.41848 Y-38.91501
G01 X45.36958 Y-38.88232
G01 X45.27199 Y-38.80038
G01 X45.21622 Y-38.73467
G01 X20.95470 Y-38.73470
G01 X20.85713 Y-38.72507
G01 X20.79107 Y-38.70655
G01 X20.73674 Y-38.68405
G01 X20.65325 Y-38.63289
G01 X20.60113 Y-38.58824
G01 X13.61288 Y-31.59999
G01 X12.41999 Y-31.59999
G01 X12.36147 Y-31.59422
G01 X12.32657 Y-31.58363
G01 X12.16205 Y-31.45076
G01 X12.14283 Y-31.41480
G01 X12.12576 Y-31.35851
G01 X12.11999 Y-31.29999
( Mill infeed pass 2/2 )
G01 Z-0.15000
G04 P0 ( dwell for no time -- G64 should not smooth over this point )
G01 F40.00000
G01 X12.11999 Y-31.29999
G01 X12.11999 Y-29.69999
G01 X12.12174 Y-29.68226
G01 X12.22665 Y-29.47243
G01 X12.25332 Y-29.45054
G01 X12.30518 Y-29.42283
G01 X12.36147 Y-29.40576
G01 X12.41999 Y-29.39999
G01 X14.01999 Y-29.39999
G01 X14.07851 Y-29.40576
G01 X14.13480 Y-29.42283
G01 X14.18666 Y-29.45054
G01 X14.23213 Y-29.48785
G01 X14.26944 Y-29.53332
G01 X14.29715 Y-29.58518
G01 X14.31422 Y-29.64147
G01 X14.31999 Y-29.69999
G01 X14.31999 Y-30.89290
G01 X21.16178 Y-37.73470
G01 X45.21624 Y-37.73467
G01 X45.27199 Y-37.66901
G01 X45.36958 Y-37.58705
G01 X45.41848 Y-37.55438
G01 X45.53153 Y-37.49558
G01 X45.68162 Y-37.45006
G01 X45.80829 Y-37.43612
G01 X45.86709 Y-37.43612
G01 X45.99376 Y-37.45006
G01 X46.11611 Y-37.48568
G01 X46.17044 Y-37.50818
G01 X46.25688 Y-37.55438
G01 X46.30580 Y-37.58705
G01 X46.40336 Y-37.66901
G01 X46.48533 Y-37.76657
G01 X46.51799 Y-37.81549
G01 X46.57679 Y-37.92855
G01 X46.62231 Y-38.07861
G01 X46.63625 Y-38.20528
G01 X46.63625 Y-38.26408
G01 X46.62231 Y-38.39075
G01 X46.57679 Y-38.54084
G01 X46.51799 Y-38.65390
G01 X46.48533 Y-38.70279
G01 X46.42315 Y-38.77856
G01 X46.38157 Y-38.82014
G01 X46.30580 Y-38.88232
G01 X46.25688 Y-38.91501
G01 X46.14382 Y-38.97379
G01 X45.99376 Y-39.01933
G01 X45.86709 Y-39.03325
G01 X45.80829 Y-39.03325
G01 X45.68162 Y-39.01933
G01 X45.53153 Y-38.97379
G01 X45.41848 Y-38.91501
G01 X45.36958 Y-38.88232
G01 X45.27199 Y-38.80038
G01 X45.21622 Y-38.73467
G01 X20.95470 Y-38.73470
G01 X20.85713 Y-38.72507
G01 X20.79107 Y-38.70655
G01 X20.73674 Y-38.68405
G01 X20.65325 Y-38.63289
G01 X20.60113 Y-38.58824
G01 X13.61288 Y-31.59999
G01 X12.41999 Y-31.59999
G01 X12.36147 Y-31.59422
G01 X12.32657 Y-31.58363
G01 X12.16205 Y-31.45076
G01 X12.14283 Y-31.41480
G01 X12.12576 Y-31.35851
G01 X12.11999 Y-31.29999
G04 P0 ( dwell for no time -- G64 should not smooth over this point )
G00 Z2.00000 ( retract )

G00 X14.65999 Y-30.49999 ( rapid move to begin. )
G01 F30.00000
( Mill infeed pass 1/2 )
G01 Z-0.07500
G04 P0 ( dwell for no time -- G64 should not smooth over this point )
G01 F40.00000
G01 X14.65999 Y-30.49999
G01 X14.67681 Y-30.31452
G01 X14.68829 Y-30.25684
G01 X14.73380 Y-30.10675
G01 X14.75631 Y-30.05242
G01 X14.84536 Y-29.88887
G01 X14.96240 Y-29.74398
G01 X15.00398 Y-29.70240
G01 X15.12522 Y-29.60291
G01 X15.17411 Y-29.57022
G01 X15.33903 Y-29.48371
G01 X15.51683 Y-29.42829
G01 X15.57452 Y-29.41681
G01 X15.73058 Y-29.40144
G01 X15.78940 Y-29.40144
G01 X15.94546 Y-29.41681
G01 X16.00314 Y-29.42829
G01 X16.18094 Y-29.48371
G01 X16.34587 Y-29.57022
G01 X16.39476 Y-29.60291
G01 X16.53781 Y-29.72217
G01 X16.65707 Y-29.86522
G01 X16.68973 Y-29.91411
G01 X16.77624 Y-30.07904
G01 X16.83169 Y-30.25684
G01 X16.84317 Y-30.31452
G01 X16.85999 Y-30.49999
G01 X16.84317 Y-30.68546
G01 X16.83169 Y-30.74314
G01 X16.78617 Y-30.89321
G01 X16.76367 Y-30.94756
G01 X16.68973 Y-31.08587
G01 X16.65707 Y-31.13476
G01 X16.53781 Y-31.27781
G01 X16.39476 Y-31.39707
G01 X16.34587 Y-31.42973
G01 X16.18094 Y-31.51624
G01 X16.00314 Y-31.57169
G01 X15.94546 Y-31.58317
G01 X15.78940 Y-31.59854
G01 X15.73058 Y-31.59854
G01 X15.57452 Y-31.58317
G01 X15.51683 Y-31.57169
G01 X15.33903 Y-31.51624
G01 X15.17411 Y-31.42973
G01 X15.12522 Y-31.39707
G01 X14.98216 Y-31.27781
G01 X14.86291 Y-31.13476
G01 X14.83025 Y-31.08587
G01 X14.75631 Y-30.94756
G01 X14.73380 Y-30.89321
G01 X14.68829 Y-30.74314
G01 X14.67681 Y-30.68546
G01 X14.65999 Y-30.49999
( Mill infeed pass 2/2 )
G01 Z-0.15000
G04 P0 ( dwell for no time -- G64 should not smooth over this point )
G01 F40.00000
G01 X14.65999 Y-30.49999
G01 X14.67681 Y-30.31452
G01 X14.68829 Y-30.25684
G01 X14.73380 Y-30.10675
G01 X14.75631 Y-30.05242
G01 X14.84536 Y-29.88887
G01 X14.96240 Y-29.74398
G01 X15.00398 Y-29.70240
G01 X15.12522 Y-29.60291
G01 X15.17411 Y-29.57022
G01 X15.33903 Y-29.48371
G01 X15.51683 Y-29.42829
G01 X15.57452 Y-29.41681
G01 X15.73058 Y-29.40144
G01 X15.78940 Y-29.40144
G01 X15.94546 Y-29.41681
G01 X16.00314 Y-29.42829
G01 X16.18094 Y-29.48371
G01 X16.34587 Y-29.57022
G01 X16.39476 Y-29.60291
G01 X16.53781 Y-29.72217
G01 X16.65707 Y-29.86522
G01 X16.68973 Y-29.91411
G01 X16.77624 Y-30.07904
G01 X16.83169 Y-30.25684
G01 X16.84317 Y-30.31452
G01 X16.85999 Y-30.49999
G01 X16.84317 Y-30.68546
G01 X16.83169 Y-30.74314
G01 X16.78617 Y-30.89321
G01 X16.76367 Y-30.94756
G01 X16.68973 Y-31.08587
G01 X16.65707 Y-31.13476
G01 X16.53781 Y-31.27781
G01 X16.39476 Y-31.39707
G01 X16.34587 Y-31.42973
G01 X16.18094 Y-31.51624
G01 X16.00314 Y-31.57169
G01 X15.94546 Y-31.58317
G01 X15.78940 Y-31.59854
G01 X15.73058 Y-31.59854
G01 X15.57452 Y-31.58317
G01 X15.51683 Y-31.57169
G01 X15.33903 Y-31.51624
G01 X15.17411 Y-31.42973
G01 X15.12522 Y-31.39707
G01 X14.98216 Y-31.27781
G01 X14.86291 Y-31.13476
G01 X14.83025 Y-31.08587
G01 X14.75631 Y-30.94756
G01 X14.73380 Y-30.89321
G01 X14.68829 Y-30.74314
G01 X14.67681 Y-30.68546
G01 X14.65999 Y-30.49999
G04 P0 ( dwell for no time -- G64 should not smooth over this point )
G00 Z2.00000 ( retract )

G00 X17.19999 Y-30.49999 ( rapid move to begin. )
G01 F30.00000
( Mill infeed pass 1/2 )
G01 Z-0.07500
G04 P0 ( dwell for no time -- G64 should not smooth over this point )
G01 F40.00000
G01 X17.19999 Y-30.49999
G01 X17.21681 Y-30.31452
G01 X17.22829 Y-30.25684
G01 X17.27380 Y-30.10675
G01 X17.29631 Y-30.05242
G01 X17.38536 Y-29.88887
G01 X17.50240 Y-29.74398
G01 X17.54398 Y-29.70240
G01 X17.66522 Y-29.60291
G01 X17.71411 Y-29.57022
G01 X17.85242 Y-29.49631
G01 X17.90675 Y-29.47380
G01 X18.05683 Y-29.42829
G01 X18.11452 Y-29.41681
G01 X18.27058 Y-29.40144
G01 X18.32940 Y-29.40144
G01 X18.48546 Y-29.41681
G01 X18.54314 Y-29.42829
G01 X18.72094 Y-29.48371
G01 X18.88587 Y-29.57022
G01 X18.93476 Y-29.60291
G01 X19.07781 Y-29.72217
G01 X19.19707 Y-29.86522
G01 X19.22973 Y-29.91411
G01 X19.30367 Y-30.05242
G01 X19.32617 Y-30.10675
G01 X19.37169 Y-30.25684
G01 X19.38317 Y-30.31452
G01 X19.39999 Y-30.49999
G01 X19.38317 Y-30.68546
G01 X19.37169 Y-30.74314
G01 X19.34342 Y-30.83631
G01 X23.74798 Y-35.24087
G01 X35.10143 Y-35.24087
G01 X35.15721 Y-35.17519
G01 X35.25479 Y-35.09325
G01 X35.30369 Y-35.06059
G01 X35.41674 Y-35.00178
G01 X35.56681 Y-34.95627
G01 X35.69348 Y-34.94232
G01 X35.75230 Y-34.94232
G01 X35.87895 Y-34.95627
G01 X36.00133 Y-34.99185
G01 X36.05566 Y-35.01438
G01 X36.14209 Y-35.06059
G01 X36.19099 Y-35.09325
G01 X36.27874 Y-35.16627
G01 X36.37051 Y-35.27278
G01 X36.40320 Y-35.32167
G01 X36.46198 Y-35.43475
G01 X36.50752 Y-35.58482
G01 X36.52144 Y-35.71149
G01 X36.52144 Y-35.77029
G01 X36.51184 Y-35.86785
G01 X36.50036 Y-35.92551
G01 X36.46198 Y-36.04704
G01 X36.40320 Y-36.16010
G01 X36.37051 Y-36.20900
G01 X36.30833 Y-36.28476
G01 X36.26675 Y-36.32634
G01 X36.19099 Y-36.38852
G01 X36.14209 Y-36.42119
G01 X36.02904 Y-36.47999
G01 X35.87895 Y-36.52550
G01 X35.75230 Y-36.53945
G01 X35.69348 Y-36.53945
G01 X35.56681 Y-36.52550
G01 X35.41674 Y-36.47999
G01 X35.30369 Y-36.42119
G01 X35.25479 Y-36.38852
G01 X35.15721 Y-36.30658
G01 X35.10143 Y-36.24090
G01 X23.54087 Y-36.24090
G01 X23.47247 Y-36.23559
G01 X23.41479 Y-36.22413
G01 X23.32294 Y-36.19025
G01 X23.28835 Y-36.17176
G01 X23.23945 Y-36.13909
G01 X23.18733 Y-36.09444
G01 X18.63631 Y-31.54342
G01 X18.54314 Y-31.57169
G01 X18.48546 Y-31.58317
G01 X18.32940 Y-31.59854
G01 X18.27058 Y-31.59854
G01 X18.11452 Y-31.58317
G01 X18.05683 Y-31.57169
G01 X17.87903 Y-31.51624
G01 X17.71411 Y-31.42973
G01 X17.66522 Y-31.39707
G01 X17.52216 Y-31.27781
G01 X17.40291 Y-31.13476
G01 X17.37025 Y-31.08587
G01 X17.29631 Y-30.94756
G01 X17.27380 Y-30.89321
G01 X17.22829 Y-30.74314
G01 X17.21681 Y-30.68546
G01 X17.19999 Y-30.49999
( Mill infeed pass 2/2 )
G01 Z-0.15000
G04 P0 ( dwell for no time -- G64 should not smooth over this point )
G01 F40.00000
G01 X17.19999 Y-30.49999
G01 X17.21681 Y-30.31452
G01 X17.22829 Y-30.25684
G01 X17.27380 Y-30.10675
G01 X17.29631 Y-30.05242
G01 X17.38536 Y-29.88887
G01 X17.50240 Y-29.74398
G01 X17.54398 Y-29.70240
G01 X17.66522 Y-29.60291
G01 X17.71411 Y-29.57022
G01 X17.85242 Y-29.49631
G01 X17.90675 Y-29.47380
G01 X18.05683 Y-29.42829
G01 X18.11452 Y-29.41681
G01 X18.27058 Y-29.40144
G01 X18.32940 Y-29.40144
G01 X18.48546 Y-29.41681
G01 X18.54314 Y-29.42829
G01 X18.72094 Y-29.48371
G01 X18.88587 Y-29.57022
G01 X18.93476 Y-29.60291
G01 X19.07781 Y-29.72217
G01 X19.19707 Y-29.86522
G01 X19.22973 Y-29.91411
G01 X19.30367 Y-30.05242
G01 X19.32617 Y-30.10675
G01 X19.37169 Y-30.25684
G01 X19.38317 Y-30.31452
G01 X19.39999 Y-30.49999
G01 X19.38317 Y-30.68546
G01 X19.37169 Y-30.74314
G01 X19.34342 Y-30.83631
G01 X23.74798 Y-35.24087
G01 X35.10143 Y-35.24087
G01 X35.15721 Y-35.17519
G01 X35.25479 Y-35.09325
G01 X35.30369 Y-35.06059
G01 X35.41674 Y-35.00178
G01 X35.56681 Y-34.95627
G01 X35.69348 Y-34.94232
G01 X35.75230 Y-34.94232
G01 X35.87895 Y-34.95627
G01 X36.00133 Y-34.99185
G01 X36.05566 Y-35.01438
G01 X36.14209 Y-35.06059
G01 X36.19099 Y-35.09325
G01 X36.27874 Y-35.16627
G01 X36.37051 Y-35.27278
G01 X36.40320 Y-35.32167
G01 X36.46198 Y-35.43475
G01 X36.50752 Y-35.58482
G01 X36.52144 Y-35.71149
G01 X36.52144 Y-35.77029
G01 X36.51184 Y-35.86785
G01 X36.50036 Y-35.92551
G01 X36.46198 Y-36.04704
G01 X36.40320 Y-36.16010
G01 X36.37051 Y-36.20900
G01 X36.30833 Y-36.28476
G01 X36.26675 Y-36.32634
G01 X36.19099 Y-36.38852
G01 X36.14209 Y-36.42119
G01 X36.02904 Y-36.47999
G01 X35.87895 Y-36.52550
G01 X35.75230 Y-36.53945
G01 X35.69348 Y-36.53945
G01 X35.56681 Y-36.52550
G01 X35.41674 Y-36.47999
G01 X35.30369 Y-36.42119
G01 X35.25479 Y-36.38852
G01 X35.15721 Y-36.30658
G01 X35.10143 Y-36.24090
G01 X23.54087 Y-36.24090
G01 X23.47247 Y-36.23559
G01 X23.41479 Y-36.22413
G01 X23.32294 Y-36.19025
G01 X23.28835 Y-36.17176
G01 X23.23945 Y-36.13909
G01 X23.18733 Y-36.09444
G01 X18.63631 Y-31.54342
G01 X18.54314 Y-31.57169
G01 X18.48546 Y-31.58317
G01 X18.32940 Y-31.59854
G01 X18.27058 Y-31.59854
G01 X18.11452 Y-31.58317
G01 X18.05683 Y-31.57169
G01 X17.87903 Y-31.51624
G01 X17.71411 Y-31.42973
G01 X17.66522 Y-31.39707
G01 X17.52216 Y-31.27781
G01 X17.40291 Y-31.13476
G01 X17.37025 Y-31.08587
G01 X17.29631 Y-30.94756
G01 X17.27380 Y-30.89321
G01 X17.22829 Y-30.74314
G01 X17.21681 Y-30.68546
G01 X17.19999 Y-30.49999
G04 P0 ( dwell for no time -- G64 should not smooth over this point )
G00 Z2.00000 ( retract )

G00 X19.73999 Y-30.49999 ( rapid move to begin. )
G01 F30.00000
( Mill infeed pass 1/2 )
G01 Z-0.07500
G04 P0 ( dwell for no time -- G64 should not smooth over this point )
G01 F40.00000
G01 X19.73999 Y-30.49999
G01 X19.75681 Y-30.31452
G01 X19.76829 Y-30.25684
G01 X19.81380 Y-30.10675
G01 X19.83631 Y-30.05242
G01 X19.91025 Y-29.91411
G01 X19.94291 Y-29.86522
G01 X20.06216 Y-29.72217
G01 X20.20522 Y-29.60291
G01 X20.25411 Y-29.57022
G01 X20.41903 Y-29.48371
G01 X20.59683 Y-29.42829
G01 X20.65452 Y-29.41681
G01 X20.81058 Y-29.40144
G01 X20.86940 Y-29.40144
G01 X21.02546 Y-29.41681
G01 X21.08314 Y-29.42829
G01 X21.17631 Y-29.45653
G01 X25.44600 Y-25.18682
G01 X25.49815 Y-25.14216
G01 X25.54704 Y-25.10950
G01 X25.60820 Y-25.07844
G01 X25.67348 Y-25.05713
G01 X25.73117 Y-25.04567
G01 X25.79959 Y-25.04036
G01 X35.89238 Y-25.04036
G01 X37.04633 Y-23.88641
G01 X37.12210 Y-23.82423
G01 X37.18194 Y-23.79061
G01 X37.23627 Y-23.76810
G01 X37.27379 Y-23.75672
G01 X37.37049 Y-23.74141
G01 X38.02433 Y-23.73996
G01 X38.07023 Y-23.65411
G01 X38.10292 Y-23.60521
G01 X38.22217 Y-23.46216
G01 X38.36520 Y-23.34290
G01 X38.41412 Y-23.31024
G01 X38.57904 Y-23.22373
G01 X38.75682 Y-23.16828
G01 X38.81450 Y-23.15680
G01 X39.00000 Y-23.13998
G01 X39.18547 Y-23.15680
G01 X39.24315 Y-23.16828
G01 X39.39322 Y-23.21380
G01 X39.44755 Y-23.23630
G01 X39.58587 Y-23.31024
G01 X39.63477 Y-23.34290
G01 X39.77780 Y-23.46216
G01 X39.89708 Y-23.60521
G01 X39.92974 Y-23.65411
G01 X39.97564 Y-23.73996
G01 X40.88986 Y-23.73996
G01 X40.95829 Y-23.74527
G01 X41.01597 Y-23.75672
G01 X41.08122 Y-23.77803
G01 X41.16766 Y-23.82423
G01 X41.22161 Y-23.86665
G01 X41.55697 Y-24.19998
G01 X41.96791 Y-24.19998
G01 X42.02867 Y-24.08634
G01 X42.06133 Y-24.03744
G01 X42.16705 Y-23.90864
G01 X42.20863 Y-23.86703
G01 X42.36108 Y-23.74379
G01 X42.53329 Y-23.65012
G01 X42.58762 Y-23.62761
G01 X42.77563 Y-23.57209
G01 X42.97058 Y-23.55144
G01 X43.02940 Y-23.55144
G01 X43.19521 Y-23.56777
G01 X43.25290 Y-23.57923
G01 X43.41236 Y-23.62761
G01 X43.46669 Y-23.65012
G01 X43.61363 Y-23.72865
G01 X43.66255 Y-23.76134
G01 X43.79135 Y-23.86703
G01 X43.83293 Y-23.90864
G01 X43.93865 Y-24.03744
G01 X43.97131 Y-24.08634
G01 X44.04987 Y-24.23328
G01 X44.07238 Y-24.28763
G01 X44.12790 Y-24.47564
G01 X44.14855 Y-24.67059
G01 X44.14855 Y-24.72939
G01 X44.12790 Y-24.92433
G01 X44.06245 Y-25.14008
G01 X43.97131 Y-25.31364
G01 X43.93865 Y-25.36253
G01 X43.83293 Y-25.49131
G01 X43.79135 Y-25.53294
G01 X43.66255 Y-25.63863
G01 X43.61363 Y-25.67132
G01 X43.46669 Y-25.74986
G01 X43.41236 Y-25.77234
G01 X43.25290 Y-25.82073
G01 X43.19521 Y-25.83218
G01 X43.02940 Y-25.84854
G01 X42.97058 Y-25.84854
G01 X42.80477 Y-25.83218
G01 X42.74708 Y-25.82073
G01 X42.58762 Y-25.77234
G01 X42.53329 Y-25.74986
G01 X42.36108 Y-25.65618
G01 X42.20863 Y-25.53294
G01 X42.16705 Y-25.49131
G01 X42.06133 Y-25.36253
G01 X42.02867 Y-25.31364
G01 X41.96791 Y-25.19997
G01 X41.34985 Y-25.19997
G01 X41.28145 Y-25.19467
G01 X41.22377 Y-25.18321
G01 X41.15852 Y-25.16190
G01 X41.07208 Y-25.11570
G01 X41.01813 Y-25.07328
G01 X40.68277 Y-24.73998
G01 X39.97564 Y-24.73998
G01 X39.92974 Y-24.82586
G01 X39.89708 Y-24.87475
G01 X39.77780 Y-25.01781
G01 X39.63477 Y-25.13706
G01 X39.58587 Y-25.16975
G01 X39.44755 Y-25.24366
G01 X39.40820 Y-25.25997
G01 X39.24315 Y-25.31171
G01 X39.18547 Y-25.32316
G01 X39.00000 Y-25.33998
G01 X38.81450 Y-25.32316
G01 X38.75682 Y-25.31171
G01 X38.59177 Y-25.25997
G01 X38.55242 Y-25.24366
G01 X38.41412 Y-25.16975
G01 X38.36520 Y-25.13706
G01 X38.22217 Y-25.01781
G01 X38.10292 Y-24.87475
G01 X38.07023 Y-24.82586
G01 X38.02433 Y-24.73998
G01 X37.60699 Y-24.73998
G01 X36.43122 Y-25.91369
G01 X36.37727 Y-25.95611
G01 X36.31743 Y-25.98974
G01 X36.22558 Y-26.02360
G01 X36.16790 Y-26.03508
G01 X36.09950 Y-26.04038
G01 X26.00665 Y-26.04038
G01 X21.88342 Y-30.16364
G01 X21.91169 Y-30.25684
G01 X21.92317 Y-30.31452
G01 X21.93999 Y-30.49999
G01 X21.92317 Y-30.68546
G01 X21.91169 Y-30.74314
G01 X21.86617 Y-30.89321
G01 X21.84367 Y-30.94756
G01 X21.76973 Y-31.08587
G01 X21.73707 Y-31.13476
G01 X21.61781 Y-31.27781
G01 X21.47476 Y-31.39707
G01 X21.42587 Y-31.42973
G01 X21.26094 Y-31.51624
G01 X21.08314 Y-31.57169
G01 X21.02546 Y-31.58317
G01 X20.86940 Y-31.59854
G01 X20.81058 Y-31.59854
G01 X20.65452 Y-31.58317
G01 X20.59683 Y-31.57169
G01 X20.44675 Y-31.52618
G01 X20.39242 Y-31.50367
G01 X20.25411 Y-31.42973
G01 X20.20522 Y-31.39707
G01 X20.08398 Y-31.29758
G01 X20.04240 Y-31.25600
G01 X19.94291 Y-31.13476
G01 X19.91025 Y-31.08587
G01 X19.83631 Y-30.94756
G01 X19.81380 Y-30.89321
G01 X19.76829 Y-30.74314
G01 X19.75681 Y-30.68546
G01 X19.73999 Y-30.49999
( Mill infeed pass 2/2 )
G01 Z-0.15000
G04 P0 ( dwell for no time -- G64 should not smooth over this point )
G01 F40.00000
G01 X19.73999 Y-30.49999
G01 X19.75681 Y-30.31452
G01 X19.76829 Y-30.25684
G01 X19.81380 Y-30.10675
G01 X19.83631 Y-30.05242
G01 X19.91025 Y-29.91411
G01 X19.94291 Y-29.86522
G01 X20.06216 Y-29.72217
G01 X20.20522 Y-29.60291
G01 X20.25411 Y-29.57022
G01 X20.41903 Y-29.48371
G01 X20.59683 Y-29.42829
G01 X20.65452 Y-29.41681
G01 X20.81058 Y-29.40144
G01 X20.86940 Y-29.40144
G01 X21.02546 Y-29.41681
G01 X21.08314 Y-29.42829
G01 X21.17631 Y-29.45653
G01 X25.44600 Y-25.18682
G01 X25.49815 Y-25.14216
G01 X25.54704 Y-25.10950
G01 X25.60820 Y-25.07844
G01 X25.67348 Y-25.05713
G01 X25.73117 Y-25.04567
G01 X25.79959 Y-25.04036
G01 X35.89238 Y-25.04036
G01 X37.04633 Y-23.88641
G01 X37.12210 Y-23.82423
G01 X37.18194 Y-23.79061
G01 X37.23627 Y-23.76810
G01 X37.27379 Y-23.75672
G01 X37.37049 Y-23.74141
G01 X38.02433 Y-23.73996
G01 X38.07023 Y-23.65411
G01 X38.10292 Y-23.60521
G01 X38.22217 Y-23.46216
G01 X38.36520 Y-23.34290
G01 X38.41412 Y-23.31024
G01 X38.57904 Y-23.22373
G01 X38.75682 Y-23.16828
G01 X38.81450 Y-23.15680
G01 X39.00000 Y-23.13998
G01 X39.18547 Y-23.15680
G01 X39.24315 Y-23.16828
G01 X39.39322 Y-23.21380
G01 X39.44755 Y-23.23630
G01 X39.58587 Y-23.31024
G01 X39.63477 Y-23.34290
G01 X39.77780 Y-23.46216
G01 X39.89708 Y-23.60521
G01 X39.92974 Y-23.65411
G01 X39.97564 Y-23.73996
G01 X40.88986 Y-23.73996
G01 X40.95829 Y-23.74527
G01 X41.01597 Y-23.75672
G01 X41.08122 Y-23.77803
G01 X41.16766 Y-23.82423
G01 X41.22161 Y-23.86665
G01 X41.55697 Y-24.19998
G01 X41.96791 Y-24.19998
G01 X42.02867 Y-24.08634
G01 X42.06133 Y-24.03744
G01 X42.16705 Y-23.90864
G01 X42.20863 Y-23.86703
G01 X42.36108 Y-23.74379
G01 X42.53329 Y-23.65012
G01 X42.58762 Y-23.62761
G01 X42.77563 Y-23.57209
G01 X42.97058 Y-23.55144
G01 X43.02940 Y-23.55144
G01 X43.19521 Y-23.56777
G01 X43.25290 Y-23.57923
G01 X43.41236 Y-23.62761
G01 X43.46669 Y-23.65012
G01 X43.61363 Y-23.72865
G01 X43.66255 Y-23.76134
G01 X43.79135 Y-23.86703
G01 X43.83293 Y-23.90864
G01 X43.93865 Y-24.03744
G01 X43.97131 Y-24.08634
G01 X44.04987 Y-24.23328
G01 X44.07238 Y-24.28763
G01 X44.12790 Y-24.47564
G01 X44.14855 Y-24.67059
G01 X44.14855 Y-24.72939
G01 X44.12790 Y-24.92433
G01 X44.06245 Y-25.14008
G01 X43.97131 Y-25.31364
G01 X43.93865 Y-25.36253
G01 X43.83293 Y-25.49131
G01 X43.79135 Y-25.53294
G01 X43.66255 Y-25.63863
G01 X43.61363 Y-25.67132
G01 X43.46669 Y-25.74986
G01 X43.41236 Y-25.77234
G01 X43.25290 Y-25.82073
G01 X43.19521 Y-25.83218
G01 X43.02940 Y-25.84854
G01 X42.97058 Y-25.84854
G01 X42.80477 Y-25.83218
G01 X42.74708 Y-25.82073
G01 X42.58762 Y-25.77234
G01 X42.53329 Y-25.74986
G01 X42.36108 Y-25.65618
G01 X42.20863 Y-25.53294
G01 X42.16705 Y-25.49131
G01 X42.06133 Y-25.36253
G01 X42.02867 Y-25.31364
G01 X41.96791 Y-25.19997
G01 X41.34985 Y-25.19997
G01 X41.28145 Y-25.19467
G01 X41.22377 Y-25.18321
G01 X41.15852 Y-25.16190
G01 X41.07208 Y-25.11570
G01 X41.01813 Y-25.07328
G01 X40.68277 Y-24.73998
G01 X39.97564 Y-24.73998
G01 X39.92974 Y-24.82586
G01 X39.89708 Y-24.87475
G01 X39.77780 Y-25.01781
G01 X39.63477 Y-25.13706
G01 X39.58587 Y-25.16975
G01 X39.44755 Y-25.24366
G01 X39.40820 Y-25.25997
G01 X39.24315 Y-25.31171
G01 X39.18547 Y-25.32316
G01 X39.00000 Y-25.33998
G01 X38.81450 Y-25.32316
G01 X38.75682 Y-25.31171
G01 X38.59177 Y-25.25997
G01 X38.55242 Y-25.24366
G01 X38.41412 Y-25.16975
G01 X38.36520 Y-25.13706
G01 X38.22217 Y-25.01781
G01 X38.10292 Y-24.87475
G01 X38.07023 Y-24.82586
G01 X38.02433 Y-24.73998
G01 X37.60699 Y-24.73998
G01 X36.43122 Y-25.91369
G01 X36.37727 Y-25.95611
G01 X36.31743 Y-25.98974
G01 X36.22558 Y-26.02360
G01 X36.16790 Y-26.03508
G01 X36.09950 Y-26.04038
G01 X26.00665 Y-26.04038
G01 X21.88342 Y-30.16364
G01 X21.91169 Y-30.25684
G01 X21.92317 Y-30.31452
G01 X21.93999 Y-30.49999
G01 X21.92317 Y-30.68546
G01 X21.91169 Y-30.74314
G01 X21.86617 Y-30.89321
G01 X21.84367 Y-30.94756
G01 X21.76973 Y-31.08587
G01 X21.73707 Y-31.13476
G01 X21.61781 Y-31.27781
G01 X21.47476 Y-31.39707
G01 X21.42587 Y-31.42973
G01 X21.26094 Y-31.51624
G01 X21.08314 Y-31.57169
G01 X21.02546 Y-31.58317
G01 X20.86940 Y-31.59854
G01 X20.81058 Y-31.59854
G01 X20.65452 Y-31.58317
G01 X20.59683 Y-31.57169
G01 X20.44675 Y-31.52618
G01 X20.39242 Y-31.50367
G01 X20.25411 Y-31.42973
G01 X20.20522 Y-31.39707
G01 X20.08398 Y-31.29758
G01 X20.04240 Y-31.25600
G01 X19.94291 Y-31.13476
G01 X19.91025 Y-31.08587
G01 X19.83631 Y-30.94756
G01 X19.81380 Y-30.89321
G01 X19.76829 Y-30.74314
G01 X19.75681 Y-30.68546
G01 X19.73999 Y-30.49999
G04 P0 ( dwell for no time -- G64 should not smooth over this point )
G00 Z2.00000 ( retract )

G00 X22.27999 Y-30.49999 ( rapid move to begin. )
G01 F30.00000
( Mill infeed pass 1/2 )
G01 Z-0.07500
G04 P0 ( dwell for no time -- G64 should not smooth over this point )
G01 F40.00000
G01 X22.27999 Y-30.49999
G01 X22.29681 Y-30.31452
G01 X22.30829 Y-30.25684
G01 X22.35380 Y-30.10675
G01 X22.37631 Y-30.05242
G01 X22.46536 Y-29.88887
G01 X22.58240 Y-29.74398
G01 X22.62398 Y-29.70240
G01 X22.74522 Y-29.60291
G01 X22.79411 Y-29.57022
G01 X22.95903 Y-29.48371
G01 X23.13683 Y-29.42829
G01 X23.19452 Y-29.41681
G01 X23.30709 Y-29.40571
G01 X23.40940 Y-29.40144
G01 X23.56546 Y-29.41681
G01 X23.62314 Y-29.42829
G01 X23.71631 Y-29.45653
G01 X26.74643 Y-26.42641
G01 X26.82220 Y-26.36423
G01 X26.88204 Y-26.33061
G01 X26.93637 Y-26.30810
G01 X27.00244 Y-26.28958
G01 X27.09997 Y-26.27993
G01 X38.02433 Y-26.27993
G01 X38.07023 Y-26.19411
G01 X38.10292 Y-26.14521
G01 X38.22217 Y-26.00213
G01 X38.36520 Y-25.88290
G01 X38.41412 Y-25.85021
G01 X38.57904 Y-25.76373
G01 X38.75682 Y-25.70828
G01 X38.81450 Y-25.69680
G01 X38.97058 Y-25.68143
G01 X39.02939 Y-25.68143
G01 X39.18547 Y-25.69680
G01 X39.24315 Y-25.70828
G01 X39.39322 Y-25.75380
G01 X39.44755 Y-25.77630
G01 X39.58587 Y-25.85021
G01 X39.63477 Y-25.88290
G01 X39.77780 Y-26.00213
G01 X39.89708 Y-26.14521
G01 X39.92974 Y-26.19411
G01 X39.97564 Y-26.27993
G01 X40.88989 Y-26.27993
G01 X40.98742 Y-26.28958
G01 X41.05349 Y-26.30810
G01 X41.10782 Y-26.33061
G01 X41.16766 Y-26.36423
G01 X41.24343 Y-26.42641
G01 X41.55697 Y-26.73995
G01 X41.96794 Y-26.73995
G01 X42.04381 Y-26.60109
G01 X42.16705 Y-26.44864
G01 X42.20863 Y-26.40703
G01 X42.36108 Y-26.28377
G01 X42.53329 Y-26.19012
G01 X42.58762 Y-26.16761
G01 X42.77563 Y-26.11209
G01 X42.97058 Y-26.09144
G01 X43.02940 Y-26.09144
G01 X43.19521 Y-26.10777
G01 X43.25290 Y-26.11923
G01 X43.41236 Y-26.16761
G01 X43.46669 Y-26.19012
G01 X43.61363 Y-26.26865
G01 X43.66255 Y-26.30132
G01 X43.79135 Y-26.40703
G01 X43.83293 Y-26.44864
G01 X43.95617 Y-26.60109
G01 X44.04987 Y-26.77328
G01 X44.07238 Y-26.82763
G01 X44.12790 Y-27.01564
G01 X44.14855 Y-27.21059
G01 X44.14855 Y-27.26939
G01 X44.12790 Y-27.46433
G01 X44.07238 Y-27.65235
G01 X44.04987 Y-27.70668
G01 X43.97131 Y-27.85364
G01 X43.93865 Y-27.90253
G01 X43.83293 Y-28.03134
G01 X43.79135 Y-28.07294
G01 X43.66255 Y-28.17863
G01 X43.61363 Y-28.21132
G01 X43.46669 Y-28.28986
G01 X43.41236 Y-28.31236
G01 X43.22435 Y-28.36789
G01 X43.02940 Y-28.38854
G01 X42.97058 Y-28.38854
G01 X42.80477 Y-28.37221
G01 X42.74708 Y-28.36073
G01 X42.58762 Y-28.31236
G01 X42.53329 Y-28.28986
G01 X42.36108 Y-28.19618
G01 X42.20863 Y-28.07294
G01 X42.16705 Y-28.03134
G01 X42.04381 Y-27.87889
G01 X41.96791 Y-27.73997
G01 X41.32047 Y-27.73853
G01 X41.25232 Y-27.73035
G01 X41.22377 Y-27.72321
G01 X41.13192 Y-27.68933
G01 X41.07208 Y-27.65570
G01 X40.99631 Y-27.59352
G01 X40.68277 Y-27.27996
G01 X39.97566 Y-27.27996
G01 X39.92974 Y-27.36586
G01 X39.89708 Y-27.41475
G01 X39.77780 Y-27.55781
G01 X39.63477 Y-27.67706
G01 X39.58587 Y-27.70975
G01 X39.44755 Y-27.78366
G01 X39.39322 Y-27.80617
G01 X39.24315 Y-27.85171
G01 X39.18547 Y-27.86316
G01 X39.02939 Y-27.87853
G01 X38.97058 Y-27.87853
G01 X38.81450 Y-27.86316
G01 X38.75682 Y-27.85171
G01 X38.59177 Y-27.79997
G01 X38.55242 Y-27.78366
G01 X38.41412 Y-27.70975
G01 X38.36520 Y-27.67706
G01 X38.22217 Y-27.55781
G01 X38.10292 Y-27.41475
G01 X38.07023 Y-27.36586
G01 X38.02431 Y-27.27996
G01 X27.30708 Y-27.27996
G01 X24.42342 Y-30.16364
G01 X24.45169 Y-30.25684
G01 X24.46317 Y-30.31452
G01 X24.47999 Y-30.49999
G01 X24.46317 Y-30.68546
G01 X24.45169 Y-30.74314
G01 X24.40617 Y-30.89321
G01 X24.38367 Y-30.94756
G01 X24.30973 Y-31.08587
G01 X24.27707 Y-31.13476
G01 X24.17757 Y-31.25600
G01 X24.13599 Y-31.29758
G01 X24.01476 Y-31.39707
G01 X23.96587 Y-31.42973
G01 X23.82756 Y-31.50367
G01 X23.77323 Y-31.52618
G01 X23.62314 Y-31.57169
G01 X23.56546 Y-31.58317
G01 X23.40940 Y-31.59854
G01 X23.35058 Y-31.59854
G01 X23.19452 Y-31.58317
G01 X23.13683 Y-31.57169
G01 X22.95903 Y-31.51624
G01 X22.79411 Y-31.42973
G01 X22.74522 Y-31.39707
G01 X22.60216 Y-31.27781
G01 X22.48291 Y-31.13476
G01 X22.45025 Y-31.08587
G01 X22.37631 Y-30.94756
G01 X22.35380 Y-30.89321
G01 X22.30829 Y-30.74314
G01 X22.29681 Y-30.68546
G01 X22.27999 Y-30.49999
( Mill infeed pass 2/2 )
G01 Z-0.15000
G04 P0 ( dwell for no time -- G64 should not smooth over this point )
G01 F40.00000
G01 X22.27999 Y-30.49999
G01 X22.29681 Y-30.31452
G01 X22.30829 Y-30.25684
G01 X22.35380 Y-30.10675
G01 X22.37631 Y-30.05242
G01 X22.46536 Y-29.88887
G01 X22.58240 Y-29.74398
G01 X22.62398 Y-29.70240
G01 X22.74522 Y-29.60291
G01 X22.79411 Y-29.57022
G01 X22.95903 Y-29.48371
G01 X23.13683 Y-29.42829
G01 X23.19452 Y-29.41681
G01 X23.30709 Y-29.40571
G01 X23.40940 Y-29.40144
G01 X23.56546 Y-29.41681
G01 X23.62314 Y-29.42829
G01 X23.71631 Y-29.45653
G01 X26.74643 Y-26.42641
G01 X26.82220 Y-26.36423
G01 X26.88204 Y-26.33061
G01 X26.93637 Y-26.30810
G01 X27.00244 Y-26.28958
G01 X27.09997 Y-26.27993
G01 X38.02433 Y-26.27993
G01 X38.07023 Y-26.19411
G01 X38.10292 Y-26.14521
G01 X38.22217 Y-26.00213
G01 X38.36520 Y-25.88290
G01 X38.41412 Y-25.85021
G01 X38.57904 Y-25.76373
G01 X38.75682 Y-25.70828
G01 X38.81450 Y-25.69680
G01 X38.97058 Y-25.68143
G01 X39.02939 Y-25.68143
G01 X39.18547 Y-25.69680
G01 X39.24315 Y-25.70828
G01 X39.39322 Y-25.75380
G01 X39.44755 Y-25.77630
G01 X39.58587 Y-25.85021
G01 X39.63477 Y-25.88290
G01 X39.77780 Y-26.00213
G01 X39.89708 Y-26.14521
G01 X39.92974 Y-26.19411
G01 X39.97564 Y-26.27993
G01 X40.88989 Y-26.27993
G01 X40.98742 Y-26.28958
G01 X41.05349 Y-26.30810
G01 X41.10782 Y-26.33061
G01 X41.16766 Y-26.36423
G01 X41.24343 Y-26.42641
G01 X41.55697 Y-26.73995
G01 X41.96794 Y-26.73995
G01 X42.04381 Y-26.60109
G01 X42.16705 Y-26.44864
G01 X42.20863 Y-26.40703
G01 X42.36108 Y-26.28377
G01 X42.53329 Y-26.19012
G01 X42.58762 Y-26.16761
G01 X42.77563 Y-26.11209
G01 X42.97058 Y-26.09144
G01 X43.02940 Y-26.09144
G01 X43.19521 Y-26.10777
G01 X43.25290 Y-26.11923
G01 X43.41236 Y-26.16761
G01 X43.46669 Y-26.19012
G01 X43.61363 Y-26.26865
G01 X43.66255 Y-26.30132
G01 X43.79135 Y-26.40703
G01 X43.83293 Y-26.44864
G01 X43.95617 Y-26.60109
G01 X44.04987 Y-26.77328
G01 X44.07238 Y-26.82763
G01 X44.12790 Y-27.01564
G01 X44.14855 Y-27.21059
G01 X44.14855 Y-27.26939
G01 X44.12790 Y-27.46433
G01 X44.07238 Y-27.65235
G01 X44.04987 Y-27.70668
G01 X43.97131 Y-27.85364
G01 X43.93865 Y-27.90253
G01 X43.83293 Y-28.03134
G01 X43.79135 Y-28.07294
G01 X43.66255 Y-28.17863
G01 X43.61363 Y-28.21132
G01 X43.46669 Y-28.28986
G01 X43.41236 Y-28.31236
G01 X43.22435 Y-28.36789
G01 X43.02940 Y-28.38854
G01 X42.97058 Y-28.38854
G01 X42.80477 Y-28.37221
G01 X42.74708 Y-28.36073
G01 X42.58762 Y-28.31236
G01 X42.53329 Y-28.28986
G01 X42.36108 Y-28.19618
G01 X42.20863 Y-28.07294
G01 X42.16705 Y-28.03134
G01 X42.04381 Y-27.87889
G01 X41.96791 Y-27.73997
G01 X41.32047 Y-27.73853
G01 X41.25232 Y-27.73035
G01 X41.22377 Y-27.72321
G01 X41.13192 Y-27.68933
G01 X41.07208 Y-27.65570
G01 X40.99631 Y-27.59352
G01 X40.68277 Y-27.27996
G01 X39.97566 Y-27.27996
G01 X39.92974 Y-27.36586
G01 X39.89708 Y-27.41475
G01 X39.77780 Y-27.55781
G01 X39.63477 Y-27.67706
G01 X39.58587 Y-27.70975
G01 X39.44755 Y-27.78366
G01 X39.39322 Y-27.80617
G01 X39.24315 Y-27.85171
G01 X39.18547 Y-27.86316
G01 X39.02939 Y-27.87853
G01 X38.97058 Y-27.87853
G01 X38.81450 Y-27.86316
G01 X38.75682 Y-27.85171
G01 X38.59177 Y-27.79997
G01 X38.55242 Y-27.78366
G01 X38.41412 Y-27.70975
G01 X38.36520 Y-27.67706
G01 X38.22217 Y-27.55781
G01 X38.10292 Y-27.41475
G01 X38.07023 Y-27.36586
G01 X38.02431 Y-27.27996
G01 X27.30708 Y-27.27996
G01 X24.42342 Y-30.16364
G01 X24.45169 Y-30.25684
G01 X24.46317 Y-30.31452
G01 X24.47999 Y-30.49999
G01 X24.46317 Y-30.68546
G01 X24.45169 Y-30.74314
G01 X24.40617 Y-30.89321
G01 X24.38367 Y-30.94756
G01 X24.30973 Y-31.08587
G01 X24.27707 Y-31.13476
G01 X24.17757 Y-31.25600
G01 X24.13599 Y-31.29758
G01 X24.01476 Y-31.39707
G01 X23.96587 Y-31.42973
G01 X23.82756 Y-31.50367
G01 X23.77323 Y-31.52618
G01 X23.62314 Y-31.57169
G01 X23.56546 Y-31.58317
G01 X23.40940 Y-31.59854
G01 X23.35058 Y-31.59854
G01 X23.19452 Y-31.58317
G01 X23.13683 Y-31.57169
G01 X22.95903 Y-31.51624
G01 X22.79411 Y-31.42973
G01 X22.74522 Y-31.39707
G01 X22.60216 Y-31.27781
G01 X22.48291 Y-31.13476
G01 X22.45025 Y-31.08587
G01 X22.37631 Y-30.94756
G01 X22.35380 Y-30.89321
G01 X22.30829 Y-30.74314
G01 X22.29681 Y-30.68546
G01 X22.27999 Y-30.49999
G04 P0 ( dwell for no time -- G64 should not smooth over this point )
G00 Z2.00000 ( retract )

G00 X24.81999 Y-30.49999 ( rapid move to begin. )
G01 F30.00000
( Mill infeed pass 1/2 )
G01 Z-0.07500
G04 P0 ( dwell for no time -- G64 should not smooth over this point )
G01 F40.00000
G01 X24.81999 Y-30.49999
G01 X24.83681 Y-30.31452
G01 X24.84829 Y-30.25684
G01 X24.89380 Y-30.10675
G01 X24.91631 Y-30.05242
G01 X25.00536 Y-29.88887
G01 X25.12240 Y-29.74398
G01 X25.16398 Y-29.70240
G01 X25.28522 Y-29.60291
G01 X25.33411 Y-29.57022
G01 X25.49903 Y-29.48371
G01 X25.67683 Y-29.42829
G01 X25.73449 Y-29.41681
G01 X25.89058 Y-29.40144
G01 X25.94940 Y-29.40144
G01 X26.13459 Y-29.42112
G01 X26.25631 Y-29.45653
G01 X27.21094 Y-28.50396
G01 X27.26489 Y-28.46154
G01 X27.32474 Y-28.42791
G01 X27.41658 Y-28.39402
G01 X27.44513 Y-28.38689
G01 X27.51328 Y-28.37871
G01 X32.92594 Y-28.37726
G01 X32.95734 Y-28.33030
G01 X33.01954 Y-28.25453
G01 X33.06112 Y-28.21292
G01 X33.13689 Y-28.15074
G01 X33.18579 Y-28.11808
G01 X33.27222 Y-28.07188
G01 X33.32655 Y-28.04937
G01 X33.44890 Y-28.01376
G01 X33.57557 Y-27.99984
G01 X33.63440 Y-27.99984
G01 X33.76107 Y-28.01376
G01 X33.88342 Y-28.04937
G01 X33.93775 Y-28.07188
G01 X34.02419 Y-28.11808
G01 X34.07308 Y-28.15074
G01 X34.17067 Y-28.23271
G01 X34.25264 Y-28.33030
G01 X34.28403 Y-28.37726
G01 X36.95718 Y-28.37726
G01 X37.02558 Y-28.38257
G01 X37.12078 Y-28.40540
G01 X37.17511 Y-28.42791
G01 X37.25860 Y-28.47906
G01 X37.31072 Y-28.52372
G01 X37.60699 Y-28.81996
G01 X38.02433 Y-28.81996
G01 X38.07023 Y-28.73411
G01 X38.10292 Y-28.68521
G01 X38.22217 Y-28.54216
G01 X38.36520 Y-28.42290
G01 X38.41412 Y-28.39024
G01 X38.57904 Y-28.30373
G01 X38.75682 Y-28.24828
G01 X38.81450 Y-28.23680
G01 X38.97058 Y-28.22143
G01 X39.02939 Y-28.22143
G01 X39.21458 Y-28.24112
G01 X39.39322 Y-28.29380
G01 X39.44755 Y-28.31630
G01 X39.58587 Y-28.39024
G01 X39.63477 Y-28.42290
G01 X39.77780 Y-28.54216
G01 X39.89708 Y-28.68521
G01 X39.92974 Y-28.73411
G01 X40.01625 Y-28.89903
G01 X40.07170 Y-29.07683
G01 X40.08318 Y-29.13451
G01 X40.09855 Y-29.29059
G01 X40.09855 Y-29.34940
G01 X40.07886 Y-29.53459
G01 X40.02618 Y-29.71322
G01 X40.00368 Y-29.76756
G01 X39.92974 Y-29.90586
G01 X39.89708 Y-29.95475
G01 X39.77780 Y-30.09781
G01 X39.63477 Y-30.21706
G01 X39.58587 Y-30.24975
G01 X39.44755 Y-30.32366
G01 X39.39322 Y-30.34617
G01 X39.21458 Y-30.39885
G01 X39.02939 Y-30.41853
G01 X38.97058 Y-30.41853
G01 X38.81450 Y-30.40316
G01 X38.75682 Y-30.39171
G01 X38.60676 Y-30.34617
G01 X38.55242 Y-30.32366
G01 X38.41412 Y-30.24975
G01 X38.36520 Y-30.21706
G01 X38.22217 Y-30.09781
G01 X38.10292 Y-29.95475
G01 X38.07023 Y-29.90586
G01 X38.02433 Y-29.81998
G01 X37.37049 Y-29.81853
G01 X37.27379 Y-29.80322
G01 X37.18194 Y-29.76933
G01 X37.09845 Y-29.71818
G01 X37.04633 Y-29.67352
G01 X36.75007 Y-29.37728
G01 X34.15612 Y-29.37726
G01 X34.07308 Y-29.44602
G01 X34.02419 Y-29.47871
G01 X33.91113 Y-29.53748
G01 X33.76107 Y-29.58302
G01 X33.63440 Y-29.59694
G01 X33.57557 Y-29.59694
G01 X33.44890 Y-29.58302
G01 X33.29884 Y-29.53748
G01 X33.18579 Y-29.47871
G01 X33.13689 Y-29.44602
G01 X33.05386 Y-29.37726
G01 X27.74978 Y-29.37728
G01 X26.96342 Y-30.16364
G01 X26.99169 Y-30.25684
G01 X27.00317 Y-30.31452
G01 X27.01854 Y-30.47058
G01 X27.01854 Y-30.52940
G01 X26.99885 Y-30.71459
G01 X26.94617 Y-30.89321
G01 X26.92367 Y-30.94756
G01 X26.84973 Y-31.08587
G01 X26.81707 Y-31.13476
G01 X26.69781 Y-31.27781
G01 X26.55476 Y-31.39707
G01 X26.50587 Y-31.42973
G01 X26.36754 Y-31.50367
G01 X26.31323 Y-31.52618
G01 X26.13459 Y-31.57885
G01 X25.94940 Y-31.59854
G01 X25.89058 Y-31.59854
G01 X25.70536 Y-31.57885
G01 X25.52675 Y-31.52618
G01 X25.47239 Y-31.50367
G01 X25.30886 Y-31.41459
G01 X25.14216 Y-31.27781
G01 X25.02291 Y-31.13476
G01 X24.99025 Y-31.08587
G01 X24.91631 Y-30.94756
G01 X24.89380 Y-30.89321
G01 X24.84829 Y-30.74314
G01 X24.83681 Y-30.68546
G01 X24.81999 Y-30.49999
( Mill infeed pass 2/2 )
G01 Z-0.15000
G04 P0 ( dwell for no time -- G64 should not smooth over this point )
G01 F40.00000
G01 X24.81999 Y-30.49999
G01 X24.83681 Y-30.31452
G01 X24.84829 Y-30.25684
G01 X24.89380 Y-30.10675
G01 X24.91631 Y-30.05242
G01 X25.00536 Y-29.88887
G01 X25.12240 Y-29.74398
G01 X25.16398 Y-29.70240
G01 X25.28522 Y-29.60291
G01 X25.33411 Y-29.57022
G01 X25.49903 Y-29.48371
G01 X25.67683 Y-29.42829
G01 X25.73449 Y-29.41681
G01 X25.89058 Y-29.40144
G01 X25.94940 Y-29.40144
G01 X26.13459 Y-29.42112
G01 X26.25631 Y-29.45653
G01 X27.21094 Y-28.50396
G01 X27.26489 Y-28.46154
G01 X27.32474 Y-28.42791
G01 X27.41658 Y-28.39402
G01 X27.44513 Y-28.38689
G01 X27.51328 Y-28.37871
G01 X32.92594 Y-28.37726
G01 X32.95734 Y-28.33030
G01 X33.01954 Y-28.25453
G01 X33.06112 Y-28.21292
G01 X33.13689 Y-28.15074
G01 X33.18579 Y-28.11808
G01 X33.27222 Y-28.07188
G01 X33.32655 Y-28.04937
G01 X33.44890 Y-28.01376
G01 X33.57557 Y-27.99984
G01 X33.63440 Y-27.99984
G01 X33.76107 Y-28.01376
G01 X33.88342 Y-28.04937
G01 X33.93775 Y-28.07188
G01 X34.02419 Y-28.11808
G01 X34.07308 Y-28.15074
G01 X34.17067 Y-28.23271
G01 X34.25264 Y-28.33030
G01 X34.28403 Y-28.37726
G01 X36.95718 Y-28.37726
G01 X37.02558 Y-28.38257
G01 X37.12078 Y-28.40540
G01 X37.17511 Y-28.42791
G01 X37.25860 Y-28.47906
G01 X37.31072 Y-28.52372
G01 X37.60699 Y-28.81996
G01 X38.02433 Y-28.81996
G01 X38.07023 Y-28.73411
G01 X38.10292 Y-28.68521
G01 X38.22217 Y-28.54216
G01 X38.36520 Y-28.42290
G01 X38.41412 Y-28.39024
G01 X38.57904 Y-28.30373
G01 X38.75682 Y-28.24828
G01 X38.81450 Y-28.23680
G01 X38.97058 Y-28.22143
G01 X39.02939 Y-28.22143
G01 X39.21458 Y-28.24112
G01 X39.39322 Y-28.29380
G01 X39.44755 Y-28.31630
G01 X39.58587 Y-28.39024
G01 X39.63477 Y-28.42290
G01 X39.77780 Y-28.54216
G01 X39.89708 Y-28.68521
G01 X39.92974 Y-28.73411
G01 X40.01625 Y-28.89903
G01 X40.07170 Y-29.07683
G01 X40.08318 Y-29.13451
G01 X40.09855 Y-29.29059
G01 X40.09855 Y-29.34940
G01 X40.07886 Y-29.53459
G01 X40.02618 Y-29.71322
G01 X40.00368 Y-29.76756
G01 X39.92974 Y-29.90586
G01 X39.89708 Y-29.95475
G01 X39.77780 Y-30.09781
G01 X39.63477 Y-30.21706
G01 X39.58587 Y-30.24975
G01 X39.44755 Y-30.32366
G01 X39.39322 Y-30.34617
G01 X39.21458 Y-30.39885
G01 X39.02939 Y-30.41853
G01 X38.97058 Y-30.41853
G01 X38.81450 Y-30.40316
G01 X38.75682 Y-30.39171
G01 X38.60676 Y-30.34617
G01 X38.55242 Y-30.32366
G01 X38.41412 Y-30.24975
G01 X38.36520 Y-30.21706
G01 X38.22217 Y-30.09781
G01 X38.10292 Y-29.95475
G01 X38.07023 Y-29.90586
G01 X38.02433 Y-29.81998
G01 X37.37049 Y-29.81853
G01 X37.27379 Y-29.80322
G01 X37.18194 Y-29.76933
G01 X37.09845 Y-29.71818
G01 X37.04633 Y-29.67352
G01 X36.75007 Y-29.37728
G01 X34.15612 Y-29.37726
G01 X34.07308 Y-29.44602
G01 X34.02419 Y-29.47871
G01 X33.91113 Y-29.53748
G01 X33.76107 Y-29.58302
G01 X33.63440 Y-29.59694
G01 X33.57557 Y-29.59694
G01 X33.44890 Y-29.58302
G01 X33.29884 Y-29.53748
G01 X33.18579 Y-29.47871
G01 X33.13689 Y-29.44602
G01 X33.05386 Y-29.37726
G01 X27.74978 Y-29.37728
G01 X26.96342 Y-30.16364
G01 X26.99169 Y-30.25684
G01 X27.00317 Y-30.31452
G01 X27.01854 Y-30.47058
G01 X27.01854 Y-30.52940
G01 X26.99885 Y-30.71459
G01 X26.94617 Y-30.89321
G01 X26.92367 Y-30.94756
G01 X26.84973 Y-31.08587
G01 X26.81707 Y-31.13476
G01 X26.69781 Y-31.27781
G01 X26.55476 Y-31.39707
G01 X26.50587 Y-31.42973
G01 X26.36754 Y-31.50367
G01 X26.31323 Y-31.52618
G01 X26.13459 Y-31.57885
G01 X25.94940 Y-31.59854
G01 X25.89058 Y-31.59854
G01 X25.70536 Y-31.57885
G01 X25.52675 Y-31.52618
G01 X25.47239 Y-31.50367
G01 X25.30886 Y-31.41459
G01 X25.14216 Y-31.27781
G01 X25.02291 Y-31.13476
G01 X24.99025 Y-31.08587
G01 X24.91631 Y-30.94756
G01 X24.89380 Y-30.89321
G01 X24.84829 Y-30.74314
G01 X24.83681 Y-30.68546
G01 X24.81999 Y-30.49999
G04 P0 ( dwell for no time -- G64 should not smooth over this point )
G00 Z2.00000 ( retract )

G00 X27.36144 Y-30.52940 ( rapid move to begin. )
G01 F30.00000
( Mill infeed pass 1/2 )
G01 Z-0.07500
G04 P0 ( dwell for no time -- G64 should not smooth over this point )
G01 F40.00000
G01 X27.36144 Y-30.52940
G01 X27.36144 Y-30.47058
G01 X27.38112 Y-30.28539
G01 X27.43380 Y-30.10675
G01 X27.45631 Y-30.05242
G01 X27.53025 Y-29.91411
G01 X27.56291 Y-29.86522
G01 X27.66240 Y-29.74398
G01 X27.70398 Y-29.70240
G01 X27.82522 Y-29.60291
G01 X27.87411 Y-29.57022
G01 X28.01242 Y-29.49631
G01 X28.06675 Y-29.47380
G01 X28.21683 Y-29.42829
G01 X28.27452 Y-29.41681
G01 X28.43058 Y-29.40144
G01 X28.48940 Y-29.40144
G01 X28.67459 Y-29.42112
G01 X28.85323 Y-29.47380
G01 X28.90756 Y-29.49631
G01 X29.04587 Y-29.57022
G01 X29.09476 Y-29.60291
G01 X29.21599 Y-29.70240
G01 X29.25757 Y-29.74398
G01 X29.35707 Y-29.86522
G01 X29.38973 Y-29.91411
G01 X29.46367 Y-30.05242
G01 X29.48617 Y-30.10675
G01 X29.53169 Y-30.25684
G01 X29.54317 Y-30.31452
G01 X29.55854 Y-30.47058
G01 X29.55854 Y-30.52940
G01 X29.54317 Y-30.68546
G01 X29.53169 Y-30.74314
G01 X29.48617 Y-30.89321
G01 X29.46367 Y-30.94756
G01 X29.38973 Y-31.08587
G01 X29.35707 Y-31.13476
G01 X29.23781 Y-31.27781
G01 X29.09476 Y-31.39707
G01 X29.04587 Y-31.42973
G01 X28.95999 Y-31.47565
G01 X28.95999 Y-31.89298
G01 X31.00776 Y-33.94080
G01 X36.26150 Y-33.94078
G01 X36.32990 Y-33.94608
G01 X36.38758 Y-33.95754
G01 X36.47943 Y-33.99142
G01 X36.51402 Y-34.00991
G01 X36.56292 Y-34.04258
G01 X36.61504 Y-34.08723
G01 X38.39558 Y-35.86777
G01 X64.41288 Y-35.86777
G01 X64.48128 Y-35.87308
G01 X64.53896 Y-35.88454
G01 X64.63081 Y-35.91842
G01 X64.66540 Y-35.93691
G01 X64.71430 Y-35.96957
G01 X64.76655 Y-36.01436
G01 X67.83403 Y-39.08529
G01 X67.86453 Y-39.12105
G01 X67.91749 Y-39.21686
G01 X67.93550 Y-39.26035
G01 X67.95628 Y-39.36794
G01 X67.95999 Y-39.41486
G01 X67.95999 Y-40.03934
G01 X68.04586 Y-40.08524
G01 X68.09476 Y-40.11790
G01 X68.23781 Y-40.23718
G01 X68.37462 Y-40.40386
G01 X68.47627 Y-40.59403
G01 X68.53169 Y-40.77183
G01 X68.54317 Y-40.82951
G01 X68.55854 Y-40.98559
G01 X68.55854 Y-41.04439
G01 X68.54317 Y-41.20048
G01 X68.53169 Y-41.25813
G01 X68.48617 Y-41.40822
G01 X68.46367 Y-41.46255
G01 X68.38973 Y-41.60086
G01 X68.35706 Y-41.64975
G01 X68.23781 Y-41.79280
G01 X68.09476 Y-41.91206
G01 X68.04586 Y-41.94475
G01 X67.88094 Y-42.03126
G01 X67.70314 Y-42.08671
G01 X67.64546 Y-42.09816
G01 X67.48940 Y-42.11353
G01 X67.43057 Y-42.11353
G01 X67.27452 Y-42.09816
G01 X67.21683 Y-42.08671
G01 X67.03903 Y-42.03126
G01 X66.87411 Y-41.94475
G01 X66.82522 Y-41.91206
G01 X66.68216 Y-41.79280
G01 X66.54536 Y-41.62610
G01 X66.45631 Y-41.46255
G01 X66.43380 Y-41.40822
G01 X66.38828 Y-41.25813
G01 X66.37680 Y-41.20048
G01 X66.36144 Y-41.04439
G01 X66.36144 Y-40.98559
G01 X66.37680 Y-40.82951
G01 X66.38828 Y-40.77183
G01 X66.43380 Y-40.62176
G01 X66.45631 Y-40.56743
G01 X66.54536 Y-40.40386
G01 X66.66240 Y-40.25897
G01 X66.70398 Y-40.21739
G01 X66.82522 Y-40.11790
G01 X66.87411 Y-40.08524
G01 X66.95996 Y-40.03934
G01 X66.95996 Y-39.62197
G01 X64.20576 Y-36.86780
G01 X38.18849 Y-36.86780
G01 X38.12007 Y-36.86249
G01 X38.06238 Y-36.85103
G01 X37.97054 Y-36.81715
G01 X37.93594 Y-36.79866
G01 X37.88705 Y-36.76599
G01 X37.83493 Y-36.72134
G01 X36.05439 Y-34.94080
G01 X30.80065 Y-34.94080
G01 X30.75374 Y-34.93709
G01 X30.65742 Y-34.91974
G01 X30.56329 Y-34.88073
G01 X30.48290 Y-34.82492
G01 X30.44711 Y-34.79434
G01 X28.10642 Y-32.45363
G01 X28.06177 Y-32.40151
G01 X28.01061 Y-32.31802
G01 X27.98811 Y-32.26369
G01 X27.96527 Y-32.16849
G01 X27.95996 Y-32.10009
G01 X27.95996 Y-31.47563
G01 X27.87411 Y-31.42973
G01 X27.82522 Y-31.39707
G01 X27.68216 Y-31.27781
G01 X27.56291 Y-31.13476
G01 X27.53025 Y-31.08587
G01 X27.45631 Y-30.94756
G01 X27.43380 Y-30.89321
G01 X27.38112 Y-30.71459
G01 X27.36144 Y-30.52940
( Mill infeed pass 2/2 )
G01 Z-0.15000
G04 P0 ( dwell for no time -- G64 should not smooth over this point )
G01 F40.00000
G01 X27.36144 Y-30.52940
G01 X27.36144 Y-30.47058
G01 X27.38112 Y-30.28539
G01 X27.43380 Y-30.10675
G01 X27.45631 Y-30.05242
G01 X27.53025 Y-29.91411
G01 X27.56291 Y-29.86522
G01 X27.66240 Y-29.74398
G01 X27.70398 Y-29.70240
G01 X27.82522 Y-29.60291
G01 X27.87411 Y-29.57022
G01 X28.01242 Y-29.49631
G01 X28.06675 Y-29.47380
G01 X28.21683 Y-29.42829
G01 X28.27452 Y-29.41681
G01 X28.43058 Y-29.40144
G01 X28.48940 Y-29.40144
G01 X28.67459 Y-29.42112
G01 X28.85323 Y-29.47380
G01 X28.90756 Y-29.49631
G01 X29.04587 Y-29.57022
G01 X29.09476 Y-29.60291
G01 X29.21599 Y-29.70240
G01 X29.25757 Y-29.74398
G01 X29.35707 Y-29.86522
G01 X29.38973 Y-29.91411
G01 X29.46367 Y-30.05242
G01 X29.48617 Y-30.10675
G01 X29.53169 Y-30.25684
G01 X29.54317 Y-30.31452
G01 X29.55854 Y-30.47058
G01 X29.55854 Y-30.52940
G01 X29.54317 Y-30.68546
G01 X29.53169 Y-30.74314
G01 X29.48617 Y-30.89321
G01 X29.46367 Y-30.94756
G01 X29.38973 Y-31.08587
G01 X29.35707 Y-31.13476
G01 X29.23781 Y-31.27781
G01 X29.09476 Y-31.39707
G01 X29.04587 Y-31.42973
G01 X28.95999 Y-31.47565
G01 X28.95999 Y-31.89298
G01 X31.00776 Y-33.94080
G01 X36.26150 Y-33.94078
G01 X36.32990 Y-33.94608
G01 X36.38758 Y-33.95754
G01 X36.47943 Y-33.99142
G01 X36.51402 Y-34.00991
G01 X36.56292 Y-34.04258
G01 X36.61504 Y-34.08723
G01 X38.39558 Y-35.86777
G01 X64.41288 Y-35.86777
G01 X64.48128 Y-35.87308
G01 X64.53896 Y-35.88454
G01 X64.63081 Y-35.91842
G01 X64.66540 Y-35.93691
G01 X64.71430 Y-35.96957
G01 X64.76655 Y-36.01436
G01 X67.83403 Y-39.08529
G01 X67.86453 Y-39.12105
G01 X67.91749 Y-39.21686
G01 X67.93550 Y-39.26035
G01 X67.95628 Y-39.36794
G01 X67.95999 Y-39.41486
G01 X67.95999 Y-40.03934
G01 X68.04586 Y-40.08524
G01 X68.09476 Y-40.11790
G01 X68.23781 Y-40.23718
G01 X68.37462 Y-40.40386
G01 X68.47627 Y-40.59403
G01 X68.53169 Y-40.77183
G01 X68.54317 Y-40.82951
G01 X68.55854 Y-40.98559
G01 X68.55854 Y-41.04439
G01 X68.54317 Y-41.20048
G01 X68.53169 Y-41.25813
G01 X68.48617 Y-41.40822
G01 X68.46367 Y-41.46255
G01 X68.38973 Y-41.60086
G01 X68.35706 Y-41.64975
G01 X68.23781 Y-41.79280
G01 X68.09476 Y-41.91206
G01 X68.04586 Y-41.94475
G01 X67.88094 Y-42.03126
G01 X67.70314 Y-42.08671
G01 X67.64546 Y-42.09816
G01 X67.48940 Y-42.11353
G01 X67.43057 Y-42.11353
G01 X67.27452 Y-42.09816
G01 X67.21683 Y-42.08671
G01 X67.03903 Y-42.03126
G01 X66.87411 Y-41.94475
G01 X66.82522 Y-41.91206
G01 X66.68216 Y-41.79280
G01 X66.54536 Y-41.62610
G01 X66.45631 Y-41.46255
G01 X66.43380 Y-41.40822
G01 X66.38828 Y-41.25813
G01 X66.37680 Y-41.20048
G01 X66.36144 Y-41.04439
G01 X66.36144 Y-40.98559
G01 X66.37680 Y-40.82951
G01 X66.38828 Y-40.77183
G01 X66.43380 Y-40.62176
G01 X66.45631 Y-40.56743
G01 X66.54536 Y-40.40386
G01 X66.66240 Y-40.25897
G01 X66.70398 Y-40.21739
G01 X66.82522 Y-40.11790
G01 X66.87411 Y-40.08524
G01 X66.95996 Y-40.03934
G01 X66.95996 Y-39.62197
G01 X64.20576 Y-36.86780
G01 X38.18849 Y-36.86780
G01 X38.12007 Y-36.86249
G01 X38.06238 Y-36.85103
G01 X37.97054 Y-36.81715
G01 X37.93594 Y-36.79866
G01 X37.88705 Y-36.76599
G01 X37.83493 Y-36.72134
G01 X36.05439 Y-34.94080
G01 X30.80065 Y-34.94080
G01 X30.75374 Y-34.93709
G01 X30.65742 Y-34.91974
G01 X30.56329 Y-34.88073
G01 X30.48290 Y-34.82492
G01 X30.44711 Y-34.79434
G01 X28.10642 Y-32.45363
G01 X28.06177 Y-32.40151
G01 X28.01061 Y-32.31802
G01 X27.98811 Y-32.26369
G01 X27.96527 Y-32.16849
G01 X27.95996 Y-32.10009
G01 X27.95996 Y-31.47563
G01 X27.87411 Y-31.42973
G01 X27.82522 Y-31.39707
G01 X27.68216 Y-31.27781
G01 X27.56291 Y-31.13476
G01 X27.53025 Y-31.08587
