( pcb2gcode 2.5.0 )
( Software-independent Gcode )

G94 ( Millimeters per minute feed rate. )
G21 ( Units == Millimeters. )

G90 ( Absolute coordinates. )
G00 S600 ( RPM spindle speed. )
G01 F40.00000 ( Feedrate. )


G53 G00 Z0.00000 (Retract to tool change height)
T1
M5      (Spindle stop.)
G04 P1.00000 (Wait for spindle to stop)
(MSG, Change tool bit to mill diameter 0.50000mm)
M0      (Temporary machine stop.)
M3 ( Spindle on clockwise. )
G04 P1.00000 (Wait for spindle to get up to speed)
G04 P0 ( dwell for no time -- G64 should not smooth over this point )
G00 Z2.00000 ( retract )

G00 X-2.84998 Y-8.84999 ( rapid move to begin. )
G01 F30.00000
( Mill infeed pass 1/1 )
G01 Z-0.07500
G04 P0 ( dwell for no time -- G64 should not smooth over this point )
G01 F40.00000
G01 X-2.84998 Y-8.84999
G01 X-2.85575 Y-8.90852
G01 X-2.87282 Y-8.96480
G01 X-2.90055 Y-9.01667
G01 X-2.93787 Y-9.06211
G01 X-2.98331 Y-9.09942
G01 X-3.03517 Y-9.12716
G01 X-3.09146 Y-9.14423
G01 X-3.14998 Y-9.14999
G01 X-4.84998 Y-9.14999
G01 X-4.90852 Y-9.14423
G01 X-4.96479 Y-9.12716
G01 X-5.01665 Y-9.09942
G01 X-5.06212 Y-9.06211
G01 X-5.09943 Y-9.01667
G01 X-5.12714 Y-8.96480
G01 X-5.14421 Y-8.90852
G01 X-5.14998 Y-8.84999
G01 X-5.14998 Y-7.15000
G01 X-5.14421 Y-7.09145
G01 X-5.12714 Y-7.03519
G01 X-5.09943 Y-6.98332
G01 X-5.06212 Y-6.93786
G01 X-5.01665 Y-6.90054
G01 X-4.96479 Y-6.87283
G01 X-4.90852 Y-6.85574
G01 X-4.84998 Y-6.85000
G01 X-3.14998 Y-6.85000
G01 X-3.09146 Y-6.85574
G01 X-3.03517 Y-6.87283
G01 X-2.98331 Y-6.90054
G01 X-2.93787 Y-6.93786
G01 X-2.90055 Y-6.98332
G01 X-2.87282 Y-7.03519
G01 X-2.85575 Y-7.09145
G01 X-2.84998 Y-7.15000
G01 X-2.85143 Y-10.56940
G01 X-2.86776 Y-10.73521
G01 X-2.87924 Y-10.79289
G01 X-2.92760 Y-10.95235
G01 X-2.95011 Y-11.00668
G01 X-3.04381 Y-11.17890
G01 X-3.16705 Y-11.33135
G01 X-3.20858 Y-11.37293
G01 X-3.33743 Y-11.47864
G01 X-3.38633 Y-11.51131
G01 X-3.53329 Y-11.58987
G01 X-3.58762 Y-11.61237
G01 X-3.74708 Y-11.66073
G01 X-3.80477 Y-11.67221
G01 X-3.97058 Y-11.68855
G01 X-4.02938 Y-11.68855
G01 X-4.22435 Y-11.66790
G01 X-4.37622 Y-11.62332
G01 X-7.18515 Y-14.43228
G01 X-7.18515 Y-24.74816
G01 X-7.11949 Y-24.80391
G01 X-7.03755 Y-24.90147
G01 X-7.00489 Y-24.95039
G01 X-6.95866 Y-25.03683
G01 X-6.93616 Y-25.09116
G01 X-6.90771 Y-25.18496
G01 X-6.89623 Y-25.24265
G01 X-6.88518 Y-25.36960
G01 X-6.90057 Y-25.52565
G01 X-6.93616 Y-25.64801
G01 X-6.95866 Y-25.70234
G01 X-7.02000 Y-25.81402
G01 X-7.11949 Y-25.93528
G01 X-7.21708 Y-26.01722
G01 X-7.26597 Y-26.04991
G01 X-7.37903 Y-26.10869
G01 X-7.52912 Y-26.15423
G01 X-7.65579 Y-26.16815
G01 X-7.71459 Y-26.16815
G01 X-7.84126 Y-26.15423
G01 X-7.99132 Y-26.10869
G01 X-8.10440 Y-26.04991
G01 X-8.15330 Y-26.01722
G01 X-8.24057 Y-25.94460
G01 X-8.27065 Y-25.91346
G01 X-8.35035 Y-25.81402
G01 X-8.41169 Y-25.70234
G01 X-8.43420 Y-25.64801
G01 X-8.46981 Y-25.52565
G01 X-8.48517 Y-25.36960
G01 X-8.47413 Y-25.24265
G01 X-8.46267 Y-25.18496
G01 X-8.43420 Y-25.09116
G01 X-8.41169 Y-25.03683
G01 X-8.36549 Y-24.95039
G01 X-8.33283 Y-24.90147
G01 X-8.25089 Y-24.80391
G01 X-8.18518 Y-24.74811
G01 X-8.18373 Y-14.19578
G01 X-8.16841 Y-14.09908
G01 X-8.13453 Y-14.00724
G01 X-8.08337 Y-13.92375
G01 X-8.03872 Y-13.87163
G01 X-5.08333 Y-10.91621
G01 X-5.12788 Y-10.76434
G01 X-5.14855 Y-10.56940
G01 X-5.14855 Y-10.51057
G01 X-5.12788 Y-10.31563
G01 X-5.06245 Y-10.09990
G01 X-4.97131 Y-9.92635
G01 X-4.93865 Y-9.87743
G01 X-4.83293 Y-9.74862
G01 X-4.79135 Y-9.70704
G01 X-4.63890 Y-9.58380
G01 X-4.46669 Y-9.49013
G01 X-4.41236 Y-9.46760
G01 X-4.22435 Y-9.41207
G01 X-4.02938 Y-9.39142
G01 X-3.97058 Y-9.39142
G01 X-3.80477 Y-9.40775
G01 X-3.74708 Y-9.41923
G01 X-3.55991 Y-9.47753
G01 X-3.36108 Y-9.58380
G01 X-3.20858 Y-9.70704
G01 X-3.16705 Y-9.74862
G01 X-3.06133 Y-9.87743
G01 X-3.02867 Y-9.92635
G01 X-2.93754 Y-10.09990
G01 X-2.87208 Y-10.31563
G01 X-2.85143 Y-10.51057
G01 X-2.85143 Y-13.10937
G01 X-2.86776 Y-13.27521
G01 X-2.87924 Y-13.33289
G01 X-2.92760 Y-13.49235
G01 X-2.95011 Y-13.54668
G01 X-3.02867 Y-13.69365
G01 X-3.06133 Y-13.74254
G01 X-3.16705 Y-13.87135
G01 X-3.20858 Y-13.91293
G01 X-3.33743 Y-14.01864
G01 X-3.38633 Y-14.05131
G01 X-3.53329 Y-14.12987
G01 X-3.58762 Y-14.15237
G01 X-3.77563 Y-14.20790
G01 X-3.97058 Y-14.22855
G01 X-4.02938 Y-14.22855
G01 X-4.19522 Y-14.21221
G01 X-4.25290 Y-14.20073
G01 X-4.41236 Y-14.15237
G01 X-4.46669 Y-14.12987
G01 X-4.61363 Y-14.05131
G01 X-4.66255 Y-14.01864
G01 X-4.81315 Y-13.89316
G01 X-4.93865 Y-13.74254
G01 X-4.97131 Y-13.69365
G01 X-5.04985 Y-13.54668
G01 X-5.07235 Y-13.49235
G01 X-5.12074 Y-13.33289
G01 X-5.13222 Y-13.27521
G01 X-5.14998 Y-13.07998
G01 X-5.13222 Y-12.88476
G01 X-5.12074 Y-12.82708
G01 X-5.06245 Y-12.63990
G01 X-4.95617 Y-12.44107
G01 X-4.83293 Y-12.28862
G01 X-4.79135 Y-12.24704
G01 X-4.63890 Y-12.12380
G01 X-4.46669 Y-12.03013
G01 X-4.41236 Y-12.00760
G01 X-4.22435 Y-11.95207
G01 X-4.02938 Y-11.93142
G01 X-3.97058 Y-11.93142
G01 X-3.80477 Y-11.94775
G01 X-3.74708 Y-11.95923
G01 X-3.55991 Y-12.01753
G01 X-3.36108 Y-12.12380
G01 X-3.20858 Y-12.24704
G01 X-3.16705 Y-12.28862
G01 X-3.06133 Y-12.41742
G01 X-3.02867 Y-12.46635
G01 X-2.93754 Y-12.63990
G01 X-2.87924 Y-12.82708
G01 X-2.86776 Y-12.88476
G01 X-2.85143 Y-13.05057
G01 X-2.85143 Y-15.64940
G01 X-2.86776 Y-15.81521
G01 X-2.87924 Y-15.87289
G01 X-2.93754 Y-16.06006
G01 X-3.02867 Y-16.23365
G01 X-3.06133 Y-16.28254
G01 X-3.16705 Y-16.41135
G01 X-3.20858 Y-16.45293
G01 X-3.33743 Y-16.55864
G01 X-3.38633 Y-16.59131
G01 X-3.53329 Y-16.66987
G01 X-3.58762 Y-16.69237
G01 X-3.77563 Y-16.74790
G01 X-3.99999 Y-16.76999
G01 X-4.19522 Y-16.75221
G01 X-4.25290 Y-16.74073
G01 X-4.41236 Y-16.69237
G01 X-4.46669 Y-16.66987
G01 X-4.61363 Y-16.59131
G01 X-4.66255 Y-16.55864
G01 X-4.79135 Y-16.45293
G01 X-4.83293 Y-16.41135
G01 X-4.93865 Y-16.28254
G01 X-4.97131 Y-16.23365
G01 X-5.06245 Y-16.06006
G01 X-5.12074 Y-15.87289
G01 X-5.13222 Y-15.81521
G01 X-5.14855 Y-15.64940
G01 X-5.14855 Y-15.59057
G01 X-5.13222 Y-15.42476
G01 X-5.12074 Y-15.36708
G01 X-5.06245 Y-15.17990
G01 X-4.97131 Y-15.00635
G01 X-4.93865 Y-14.95743
G01 X-4.81315 Y-14.80680
G01 X-4.66255 Y-14.68133
G01 X-4.61363 Y-14.64866
G01 X-4.46669 Y-14.57013
G01 X-4.41236 Y-14.54760
G01 X-4.25290 Y-14.49923
G01 X-4.19522 Y-14.48775
G01 X-3.99999 Y-14.47000
G01 X-3.77563 Y-14.49207
G01 X-3.58762 Y-14.54760
G01 X-3.53329 Y-14.57013
G01 X-3.38633 Y-14.64866
G01 X-3.33743 Y-14.68133
G01 X-3.18681 Y-14.80680
G01 X-3.06133 Y-14.95743
G01 X-3.02867 Y-15.00635
G01 X-2.93754 Y-15.17990
G01 X-2.87924 Y-15.36708
G01 X-2.86776 Y-15.42476
G01 X-2.85143 Y-15.59057
G01 X-2.85143 Y-18.18940
G01 X-2.86776 Y-18.35521
G01 X-2.87924 Y-18.41289
G01 X-2.93754 Y-18.60006
G01 X-3.02867 Y-18.77365
G01 X-3.06133 Y-18.82254
G01 X-3.16705 Y-18.95135
G01 X-3.20858 Y-18.99293
G01 X-3.33743 Y-19.09864
G01 X-3.38633 Y-19.13131
G01 X-3.53329 Y-19.20987
G01 X-3.58762 Y-19.23237
G01 X-3.77563 Y-19.28790
G01 X-3.99999 Y-19.30999
G01 X-4.19522 Y-19.29221
G01 X-4.25290 Y-19.28073
G01 X-4.41236 Y-19.23237
G01 X-4.46669 Y-19.20987
G01 X-4.61363 Y-19.13131
G01 X-4.66255 Y-19.09864
G01 X-4.79135 Y-18.99293
G01 X-4.83293 Y-18.95135
G01 X-4.93865 Y-18.82254
G01 X-4.97131 Y-18.77365
G01 X-5.06245 Y-18.60006
G01 X-5.12074 Y-18.41289
G01 X-5.13222 Y-18.35521
G01 X-5.14855 Y-18.18940
G01 X-5.14855 Y-18.13057
G01 X-5.13222 Y-17.96476
G01 X-5.12074 Y-17.90708
G01 X-5.06245 Y-17.71990
G01 X-4.97131 Y-17.54635
G01 X-4.93865 Y-17.49742
G01 X-4.81315 Y-17.34680
G01 X-4.66255 Y-17.22133
G01 X-4.61363 Y-17.18866
G01 X-4.46669 Y-17.11013
G01 X-4.41236 Y-17.08760
G01 X-4.25290 Y-17.03923
G01 X-4.19522 Y-17.02775
G01 X-4.02938 Y-17.01142
G01 X-3.97058 Y-17.01142
G01 X-3.77563 Y-17.03207
G01 X-3.58762 Y-17.08760
G01 X-3.53329 Y-17.11013
G01 X-3.38633 Y-17.18866
G01 X-3.33743 Y-17.22133
G01 X-3.20858 Y-17.32704
G01 X-3.16705 Y-17.36862
G01 X-3.06133 Y-17.49742
G01 X-3.02867 Y-17.54635
G01 X-2.95011 Y-17.69328
G01 X-2.92760 Y-17.74761
G01 X-2.87924 Y-17.90708
G01 X-2.86776 Y-17.96476
G01 X-2.84998 Y-18.15998
G01 X-2.85143 Y-20.72940
G01 X-2.86776 Y-20.89521
G01 X-2.87924 Y-20.95289
G01 X-2.93754 Y-21.14006
G01 X-3.02867 Y-21.31365
G01 X-3.06133 Y-21.36254
G01 X-3.16705 Y-21.49135
G01 X-3.20858 Y-21.53293
G01 X-3.33743 Y-21.63864
G01 X-3.38633 Y-21.67131
G01 X-3.53329 Y-21.74987
G01 X-3.58762 Y-21.77237
G01 X-3.77563 Y-21.82790
G01 X-3.99999 Y-21.84999
G01 X-4.19522 Y-21.83221
G01 X-4.25290 Y-21.82073
G01 X-4.41236 Y-21.77237
G01 X-4.46669 Y-21.74987
G01 X-4.61363 Y-21.67131
G01 X-4.66255 Y-21.63864
G01 X-4.79135 Y-21.53293
G01 X-4.83293 Y-21.49135
G01 X-4.93865 Y-21.36254
G01 X-4.97131 Y-21.31365
G01 X-5.06245 Y-21.14006
G01 X-5.12074 Y-20.95289
G01 X-5.13222 Y-20.89521
G01 X-5.14998 Y-20.69998
G01 X-5.13222 Y-20.50476
G01 X-5.12074 Y-20.44708
G01 X-5.06245 Y-20.25990
G01 X-4.97131 Y-20.08635
G01 X-4.93865 Y-20.03742
G01 X-4.83293 Y-19.90862
G01 X-4.79135 Y-19.86704
G01 X-4.66255 Y-19.76133
G01 X-4.61363 Y-19.72866
G01 X-4.46669 Y-19.65013
G01 X-4.41236 Y-19.62760
G01 X-4.25290 Y-19.57923
G01 X-4.19522 Y-19.56775
G01 X-3.99999 Y-19.55000
G01 X-3.77563 Y-19.57207
G01 X-3.58762 Y-19.62760
G01 X-3.53329 Y-19.65013
G01 X-3.38633 Y-19.72866
G01 X-3.33743 Y-19.76133
G01 X-3.20858 Y-19.86704
G01 X-3.16705 Y-19.90862
G01 X-3.06133 Y-20.03742
G01 X-3.02867 Y-20.08635
G01 X-2.95011 Y-20.23328
G01 X-2.92760 Y-20.28761
G01 X-2.87924 Y-20.44708
G01 X-2.86776 Y-20.50476
G01 X-2.84998 Y-20.69998
G01 X-2.85143 Y-23.26940
G01 X-2.86776 Y-23.43521
G01 X-2.87924 Y-23.49289
G01 X-2.93754 Y-23.68006
G01 X-3.02867 Y-23.85365
G01 X-3.06133 Y-23.90254
G01 X-3.16705 Y-24.03135
G01 X-3.20858 Y-24.07293
G01 X-3.33743 Y-24.17864
G01 X-3.38633 Y-24.21131
G01 X-3.53329 Y-24.28987
G01 X-3.58762 Y-24.31237
G01 X-3.77563 Y-24.36790
G01 X-3.99999 Y-24.38999
G01 X-4.19522 Y-24.37221
G01 X-4.25290 Y-24.36073
G01 X-4.41236 Y-24.31237
G01 X-4.46669 Y-24.28987
G01 X-4.61363 Y-24.21131
G01 X-4.66255 Y-24.17864
G01 X-4.79135 Y-24.07293
G01 X-4.83293 Y-24.03135
G01 X-4.93865 Y-23.90254
G01 X-4.97131 Y-23.85365
G01 X-5.06245 Y-23.68006
G01 X-5.12074 Y-23.49289
G01 X-5.13222 Y-23.43521
G01 X-5.14998 Y-23.23998
G01 X-5.13222 Y-23.04476
G01 X-5.12074 Y-22.98708
G01 X-5.06245 Y-22.79990
G01 X-4.97131 Y-22.62635
G01 X-4.93865 Y-22.57742
G01 X-4.83293 Y-22.44862
G01 X-4.79135 Y-22.40704
G01 X-4.66255 Y-22.30133
G01 X-4.61363 Y-22.26866
G01 X-4.46669 Y-22.19013
G01 X-4.41236 Y-22.16760
G01 X-4.25290 Y-22.11923
G01 X-4.19522 Y-22.10775
G01 X-3.99999 Y-22.09000
G01 X-3.77563 Y-22.11207
G01 X-3.58762 Y-22.16760
G01 X-3.53329 Y-22.19013
G01 X-3.38633 Y-22.26866
G01 X-3.33743 Y-22.30133
G01 X-3.20858 Y-22.40704
G01 X-3.16705 Y-22.44862
G01 X-3.06133 Y-22.57742
G01 X-3.02867 Y-22.62635
G01 X-2.95011 Y-22.77328
G01 X-2.92760 Y-22.82761
G01 X-2.87924 Y-22.98708
G01 X-2.86776 Y-23.04476
G01 X-2.84998 Y-23.23998
G01 X-2.85143 Y-25.80940
G01 X-2.87208 Y-26.00434
G01 X-2.92760 Y-26.19235
G01 X-2.95011 Y-26.24668
G01 X-3.04381 Y-26.41890
G01 X-3.16705 Y-26.57135
G01 X-3.20858 Y-26.61290
G01 X-3.33743 Y-26.71864
G01 X-3.38633 Y-26.75131
G01 X-3.53329 Y-26.82987
G01 X-3.58762 Y-26.85237
G01 X-3.77563 Y-26.90790
G01 X-3.97058 Y-26.92855
G01 X-4.02938 Y-26.92855
G01 X-4.19522 Y-26.91221
G01 X-4.25290 Y-26.90073
G01 X-4.41236 Y-26.85237
G01 X-4.46669 Y-26.82987
G01 X-4.63890 Y-26.73617
G01 X-4.79135 Y-26.61290
G01 X-4.83293 Y-26.57135
G01 X-4.95617 Y-26.41890
G01 X-5.04985 Y-26.24668
G01 X-5.07235 Y-26.19235
G01 X-5.12074 Y-26.03289
G01 X-5.13222 Y-25.97521
G01 X-5.14855 Y-25.80940
G01 X-5.14855 Y-25.75057
G01 X-5.12788 Y-25.55563
G01 X-5.06245 Y-25.33990
G01 X-4.97131 Y-25.16635
G01 X-4.93865 Y-25.11742
G01 X-4.81315 Y-24.96680
G01 X-4.66255 Y-24.84133
G01 X-4.61363 Y-24.80866
G01 X-4.52255 Y-24.75997
G01 X-4.46669 Y-24.73013
G01 X-4.41236 Y-24.70760
G01 X-4.25290 Y-24.65923
G01 X-4.19522 Y-24.64775
G01 X-3.99999 Y-24.63000
G01 X-3.77563 Y-24.65207
G01 X-3.58762 Y-24.70760
G01 X-3.53329 Y-24.73013
G01 X-3.38633 Y-24.80866
G01 X-3.33743 Y-24.84133
G01 X-3.18681 Y-24.96680
G01 X-3.06133 Y-25.11742
G01 X-3.02867 Y-25.16635
G01 X-2.93754 Y-25.33990
G01 X-2.87924 Y-25.52708
G01 X-2.86776 Y-25.58476
G01 X-2.85143 Y-25.75057
G01 X-2.85143 Y-28.34940
G01 X-2.86776 Y-28.51521
G01 X-2.87924 Y-28.57289
G01 X-2.92760 Y-28.73235
G01 X-2.95011 Y-28.78668
G01 X-3.04381 Y-28.95890
G01 X-3.16705 Y-29.11135
G01 X-3.20858 Y-29.15293
G01 X-3.33743 Y-29.25864
G01 X-3.38633 Y-29.29131
G01 X-3.47739 Y-29.34000
G01 X-3.53329 Y-29.36987
G01 X-3.58762 Y-29.39237
G01 X-3.77563 Y-29.44790
G01 X-3.97058 Y-29.46855
G01 X-4.02938 Y-29.46855
G01 X-4.22435 Y-29.44790
G01 X-4.41236 Y-29.39237
G01 X-4.46669 Y-29.36987
G01 X-4.63890 Y-29.27617
G01 X-4.79135 Y-29.15293
G01 X-4.83293 Y-29.11135
G01 X-4.95617 Y-28.95890
G01 X-5.03207 Y-28.81996
G01 X-6.57344 Y-28.81998
G01 X-6.68221 Y-28.80650
G01 X-6.72800 Y-28.79550
G01 X-6.77149 Y-28.77749
G01 X-6.85772 Y-28.73121
G01 X-6.92704 Y-28.67353
G01 X-9.67273 Y-25.92781
G01 X-9.71738 Y-25.87569
G01 X-9.75004 Y-25.82677
G01 X-9.79104 Y-25.73785
G01 X-9.81387 Y-25.64267
G01 X-9.81918 Y-25.57427
G01 X-9.81918 Y-9.50117
G01 X-10.42098 Y-8.89940
G01 X-16.25227 Y-8.89940
G01 X-20.10631 Y-12.75344
G01 X-20.15843 Y-12.79809
G01 X-20.20733 Y-12.83076
G01 X-20.26851 Y-12.86182
G01 X-20.33377 Y-12.88313
G01 X-20.43046 Y-12.89842
G01 X-21.55998 Y-12.89987
G01 X-21.55998 Y-13.02433
G01 X-21.47410 Y-13.07023
G01 X-21.42520 Y-13.10289
G01 X-21.30400 Y-13.20239
G01 X-21.26239 Y-13.24399
G01 X-21.14537 Y-13.38885
G01 X-21.05630 Y-13.55242
G01 X-21.03379 Y-13.60675
G01 X-20.98827 Y-13.75682
G01 X-20.97679 Y-13.81450
G01 X-20.95998 Y-14.00000
G01 X-20.97679 Y-14.18547
G01 X-20.98827 Y-14.24315
G01 X-21.04372 Y-14.42095
G01 X-21.13023 Y-14.58587
G01 X-21.16290 Y-14.63477
G01 X-21.28218 Y-14.77780
G01 X-21.42520 Y-14.89707
G01 X-21.47410 Y-14.92974
G01 X-21.61243 Y-15.00368
G01 X-21.66676 Y-15.02618
G01 X-21.81682 Y-15.07170
G01 X-21.87451 Y-15.08318
G01 X-22.05998 Y-15.10000
G01 X-22.24547 Y-15.08318
G01 X-22.30316 Y-15.07170
G01 X-22.45322 Y-15.02618
G01 X-22.50755 Y-15.00368
G01 X-22.64585 Y-14.92974
G01 X-22.69477 Y-14.89707
G01 X-22.83780 Y-14.77780
G01 X-22.95708 Y-14.63477
G01 X-22.98974 Y-14.58587
G01 X-23.07626 Y-14.42095
G01 X-23.13170 Y-14.24315
G01 X-23.14316 Y-14.18547
G01 X-23.15855 Y-14.02939
G01 X-23.15855 Y-13.97058
G01 X-23.14316 Y-13.81450
G01 X-23.13170 Y-13.75682
G01 X-23.08616 Y-13.60675
G01 X-23.06366 Y-13.55242
G01 X-22.98974 Y-13.41412
G01 X-22.95708 Y-13.36520
G01 X-22.85759 Y-13.24399
G01 X-22.81598 Y-13.20239
G01 X-22.69477 Y-13.10289
G01 X-22.64585 Y-13.07023
G01 X-22.55998 Y-13.02433
G01 X-22.55998 Y-12.60699
G01 X-29.31389 Y-5.85307
G01 X-86.45888 Y-5.85307
G01 X-91.12047 Y-10.51469
G01 X-91.12047 Y-30.86227
G01 X-82.98642 Y-38.99632
G01 X-82.92424 Y-39.07208
G01 X-82.89061 Y-39.13193
G01 X-82.86811 Y-39.18626
G01 X-82.84959 Y-39.25232
G01 X-82.84141 Y-39.32047
G01 X-82.83997 Y-39.96792
G01 X-82.72633 Y-40.02867
G01 X-82.67743 Y-40.06134
G01 X-82.52681 Y-40.18681
G01 X-82.40133 Y-40.33744
G01 X-82.36867 Y-40.38633
G01 X-82.29011 Y-40.53329
G01 X-82.26760 Y-40.58763
G01 X-82.21924 Y-40.74709
G01 X-82.20776 Y-40.80474
G01 X-82.19143 Y-40.97058
G01 X-82.19143 Y-41.02938
G01 X-82.20776 Y-41.19522
G01 X-82.21924 Y-41.25290
G01 X-82.26760 Y-41.41236
G01 X-82.29011 Y-41.46669
G01 X-82.36867 Y-41.61363
G01 X-82.40133 Y-41.66253
G01 X-82.50705 Y-41.79136
G01 X-82.54863 Y-41.83294
G01 X-82.67743 Y-41.93865
G01 X-82.72633 Y-41.97132
G01 X-82.87329 Y-42.04985
G01 X-82.92762 Y-42.07236
G01 X-83.11563 Y-42.12788
G01 X-83.31058 Y-42.14853
G01 X-83.36940 Y-42.14853
G01 X-83.53522 Y-42.13220
G01 X-83.59290 Y-42.12074
G01 X-83.75236 Y-42.07236
G01 X-83.80669 Y-42.04985
G01 X-83.95363 Y-41.97132
G01 X-84.00255 Y-41.93865
G01 X-84.15317 Y-41.81315
G01 X-84.27865 Y-41.66253
G01 X-84.31131 Y-41.61363
G01 X-84.40245 Y-41.44007
G01 X-84.46074 Y-41.25290
G01 X-84.47222 Y-41.19522
G01 X-84.48855 Y-41.02938
G01 X-84.48855 Y-40.97058
G01 X-84.46788 Y-40.77564
G01 X-84.41238 Y-40.58763
G01 X-84.38985 Y-40.53329
G01 X-84.31131 Y-40.38633
G01 X-84.27865 Y-40.33744
G01 X-84.15317 Y-40.18681
G01 X-84.00255 Y-40.06134
G01 X-83.95363 Y-40.02867
G01 X-83.83996 Y-39.96792
G01 X-83.83999 Y-39.55697
G01 X-91.97403 Y-31.42292
G01 X-92.01869 Y-31.37080
G01 X-92.05135 Y-31.32191
G01 X-92.06984 Y-31.28731
G01 X-92.10373 Y-31.19547
G01 X-92.11518 Y-31.13778
G01 X-92.12049 Y-31.06938
G01 X-92.12049 Y-10.30760
G01 X-92.11518 Y-10.23917
G01 X-92.10373 Y-10.18149
G01 X-92.06984 Y-10.08964
G01 X-92.01869 Y-10.00615
G01 X-91.97403 Y-9.95403
G01 X-87.01954 Y-4.99951
G01 X-86.93313 Y-4.93215
G01 X-86.89297 Y-4.90756
G01 X-86.84948 Y-4.88955
G01 X-86.75578 Y-4.86128
G01 X-86.66599 Y-4.85305
G01 X-29.10680 Y-4.85305
G01 X-29.03837 Y-4.85836
G01 X-28.98069 Y-4.86982
G01 X-28.88884 Y-4.90370
G01 X-28.82900 Y-4.93733
G01 X-28.75323 Y-4.99951
G01 X-21.85286 Y-11.89987
G01 X-20.66696 Y-11.89987
G01 X-16.81292 Y-8.04583
G01 X-16.76080 Y-8.00118
G01 X-16.71190 Y-7.96851
G01 X-16.65072 Y-7.93745
G01 X-16.62298 Y-7.92752
G01 X-16.52778 Y-7.90468
G01 X-16.45938 Y-7.89937
G01 X-10.21390 Y-7.89937
G01 X-10.14547 Y-7.90468
G01 X-10.05027 Y-7.92752
G01 X-9.96135 Y-7.96851
G01 X-9.91245 Y-8.00118
G01 X-9.86033 Y-8.04583
G01 X-8.96562 Y-8.94052
G01 X-8.89825 Y-9.02693
G01 X-8.87923 Y-9.05667
G01 X-8.85180 Y-9.11746
G01 X-8.83265 Y-9.18535
G01 X-8.81916 Y-9.29409
G01 X-8.81916 Y-25.36713
G01 X-6.36638 Y-27.81996
G01 X-5.03204 Y-27.81996
G01 X-4.95617 Y-27.68107
G01 X-4.83293 Y-27.52862
G01 X-4.79135 Y-27.48704
G01 X-4.63890 Y-27.36380
G01 X-4.46669 Y-27.27013
G01 X-4.41236 Y-27.24760
G01 X-4.22435 Y-27.19207
G01 X-4.02938 Y-27.17142
G01 X-3.97058 Y-27.17142
G01 X-3.77563 Y-27.19207
G01 X-3.58762 Y-27.24760
G01 X-3.53329 Y-27.27013
G01 X-3.36108 Y-27.36380
G01 X-3.20858 Y-27.48704
G01 X-3.16705 Y-27.52862
G01 X-3.04381 Y-27.68107
G01 X-2.95011 Y-27.85328
G01 X-2.92760 Y-27.90761
G01 X-2.87208 Y-28.09563
G01 X-2.85143 Y-28.29057
G01 X-2.85143 Y-30.88940
G01 X-2.87208 Y-31.08434
G01 X-2.92760 Y-31.27235
G01 X-2.95011 Y-31.32668
G01 X-3.04381 Y-31.49890
G01 X-3.16705 Y-31.65135
G01 X-3.20858 Y-31.69293
G01 X-3.33743 Y-31.79864
G01 X-3.38633 Y-31.83131
G01 X-3.47734 Y-31.87997
G01 X-3.53329 Y-31.90987
G01 X-3.58762 Y-31.93237
G01 X-3.77563 Y-31.98790
G01 X-3.97058 Y-32.00855
G01 X-4.02938 Y-32.00855
G01 X-4.22435 Y-31.98790
G01 X-4.41236 Y-31.93237
G01 X-4.46669 Y-31.90987
G01 X-4.61363 Y-31.83131
G01 X-4.66255 Y-31.79864
G01 X-4.79135 Y-31.69293
G01 X-4.83293 Y-31.65135
G01 X-4.95617 Y-31.49890
G01 X-5.04985 Y-31.32668
G01 X-5.07235 Y-31.27235
G01 X-5.12074 Y-31.11289
G01 X-5.13222 Y-31.05521
G01 X-5.14855 Y-30.88940
G01 X-5.14855 Y-30.83057
G01 X-5.12788 Y-30.63563
G01 X-5.07235 Y-30.44761
G01 X-5.04985 Y-30.39328
G01 X-4.97131 Y-30.24635
G01 X-4.93865 Y-30.19742
G01 X-4.83293 Y-30.06862
G01 X-4.79135 Y-30.02704
G01 X-4.63890 Y-29.90380
G01 X-4.44007 Y-29.79753
G01 X-4.25290 Y-29.73923
G01 X-4.19522 Y-29.72775
G01 X-4.02938 Y-29.71142
G01 X-3.97058 Y-29.71142
G01 X-3.77563 Y-29.73207
G01 X-3.58762 Y-29.78760
G01 X-3.53329 Y-29.81013
G01 X-3.36108 Y-29.90380
G01 X-3.20858 Y-30.02704
G01 X-3.16705 Y-30.06862
G01 X-3.06133 Y-30.19742
G01 X-3.02867 Y-30.24635
G01 X-2.95011 Y-30.39328
G01 X-2.92760 Y-30.44761
G01 X-2.87208 Y-30.63563
G01 X-2.85143 Y-30.83057
G01 X-2.85143 Y-33.42940
G01 X-2.87208 Y-33.62434
G01 X-2.92760 Y-33.81235
G01 X-2.95011 Y-33.86668
G01 X-3.04381 Y-34.03890
G01 X-3.16705 Y-34.19135
G01 X-3.20858 Y-34.23293
G01 X-3.36108 Y-34.35617
G01 X-3.53329 Y-34.44987
G01 X-3.58762 Y-34.47237
G01 X-3.77563 Y-34.52790
G01 X-3.97058 Y-34.54855
G01 X-4.02938 Y-34.54855
G01 X-4.19522 Y-34.53221
G01 X-4.25290 Y-34.52073
G01 X-4.41236 Y-34.47237
G01 X-4.46669 Y-34.44987
G01 X-4.61363 Y-34.37131
G01 X-4.66255 Y-34.33864
G01 X-4.79135 Y-34.23293
G01 X-4.83293 Y-34.19135
G01 X-4.95617 Y-34.03890
G01 X-5.03207 Y-33.89998
G01 X-6.20398 Y-33.89996
G01 X-6.96290 Y-34.65891
G01 X-6.95734 Y-34.71537
G01 X-6.95734 Y-34.77420
G01 X-6.97126 Y-34.90087
G01 X-7.00687 Y-35.02322
G01 X-7.02937 Y-35.07755
G01 X-7.09071 Y-35.18924
G01 X-7.17042 Y-35.28865
G01 X-7.21203 Y-35.33023
G01 X-7.28779 Y-35.39244
G01 X-7.33669 Y-35.42510
G01 X-7.44974 Y-35.48390
G01 X-7.59981 Y-35.52942
G01 X-7.72648 Y-35.54334
G01 X-7.78530 Y-35.54334
G01 X-7.88284 Y-35.53374
G01 X-7.94052 Y-35.52226
G01 X-8.03432 Y-35.49381
G01 X-8.08866 Y-35.47130
G01 X-8.17509 Y-35.42510
G01 X-8.22399 Y-35.39244
G01 X-8.32157 Y-35.31047
G01 X-8.42107 Y-35.18924
G01 X-8.48241 Y-35.07755
G01 X-8.50491 Y-35.02322
G01 X-8.54052 Y-34.90087
G01 X-8.55444 Y-34.77420
G01 X-8.55444 Y-34.71537
G01 X-8.54052 Y-34.58870
G01 X-8.50491 Y-34.46635
G01 X-8.48241 Y-34.41202
G01 X-8.42107 Y-34.30034
G01 X-8.34133 Y-34.20092
G01 X-8.29975 Y-34.15934
G01 X-8.22399 Y-34.09714
G01 X-8.17509 Y-34.06447
G01 X-8.06204 Y-34.00567
G01 X-7.94052 Y-33.96732
G01 X-7.88284 Y-33.95584
G01 X-7.78530 Y-33.94624
G01 X-7.72648 Y-33.94624
G01 X-7.67001 Y-33.95180
G01 X-6.76463 Y-33.04642
G01 X-6.72884 Y-33.01583
G01 X-6.64842 Y-32.96003
G01 X-6.55432 Y-32.92102
G01 X-6.45798 Y-32.90367
G01 X-6.41109 Y-32.89996
G01 X-6.15008 Y-32.89996
G01 X-6.15008 Y-30.86478
G01 X-14.79352 Y-22.22134
G01 X-14.83817 Y-22.16922
G01 X-14.88933 Y-22.08573
G01 X-14.90190 Y-22.05914
G01 X-14.92321 Y-21.99389
G01 X-14.93467 Y-21.93620
G01 X-14.93998 Y-21.86780
G01 X-14.93998 Y-14.97566
G01 X-15.02585 Y-14.92974
G01 X-15.07477 Y-14.89707
G01 X-15.21780 Y-14.77780
G01 X-15.33708 Y-14.63477
G01 X-15.36974 Y-14.58587
G01 X-15.45626 Y-14.42095
G01 X-15.51170 Y-14.24315
G01 X-15.52316 Y-14.18547
G01 X-15.53855 Y-14.02939
G01 X-15.53855 Y-13.97058
G01 X-15.52316 Y-13.81450
G01 X-15.51170 Y-13.75682
G01 X-15.45626 Y-13.57904
G01 X-15.36974 Y-13.41412
G01 X-15.33708 Y-13.36520
G01 X-15.21780 Y-13.22215
G01 X-15.07477 Y-13.10289
G01 X-15.02585 Y-13.07023
G01 X-14.86093 Y-12.98372
G01 X-14.68316 Y-12.92824
G01 X-14.62547 Y-12.91681
G01 X-14.46939 Y-12.90142
G01 X-14.41059 Y-12.90142
G01 X-14.25451 Y-12.91681
G01 X-14.19682 Y-12.92824
G01 X-14.01905 Y-12.98372
G01 X-13.85410 Y-13.07023
G01 X-13.80520 Y-13.10289
G01 X-13.66218 Y-13.22215
G01 X-13.54290 Y-13.36520
G01 X-13.51023 Y-13.41412
G01 X-13.42372 Y-13.57904
G01 X-13.36827 Y-13.75682
G01 X-13.35679 Y-13.81450
G01 X-13.34143 Y-13.97058
G01 X-13.34143 Y-14.02939
G01 X-13.35679 Y-14.18547
G01 X-13.36827 Y-14.24315
G01 X-13.42372 Y-14.42095
G01 X-13.51023 Y-14.58587
G01 X-13.54290 Y-14.63477
G01 X-13.66218 Y-14.77780
G01 X-13.80520 Y-14.89707
G01 X-13.85410 Y-14.92974
G01 X-13.93995 Y-14.97561
G01 X-13.93995 Y-21.66069
G01 X-5.29651 Y-30.30413
G01 X-5.25186 Y-30.35625
G01 X-5.23433 Y-30.37990
G01 X-5.20070 Y-30.43974
G01 X-5.17820 Y-30.49407
G01 X-5.15536 Y-30.58927
G01 X-5.15005 Y-30.65770
G01 X-5.15005 Y-32.89996
G01 X-5.03204 Y-32.89996
G01 X-4.95617 Y-32.76107
G01 X-4.83293 Y-32.60862
G01 X-4.79135 Y-32.56704
G01 X-4.66255 Y-32.46133
G01 X-4.61363 Y-32.42866
G01 X-4.44007 Y-32.33753
G01 X-4.25290 Y-32.27923
G01 X-4.19522 Y-32.26775
G01 X-4.02938 Y-32.25142
G01 X-3.97058 Y-32.25142
G01 X-3.77563 Y-32.27207
G01 X-3.58762 Y-32.32760
G01 X-3.53329 Y-32.35013
G01 X-3.36108 Y-32.44380
G01 X-3.20858 Y-32.56704
G01 X-3.16705 Y-32.60862
G01 X-3.06133 Y-32.73742
G01 X-3.02867 Y-32.78635
G01 X-2.95011 Y-32.93328
G01 X-2.92760 Y-32.98761
G01 X-2.87208 Y-33.17563
G01 X-2.85143 Y-33.37057
G01 X-2.85143 Y-35.96940
G01 X-2.87208 Y-36.16434
G01 X-2.92760 Y-36.35235
G01 X-2.95011 Y-36.40668
G01 X-3.02867 Y-36.55365
G01 X-3.06133 Y-36.60254
G01 X-3.16705 Y-36.73135
G01 X-3.20858 Y-36.77293
G01 X-3.33743 Y-36.87864
G01 X-3.38633 Y-36.91131
G01 X-3.53329 Y-36.98987
G01 X-3.58762 Y-37.01237
G01 X-3.77563 Y-37.06790
G01 X-3.97058 Y-37.08855
G01 X-4.02938 Y-37.08855
G01 X-4.22435 Y-37.06790
G01 X-4.41236 Y-37.01237
G01 X-4.46669 Y-36.98987
G01 X-4.61363 Y-36.91131
G01 X-4.66255 Y-36.87864
G01 X-4.79135 Y-36.77293
G01 X-4.83293 Y-36.73135
G01 X-4.95617 Y-36.57890
G01 X-5.04985 Y-36.40668
G01 X-5.07235 Y-36.35235
G01 X-5.12074 Y-36.19289
G01 X-5.13222 Y-36.13521
G01 X-5.14855 Y-35.96940
G01 X-5.14855 Y-35.91057
G01 X-5.12788 Y-35.71563
G01 X-5.07235 Y-35.52761
G01 X-5.04985 Y-35.47328
G01 X-4.95617 Y-35.30107
G01 X-4.83293 Y-35.14862
G01 X-4.79135 Y-35.10704
G01 X-4.63890 Y-34.98380
G01 X-4.52255 Y-34.91997
G01 X-4.46669 Y-34.89013
G01 X-4.41236 Y-34.86760
G01 X-4.25290 Y-34.81923
G01 X-4.19522 Y-34.80775
G01 X-4.02938 Y-34.79142
G01 X-3.97058 Y-34.79142
G01 X-3.77563 Y-34.81207
G01 X-3.58762 Y-34.86760
G01 X-3.53329 Y-34.89013
G01 X-3.36108 Y-34.98380
G01 X-3.20858 Y-35.10704
G01 X-3.16705 Y-35.14862
G01 X-3.04381 Y-35.30107
G01 X-2.95011 Y-35.47328
G01 X-2.92760 Y-35.52761
G01 X-2.87924 Y-35.68708
G01 X-2.86776 Y-35.74476
G01 X-2.85143 Y-35.91057
G01 X-2.85143 Y-38.50940
G01 X-2.87208 Y-38.70434
G01 X-2.92760 Y-38.89235
G01 X-2.95011 Y-38.94668
G01 X-3.04381 Y-39.11890
G01 X-3.16705 Y-39.27135
G01 X-3.20858 Y-39.31293
G01 X-3.33743 Y-39.41864
G01 X-3.38633 Y-39.45131
G01 X-3.53329 Y-39.52987
G01 X-3.58762 Y-39.55237
G01 X-3.77563 Y-39.60790
G01 X-3.97058 Y-39.62855
G01 X-4.02938 Y-39.62855
G01 X-4.19522 Y-39.61221
G01 X-4.25290 Y-39.60073
G01 X-4.41236 Y-39.55237
G01 X-4.46669 Y-39.52987
G01 X-4.63890 Y-39.43617
G01 X-4.79135 Y-39.31293
G01 X-4.83293 Y-39.27135
G01 X-4.93865 Y-39.14254
G01 X-4.97131 Y-39.09365
G01 X-5.04985 Y-38.94668
G01 X-5.07235 Y-38.89235
G01 X-5.12788 Y-38.70434
G01 X-5.14855 Y-38.50940
G01 X-5.14855 Y-38.45057
G01 X-5.13222 Y-38.28476
G01 X-5.12074 Y-38.22708
G01 X-5.07235 Y-38.06762
G01 X-5.04985 Y-38.01328
G01 X-4.95617 Y-37.84107
G01 X-4.83293 Y-37.68862
G01 X-4.79135 Y-37.64704
G01 X-4.66255 Y-37.54133
G01 X-4.61363 Y-37.50866
G01 X-4.44007 Y-37.41753
G01 X-4.25290 Y-37.35923
G01 X-4.19522 Y-37.34775
G01 X-4.02938 Y-37.33142
G01 X-3.97058 Y-37.33142
G01 X-3.77563 Y-37.35207
G01 X-3.58762 Y-37.40760
G01 X-3.53329 Y-37.43013
G01 X-3.38633 Y-37.50866
G01 X-3.33743 Y-37.54133
G01 X-3.20858 Y-37.64704
G01 X-3.16705 Y-37.68862
G01 X-3.04381 Y-37.84107
G01 X-2.95011 Y-38.01328
G01 X-2.92760 Y-38.06762
G01 X-2.87208 Y-38.25563
G01 X-2.85143 Y-38.45057
G01 X-2.85143 Y-41.04940
G01 X-2.86776 Y-41.21521
G01 X-2.87924 Y-41.27289
G01 X-2.92760 Y-41.43235
G01 X-2.95011 Y-41.48668
G01 X-3.02867 Y-41.63365
G01 X-3.06133 Y-41.68254
G01 X-3.16705 Y-41.81135
G01 X-3.20858 Y-41.85293
G01 X-3.36108 Y-41.97617
G01 X-3.53329 Y-42.06987
G01 X-3.58762 Y-42.09237
G01 X-3.74708 Y-42.14073
G01 X-3.80477 Y-42.15221
G01 X-3.97058 Y-42.16855
G01 X-4.02938 Y-42.16855
G01 X-4.22435 Y-42.14790
G01 X-4.41236 Y-42.09237
G01 X-4.46669 Y-42.06987
G01 X-4.63890 Y-41.97617
G01 X-4.79135 Y-41.85293
G01 X-4.83293 Y-41.81135
G01 X-4.93865 Y-41.68254
G01 X-4.97131 Y-41.63365
G01 X-5.04985 Y-41.48668
G01 X-5.07235 Y-41.43235
G01 X-5.12788 Y-41.24434
G01 X-5.14855 Y-41.04940
G01 X-5.14855 Y-40.99057
G01 X-5.12788 Y-40.79563
G01 X-5.08333 Y-40.64373
G01 X-10.63353 Y-35.09353
G01 X-10.67819 Y-35.04141
G01 X-10.72934 Y-34.95792
G01 X-10.74191 Y-34.93132
G01 X-10.76322 Y-34.86607
G01 X-10.77468 Y-34.80839
G01 X-10.77999 Y-34.73999
G01 X-10.77999 Y-28.33218
G01 X-18.69798 Y-20.41418
G01 X-40.46708 Y-20.41418
G01 X-48.95654 Y-28.90365
G01 X-48.92111 Y-29.02539
G01 X-48.90143 Y-29.21058
G01 X-48.90143 Y-29.26939
G01 X-48.91679 Y-29.42547
G01 X-48.92827 Y-29.48315
G01 X-48.97379 Y-29.63321
G01 X-48.99630 Y-29.68755
G01 X-49.07023 Y-29.82587
G01 X-49.10290 Y-29.87477
G01 X-49.20239 Y-29.99600
G01 X-49.24400 Y-30.03758
G01 X-49.36520 Y-30.13707
G01 X-49.41410 Y-30.16974
G01 X-49.55243 Y-30.24368
G01 X-49.60676 Y-30.26618
G01 X-49.78540 Y-30.31886
G01 X-49.97059 Y-30.33855
G01 X-50.02939 Y-30.33855
G01 X-50.21458 Y-30.31886
G01 X-50.39322 Y-30.26618
G01 X-50.44755 Y-30.24368
G01 X-50.58585 Y-30.16974
G01 X-50.63477 Y-30.13707
G01 X-50.75598 Y-30.03758
G01 X-50.79759 Y-29.99600
G01 X-50.91460 Y-29.85112
G01 X-51.00363 Y-29.68755
G01 X-51.02614 Y-29.63321
G01 X-51.07884 Y-29.45458
G01 X-51.09853 Y-29.26939
G01 X-51.09853 Y-29.21058
G01 X-51.08316 Y-29.05450
G01 X-51.07170 Y-28.99682
G01 X-51.01626 Y-28.81904
G01 X-50.92974 Y-28.65412
G01 X-50.89708 Y-28.60520
G01 X-50.77780 Y-28.46217
G01 X-50.63477 Y-28.34292
G01 X-50.58585 Y-28.31023
G01 X-50.44755 Y-28.23632
G01 X-50.39322 Y-28.21381
G01 X-50.21458 Y-28.16113
G01 X-50.02939 Y-28.14142
G01 X-49.97059 Y-28.14142
G01 X-49.81451 Y-28.15681
G01 X-49.75682 Y-28.16827
G01 X-49.66363 Y-28.19654
G01 X-41.02773 Y-19.56062
G01 X-40.99194 Y-19.53003
G01 X-40.91155 Y-19.47423
G01 X-40.81742 Y-19.43522
G01 X-40.72110 Y-19.41787
G01 X-40.67419 Y-19.41416
G01 X-18.49090 Y-19.41416
G01 X-18.42247 Y-19.41947
G01 X-18.36478 Y-19.43092
G01 X-18.29953 Y-19.45223
G01 X-18.23834 Y-19.48330
G01 X-18.18945 Y-19.51596
G01 X-18.13733 Y-19.56062
G01 X-9.92642 Y-27.77152
G01 X-9.88177 Y-27.82364
G01 X-9.83061 Y-27.90713
G01 X-9.80811 Y-27.96146
G01 X-9.78527 Y-28.05666
G01 X-9.77997 Y-28.12506
G01 X-9.77997 Y-34.53287
G01 X-4.37622 Y-39.93665
G01 X-4.22435 Y-39.89207
G01 X-4.02938 Y-39.87142
G01 X-3.97058 Y-39.87142
G01 X-3.77563 Y-39.89207
G01 X-3.58762 Y-39.94760
G01 X-3.53329 Y-39.97013
G01 X-3.36108 Y-40.06380
G01 X-3.20858 Y-40.18704
G01 X-3.16705 Y-40.22862
G01 X-3.04381 Y-40.38107
G01 X-2.95011 Y-40.55328
G01 X-2.92760 Y-40.60761
G01 X-2.87208 Y-40.79563
G01 X-2.85143 Y-40.99057
G04 P0 ( dwell for no time -- G64 should not smooth over this point )
G00 Z2.00000 ( retract )

G00 X-10.79998 Y-30.04000 ( rapid move to begin. )
G01 F30.00000
( Mill infeed pass 1/1 )
G01 Z-0.07500
G04 P0 ( dwell for no time -- G64 should not smooth over this point )
G01 F40.00000
G01 X-10.79998 Y-30.04000
G01 X-10.80244 Y-30.06494
G01 X-10.90173 Y-30.26352
G01 X-10.93333 Y-30.28942
G01 X-10.98517 Y-30.31716
G01 X-11.04146 Y-30.33423
G01 X-11.09998 Y-30.34000
G01 X-12.70000 Y-30.34000
G01 X-12.75852 Y-30.33423
G01 X-12.81478 Y-30.31716
G01 X-12.86665 Y-30.28942
G01 X-12.91212 Y-30.25211
G01 X-12.94943 Y-30.20667
G01 X-12.97714 Y-30.15480
G01 X-12.99423 Y-30.09852
G01 X-13.00000 Y-30.04000
G01 X-13.00000 Y-28.44000
G01 X-12.99423 Y-28.38145
G01 X-12.97714 Y-28.32519
G01 X-12.94943 Y-28.27332
G01 X-12.91212 Y-28.22786
G01 X-12.86665 Y-28.19055
G01 X-12.81478 Y-28.16283
G01 X-12.75852 Y-28.14574
G01 X-12.70000 Y-28.14000
G01 X-11.09998 Y-28.14000
G01 X-11.04146 Y-28.14574
G01 X-11.02319 Y-28.15130
G01 X-10.82883 Y-28.31394
G01 X-10.80574 Y-28.38145
G01 X-10.79998 Y-28.44000
G01 X-10.79998 Y-30.04000
G04 P0 ( dwell for no time -- G64 should not smooth over this point )
G00 Z2.00000 ( retract )

G00 X-13.33998 Y-29.24000 ( rapid move to begin. )
G01 F30.00000
( Mill infeed pass 1/1 )
G01 Z-0.07500
G04 P0 ( dwell for no time -- G64 should not smooth over this point )
G01 F40.00000
G01 X-13.33998 Y-29.24000
G01 X-13.35679 Y-29.42547
G01 X-13.36827 Y-29.48315
G01 X-13.41379 Y-29.63321
G01 X-13.43630 Y-29.68755
G01 X-13.51023 Y-29.82587
G01 X-13.54290 Y-29.87477
G01 X-13.66218 Y-30.01780
G01 X-13.80520 Y-30.13707
G01 X-13.85410 Y-30.16974
G01 X-14.01905 Y-30.25625
G01 X-14.19682 Y-30.31170
G01 X-14.25451 Y-30.32318
G01 X-14.41059 Y-30.33855
G01 X-14.46939 Y-30.33855
G01 X-14.62547 Y-30.32318
G01 X-14.68316 Y-30.31170
G01 X-14.86093 Y-30.25625
G01 X-15.02585 Y-30.16974
G01 X-15.07477 Y-30.13707
G01 X-15.21780 Y-30.01780
G01 X-15.33708 Y-29.87477
G01 X-15.36974 Y-29.82587
G01 X-15.44366 Y-29.68755
G01 X-15.46616 Y-29.63321
G01 X-15.51170 Y-29.48315
G01 X-15.52316 Y-29.42547
G01 X-15.54000 Y-29.24000
G01 X-15.52316 Y-29.05450
G01 X-15.51170 Y-28.99682
G01 X-15.45626 Y-28.81904
G01 X-15.36974 Y-28.65412
G01 X-15.33708 Y-28.60520
G01 X-15.21780 Y-28.46217
G01 X-15.07477 Y-28.34292
G01 X-15.02585 Y-28.31023
G01 X-14.86093 Y-28.22372
G01 X-14.68316 Y-28.16827
G01 X-14.62547 Y-28.15681
G01 X-14.46939 Y-28.14142
G01 X-14.41059 Y-28.14142
G01 X-14.25451 Y-28.15681
G01 X-14.19682 Y-28.16827
G01 X-14.01905 Y-28.22372
G01 X-13.85410 Y-28.31023
G01 X-13.80520 Y-28.34292
G01 X-13.66218 Y-28.46217
G01 X-13.54290 Y-28.60520
G01 X-13.51023 Y-28.65412
G01 X-13.43630 Y-28.79242
G01 X-13.41379 Y-28.84675
G01 X-13.36827 Y-28.99682
G01 X-13.35679 Y-29.05450
G01 X-13.33998 Y-29.24000
G04 P0 ( dwell for no time -- G64 should not smooth over this point )
G00 Z2.00000 ( retract )

G00 X-15.87998 Y-29.24000 ( rapid move to begin. )
G01 F30.00000
( Mill infeed pass 1/1 )
G01 Z-0.07500
G04 P0 ( dwell for no time -- G64 should not smooth over this point )
G01 F40.00000
G01 X-15.87998 Y-29.24000
G01 X-15.89679 Y-29.42547
G01 X-15.90827 Y-29.48315
G01 X-15.95379 Y-29.63321
G01 X-15.97630 Y-29.68755
G01 X-16.05023 Y-29.82587
G01 X-16.08290 Y-29.87477
G01 X-16.20218 Y-30.01780
G01 X-16.34520 Y-30.13707
G01 X-16.39410 Y-30.16974
G01 X-16.47995 Y-30.21564
G01 X-16.47995 Y-31.00708
G01 X-16.48526 Y-31.07548
G01 X-16.49672 Y-31.13316
G01 X-16.51803 Y-31.19841
G01 X-16.56423 Y-31.28485
G01 X-16.60665 Y-31.33880
G01 X-20.52698 Y-35.26119
G01 X-20.52142 Y-35.31768
G01 X-20.52142 Y-35.37649
G01 X-20.53105 Y-35.47405
G01 X-20.54250 Y-35.53173
G01 X-20.57098 Y-35.62551
G01 X-20.59348 Y-35.67984
G01 X-20.65482 Y-35.79155
G01 X-20.73453 Y-35.89096
G01 X-20.77611 Y-35.93254
G01 X-20.85188 Y-35.99472
G01 X-20.90077 Y-36.02741
G01 X-21.01385 Y-36.08619
G01 X-21.16391 Y-36.13170
G01 X-21.29058 Y-36.14565
G01 X-21.34939 Y-36.14565
G01 X-21.47606 Y-36.13170
G01 X-21.62614 Y-36.08619
G01 X-21.73920 Y-36.02741
G01 X-21.78809 Y-35.99472
G01 X-21.86386 Y-35.93254
G01 X-21.90544 Y-35.89096
G01 X-21.98517 Y-35.79155
G01 X-22.04651 Y-35.67984
G01 X-22.06902 Y-35.62551
G01 X-22.10460 Y-35.50315
G01 X-22.11855 Y-35.37649
G01 X-22.11855 Y-35.31768
G01 X-22.10460 Y-35.19101
G01 X-22.06902 Y-35.06866
G01 X-22.04651 Y-35.01433
G01 X-21.98517 Y-34.90262
G01 X-21.90544 Y-34.80321
G01 X-21.86386 Y-34.76163
G01 X-21.78809 Y-34.69945
G01 X-21.73920 Y-34.66678
G01 X-21.62614 Y-34.60798
G01 X-21.50461 Y-34.56960
G01 X-21.44695 Y-34.55815
G01 X-21.34939 Y-34.54852
G01 X-21.29058 Y-34.54852
G01 X-21.23410 Y-34.55408
G01 X-17.47998 Y-30.79996
G01 X-17.47998 Y-30.21566
G01 X-17.56585 Y-30.16974
G01 X-17.61477 Y-30.13707
G01 X-17.73598 Y-30.03758
G01 X-17.77759 Y-29.99600
G01 X-17.87708 Y-29.87477
G01 X-17.90974 Y-29.82587
G01 X-17.98366 Y-29.68755
G01 X-18.00616 Y-29.63321
G01 X-18.05170 Y-29.48315
G01 X-18.06316 Y-29.42547
G01 X-18.08000 Y-29.24000
G01 X-18.06316 Y-29.05450
G01 X-18.05170 Y-28.99682
G01 X-17.99626 Y-28.81904
G01 X-17.90974 Y-28.65412
G01 X-17.87708 Y-28.60520
G01 X-17.77759 Y-28.48399
G01 X-17.73598 Y-28.44239
G01 X-17.61477 Y-28.34292
G01 X-17.56585 Y-28.31023
G01 X-17.40093 Y-28.22372
G01 X-17.22316 Y-28.16827
G01 X-17.16547 Y-28.15681
G01 X-17.00939 Y-28.14142
G01 X-16.95059 Y-28.14142
G01 X-16.79451 Y-28.15681
G01 X-16.73682 Y-28.16827
G01 X-16.55905 Y-28.22372
G01 X-16.39410 Y-28.31023
G01 X-16.34520 Y-28.34292
G01 X-16.22400 Y-28.44239
G01 X-16.18239 Y-28.48399
G01 X-16.06537 Y-28.62885
G01 X-15.97630 Y-28.79242
G01 X-15.95379 Y-28.84675
G01 X-15.90827 Y-28.99682
G01 X-15.89679 Y-29.05450
G01 X-15.87998 Y-29.24000
G04 P0 ( dwell for no time -- G64 should not smooth over this point )
G00 Z2.00000 ( retract )

G00 X-18.41998 Y-29.24000 ( rapid move to begin. )
G01 F30.00000
( Mill infeed pass 1/1 )
G01 Z-0.07500
G04 P0 ( dwell for no time -- G64 should not smooth over this point )
G01 F40.00000
G01 X-18.41998 Y-29.24000
G01 X-18.43679 Y-29.42547
G01 X-18.44827 Y-29.48315
G01 X-18.49379 Y-29.63321
G01 X-18.51630 Y-29.68755
G01 X-18.59023 Y-29.82587
G01 X-18.62290 Y-29.87477
G01 X-18.74218 Y-30.01780
G01 X-18.88520 Y-30.13707
G01 X-18.93410 Y-30.16974
G01 X-19.09905 Y-30.25625
G01 X-19.27682 Y-30.31170
G01 X-19.33451 Y-30.32318
G01 X-19.49059 Y-30.33855
G01 X-19.54939 Y-30.33855
G01 X-19.70547 Y-30.32318
G01 X-19.76316 Y-30.31170
G01 X-19.85632 Y-30.28343
G01 X-25.28143 Y-35.70854
G01 X-25.28143 Y-35.76409
G01 X-25.29535 Y-35.89076
G01 X-25.34089 Y-36.04082
G01 X-25.39967 Y-36.15390
G01 X-25.43236 Y-36.20280
G01 X-25.49454 Y-36.27857
G01 X-25.53609 Y-36.32015
G01 X-25.61189 Y-36.38232
G01 X-25.66078 Y-36.41499
G01 X-25.77384 Y-36.47379
G01 X-25.92393 Y-36.51931
G01 X-26.05057 Y-36.53325
G01 X-26.10940 Y-36.53325
G01 X-26.23607 Y-36.51931
G01 X-26.38613 Y-36.47379
G01 X-26.49918 Y-36.41499
G01 X-26.54805 Y-36.38232
G01 X-26.62385 Y-36.32015
G01 X-26.66545 Y-36.27857
G01 X-26.72763 Y-36.20280
G01 X-26.76030 Y-36.15390
G01 X-26.81910 Y-36.04082
G01 X-26.86461 Y-35.89076
G01 X-26.87853 Y-35.76409
G01 X-26.87853 Y-35.70529
G01 X-26.86461 Y-35.57862
G01 X-26.82900 Y-35.45627
G01 X-26.80650 Y-35.40194
G01 X-26.76030 Y-35.31547
G01 X-26.72763 Y-35.26658
G01 X-26.64567 Y-35.16899
G01 X-26.54805 Y-35.08705
G01 X-26.49918 Y-35.05439
G01 X-26.38613 Y-34.99559
G01 X-26.26462 Y-34.95721
G01 X-26.20691 Y-34.94575
G01 X-26.10940 Y-34.93613
G01 X-26.05057 Y-34.93613
G01 X-25.93543 Y-34.94834
G01 X-20.56343 Y-29.57634
G01 X-20.59170 Y-29.48315
G01 X-20.60316 Y-29.42547
G01 X-20.62000 Y-29.24000
G01 X-20.60316 Y-29.05450
G01 X-20.59170 Y-28.99682
G01 X-20.53626 Y-28.81904
G01 X-20.44974 Y-28.65412
G01 X-20.41708 Y-28.60520
G01 X-20.31759 Y-28.48399
G01 X-20.27598 Y-28.44239
G01 X-20.15477 Y-28.34292
G01 X-20.10585 Y-28.31023
G01 X-19.96755 Y-28.23632
G01 X-19.91322 Y-28.21381
G01 X-19.76316 Y-28.16827
G01 X-19.70547 Y-28.15681
G01 X-19.54939 Y-28.14142
G01 X-19.49059 Y-28.14142
G01 X-19.33451 Y-28.15681
G01 X-19.27682 Y-28.16827
G01 X-19.09905 Y-28.22372
G01 X-18.93410 Y-28.31023
G01 X-18.88520 Y-28.34292
G01 X-18.74218 Y-28.46217
G01 X-18.62290 Y-28.60520
G01 X-18.59023 Y-28.65412
G01 X-18.51630 Y-28.79242
G01 X-18.49379 Y-28.84675
G01 X-18.44827 Y-28.99682
G01 X-18.43679 Y-29.05450
G01 X-18.41998 Y-29.24000
G04 P0 ( dwell for no time -- G64 should not smooth over this point )
G00 Z2.00000 ( retract )

G00 X-20.95998 Y-29.24000 ( rapid move to begin. )
G01 F30.00000
( Mill infeed pass 1/1 )
G01 Z-0.07500
G04 P0 ( dwell for no time -- G64 should not smooth over this point )
G01 F40.00000
G01 X-20.95998 Y-29.24000
G01 X-20.97679 Y-29.42547
G01 X-20.98827 Y-29.48315
G01 X-21.03379 Y-29.63321
G01 X-21.05630 Y-29.68755
G01 X-21.13023 Y-29.82587
G01 X-21.16290 Y-29.87477
G01 X-21.28218 Y-30.01780
G01 X-21.42520 Y-30.13707
G01 X-21.47410 Y-30.16974
G01 X-21.61243 Y-30.24368
G01 X-21.66676 Y-30.26618
G01 X-21.81682 Y-30.31170
G01 X-21.87451 Y-30.32318
G01 X-22.03059 Y-30.33855
G01 X-22.08939 Y-30.33855
G01 X-22.24547 Y-30.32318
G01 X-22.30316 Y-30.31170
G01 X-22.45322 Y-30.26618
G01 X-22.50755 Y-30.24368
G01 X-22.64585 Y-30.16974
G01 X-22.69477 Y-30.13707
G01 X-22.83780 Y-30.01780
G01 X-22.95708 Y-29.87477
G01 X-22.98974 Y-29.82587
G01 X-23.06366 Y-29.68755
G01 X-23.08616 Y-29.63321
G01 X-23.13170 Y-29.48315
G01 X-23.14316 Y-29.42547
G01 X-23.15855 Y-29.26939
G01 X-23.15855 Y-29.21058
G01 X-23.14316 Y-29.05450
G01 X-23.13170 Y-28.99682
G01 X-23.10343 Y-28.90363
G01 X-26.25197 Y-25.75509
G01 X-28.24622 Y-25.75509
G01 X-28.30200 Y-25.82078
G01 X-28.39959 Y-25.90272
G01 X-28.44848 Y-25.93541
G01 X-28.56154 Y-25.99418
G01 X-28.68305 Y-26.03256
G01 X-28.74073 Y-26.04402
G01 X-28.83827 Y-26.05362
G01 X-28.89710 Y-26.05362
G01 X-29.02377 Y-26.03970
G01 X-29.17383 Y-25.99418
G01 X-29.28689 Y-25.93541
G01 X-29.33578 Y-25.90272
G01 X-29.43337 Y-25.82078
G01 X-29.51533 Y-25.72319
G01 X-29.54800 Y-25.67429
G01 X-29.59420 Y-25.58786
G01 X-29.61670 Y-25.53348
G01 X-29.65232 Y-25.41115
G01 X-29.66623 Y-25.28448
G01 X-29.66623 Y-25.22568
G01 X-29.65232 Y-25.09901
G01 X-29.61670 Y-24.97666
G01 X-29.59420 Y-24.92233
G01 X-29.54800 Y-24.83589
G01 X-29.51533 Y-24.78700
G01 X-29.45315 Y-24.71123
G01 X-29.41155 Y-24.66962
G01 X-29.31213 Y-24.58992
G01 X-29.20045 Y-24.52858
G01 X-29.14612 Y-24.50607
G01 X-29.02377 Y-24.47046
G01 X-28.89710 Y-24.45654
G01 X-28.83827 Y-24.45654
G01 X-28.71163 Y-24.47046
G01 X-28.58925 Y-24.50607
G01 X-28.53492 Y-24.52858
G01 X-28.44848 Y-24.57478
G01 X-28.39959 Y-24.60744
G01 X-28.30200 Y-24.68941
G01 X-28.24622 Y-24.75509
G01 X-26.04488 Y-24.75507
G01 X-25.97643 Y-24.76038
G01 X-25.91877 Y-24.77183
G01 X-25.85352 Y-24.79314
G01 X-25.82690 Y-24.80572
G01 X-25.76706 Y-24.83935
G01 X-25.69131 Y-24.90152
G01 X-22.39630 Y-28.19654
G01 X-22.30316 Y-28.16827
G01 X-22.24547 Y-28.15681
G01 X-22.08939 Y-28.14142
G01 X-22.03059 Y-28.14142
G01 X-21.87451 Y-28.15681
G01 X-21.81682 Y-28.16827
G01 X-21.63905 Y-28.22372
G01 X-21.47410 Y-28.31023
G01 X-21.42520 Y-28.34292
G01 X-21.30400 Y-28.44239
G01 X-21.26239 Y-28.48399
G01 X-21.14537 Y-28.62885
G01 X-21.05630 Y-28.79242
G01 X-21.03379 Y-28.84675
G01 X-20.98827 Y-28.99682
G01 X-20.97679 Y-29.05450
G01 X-20.95998 Y-29.24000
G04 P0 ( dwell for no time -- G64 should not smooth over this point )
G00 Z2.00000 ( retract )

G00 X-23.49998 Y-29.24000 ( rapid move to begin. )
G01 F30.00000
( Mill infeed pass 1/1 )
G01 Z-0.07500
G04 P0 ( dwell for no time -- G64 should not smooth over this point )
G01 F40.00000
G01 X-23.49998 Y-29.24000
G01 X-23.51679 Y-29.42547
G01 X-23.52827 Y-29.48315
G01 X-23.57379 Y-29.63321
G01 X-23.59630 Y-29.68755
G01 X-23.67023 Y-29.82587
G01 X-23.70290 Y-29.87477
G01 X-23.82218 Y-30.01780
G01 X-23.96520 Y-30.13707
G01 X-24.01410 Y-30.16974
G01 X-24.17905 Y-30.25625
G01 X-24.35682 Y-30.31170
G01 X-24.41451 Y-30.32318
G01 X-24.57059 Y-30.33855
G01 X-24.62939 Y-30.33855
G01 X-24.78547 Y-30.32318
G01 X-24.84316 Y-30.31170
G01 X-25.02093 Y-30.25625
G01 X-25.18585 Y-30.16974
G01 X-25.23477 Y-30.13707
G01 X-25.37780 Y-30.01780
G01 X-25.49708 Y-29.87477
G01 X-25.52972 Y-29.82587
G01 X-25.60366 Y-29.68755
G01 X-25.62616 Y-29.63321
G01 X-25.67170 Y-29.48315
G01 X-25.68313 Y-29.42547
G01 X-25.70000 Y-29.24000
G01 X-25.68313 Y-29.05450
G01 X-25.67170 Y-28.99682
G01 X-25.61623 Y-28.81904
G01 X-25.52972 Y-28.65412
G01 X-25.49708 Y-28.60520
G01 X-25.37780 Y-28.46217
G01 X-25.23477 Y-28.34292
G01 X-25.18585 Y-28.31023
G01 X-25.02093 Y-28.22372
G01 X-24.84316 Y-28.16827
G01 X-24.78547 Y-28.15681
G01 X-24.62939 Y-28.14142
G01 X-24.57059 Y-28.14142
G01 X-24.41451 Y-28.15681
G01 X-24.35682 Y-28.16827
G01 X-24.17905 Y-28.22372
G01 X-24.01410 Y-28.31023
G01 X-23.96520 Y-28.34292
G01 X-23.82218 Y-28.46217
G01 X-23.70290 Y-28.60520
G01 X-23.67023 Y-28.65412
G01 X-23.59630 Y-28.79242
G01 X-23.57379 Y-28.84675
G01 X-23.52827 Y-28.99682
G01 X-23.51679 Y-29.05450
G01 X-23.49998 Y-29.24000
G04 P0 ( dwell for no time -- G64 should not smooth over this point )
G00 Z2.00000 ( retract )

G00 X-26.04143 Y-29.26939 ( rapid move to begin. )
G01 F30.00000
( Mill infeed pass 1/1 )
G01 Z-0.07500
G04 P0 ( dwell for no time -- G64 should not smooth over this point )
G01 F40.00000
G01 X-26.04143 Y-29.26939
G01 X-26.06109 Y-29.45458
G01 X-26.11379 Y-29.63321
G01 X-26.13630 Y-29.68755
G01 X-26.21021 Y-29.82587
G01 X-26.24290 Y-29.87477
G01 X-26.36218 Y-30.01780
G01 X-26.50520 Y-30.13707
G01 X-26.55410 Y-30.16974
G01 X-26.69243 Y-30.24368
G01 X-26.74676 Y-30.26618
G01 X-26.92540 Y-30.31886
G01 X-27.11059 Y-30.33855
G01 X-27.16939 Y-30.33855
G01 X-27.35458 Y-30.31886
G01 X-27.53322 Y-30.26618
G01 X-27.58755 Y-30.24368
G01 X-27.72585 Y-30.16974
G01 X-27.77477 Y-30.13707
G01 X-27.91780 Y-30.01780
G01 X-28.03708 Y-29.87477
G01 X-28.06974 Y-29.82587
G01 X-28.14366 Y-29.68755
G01 X-28.16616 Y-29.63321
G01 X-28.21884 Y-29.45458
G01 X-28.23855 Y-29.26939
G01 X-28.23855 Y-29.21058
G01 X-28.22316 Y-29.05450
G01 X-28.21170 Y-28.99682
G01 X-28.15626 Y-28.81904
G01 X-28.06974 Y-28.65412
G01 X-28.03708 Y-28.60520
G01 X-27.91780 Y-28.46217
G01 X-27.77477 Y-28.34292
G01 X-27.72585 Y-28.31023
G01 X-27.58755 Y-28.23632
G01 X-27.53322 Y-28.21381
G01 X-27.35458 Y-28.16113
G01 X-27.16939 Y-28.14142
G01 X-27.11059 Y-28.14142
G01 X-26.95451 Y-28.15681
G01 X-26.89682 Y-28.16827
G01 X-26.71905 Y-28.22372
G01 X-26.55410 Y-28.31023
G01 X-26.50520 Y-28.34292
G01 X-26.36218 Y-28.46217
G01 X-26.24290 Y-28.60520
G01 X-26.21021 Y-28.65412
G01 X-26.13630 Y-28.79242
G01 X-26.11379 Y-28.84675
G01 X-26.06109 Y-29.02539
G01 X-26.04143 Y-29.21058
G01 X-26.04143 Y-29.26939
G04 P0 ( dwell for no time -- G64 should not smooth over this point )
G00 Z2.00000 ( retract )

G00 X-28.58143 Y-29.26939 ( rapid move to begin. )
G01 F30.00000
( Mill infeed pass 1/1 )
G01 Z-0.07500
G04 P0 ( dwell for no time -- G64 should not smooth over this point )
G01 F40.00000
G01 X-28.58143 Y-29.26939
G01 X-28.60111 Y-29.45458
G01 X-28.65379 Y-29.63321
G01 X-28.67630 Y-29.68755
G01 X-28.75023 Y-29.82587
G01 X-28.78290 Y-29.87477
G01 X-28.90218 Y-30.01780
G01 X-29.04520 Y-30.13707
G01 X-29.09410 Y-30.16974
G01 X-29.23243 Y-30.24368
G01 X-29.28676 Y-30.26618
G01 X-29.46540 Y-30.31886
G01 X-29.65059 Y-30.33855
G01 X-29.70939 Y-30.33855
G01 X-29.89458 Y-30.31886
G01 X-30.07322 Y-30.26618
G01 X-30.12755 Y-30.24368
G01 X-30.26585 Y-30.16974
G01 X-30.31477 Y-30.13707
G01 X-30.43598 Y-30.03758
G01 X-30.47759 Y-29.99600
G01 X-30.57708 Y-29.87477
G01 X-30.60974 Y-29.82587
G01 X-30.68366 Y-29.68755
G01 X-30.70616 Y-29.63321
G01 X-30.75170 Y-29.48315
G01 X-30.76316 Y-29.42547
G01 X-30.77855 Y-29.26939
G01 X-30.77855 Y-29.21058
G01 X-30.76316 Y-29.05450
G01 X-30.75170 Y-28.99682
G01 X-30.69626 Y-28.81904
G01 X-30.60974 Y-28.65412
G01 X-30.57708 Y-28.60520
G01 X-30.47759 Y-28.48399
G01 X-30.43598 Y-28.44239
G01 X-30.31477 Y-28.34292
G01 X-30.26585 Y-28.31023
G01 X-30.17998 Y-28.26433
G01 X-30.17998 Y-27.84699
G01 X-35.03392 Y-22.99305
G01 X-35.13320 Y-22.96320
G01 X-35.18756 Y-22.94070
G01 X-35.27400 Y-22.89449
G01 X-35.32289 Y-22.86183
G01 X-35.39866 Y-22.79965
G01 X-35.44024 Y-22.75807
G01 X-35.50242 Y-22.68230
G01 X-35.53511 Y-22.63338
G01 X-35.59388 Y-22.52033
G01 X-35.63943 Y-22.37026
G01 X-35.65335 Y-22.24359
G01 X-35.65335 Y-22.18479
G01 X-35.63943 Y-22.05812
G01 X-35.59388 Y-21.90803
G01 X-35.53511 Y-21.79498
G01 X-35.50242 Y-21.74608
G01 X-35.44024 Y-21.67031
G01 X-35.39866 Y-21.62873
G01 X-35.29924 Y-21.54900
G01 X-35.18756 Y-21.48766
G01 X-35.13320 Y-21.46516
G01 X-35.01085 Y-21.42955
G01 X-34.88418 Y-21.41563
G01 X-34.82538 Y-21.41563
G01 X-34.69871 Y-21.42955
G01 X-34.57636 Y-21.46516
G01 X-34.52203 Y-21.48766
G01 X-34.41032 Y-21.54900
G01 X-34.31090 Y-21.62873
G01 X-34.26932 Y-21.67031
G01 X-34.20715 Y-21.74608
G01 X-34.17448 Y-21.79498
G01 X-34.12828 Y-21.88141
G01 X-34.10577 Y-21.93577
G01 X-34.07016 Y-22.05812
G01 X-34.05624 Y-22.18479
G01 X-34.05624 Y-22.24359
G01 X-34.07016 Y-22.37026
G01 X-34.10956 Y-22.50318
G01 X-29.32641 Y-27.28633
G01 X-29.28175 Y-27.33845
G01 X-29.26423 Y-27.36210
G01 X-29.23060 Y-27.42194
G01 X-29.20810 Y-27.47627
G01 X-29.18958 Y-27.54234
G01 X-29.18526 Y-27.57147
G01 X-29.17995 Y-27.63987
G01 X-29.17995 Y-28.26436
G01 X-29.09410 Y-28.31023
G01 X-29.04520 Y-28.34292
G01 X-28.90218 Y-28.46217
G01 X-28.78290 Y-28.60520
G01 X-28.75023 Y-28.65412
G01 X-28.67630 Y-28.79242
G01 X-28.65379 Y-28.84675
G01 X-28.60827 Y-28.99682
G01 X-28.59679 Y-29.05450
G01 X-28.58143 Y-29.21058
G01 X-28.58143 Y-29.26939
G04 P0 ( dwell for no time -- G64 should not smooth over this point )
G00 Z2.00000 ( retract )

G00 X-31.12143 Y-29.26939 ( rapid move to begin. )
G01 F30.00000
( Mill infeed pass 1/1 )
G01 Z-0.07500
G04 P0 ( dwell for no time -- G64 should not smooth over this point )
G01 F40.00000
G01 X-31.12143 Y-29.26939
G01 X-31.14111 Y-29.45458
G01 X-31.19379 Y-29.63321
G01 X-31.21630 Y-29.68755
G01 X-31.29023 Y-29.82587
G01 X-31.32290 Y-29.87477
G01 X-31.44218 Y-30.01780
G01 X-31.58520 Y-30.13707
G01 X-31.63410 Y-30.16974
G01 X-31.77243 Y-30.24368
G01 X-31.82676 Y-30.26618
G01 X-32.00540 Y-30.31886
G01 X-32.19059 Y-30.33855
G01 X-32.24939 Y-30.33855
G01 X-32.43458 Y-30.31886
G01 X-32.61322 Y-30.26618
G01 X-32.66755 Y-30.24368
G01 X-32.80585 Y-30.16974
G01 X-32.85477 Y-30.13707
G01 X-32.99780 Y-30.01780
G01 X-33.11708 Y-29.87477
G01 X-33.14974 Y-29.82587
G01 X-33.22366 Y-29.68755
G01 X-33.24616 Y-29.63321
G01 X-33.29884 Y-29.45458
G01 X-33.31855 Y-29.26939
G01 X-33.31855 Y-29.21058
G01 X-33.30316 Y-29.05450
G01 X-33.29170 Y-28.99682
G01 X-33.23626 Y-28.81904
G01 X-33.14974 Y-28.65412
G01 X-33.11708 Y-28.60520
G01 X-32.99780 Y-28.46217
G01 X-32.85477 Y-28.34292
G01 X-32.80585 Y-28.31023
G01 X-32.66755 Y-28.23632
G01 X-32.61322 Y-28.21381
G01 X-32.43458 Y-28.16113
G01 X-32.24939 Y-28.14142
G01 X-32.19059 Y-28.14142
G01 X-32.03451 Y-28.15681
G01 X-31.97682 Y-28.16827
G01 X-31.79905 Y-28.22372
G01 X-31.63410 Y-28.31023
G01 X-31.58520 Y-28.34292
G01 X-31.44218 Y-28.46217
G01 X-31.32290 Y-28.60520
G01 X-31.29023 Y-28.65412
G01 X-31.21630 Y-28.79242
G01 X-31.19379 Y-28.84675
G01 X-31.14111 Y-29.02539
G01 X-31.12143 Y-29.21058
G01 X-31.12143 Y-29.26939
G04 P0 ( dwell for no time -- G64 should not smooth over this point )
G00 Z2.00000 ( retract )

G00 X-33.66143 Y-29.26939 ( rapid move to begin. )
G01 F30.00000
( Mill infeed pass 1/1 )
G01 Z-0.07500
G04 P0 ( dwell for no time -- G64 should not smooth over this point )
G01 F40.00000
G01 X-33.66143 Y-29.26939
G01 X-33.68111 Y-29.45458
G01 X-33.73379 Y-29.63321
G01 X-33.75630 Y-29.68755
G01 X-33.83023 Y-29.82587
G01 X-33.86290 Y-29.87477
G01 X-33.98218 Y-30.01780
G01 X-34.12520 Y-30.13707
G01 X-34.17410 Y-30.16974
G01 X-34.31243 Y-30.24368
G01 X-34.36676 Y-30.26618
G01 X-34.54540 Y-30.31886
G01 X-34.73059 Y-30.33855
G01 X-34.78939 Y-30.33855
G01 X-34.97458 Y-30.31886
G01 X-35.15322 Y-30.26618
G01 X-35.20755 Y-30.24368
G01 X-35.34585 Y-30.16974
G01 X-35.39477 Y-30.13707
G01 X-35.53780 Y-30.01780
G01 X-35.65708 Y-29.87477
G01 X-35.68974 Y-29.82587
G01 X-35.76366 Y-29.68755
G01 X-35.78616 Y-29.63321
G01 X-35.83884 Y-29.45458
G01 X-35.85855 Y-29.26939
G01 X-35.85855 Y-29.21058
G01 X-35.84316 Y-29.05450
G01 X-35.83170 Y-28.99682
G01 X-35.77626 Y-28.81904
G01 X-35.68974 Y-28.65412
G01 X-35.65708 Y-28.60520
G01 X-35.53780 Y-28.46217
G01 X-35.39477 Y-28.34292
G01 X-35.34585 Y-28.31023
G01 X-35.20755 Y-28.23632
G01 X-35.15322 Y-28.21381
G01 X-34.97458 Y-28.16113
G01 X-34.78939 Y-28.14142
G01 X-34.73059 Y-28.14142
G01 X-34.57451 Y-28.15681
G01 X-34.51682 Y-28.16827
G01 X-34.33905 Y-28.22372
G01 X-34.17410 Y-28.31023
G01 X-34.12520 Y-28.34292
G01 X-33.98218 Y-28.46217
G01 X-33.86290 Y-28.60520
G01 X-33.83023 Y-28.65412
G01 X-33.75630 Y-28.79242
G01 X-33.73379 Y-28.84675
G01 X-33.68111 Y-29.02539
G01 X-33.66143 Y-29.21058
G01 X-33.66143 Y-29.26939
G04 P0 ( dwell for no time -- G64 should not smooth over this point )
G00 Z2.00000 ( retract )

G00 X-38.74143 Y-29.26939 ( rapid move to begin. )
G01 F30.00000
( Mill infeed pass 1/1 )
G01 Z-0.07500
G04 P0 ( dwell for no time -- G64 should not smooth over this point )
G01 F40.00000
G01 X-38.74143 Y-29.26939
G01 X-38.76111 Y-29.45458
G01 X-38.81379 Y-29.63321
G01 X-38.83630 Y-29.68755
G01 X-38.91023 Y-29.82587
G01 X-38.94290 Y-29.87477
G01 X-39.06218 Y-30.01780
G01 X-39.20520 Y-30.13707
G01 X-39.25410 Y-30.16974
G01 X-39.39243 Y-30.24368
G01 X-39.44676 Y-30.26618
G01 X-39.62540 Y-30.31886
G01 X-39.81059 Y-30.33855
G01 X-39.86939 Y-30.33855
G01 X-40.05458 Y-30.31886
G01 X-40.23322 Y-30.26618
G01 X-40.28755 Y-30.24368
G01 X-40.42585 Y-30.16974
G01 X-40.47477 Y-30.13707
G01 X-40.61780 Y-30.01780
G01 X-40.73708 Y-29.87477
G01 X-40.76974 Y-29.82587
G01 X-40.84366 Y-29.68755
G01 X-40.86616 Y-29.63321
G01 X-40.91884 Y-29.45458
G01 X-40.93855 Y-29.26939
G01 X-40.93855 Y-29.21058
G01 X-40.92316 Y-29.05450
G01 X-40.91170 Y-28.99682
G01 X-40.85626 Y-28.81904
G01 X-40.76974 Y-28.65412
G01 X-40.73708 Y-28.60520
G01 X-40.61780 Y-28.46217
G01 X-40.47477 Y-28.34292
G01 X-40.42585 Y-28.31023
G01 X-40.28755 Y-28.23632
G01 X-40.23322 Y-28.21381
G01 X-40.05458 Y-28.16113
G01 X-39.86939 Y-28.14142
G01 X-39.81059 Y-28.14142
G01 X-39.65451 Y-28.15681
G01 X-39.59682 Y-28.16827
G01 X-39.41905 Y-28.22372
G01 X-39.25410 Y-28.31023
G01 X-39.20520 Y-28.34292
G01 X-39.06218 Y-28.46217
G01 X-38.94290 Y-28.60520
G01 X-38.91023 Y-28.65412
G01 X-38.83630 Y-28.79242
G01 X-38.81379 Y-28.84675
G01 X-38.76111 Y-29.02539
G01 X-38.74143 Y-29.21058
G01 X-38.74143 Y-29.26939
G04 P0 ( dwell for no time -- G64 should not smooth over this point )
G00 Z2.00000 ( retract )

G00 X-33.19292 Y-36.86078 ( rapid move to begin. )
G01 F30.00000
( Mill infeed pass 1/1 )
G01 Z-0.07500
G04 P0 ( dwell for no time -- G64 should not smooth over this point )
G01 F40.00000
G01 X-33.19292 Y-36.86078
G01 X-33.20687 Y-36.98745
G01 X-33.24245 Y-37.10981
G01 X-33.28177 Y-37.19558
G01 X-33.31119 Y-37.25060
G01 X-33.34385 Y-37.29949
G01 X-33.42579 Y-37.39708
G01 X-33.52338 Y-37.47902
G01 X-33.57227 Y-37.51171
G01 X-33.65873 Y-37.55791
G01 X-33.71306 Y-37.58042
G01 X-33.83542 Y-37.61600
G01 X-33.96209 Y-37.62995
G01 X-34.02089 Y-37.62995
G01 X-34.14756 Y-37.61600
G01 X-34.26991 Y-37.58042
G01 X-34.32424 Y-37.55791
G01 X-34.41070 Y-37.51171
G01 X-34.45960 Y-37.47902
G01 X-34.54710 Y-37.40620
G01 X-34.63912 Y-37.29949
G01 X-34.67179 Y-37.25060
G01 X-34.71802 Y-37.16414
G01 X-34.74052 Y-37.10981
G01 X-34.77611 Y-36.98745
G01 X-34.79005 Y-36.86078
G01 X-34.79005 Y-36.80198
G01 X-34.77611 Y-36.67531
G01 X-34.74052 Y-36.55296
G01 X-34.71802 Y-36.49863
G01 X-34.67179 Y-36.41220
G01 X-34.63912 Y-36.36327
G01 X-34.55718 Y-36.26571
G01 X-34.49150 Y-36.20994
G01 X-34.49150 Y-34.35568
G01 X-37.65352 Y-31.19364
G01 X-37.69817 Y-31.14152
G01 X-37.74933 Y-31.05803
G01 X-37.77183 Y-31.00370
G01 X-37.79467 Y-30.90850
G01 X-37.79998 Y-30.84007
G01 X-37.79995 Y-30.21566
G01 X-37.88585 Y-30.16974
G01 X-37.93477 Y-30.13707
G01 X-38.05598 Y-30.03758
G01 X-38.09759 Y-29.99600
G01 X-38.19708 Y-29.87477
G01 X-38.22974 Y-29.82587
G01 X-38.30366 Y-29.68755
G01 X-38.32616 Y-29.63321
G01 X-38.37170 Y-29.48315
G01 X-38.38316 Y-29.42547
G01 X-38.39855 Y-29.26939
G01 X-38.39855 Y-29.21058
G01 X-38.38316 Y-29.05450
G01 X-38.37170 Y-28.99682
G01 X-38.31626 Y-28.81904
G01 X-38.22974 Y-28.65412
G01 X-38.19708 Y-28.60520
G01 X-38.07780 Y-28.46217
G01 X-37.93477 Y-28.34292
G01 X-37.88585 Y-28.31023
G01 X-37.79995 Y-28.26431
G01 X-37.79998 Y-21.99704
G01 X-37.85641 Y-21.97992
G01 X-37.91074 Y-21.95741
G01 X-38.02245 Y-21.89607
G01 X-38.14366 Y-21.79658
G01 X-38.22563 Y-21.69899
G01 X-38.25829 Y-21.65010
G01 X-38.31709 Y-21.53704
G01 X-38.35547 Y-21.41553
G01 X-38.36693 Y-21.35784
G01 X-38.37656 Y-21.26028
G01 X-38.37656 Y-21.20148
G01 X-38.36261 Y-21.07481
G01 X-38.31709 Y-20.92475
G01 X-38.25829 Y-20.81169
G01 X-38.22563 Y-20.76277
G01 X-38.16345 Y-20.68700
G01 X-38.12187 Y-20.64542
G01 X-38.04610 Y-20.58325
G01 X-37.99718 Y-20.55058
G01 X-37.91074 Y-20.50438
G01 X-37.85641 Y-20.48187
G01 X-37.76261 Y-20.45340
G01 X-37.70493 Y-20.44195
G01 X-37.60739 Y-20.43234
G01 X-37.54859 Y-20.43234
G01 X-37.42192 Y-20.44626
G01 X-37.29957 Y-20.48187
G01 X-37.24524 Y-20.50438
G01 X-37.15878 Y-20.55058
G01 X-37.10988 Y-20.58325
G01 X-37.03411 Y-20.64542
G01 X-36.99253 Y-20.68700
G01 X-36.93036 Y-20.76277
G01 X-36.89767 Y-20.81169
G01 X-36.85146 Y-20.89813
G01 X-36.82896 Y-20.95246
G01 X-36.79335 Y-21.07481
G01 X-36.77943 Y-21.20148
G01 X-36.77943 Y-21.26028
G01 X-36.78903 Y-21.35784
G01 X-36.80612 Y-21.43349
G01 X-36.79995 Y-21.50887
G01 X-36.79995 Y-28.26436
G01 X-36.71410 Y-28.31023
G01 X-36.66520 Y-28.34292
G01 X-36.52218 Y-28.46217
G01 X-36.40290 Y-28.60520
G01 X-36.37023 Y-28.65412
G01 X-36.29630 Y-28.79242
G01 X-36.27996 Y-28.83184
G01 X-36.22827 Y-28.99682
G01 X-36.21679 Y-29.05450
G01 X-36.20143 Y-29.21058
G01 X-36.20143 Y-29.26939
G01 X-36.22111 Y-29.45458
G01 X-36.27379 Y-29.63321
G01 X-36.29630 Y-29.68755
G01 X-36.37023 Y-29.82587
G01 X-36.40290 Y-29.87477
G01 X-36.52218 Y-30.01780
G01 X-36.66520 Y-30.13707
G01 X-36.71410 Y-30.16974
G01 X-36.79995 Y-30.21564
G01 X-36.79995 Y-30.63298
G01 X-33.63793 Y-33.79503
G01 X-33.59328 Y-33.84715
G01 X-33.56061 Y-33.89605
G01 X-33.54212 Y-33.93064
G01 X-33.50824 Y-34.02249
G01 X-33.49678 Y-34.08017
G01 X-33.49147 Y-34.14860
G01 X-33.49150 Y-36.20991
G01 X-33.42579 Y-36.26571
G01 X-33.34385 Y-36.36327
G01 X-33.31119 Y-36.41220
G01 X-33.25238 Y-36.52525
G01 X-33.20687 Y-36.67531
G01 X-33.19292 Y-36.80198
G01 X-33.19292 Y-36.86078
G04 P0 ( dwell for no time -- G64 should not smooth over this point )
G00 Z2.00000 ( retract )

G00 X-31.39143 Y-41.02938 ( rapid move to begin. )
G01 F30.00000
( Mill infeed pass 1/1 )
G01 Z-0.07500
G04 P0 ( dwell for no time -- G64 should not smooth over this point )
G01 F40.00000
G01 X-31.39143 Y-41.02938
G01 X-31.41208 Y-41.22435
G01 X-31.46760 Y-41.41236
G01 X-31.49011 Y-41.46669
G01 X-31.58381 Y-41.63888
G01 X-31.70705 Y-41.79136
G01 X-31.74863 Y-41.83294
G01 X-31.90108 Y-41.95618
G01 X-32.07329 Y-42.04985
G01 X-32.12762 Y-42.07236
G01 X-32.28708 Y-42.12074
G01 X-32.34477 Y-42.13220
G01 X-32.51058 Y-42.14853
G01 X-32.56940 Y-42.14853
G01 X-32.76435 Y-42.12788
G01 X-32.95236 Y-42.07236
G01 X-33.00669 Y-42.04985
G01 X-33.17890 Y-41.95618
G01 X-33.33135 Y-41.83294
G01 X-33.37293 Y-41.79136
G01 X-33.47865 Y-41.66253
G01 X-33.51131 Y-41.61363
G01 X-33.58985 Y-41.46669
G01 X-33.61238 Y-41.41236
G01 X-33.66788 Y-41.22435
G01 X-33.68855 Y-41.02938
G01 X-33.68855 Y-40.97058
G01 X-33.66788 Y-40.77564
G01 X-33.62333 Y-40.62372
G01 X-34.53676 Y-39.71028
G01 X-34.94969 Y-39.71028
G01 X-35.04722 Y-39.70066
G01 X-35.11329 Y-39.68214
G01 X-35.16762 Y-39.65964
G01 X-35.22746 Y-39.62601
G01 X-35.30323 Y-39.56383
G01 X-44.58363 Y-30.28343
G01 X-44.70540 Y-30.31886
G01 X-44.89059 Y-30.33855
G01 X-44.94939 Y-30.33855
G01 X-45.13458 Y-30.31886
G01 X-45.31322 Y-30.26618
G01 X-45.36755 Y-30.24368
G01 X-45.50585 Y-30.16974
G01 X-45.55477 Y-30.13707
G01 X-45.69780 Y-30.01780
G01 X-45.81708 Y-29.87477
G01 X-45.84974 Y-29.82587
G01 X-45.92366 Y-29.68755
G01 X-45.94616 Y-29.63321
G01 X-45.99884 Y-29.45458
G01 X-46.01855 Y-29.26939
G01 X-46.01855 Y-29.21058
G01 X-46.00316 Y-29.05450
G01 X-45.99170 Y-28.99682
G01 X-45.93626 Y-28.81904
G01 X-45.84974 Y-28.65412
G01 X-45.81708 Y-28.60520
G01 X-45.71759 Y-28.48399
G01 X-45.67598 Y-28.44239
G01 X-45.55477 Y-28.34292
G01 X-45.50585 Y-28.31023
G01 X-45.36755 Y-28.23632
G01 X-45.31322 Y-28.21381
G01 X-45.13458 Y-28.16113
G01 X-44.94939 Y-28.14142
G01 X-44.89059 Y-28.14142
G01 X-44.73451 Y-28.15681
G01 X-44.67682 Y-28.16827
G01 X-44.49905 Y-28.22372
G01 X-44.33410 Y-28.31023
G01 X-44.28520 Y-28.34292
G01 X-44.16400 Y-28.44239
G01 X-44.12239 Y-28.48399
G01 X-44.02290 Y-28.60520
G01 X-43.99023 Y-28.65412
G01 X-43.91630 Y-28.79242
G01 X-43.89379 Y-28.84675
G01 X-43.84827 Y-28.99682
G01 X-43.83679 Y-29.05450
G01 X-43.82143 Y-29.21058
G01 X-43.82143 Y-29.26939
G01 X-43.84111 Y-29.45458
G01 X-43.87654 Y-29.57629
G01 X-34.74258 Y-38.71026
G01 X-34.32965 Y-38.71026
G01 X-34.28274 Y-38.71397
G01 X-34.17514 Y-38.73475
G01 X-34.13166 Y-38.75275
G01 X-34.03595 Y-38.80564
G01 X-34.00026 Y-38.83604
G01 X-32.91652 Y-39.91674
G01 X-32.76435 Y-39.87208
G01 X-32.56940 Y-39.85143
G01 X-32.51058 Y-39.85143
G01 X-32.34477 Y-39.86776
G01 X-32.28708 Y-39.87924
G01 X-32.12762 Y-39.92761
G01 X-32.07329 Y-39.95011
G01 X-31.90108 Y-40.04379
G01 X-31.74863 Y-40.16705
G01 X-31.70705 Y-40.20863
G01 X-31.58381 Y-40.36108
G01 X-31.49011 Y-40.53329
G01 X-31.46760 Y-40.58763
G01 X-31.41208 Y-40.77564
G01 X-31.39143 Y-40.97058
G01 X-31.39143 Y-41.02938
G04 P0 ( dwell for no time -- G64 should not smooth over this point )
G00 Z2.00000 ( retract )

G00 X-33.93143 Y-41.02938 ( rapid move to begin. )
G01 F30.00000
( Mill infeed pass 1/1 )
G01 Z-0.07500
G04 P0 ( dwell for no time -- G64 should not smooth over this point )
G01 F40.00000
G01 X-33.93143 Y-41.02938
G01 X-33.95208 Y-41.22435
G01 X-34.00760 Y-41.41236
G01 X-34.03011 Y-41.46669
G01 X-34.12381 Y-41.63888
G01 X-34.24705 Y-41.79136
G01 X-34.28863 Y-41.83294
G01 X-34.44108 Y-41.95618
G01 X-34.61329 Y-42.04985
G01 X-34.66762 Y-42.07236
G01 X-34.82708 Y-42.12074
G01 X-34.88477 Y-42.13220
G01 X-35.05058 Y-42.14853
G01 X-35.10940 Y-42.14853
G01 X-35.30435 Y-42.12788
G01 X-35.49236 Y-42.07236
G01 X-35.54669 Y-42.04985
G01 X-35.71890 Y-41.95618
G01 X-35.87135 Y-41.83294
G01 X-35.91293 Y-41.79136
G01 X-36.01865 Y-41.66253
G01 X-36.05131 Y-41.61363
G01 X-36.12985 Y-41.46669
G01 X-36.15238 Y-41.41236
G01 X-36.20788 Y-41.22435
G01 X-36.22855 Y-41.02938
G01 X-36.22855 Y-40.97058
G01 X-36.20788 Y-40.77564
G01 X-36.16333 Y-40.62374
G01 X-45.44687 Y-31.34020
G01 X-45.85975 Y-31.34020
G01 X-45.92818 Y-31.33489
G01 X-45.95731 Y-31.33057
G01 X-46.02338 Y-31.31205
G01 X-46.07771 Y-31.28955
G01 X-46.13755 Y-31.25592
G01 X-46.21332 Y-31.19374
G01 X-47.12363 Y-30.28343
G01 X-47.24540 Y-30.31886
G01 X-47.43059 Y-30.33855
G01 X-47.48939 Y-30.33855
G01 X-47.67458 Y-30.31886
G01 X-47.85322 Y-30.26618
G01 X-47.90755 Y-30.24368
G01 X-48.04585 Y-30.16974
G01 X-48.09477 Y-30.13707
G01 X-48.23780 Y-30.01780
G01 X-48.35708 Y-29.87477
G01 X-48.38974 Y-29.82587
G01 X-48.46366 Y-29.68755
G01 X-48.48616 Y-29.63321
G01 X-48.53884 Y-29.45458
G01 X-48.55855 Y-29.26939
G01 X-48.55855 Y-29.21058
G01 X-48.54316 Y-29.05450
G01 X-48.53170 Y-28.99682
G01 X-48.47626 Y-28.81904
G01 X-48.38974 Y-28.65412
G01 X-48.35708 Y-28.60520
G01 X-48.25759 Y-28.48399
G01 X-48.21598 Y-28.44239
G01 X-48.09477 Y-28.34292
G01 X-48.04585 Y-28.31023
G01 X-47.90755 Y-28.23632
G01 X-47.85322 Y-28.21381
G01 X-47.67458 Y-28.16113
G01 X-47.48939 Y-28.14142
G01 X-47.43059 Y-28.14142
G01 X-47.27451 Y-28.15681
G01 X-47.21682 Y-28.16827
G01 X-47.03905 Y-28.22372
G01 X-46.87410 Y-28.31023
G01 X-46.82520 Y-28.34292
G01 X-46.70400 Y-28.44239
G01 X-46.66239 Y-28.48399
G01 X-46.56290 Y-28.60520
G01 X-46.53023 Y-28.65412
G01 X-46.45630 Y-28.79242
G01 X-46.43379 Y-28.84675
G01 X-46.38827 Y-28.99682
G01 X-46.37679 Y-29.05450
G01 X-46.36143 Y-29.21058
G01 X-46.36143 Y-29.26939
G01 X-46.38111 Y-29.45458
G01 X-46.41654 Y-29.57629
G01 X-45.65266 Y-30.34017
G01 X-45.23979 Y-30.34017
G01 X-45.14223 Y-30.34980
G01 X-45.07616 Y-30.36832
G01 X-45.02183 Y-30.39082
G01 X-44.96199 Y-30.42445
G01 X-44.88622 Y-30.48663
G01 X-35.45622 Y-39.91663
G01 X-35.30435 Y-39.87208
G01 X-35.10940 Y-39.85143
G01 X-35.05058 Y-39.85143
G01 X-34.85563 Y-39.87208
G01 X-34.66762 Y-39.92761
G01 X-34.61329 Y-39.95011
G01 X-34.44108 Y-40.04379
G01 X-34.28863 Y-40.16705
G01 X-34.24705 Y-40.20863
G01 X-34.12381 Y-40.36108
G01 X-34.03011 Y-40.53329
G01 X-34.00760 Y-40.58763
G01 X-33.95208 Y-40.77564
G01 X-33.93143 Y-40.97058
G01 X-33.93143 Y-41.02938
G04 P0 ( dwell for no time -- G64 should not smooth over this point )
G00 Z2.00000 ( retract )

G00 X-36.47143 Y-41.02938 ( rapid move to begin. )
G01 F30.00000
( Mill infeed pass 1/1 )
G01 Z-0.07500
G04 P0 ( dwell for no time -- G64 should not smooth over this point )
G01 F40.00000
G01 X-36.47143 Y-41.02938
G01 X-36.49208 Y-41.22435
G01 X-36.54760 Y-41.41236
G01 X-36.57011 Y-41.46669
G01 X-36.66381 Y-41.63888
G01 X-36.78705 Y-41.79136
G01 X-36.82863 Y-41.83294
G01 X-36.98108 Y-41.95618
G01 X-37.15329 Y-42.04985
G01 X-37.20762 Y-42.07236
G01 X-37.39563 Y-42.12788
G01 X-37.59058 Y-42.14853
G01 X-37.64940 Y-42.14853
G01 X-37.84435 Y-42.12788
G01 X-38.03236 Y-42.07236
G01 X-38.08669 Y-42.04985
G01 X-38.25890 Y-41.95618
G01 X-38.41135 Y-41.83294
G01 X-38.45293 Y-41.79136
G01 X-38.55865 Y-41.66253
G01 X-38.59131 Y-41.61363
G01 X-38.66985 Y-41.46669
G01 X-38.69238 Y-41.41236
G01 X-38.74788 Y-41.22435
G01 X-38.76855 Y-41.02938
G01 X-38.76855 Y-40.97058
G01 X-38.74788 Y-40.77564
G01 X-38.70333 Y-40.62374
G01 X-47.98687 Y-31.34020
G01 X-50.67569 Y-31.34020
G01 X-50.78440 Y-31.32671
G01 X-50.83020 Y-31.31571
G01 X-50.87369 Y-31.29770
G01 X-50.95989 Y-31.25142
G01 X-51.02921 Y-31.19374
G01 X-51.95712 Y-30.26583
G01 X-52.00178 Y-30.21371
G01 X-52.05293 Y-30.13022
G01 X-52.08681 Y-30.03837
G01 X-52.09827 Y-29.98069
G01 X-52.10355 Y-29.91228
G01 X-52.10213 Y-17.17429
G01 X-52.09395 Y-17.10614
G01 X-52.08681 Y-17.07759
G01 X-52.05293 Y-16.98574
G01 X-52.01930 Y-16.92590
G01 X-51.97686 Y-16.87195
G01 X-50.49998 Y-15.39298
G01 X-50.49995 Y-14.97566
G01 X-50.58585 Y-14.92974
G01 X-50.63477 Y-14.89707
G01 X-50.77780 Y-14.77780
G01 X-50.89708 Y-14.63477
G01 X-50.92974 Y-14.58587
G01 X-51.01626 Y-14.42095
G01 X-51.07170 Y-14.24315
G01 X-51.08316 Y-14.18547
G01 X-51.09853 Y-14.02939
G01 X-51.09853 Y-13.97058
G01 X-51.08316 Y-13.81450
G01 X-51.07170 Y-13.75682
G01 X-51.02614 Y-13.60675
G01 X-51.00363 Y-13.55242
G01 X-50.91460 Y-13.38885
G01 X-50.79759 Y-13.24399
G01 X-50.75598 Y-13.20239
G01 X-50.63477 Y-13.10289
G01 X-50.58585 Y-13.07023
G01 X-50.44755 Y-12.99629
G01 X-50.39322 Y-12.97381
G01 X-50.24316 Y-12.92824
G01 X-50.18547 Y-12.91681
G01 X-50.02939 Y-12.90142
G01 X-49.97059 Y-12.90142
G01 X-49.81451 Y-12.91681
G01 X-49.75682 Y-12.92824
G01 X-49.60676 Y-12.97381
G01 X-49.55243 Y-12.99629
G01 X-49.41410 Y-13.07023
G01 X-49.36520 Y-13.10289
G01 X-49.22218 Y-13.22215
G01 X-49.10290 Y-13.36520
G01 X-49.07023 Y-13.41412
G01 X-48.99630 Y-13.55242
G01 X-48.97379 Y-13.60675
G01 X-48.92827 Y-13.75682
G01 X-48.91679 Y-13.81450
G01 X-48.90143 Y-13.97058
G01 X-48.90143 Y-14.02939
G01 X-48.91679 Y-14.18547
G01 X-48.92827 Y-14.24315
G01 X-48.97379 Y-14.39321
G01 X-48.99630 Y-14.44755
G01 X-49.07023 Y-14.58587
G01 X-49.10290 Y-14.63477
G01 X-49.22218 Y-14.77780
G01 X-49.36520 Y-14.89707
G01 X-49.41410 Y-14.92974
G01 X-49.49995 Y-14.97564
G01 X-49.50140 Y-15.62948
G01 X-49.50958 Y-15.69763
G01 X-49.52809 Y-15.76370
G01 X-49.56909 Y-15.85262
G01 X-49.60175 Y-15.90152
G01 X-49.64641 Y-15.95364
G01 X-51.10353 Y-17.41079
G01 X-51.10353 Y-29.70517
G01 X-50.46858 Y-30.34017
G01 X-47.77976 Y-30.34017
G01 X-47.68223 Y-30.34980
G01 X-47.61616 Y-30.36832
G01 X-47.56183 Y-30.39082
G01 X-47.50199 Y-30.42445
G01 X-47.47834 Y-30.44198
G01 X-47.42622 Y-30.48663
G01 X-37.99622 Y-39.91663
G01 X-37.84435 Y-39.87208
G01 X-37.64940 Y-39.85143
G01 X-37.59058 Y-39.85143
G01 X-37.39563 Y-39.87208
G01 X-37.20762 Y-39.92761
G01 X-37.15329 Y-39.95011
G01 X-36.98108 Y-40.04379
G01 X-36.82863 Y-40.16705
G01 X-36.78705 Y-40.20863
G01 X-36.66381 Y-40.36108
G01 X-36.57011 Y-40.53329
G01 X-36.54760 Y-40.58763
G01 X-36.49208 Y-40.77564
G01 X-36.47143 Y-40.97058
G01 X-36.47143 Y-41.02938
G04 P0 ( dwell for no time -- G64 should not smooth over this point )
G00 Z2.00000 ( retract )

G00 X-39.01143 Y-41.02938 ( rapid move to begin. )
G01 F30.00000
( Mill infeed pass 1/1 )
G01 Z-0.07500
G04 P0 ( dwell for no time -- G64 should not smooth over this point )
G01 F40.00000
G01 X-39.01143 Y-41.02938
G01 X-39.03208 Y-41.22435
G01 X-39.08760 Y-41.41236
G01 X-39.11011 Y-41.46669
G01 X-39.20381 Y-41.63888
G01 X-39.32705 Y-41.79136
G01 X-39.36863 Y-41.83294
G01 X-39.52108 Y-41.95618
G01 X-39.69329 Y-42.04985
G01 X-39.74762 Y-42.07236
G01 X-39.93563 Y-42.12788
G01 X-40.13058 Y-42.14853
G01 X-40.18940 Y-42.14853
G01 X-40.38435 Y-42.12788
G01 X-40.57236 Y-42.07236
G01 X-40.62669 Y-42.04985
G01 X-40.77363 Y-41.97132
G01 X-40.82255 Y-41.93865
G01 X-40.95135 Y-41.83294
G01 X-40.99293 Y-41.79136
G01 X-41.11617 Y-41.63888
G01 X-41.20985 Y-41.46669
G01 X-41.23238 Y-41.41236
G01 X-41.28074 Y-41.25290
G01 X-41.29222 Y-41.19522
G01 X-41.30855 Y-41.02938
G01 X-41.30855 Y-40.97058
G01 X-41.29222 Y-40.80474
G01 X-41.28074 Y-40.74709
G01 X-41.23238 Y-40.58763
G01 X-41.20985 Y-40.53329
G01 X-41.11617 Y-40.36108
G01 X-41.05341 Y-40.28234
G01 X-48.20097 Y-33.13478
G01 X-50.29535 Y-33.13478
G01 X-50.36378 Y-33.12947
G01 X-50.42146 Y-33.11802
G01 X-50.51331 Y-33.08413
G01 X-50.54791 Y-33.06564
G01 X-50.59680 Y-33.03298
G01 X-50.64892 Y-32.98833
G01 X-52.97000 Y-30.66722
G01 X-53.03220 Y-30.59146
G01 X-53.06583 Y-30.53161
G01 X-53.08831 Y-30.47728
G01 X-53.10685 Y-30.41122
G01 X-53.11648 Y-30.31368
G01 X-53.11648 Y-14.34668
G01 X-53.11115 Y-14.27825
G01 X-53.09969 Y-14.22057
G01 X-53.06583 Y-14.12872
G01 X-53.03220 Y-14.06888
G01 X-52.97000 Y-13.99311
G01 X-51.01001 Y-12.03312
G01 X-50.95791 Y-11.98847
G01 X-50.90902 Y-11.95581
G01 X-50.84780 Y-11.92474
G01 X-50.78258 Y-11.90343
G01 X-50.72489 Y-11.89198
G01 X-50.65649 Y-11.88667
G01 X-49.07328 Y-11.88667
G01 X-49.00485 Y-11.89198
G01 X-48.94717 Y-11.90343
G01 X-48.88192 Y-11.92474
G01 X-48.79548 Y-11.97094
G01 X-48.71971 Y-12.03312
G01 X-47.79630 Y-12.95654
G01 X-47.70316 Y-12.92824
G01 X-47.64547 Y-12.91681
G01 X-47.48939 Y-12.90142
G01 X-47.45998 Y-12.90000
G01 X-47.38708 Y-12.90569
G01 X-47.27451 Y-12.91681
G01 X-47.21682 Y-12.92824
G01 X-47.03905 Y-12.98372
G01 X-46.87410 Y-13.07023
G01 X-46.82520 Y-13.10289
G01 X-46.70400 Y-13.20239
G01 X-46.66239 Y-13.24399
G01 X-46.56290 Y-13.36520
G01 X-46.53023 Y-13.41412
G01 X-46.44372 Y-13.57904
G01 X-46.38827 Y-13.75682
G01 X-46.37679 Y-13.81450
G01 X-46.36143 Y-13.97058
G01 X-46.36143 Y-14.02939
G01 X-46.37679 Y-14.18547
G01 X-46.38827 Y-14.24315
G01 X-46.43379 Y-14.39321
G01 X-46.45630 Y-14.44755
G01 X-46.53023 Y-14.58587
G01 X-46.56290 Y-14.63477
G01 X-46.68218 Y-14.77780
G01 X-46.82520 Y-14.89707
G01 X-46.87410 Y-14.92974
G01 X-47.01243 Y-15.00368
G01 X-47.06676 Y-15.02618
G01 X-47.21682 Y-15.07170
G01 X-47.27451 Y-15.08318
G01 X-47.45998 Y-15.10000
G01 X-47.64547 Y-15.08318
G01 X-47.70316 Y-15.07170
G01 X-47.85322 Y-15.02618
G01 X-47.90755 Y-15.00368
G01 X-48.04585 Y-14.92974
G01 X-48.09477 Y-14.89707
G01 X-48.23780 Y-14.77780
G01 X-48.35708 Y-14.63477
G01 X-48.38974 Y-14.58587
G01 X-48.47626 Y-14.42095
G01 X-48.53170 Y-14.24315
G01 X-48.54316 Y-14.18547
G01 X-48.55855 Y-14.02939
G01 X-48.55855 Y-13.97058
G01 X-48.54316 Y-13.81450
G01 X-48.53170 Y-13.75682
G01 X-48.50343 Y-13.66363
G01 X-49.28037 Y-12.88666
G01 X-50.44938 Y-12.88666
G01 X-52.11646 Y-14.55377
G01 X-52.11646 Y-30.10657
G01 X-50.08827 Y-32.13476
G01 X-47.96447 Y-32.13621
G01 X-47.89632 Y-32.14439
G01 X-47.86777 Y-32.15152
G01 X-47.77593 Y-32.18541
G01 X-47.71608 Y-32.21904
G01 X-47.66213 Y-32.26145
G01 X-40.06350 Y-39.85804
G01 X-39.93563 Y-39.87208
G01 X-39.74762 Y-39.92761
G01 X-39.69329 Y-39.95011
G01 X-39.52108 Y-40.04379
G01 X-39.36863 Y-40.16705
G01 X-39.32705 Y-40.20863
G01 X-39.20381 Y-40.36108
G01 X-39.11011 Y-40.53329
G01 X-39.08760 Y-40.58763
G01 X-39.03208 Y-40.77564
G01 X-39.01143 Y-40.97058
G01 X-39.01143 Y-41.02938
G04 P0 ( dwell for no time -- G64 should not smooth over this point )
G00 Z2.00000 ( retract )

G00 X-41.55143 Y-41.02938 ( rapid move to begin. )
G01 F30.00000
( Mill infeed pass 1/1 )
G01 Z-0.07500
G04 P0 ( dwell for no time -- G64 should not smooth over this point )
G01 F40.00000
G01 X-41.55143 Y-41.02938
G01 X-41.57208 Y-41.22435
G01 X-41.62760 Y-41.41236
G01 X-41.65011 Y-41.46669
G01 X-41.74381 Y-41.63888
G01 X-41.86705 Y-41.79136
G01 X-41.90863 Y-41.83294
G01 X-42.06108 Y-41.95618
G01 X-42.23329 Y-42.04985
G01 X-42.28762 Y-42.07236
G01 X-42.47563 Y-42.12788
G01 X-42.67058 Y-42.14853
G01 X-42.72940 Y-42.14853
G01 X-42.92435 Y-42.12788
G01 X-43.11236 Y-42.07236
G01 X-43.16669 Y-42.04985
G01 X-43.31363 Y-41.97132
G01 X-43.36255 Y-41.93865
G01 X-43.49135 Y-41.83294
G01 X-43.53293 Y-41.79136
G01 X-43.65617 Y-41.63888
G01 X-43.74985 Y-41.46669
G01 X-43.77238 Y-41.41236
G01 X-43.82788 Y-41.22435
G01 X-43.84855 Y-41.02938
G01 X-43.84855 Y-40.97058
G01 X-43.82788 Y-40.77564
G01 X-43.77238 Y-40.58763
G01 X-43.74985 Y-40.53329
G01 X-43.65617 Y-40.36108
G01 X-43.53293 Y-40.20863
G01 X-43.49135 Y-40.16705
G01 X-43.33890 Y-40.04379
G01 X-43.19999 Y-39.96792
G01 X-43.19999 Y-39.55697
G01 X-48.26838 Y-34.48858
G01 X-50.35588 Y-34.48858
G01 X-50.45342 Y-34.47895
G01 X-50.51948 Y-34.46043
G01 X-50.57381 Y-34.43793
G01 X-50.63366 Y-34.40430
G01 X-50.70942 Y-34.34212
G01 X-53.97012 Y-31.08142
G01 X-54.03230 Y-31.00565
G01 X-54.06593 Y-30.94581
G01 X-54.08844 Y-30.89148
G01 X-54.10695 Y-30.82541
G01 X-54.11658 Y-30.72788
G01 X-54.11658 Y-13.93248
G01 X-54.11127 Y-13.86406
G01 X-54.09982 Y-13.80637
G01 X-54.06593 Y-13.71453
G01 X-54.03230 Y-13.65468
G01 X-53.97012 Y-13.57892
G01 X-51.42423 Y-11.03302
G01 X-51.38844 Y-11.00244
G01 X-51.30803 Y-10.94664
G01 X-51.21392 Y-10.90762
G01 X-51.11758 Y-10.89028
G01 X-51.07069 Y-10.88657
G01 X-47.53338 Y-10.88657
G01 X-47.46495 Y-10.89188
G01 X-47.40727 Y-10.90333
G01 X-47.34202 Y-10.92464
G01 X-47.28083 Y-10.95571
G01 X-47.23194 Y-10.98837
G01 X-47.17981 Y-11.03302
G01 X-45.25630 Y-12.95654
G01 X-45.16316 Y-12.92824
G01 X-45.10547 Y-12.91681
G01 X-44.94939 Y-12.90142
G01 X-44.91998 Y-12.90000
G01 X-44.84708 Y-12.90569
G01 X-44.73451 Y-12.91681
G01 X-44.67682 Y-12.92824
G01 X-44.49905 Y-12.98372
G01 X-44.33410 Y-13.07023
G01 X-44.28520 Y-13.10289
G01 X-44.16400 Y-13.20239
G01 X-44.12239 Y-13.24399
G01 X-44.02290 Y-13.36520
G01 X-43.99023 Y-13.41412
G01 X-43.90372 Y-13.57904
G01 X-43.84827 Y-13.75682
G01 X-43.83679 Y-13.81450
G01 X-43.82143 Y-13.97058
G01 X-43.82143 Y-14.02939
G01 X-43.83679 Y-14.18547
G01 X-43.84827 Y-14.24315
G01 X-43.89379 Y-14.39321
G01 X-43.91630 Y-14.44755
G01 X-43.99023 Y-14.58587
G01 X-44.02290 Y-14.63477
G01 X-44.14218 Y-14.77780
G01 X-44.28520 Y-14.89707
G01 X-44.33410 Y-14.92974
G01 X-44.47243 Y-15.00368
G01 X-44.52676 Y-15.02618
G01 X-44.67682 Y-15.07170
G01 X-44.73451 Y-15.08318
G01 X-44.91998 Y-15.10000
G01 X-45.10547 Y-15.08318
G01 X-45.16316 Y-15.07170
G01 X-45.31322 Y-15.02618
G01 X-45.36755 Y-15.00368
G01 X-45.50585 Y-14.92974
G01 X-45.55477 Y-14.89707
G01 X-45.69780 Y-14.77780
G01 X-45.81708 Y-14.63477
G01 X-45.84974 Y-14.58587
G01 X-45.92366 Y-14.44755
G01 X-45.94616 Y-14.39321
G01 X-45.99170 Y-14.24315
G01 X-46.00316 Y-14.18547
G01 X-46.01855 Y-14.02939
G01 X-46.01855 Y-13.97058
G01 X-46.00316 Y-13.81450
G01 X-45.99170 Y-13.75682
G01 X-45.96343 Y-13.66363
G01 X-47.74047 Y-11.88659
G01 X-50.86358 Y-11.88659
G01 X-53.11656 Y-14.13957
G01 X-53.11656 Y-30.52077
G01 X-50.14877 Y-33.48855
G01 X-48.03188 Y-33.49000
G01 X-47.96373 Y-33.49818
G01 X-47.93518 Y-33.50532
G01 X-47.84334 Y-33.53920
G01 X-47.78350 Y-33.57283
G01 X-47.70773 Y-33.63501
G01 X-42.32666 Y-39.01813
G01 X-42.28424 Y-39.07208
G01 X-42.25061 Y-39.13193
G01 X-42.21673 Y-39.22377
G01 X-42.20527 Y-39.28146
G01 X-42.19997 Y-39.34986
G01 X-42.19997 Y-39.96792
G01 X-42.06108 Y-40.04379
G01 X-41.90863 Y-40.16705
G01 X-41.86705 Y-40.20863
G01 X-41.74381 Y-40.36108
G01 X-41.65011 Y-40.53329
G01 X-41.62760 Y-40.58763
G01 X-41.57924 Y-40.74709
G01 X-41.56776 Y-40.80474
G01 X-41.55143 Y-40.97058
G01 X-41.55143 Y-41.02938
G04 P0 ( dwell for no time -- G64 should not smooth over this point )
G00 Z2.00000 ( retract )

G00 X-49.17143 Y-41.02938 ( rapid move to begin. )
G01 F30.00000
( Mill infeed pass 1/1 )
G01 Z-0.07500
G04 P0 ( dwell for no time -- G64 should not smooth over this point )
G01 F40.00000
G01 X-49.17143 Y-41.02938
G01 X-49.19208 Y-41.22435
G01 X-49.24760 Y-41.41236
G01 X-49.27011 Y-41.46669
G01 X-49.36381 Y-41.63888
G01 X-49.48705 Y-41.79136
G01 X-49.52863 Y-41.83294
G01 X-49.65743 Y-41.93865
G01 X-49.70633 Y-41.97132
G01 X-49.85329 Y-42.04985
G01 X-49.90762 Y-42.07236
G01 X-50.09563 Y-42.12788
G01 X-50.29058 Y-42.14853
G01 X-50.34940 Y-42.14853
G01 X-50.54435 Y-42.12788
G01 X-50.73236 Y-42.07236
G01 X-50.78669 Y-42.04985
G01 X-50.93363 Y-41.97132
G01 X-50.98255 Y-41.93865
G01 X-51.11135 Y-41.83294
G01 X-51.15293 Y-41.79136
G01 X-51.25865 Y-41.66253
G01 X-51.29131 Y-41.61363
G01 X-51.38242 Y-41.44007
G01 X-51.44074 Y-41.25290
G01 X-51.45222 Y-41.19522
G01 X-51.46853 Y-41.02938
G01 X-51.46853 Y-40.97058
G01 X-51.45222 Y-40.80474
G01 X-51.44074 Y-40.74709
G01 X-51.39235 Y-40.58763
G01 X-51.36985 Y-40.53329
G01 X-51.29131 Y-40.38633
G01 X-51.25865 Y-40.33744
G01 X-51.15293 Y-40.20863
G01 X-51.11135 Y-40.16705
G01 X-50.98255 Y-40.06134
G01 X-50.93363 Y-40.02867
G01 X-50.81996 Y-39.96792
G01 X-50.81996 Y-38.89878
G01 X-55.60418 Y-34.11459
G01 X-55.66067 Y-34.12015
G01 X-55.71950 Y-34.12015
G01 X-55.81703 Y-34.11052
G01 X-55.87472 Y-34.09907
G01 X-55.99623 Y-34.06069
G01 X-56.10929 Y-34.00189
G01 X-56.15818 Y-33.96922
G01 X-56.23395 Y-33.90704
G01 X-56.27555 Y-33.86546
G01 X-56.35526 Y-33.76605
G01 X-56.41660 Y-33.65434
G01 X-56.43910 Y-33.60001
G01 X-56.46755 Y-33.50621
G01 X-56.47903 Y-33.44855
G01 X-56.48937 Y-33.30732
G01 X-56.47903 Y-33.19462
G01 X-56.46755 Y-33.13697
G01 X-56.43910 Y-33.04316
G01 X-56.41660 Y-32.98883
G01 X-56.35526 Y-32.87712
G01 X-56.27555 Y-32.77771
G01 X-56.23395 Y-32.73613
G01 X-56.15818 Y-32.67395
G01 X-56.10929 Y-32.64129
G01 X-55.99623 Y-32.58248
G01 X-55.84617 Y-32.53697
G01 X-55.71950 Y-32.52302
G01 X-55.66067 Y-32.52302
G01 X-55.53403 Y-32.53697
G01 X-55.38394 Y-32.58248
G01 X-55.27088 Y-32.64129
G01 X-55.22199 Y-32.67395
G01 X-55.14622 Y-32.73613
G01 X-55.10464 Y-32.77771
G01 X-55.02491 Y-32.87712
G01 X-54.96357 Y-32.98883
G01 X-54.94106 Y-33.04316
G01 X-54.91262 Y-33.13697
G01 X-54.90113 Y-33.19462
G01 X-54.89009 Y-33.32160
G01 X-54.89710 Y-33.40745
G01 X-49.94666 Y-38.35994
G01 X-49.90424 Y-38.41389
G01 X-49.87061 Y-38.47374
G01 X-49.83673 Y-38.56558
G01 X-49.82959 Y-38.59413
G01 X-49.82141 Y-38.66228
G01 X-49.81997 Y-39.96792
G01 X-49.68108 Y-40.04379
G01 X-49.52863 Y-40.16705
G01 X-49.48705 Y-40.20863
G01 X-49.36381 Y-40.36108
G01 X-49.27011 Y-40.53329
G01 X-49.24760 Y-40.58763
G01 X-49.19924 Y-40.74709
G01 X-49.18776 Y-40.80474
G01 X-49.17143 Y-40.97058
G01 X-49.17143 Y-41.02938
G04 P0 ( dwell for no time -- G64 should not smooth over this point )
G00 Z2.00000 ( retract )

G00 X-51.71143 Y-41.02938 ( rapid move to begin. )
G01 F30.00000
( Mill infeed pass 1/1 )
G01 Z-0.07500
G04 P0 ( dwell for no time -- G64 should not smooth over this point )
G01 F40.00000
G01 X-51.71143 Y-41.02938
G01 X-51.72774 Y-41.19522
G01 X-51.73924 Y-41.25290
G01 X-51.79753 Y-41.44007
G01 X-51.88864 Y-41.61363
G01 X-51.92133 Y-41.66253
G01 X-52.04681 Y-41.81315
G01 X-52.19741 Y-41.93865
G01 X-52.24630 Y-41.97132
G01 X-52.39329 Y-42.04985
G01 X-52.44762 Y-42.07236
G01 X-52.63563 Y-42.12788
G01 X-52.83055 Y-42.14853
G01 X-52.88940 Y-42.14853
G01 X-53.08435 Y-42.12788
G01 X-53.27236 Y-42.07236
G01 X-53.32669 Y-42.04985
G01 X-53.47363 Y-41.97132
G01 X-53.52255 Y-41.93865
G01 X-53.67317 Y-41.81315
G01 X-53.79865 Y-41.66253
G01 X-53.83131 Y-41.61363
G01 X-53.92245 Y-41.44007
G01 X-53.98074 Y-41.25290
G01 X-53.99222 Y-41.19522
G01 X-54.00855 Y-41.02938
G01 X-54.00855 Y-40.97058
G01 X-53.98788 Y-40.77564
G01 X-53.93238 Y-40.58763
G01 X-53.90985 Y-40.53329
G01 X-53.83131 Y-40.38633
G01 X-53.79865 Y-40.33744
G01 X-53.67317 Y-40.18681
G01 X-53.52255 Y-40.06134
G01 X-53.47363 Y-40.02867
G01 X-53.32669 Y-39.95011
G01 X-53.27236 Y-39.92761
G01 X-53.08435 Y-39.87208
G01 X-52.88940 Y-39.85143
G01 X-52.83055 Y-39.85143
G01 X-52.63563 Y-39.87208
G01 X-52.44762 Y-39.92761
G01 X-52.39329 Y-39.95011
G01 X-52.24630 Y-40.02867
G01 X-52.19741 Y-40.06134
G01 X-52.04681 Y-40.18681
G01 X-51.92133 Y-40.33744
G01 X-51.88864 Y-40.38633
G01 X-51.79753 Y-40.55991
G01 X-51.73924 Y-40.74709
G01 X-51.72774 Y-40.80474
G01 X-51.71143 Y-40.97058
G01 X-51.71143 Y-41.02938
G04 P0 ( dwell for no time -- G64 should not smooth over this point )
G00 Z2.00000 ( retract )

G00 X-54.25143 Y-41.02938 ( rapid move to begin. )
G01 F30.00000
( Mill infeed pass 1/1 )
G01 Z-0.07500
G04 P0 ( dwell for no time -- G64 should not smooth over this point )
G01 F40.00000
G01 X-54.25143 Y-41.02938
G01 X-54.26776 Y-41.19522
G01 X-54.27924 Y-41.25290
G01 X-54.32760 Y-41.41236
G01 X-54.35011 Y-41.46669
G01 X-54.42867 Y-41.61363
G01 X-54.46133 Y-41.66253
G01 X-54.58681 Y-41.81315
G01 X-54.73743 Y-41.93865
G01 X-54.78633 Y-41.97132
G01 X-54.93329 Y-42.04985
G01 X-54.98762 Y-42.07236
G01 X-55.17563 Y-42.12788
G01 X-55.37058 Y-42.14853
G01 X-55.42940 Y-42.14853
G01 X-55.62435 Y-42.12788
G01 X-55.81236 Y-42.07236
G01 X-55.86669 Y-42.04985
G01 X-56.01363 Y-41.97132
G01 X-56.06255 Y-41.93865
G01 X-56.21317 Y-41.81315
G01 X-56.33865 Y-41.66253
G01 X-56.37131 Y-41.61363
G01 X-56.44985 Y-41.46669
G01 X-56.47238 Y-41.41236
G01 X-56.52074 Y-41.25290
G01 X-56.53222 Y-41.19522
G01 X-56.54855 Y-41.02938
G01 X-56.54855 Y-40.97058
G01 X-56.53222 Y-40.80474
G01 X-56.52074 Y-40.74709
G01 X-56.47238 Y-40.58763
G01 X-56.44985 Y-40.53329
G01 X-56.37131 Y-40.38633
G01 X-56.33865 Y-40.33744
G01 X-56.23293 Y-40.20863
G01 X-56.19135 Y-40.16705
G01 X-56.06255 Y-40.06134
G01 X-56.01363 Y-40.02867
G01 X-55.89996 Y-39.96792
G01 X-55.89999 Y-39.55697
G01 X-57.34373 Y-38.11323
G01 X-57.40590 Y-38.03747
G01 X-57.43953 Y-37.97762
G01 X-57.47342 Y-37.88578
G01 X-57.48487 Y-37.82809
G01 X-57.49018 Y-37.75967
G01 X-57.49018 Y-28.19509
G01 X-57.53336 Y-28.15778
G01 X-57.61533 Y-28.06019
G01 X-57.64799 Y-28.01130
G01 X-57.69419 Y-27.92484
G01 X-57.71670 Y-27.87051
G01 X-57.74517 Y-27.77673
G01 X-57.75663 Y-27.71905
G01 X-57.76768 Y-27.59210
G01 X-57.75663 Y-27.46515
G01 X-57.74517 Y-27.40746
G01 X-57.71670 Y-27.31366
G01 X-57.69419 Y-27.25933
G01 X-57.64799 Y-27.17289
G01 X-57.61533 Y-27.12397
G01 X-57.53336 Y-27.02641
G01 X-57.43580 Y-26.94445
G01 X-57.38688 Y-26.91178
G01 X-57.27383 Y-26.85298
G01 X-57.12549 Y-26.80790
G01 X-57.12549 Y-18.90149
G01 X-62.98697 Y-13.03998
G01 X-63.40432 Y-13.03998
G01 X-63.46538 Y-13.15110
G01 X-63.58240 Y-13.29599
G01 X-63.62398 Y-13.33757
G01 X-63.74521 Y-13.43706
G01 X-63.79411 Y-13.46975
G01 X-63.95903 Y-13.55626
G01 X-64.13683 Y-13.61171
G01 X-64.19451 Y-13.62316
G01 X-64.35057 Y-13.63856
G01 X-64.40940 Y-13.63856
G01 X-64.59459 Y-13.61884
G01 X-64.77323 Y-13.56617
G01 X-64.82756 Y-13.54366
G01 X-64.96586 Y-13.46975
G01 X-65.01475 Y-13.43706
G01 X-65.15781 Y-13.31780
G01 X-65.27706 Y-13.17475
G01 X-65.30975 Y-13.12583
G01 X-65.39626 Y-12.96093
G01 X-65.45169 Y-12.78311
G01 X-65.46317 Y-12.72548
G01 X-65.47853 Y-12.56939
G01 X-65.47853 Y-12.51059
G01 X-65.46317 Y-12.35451
G01 X-65.45169 Y-12.29683
G01 X-65.39626 Y-12.11903
G01 X-65.30975 Y-11.95410
G01 X-65.27706 Y-11.90521
G01 X-65.17757 Y-11.78397
G01 X-65.13599 Y-11.74239
G01 X-65.01475 Y-11.64290
G01 X-64.96586 Y-11.61024
G01 X-64.82756 Y-11.53630
G01 X-64.77323 Y-11.51379
G01 X-64.62314 Y-11.46828
G01 X-64.56545 Y-11.45680
G01 X-64.40940 Y-11.44143
G01 X-64.35057 Y-11.44143
G01 X-64.19451 Y-11.45680
G01 X-64.13683 Y-11.46828
G01 X-63.95903 Y-11.52373
G01 X-63.79411 Y-11.61024
G01 X-63.74521 Y-11.64290
G01 X-63.62398 Y-11.74239
G01 X-63.58240 Y-11.78397
G01 X-63.46538 Y-11.92886
G01 X-63.40434 Y-12.03996
G01 X-62.77986 Y-12.03996
G01 X-62.73295 Y-12.04366
G01 X-62.62535 Y-12.06444
G01 X-62.58187 Y-12.08245
G01 X-62.48601 Y-12.13543
G01 X-62.45024 Y-12.16596
G01 X-56.27197 Y-18.34078
G01 X-56.22727 Y-18.39295
G01 X-56.19460 Y-18.44185
G01 X-56.15361 Y-18.53077
G01 X-56.13077 Y-18.62597
G01 X-56.12547 Y-18.69440
G01 X-56.12547 Y-27.24988
G01 X-56.13509 Y-27.34742
G01 X-56.15361 Y-27.41348
G01 X-56.17812 Y-27.47155
G01 X-56.16768 Y-27.59210
G01 X-56.17873 Y-27.71905
G01 X-56.19021 Y-27.77673
G01 X-56.21866 Y-27.87051
G01 X-56.24116 Y-27.92484
G01 X-56.28737 Y-28.01130
G01 X-56.32006 Y-28.06019
G01 X-56.40200 Y-28.15778
G01 X-56.49016 Y-28.23200
G01 X-56.49016 Y-37.55258
G01 X-55.04642 Y-38.99632
G01 X-54.98424 Y-39.07208
G01 X-54.95061 Y-39.13193
G01 X-54.92811 Y-39.18626
G01 X-54.90959 Y-39.25232
G01 X-54.90141 Y-39.32047
G01 X-54.89997 Y-39.96792
G01 X-54.78633 Y-40.02867
G01 X-54.73743 Y-40.06134
G01 X-54.60863 Y-40.16705
G01 X-54.56705 Y-40.20863
G01 X-54.46133 Y-40.33744
G01 X-54.42867 Y-40.38633
G01 X-54.33753 Y-40.55991
G01 X-54.27924 Y-40.74709
G01 X-54.26776 Y-40.80474
G01 X-54.25143 Y-40.97058
G01 X-54.25143 Y-41.02938
G04 P0 ( dwell for no time -- G64 should not smooth over this point )
G00 Z2.00000 ( retract )

G00 X-56.79143 Y-41.02938 ( rapid move to begin. )
G01 F30.00000
( Mill infeed pass 1/1 )
G01 Z-0.07500
G04 P0 ( dwell for no time -- G64 should not smooth over this point )
G01 F40.00000
G01 X-56.79143 Y-41.02938
G01 X-56.80776 Y-41.19522
G01 X-56.81924 Y-41.25290
G01 X-56.87753 Y-41.44007
G01 X-56.96867 Y-41.61363
G01 X-57.00133 Y-41.66253
G01 X-57.12681 Y-41.81315
G01 X-57.27743 Y-41.93865
G01 X-57.32633 Y-41.97132
G01 X-57.47329 Y-42.04985
G01 X-57.52762 Y-42.07236
G01 X-57.71563 Y-42.12788
G01 X-57.91058 Y-42.14853
G01 X-57.96940 Y-42.14853
G01 X-58.16435 Y-42.12788
G01 X-58.35236 Y-42.07236
G01 X-58.40669 Y-42.04985
G01 X-58.55363 Y-41.97132
G01 X-58.60255 Y-41.93865
G01 X-58.75317 Y-41.81315
G01 X-58.87865 Y-41.66253
G01 X-58.91131 Y-41.61363
G01 X-59.00245 Y-41.44007
G01 X-59.06074 Y-41.25290
G01 X-59.07222 Y-41.19522
G01 X-59.08855 Y-41.02938
G01 X-59.08855 Y-40.97058
G01 X-59.07222 Y-40.80474
G01 X-59.06074 Y-40.74709
G01 X-59.01238 Y-40.58763
G01 X-58.98985 Y-40.53329
G01 X-58.91131 Y-40.38633
G01 X-58.87865 Y-40.33744
G01 X-58.77293 Y-40.20863
G01 X-58.73135 Y-40.16705
G01 X-58.60255 Y-40.06134
G01 X-58.55363 Y-40.02867
G01 X-58.43999 Y-39.96792
G01 X-58.43999 Y-39.55697
G01 X-58.62323 Y-39.37373
G01 X-58.68540 Y-39.29797
G01 X-58.71903 Y-39.23812
G01 X-58.74154 Y-39.18379
G01 X-58.76006 Y-39.11773
G01 X-58.76968 Y-39.02019
G01 X-58.76968 Y-26.46929
G01 X-58.76006 Y-26.37173
G01 X-58.74154 Y-26.30564
G01 X-58.71540 Y-26.24452
G01 X-58.72569 Y-26.12530
G01 X-58.71464 Y-25.99835
G01 X-58.70316 Y-25.94064
G01 X-58.67471 Y-25.84686
G01 X-58.65221 Y-25.79253
G01 X-58.59087 Y-25.68082
G01 X-58.49137 Y-25.55961
G01 X-58.42566 Y-25.50381
G01 X-58.42569 Y-20.14129
G01 X-62.98697 Y-15.57998
G01 X-63.40432 Y-15.57998
G01 X-63.46538 Y-15.69110
G01 X-63.58240 Y-15.83599
G01 X-63.62398 Y-15.87757
G01 X-63.74521 Y-15.97706
G01 X-63.79411 Y-16.00975
G01 X-63.95903 Y-16.09626
G01 X-64.13683 Y-16.15171
G01 X-64.19451 Y-16.16316
G01 X-64.35057 Y-16.17856
G01 X-64.40940 Y-16.17856
G01 X-64.56545 Y-16.16316
G01 X-64.62314 Y-16.15171
G01 X-64.77323 Y-16.10617
G01 X-64.82756 Y-16.08366
G01 X-64.96586 Y-16.00975
G01 X-65.01475 Y-15.97706
G01 X-65.15781 Y-15.85780
G01 X-65.27706 Y-15.71475
G01 X-65.30975 Y-15.66586
G01 X-65.39626 Y-15.50093
G01 X-65.45169 Y-15.32313
G01 X-65.46317 Y-15.26548
G01 X-65.47853 Y-15.10939
G01 X-65.47853 Y-15.05059
G01 X-65.46317 Y-14.89451
G01 X-65.45169 Y-14.83683
G01 X-65.39626 Y-14.65903
G01 X-65.30975 Y-14.49410
G01 X-65.27706 Y-14.44521
G01 X-65.15781 Y-14.30218
G01 X-65.01475 Y-14.18290
G01 X-64.96586 Y-14.15024
G01 X-64.80094 Y-14.06373
G01 X-64.62314 Y-14.00828
G01 X-64.56545 Y-13.99680
G01 X-64.40940 Y-13.98143
G01 X-64.35057 Y-13.98143
G01 X-64.19451 Y-13.99680
G01 X-64.13683 Y-14.00828
G01 X-63.95903 Y-14.06373
G01 X-63.79411 Y-14.15024
G01 X-63.74521 Y-14.18290
G01 X-63.60216 Y-14.30218
G01 X-63.46538 Y-14.46886
G01 X-63.40434 Y-14.57998
G01 X-62.77988 Y-14.57996
G01 X-62.73295 Y-14.58366
G01 X-62.62535 Y-14.60444
G01 X-62.58187 Y-14.62245
G01 X-62.48603 Y-14.67543
G01 X-62.45027 Y-14.70596
G01 X-57.57220 Y-19.58056
G01 X-57.52747 Y-19.63275
G01 X-57.49480 Y-19.68165
G01 X-57.47631 Y-19.71624
G01 X-57.44243 Y-19.80809
G01 X-57.43097 Y-19.86577
G01 X-57.42567 Y-19.93417
G01 X-57.42567 Y-25.50384
G01 X-57.36001 Y-25.55961
G01 X-57.27804 Y-25.65715
G01 X-57.24538 Y-25.70610
G01 X-57.19917 Y-25.79253
G01 X-57.17667 Y-25.84686
G01 X-57.14822 Y-25.94064
G01 X-57.13674 Y-25.99835
G01 X-57.12630 Y-26.13772
G01 X-57.13674 Y-26.25225
G01 X-57.14822 Y-26.30993
G01 X-57.17667 Y-26.40371
G01 X-57.19917 Y-26.45804
G01 X-57.26052 Y-26.56972
G01 X-57.34022 Y-26.66916
G01 X-57.38183 Y-26.71074
G01 X-57.45759 Y-26.77292
G01 X-57.50649 Y-26.80561
G01 X-57.61954 Y-26.86439
G01 X-57.76961 Y-26.90990
G01 X-57.76966 Y-38.81308
G01 X-57.58642 Y-38.99632
G01 X-57.54177 Y-39.04844
G01 X-57.52424 Y-39.07208
G01 X-57.49061 Y-39.13193
G01 X-57.45673 Y-39.22377
G01 X-57.44527 Y-39.28146
G01 X-57.43997 Y-39.34988
G01 X-57.43999 Y-39.96792
G01 X-57.32633 Y-40.02867
G01 X-57.27743 Y-40.06134
G01 X-57.14863 Y-40.16705
G01 X-57.10705 Y-40.20863
G01 X-57.00133 Y-40.33744
G01 X-56.96867 Y-40.38633
G01 X-56.87753 Y-40.55991
G01 X-56.81924 Y-40.74709
G01 X-56.80776 Y-40.80474
G01 X-56.79143 Y-40.97058
G01 X-56.79143 Y-41.02938
G04 P0 ( dwell for no time -- G64 should not smooth over this point )
G00 Z2.00000 ( retract )

G00 X-58.77166 Y-38.14158 ( rapid move to begin. )
G01 F30.00000
( Mill infeed pass 1/1 )
G01 Z-0.07500
G04 P0 ( dwell for no time -- G64 should not smooth over this point )
G01 F40.00000
G01 X-58.77166 Y-38.14158
G01 X-58.78129 Y-38.23912
G01 X-58.79981 Y-38.30518
G01 X-58.84080 Y-38.39411
G01 X-58.85594 Y-38.41935
G01 X-58.89836 Y-38.47330
G01 X-59.97997 Y-39.55697
G01 X-59.97997 Y-39.96792
G01 X-59.86633 Y-40.02867
G01 X-59.81743 Y-40.06134
G01 X-59.68863 Y-40.16705
G01 X-59.64705 Y-40.20863
G01 X-59.54133 Y-40.33744
G01 X-59.50867 Y-40.38633
G01 X-59.41753 Y-40.55991
G01 X-59.35924 Y-40.74709
G01 X-59.34776 Y-40.80474
G01 X-59.33143 Y-40.97058
G01 X-59.33143 Y-41.02938
G01 X-59.34776 Y-41.19522
G01 X-59.35924 Y-41.25290
G01 X-59.41753 Y-41.44007
G01 X-59.50867 Y-41.61363
G01 X-59.54133 Y-41.66253
G01 X-59.66681 Y-41.81315
G01 X-59.81743 Y-41.93865
G01 X-59.86633 Y-41.97132
G01 X-60.01329 Y-42.04985
G01 X-60.06762 Y-42.07236
G01 X-60.25563 Y-42.12788
G01 X-60.45058 Y-42.14853
G01 X-60.50940 Y-42.14853
G01 X-60.70435 Y-42.12788
G01 X-60.89236 Y-42.07236
G01 X-60.94669 Y-42.04985
G01 X-61.09363 Y-41.97132
G01 X-61.14255 Y-41.93865
G01 X-61.27135 Y-41.83294
G01 X-61.31293 Y-41.79136
G01 X-61.41865 Y-41.66253
G01 X-61.45131 Y-41.61363
G01 X-61.52985 Y-41.46669
G01 X-61.55238 Y-41.41236
G01 X-61.60074 Y-41.25290
G01 X-61.61222 Y-41.19522
G01 X-61.62855 Y-41.02938
G01 X-61.62855 Y-40.97058
G01 X-61.60788 Y-40.77564
G01 X-61.55238 Y-40.58763
G01 X-61.52985 Y-40.53329
G01 X-61.45131 Y-40.38633
G01 X-61.41865 Y-40.33744
G01 X-61.29317 Y-40.18681
G01 X-61.14255 Y-40.06134
G01 X-61.09363 Y-40.02867
G01 X-60.97999 Y-39.96792
G01 X-60.97854 Y-39.32047
G01 X-60.97036 Y-39.25232
G01 X-60.95185 Y-39.18626
G01 X-60.92934 Y-39.13193
G01 X-60.89571 Y-39.07208
G01 X-60.83353 Y-38.99632
G01 X-59.77169 Y-37.93447
G01 X-59.77169 Y-22.93536
G01 X-64.04361 Y-18.66341
G01 X-64.13683 Y-18.69171
G01 X-64.19451 Y-18.70316
G01 X-64.37998 Y-18.71998
G01 X-64.56545 Y-18.70316
G01 X-64.62314 Y-18.69171
G01 X-64.77323 Y-18.64617
G01 X-64.82756 Y-18.62366
G01 X-64.96586 Y-18.54975
G01 X-65.01475 Y-18.51706
G01 X-65.15781 Y-18.39780
G01 X-65.27706 Y-18.25475
G01 X-65.30975 Y-18.20586
G01 X-65.39626 Y-18.04093
G01 X-65.45169 Y-17.86313
G01 X-65.46317 Y-17.80548
G01 X-65.47853 Y-17.64939
G01 X-65.47853 Y-17.59059
G01 X-65.46317 Y-17.43451
G01 X-65.45169 Y-17.37683
G01 X-65.39626 Y-17.19903
G01 X-65.29461 Y-17.00886
G01 X-65.17757 Y-16.86397
G01 X-65.13599 Y-16.82239
G01 X-65.01475 Y-16.72290
G01 X-64.96586 Y-16.69024
G01 X-64.82756 Y-16.61630
G01 X-64.77323 Y-16.59379
G01 X-64.62314 Y-16.54828
G01 X-64.56545 Y-16.53680
G01 X-64.37998 Y-16.51998
G01 X-64.19451 Y-16.53680
G01 X-64.13683 Y-16.54828
G01 X-63.95903 Y-16.60373
G01 X-63.79411 Y-16.69024
G01 X-63.74521 Y-16.72290
G01 X-63.60216 Y-16.84218
G01 X-63.48291 Y-16.98521
G01 X-63.45024 Y-17.03410
G01 X-63.36373 Y-17.19903
G01 X-63.30828 Y-17.37683
G01 X-63.29680 Y-17.43451
G01 X-63.28143 Y-17.59059
G01 X-63.28143 Y-17.64939
G01 X-63.29680 Y-17.80548
G01 X-63.30828 Y-17.86313
G01 X-63.33653 Y-17.95630
G01 X-58.91812 Y-22.37471
G01 X-58.87347 Y-22.42683
G01 X-58.84080 Y-22.47572
G01 X-58.82231 Y-22.51032
G01 X-58.78843 Y-22.60216
G01 X-58.77697 Y-22.65985
G01 X-58.77166 Y-22.72828
G01 X-58.77166 Y-38.14158
G04 P0 ( dwell for no time -- G64 should not smooth over this point )
G00 Z2.00000 ( retract )

G00 X-61.23986 Y-35.39498 ( rapid move to begin. )
G01 F30.00000
( Mill infeed pass 1/1 )
G01 Z-0.07500
G04 P0 ( dwell for no time -- G64 should not smooth over this point )
G01 F40.00000
G01 X-61.23986 Y-35.39498
G01 X-61.24948 Y-35.49251
G01 X-61.26800 Y-35.55858
G01 X-61.29050 Y-35.61291
G01 X-61.32413 Y-35.67275
G01 X-61.38631 Y-35.74852
G01 X-65.05997 Y-39.42217
G01 X-65.05997 Y-39.96792
G01 X-64.94633 Y-40.02867
G01 X-64.89743 Y-40.06134
G01 X-64.76863 Y-40.16705
G01 X-64.72705 Y-40.20863
G01 X-64.62133 Y-40.33744
G01 X-64.58867 Y-40.38633
G01 X-64.49753 Y-40.55991
G01 X-64.43924 Y-40.74709
G01 X-64.42776 Y-40.80474
G01 X-64.41143 Y-40.97058
G01 X-64.41143 Y-41.02938
G01 X-64.42776 Y-41.19522
G01 X-64.43924 Y-41.25290
G01 X-64.49753 Y-41.44007
G01 X-64.58867 Y-41.61363
G01 X-64.62133 Y-41.66253
G01 X-64.74681 Y-41.81315
G01 X-64.89743 Y-41.93865
G01 X-64.94633 Y-41.97132
G01 X-65.09329 Y-42.04985
G01 X-65.14762 Y-42.07236
G01 X-65.33563 Y-42.12788
G01 X-65.53058 Y-42.14853
G01 X-65.58940 Y-42.14853
G01 X-65.78435 Y-42.12788
G01 X-65.97236 Y-42.07236
G01 X-66.02669 Y-42.04985
G01 X-66.17363 Y-41.97132
G01 X-66.22255 Y-41.93865
G01 X-66.35135 Y-41.83294
G01 X-66.39293 Y-41.79136
G01 X-66.49865 Y-41.66253
G01 X-66.53131 Y-41.61363
G01 X-66.60985 Y-41.46669
G01 X-66.63238 Y-41.41236
G01 X-66.68074 Y-41.25290
G01 X-66.69222 Y-41.19522
G01 X-66.70855 Y-41.02938
G01 X-66.70855 Y-40.97058
G01 X-66.68788 Y-40.77564
G01 X-66.63238 Y-40.58763
G01 X-66.60985 Y-40.53329
G01 X-66.53131 Y-40.38633
G01 X-66.49865 Y-40.33744
G01 X-66.39293 Y-40.20863
G01 X-66.35135 Y-40.16705
G01 X-66.22255 Y-40.06134
G01 X-66.17363 Y-40.02867
G01 X-66.05999 Y-39.96792
G01 X-66.05854 Y-39.18567
G01 X-66.05036 Y-39.11752
G01 X-66.03185 Y-39.05146
G01 X-65.99085 Y-38.96253
G01 X-65.95819 Y-38.91364
G01 X-65.91353 Y-38.86152
G01 X-62.23988 Y-35.18786
G01 X-62.23988 Y-26.91437
G01 X-62.29899 Y-26.84869
G01 X-62.32228 Y-26.81036
G01 X-62.36485 Y-26.72222
G01 X-62.38860 Y-26.62339
G01 X-62.39294 Y-25.39411
G01 X-64.04361 Y-23.74341
G01 X-64.13683 Y-23.77171
G01 X-64.19451 Y-23.78316
G01 X-64.37998 Y-23.79998
G01 X-64.56545 Y-23.78316
G01 X-64.62314 Y-23.77171
G01 X-64.80094 Y-23.71626
G01 X-64.96586 Y-23.62975
G01 X-65.01475 Y-23.59706
G01 X-65.13599 Y-23.49757
G01 X-65.17757 Y-23.45599
G01 X-65.27706 Y-23.33475
G01 X-65.30975 Y-23.28586
G01 X-65.38366 Y-23.14755
G01 X-65.40617 Y-23.09322
G01 X-65.45169 Y-22.94313
G01 X-65.46317 Y-22.88548
G01 X-65.47853 Y-22.72939
G01 X-65.47853 Y-22.67059
G01 X-65.46317 Y-22.51451
G01 X-65.45169 Y-22.45683
G01 X-65.39626 Y-22.27903
G01 X-65.29461 Y-22.08886
G01 X-65.17757 Y-21.94397
G01 X-65.13599 Y-21.90239
G01 X-65.01475 Y-21.80290
G01 X-64.96586 Y-21.77024
G01 X-64.82756 Y-21.69630
G01 X-64.77323 Y-21.67379
G01 X-64.62314 Y-21.62828
G01 X-64.56545 Y-21.61680
G01 X-64.37998 Y-21.59998
G01 X-64.19451 Y-21.61680
G01 X-64.13683 Y-21.62828
G01 X-63.95903 Y-21.68373
G01 X-63.79411 Y-21.77024
G01 X-63.74521 Y-21.80290
G01 X-63.60216 Y-21.92218
G01 X-63.48291 Y-22.06521
G01 X-63.45024 Y-22.11410
G01 X-63.36373 Y-22.27903
G01 X-63.30828 Y-22.45683
G01 X-63.29680 Y-22.51451
G01 X-63.28143 Y-22.67059
G01 X-63.28143 Y-22.72939
G01 X-63.29680 Y-22.88548
G01 X-63.30828 Y-22.94313
G01 X-63.33653 Y-23.03630
G01 X-61.53963 Y-24.83322
G01 X-61.49497 Y-24.88535
G01 X-61.46231 Y-24.93424
G01 X-61.44382 Y-24.96883
G01 X-61.40994 Y-25.06068
G01 X-61.39848 Y-25.11836
G01 X-61.39317 Y-25.18677
G01 X-61.39317 Y-26.35204
G01 X-61.33407 Y-26.41773
G01 X-61.28238 Y-26.51183
G01 X-61.26434 Y-26.55532
G01 X-61.25334 Y-26.60112
G01 X-61.23986 Y-26.70988
G01 X-61.23986 Y-35.39498
G04 P0 ( dwell for no time -- G64 should not smooth over this point )
G00 Z2.00000 ( retract )

G00 X-62.25997 Y-28.44198 ( rapid move to begin. )
G01 F30.00000
( Mill infeed pass 1/1 )
G01 Z-0.07500
G04 P0 ( dwell for no time -- G64 should not smooth over this point )
G01 F40.00000
G01 X-62.25997 Y-28.44198
G01 X-62.26528 Y-28.51038
G01 X-62.27674 Y-28.56807
G01 X-62.31062 Y-28.65991
G01 X-62.36178 Y-28.74340
G01 X-62.40643 Y-28.79552
G01 X-67.59997 Y-33.98909
G01 X-67.59997 Y-39.96792
G01 X-67.48633 Y-40.02867
G01 X-67.43743 Y-40.06134
G01 X-67.28681 Y-40.18681
G01 X-67.16133 Y-40.33744
G01 X-67.12867 Y-40.38633
G01 X-67.05011 Y-40.53329
G01 X-67.02760 Y-40.58763
G01 X-66.97924 Y-40.74709
G01 X-66.96776 Y-40.80474
G01 X-66.95143 Y-40.97058
G01 X-66.95143 Y-41.02938
G01 X-66.96776 Y-41.19522
G01 X-66.97924 Y-41.25290
G01 X-67.03753 Y-41.44007
G01 X-67.12867 Y-41.61363
G01 X-67.16133 Y-41.66253
G01 X-67.28681 Y-41.81315
G01 X-67.43743 Y-41.93865
G01 X-67.48633 Y-41.97132
G01 X-67.63329 Y-42.04985
G01 X-67.68762 Y-42.07236
G01 X-67.84708 Y-42.12074
G01 X-67.90477 Y-42.13220
G01 X-68.07058 Y-42.14853
G01 X-68.12940 Y-42.14853
G01 X-68.32435 Y-42.12788
G01 X-68.51236 Y-42.07236
G01 X-68.56669 Y-42.04985
G01 X-68.71363 Y-41.97132
G01 X-68.76255 Y-41.93865
G01 X-68.91317 Y-41.81315
G01 X-69.03865 Y-41.66253
G01 X-69.07131 Y-41.61363
G01 X-69.11998 Y-41.52262
G01 X-69.14985 Y-41.46669
G01 X-69.17238 Y-41.41236
G01 X-69.22074 Y-41.25290
G01 X-69.23222 Y-41.19522
G01 X-69.24855 Y-41.02938
G01 X-69.24855 Y-40.97058
G01 X-69.23222 Y-40.80474
G01 X-69.22074 Y-40.74709
G01 X-69.17238 Y-40.58763
G01 X-69.14985 Y-40.53329
G01 X-69.07131 Y-40.38633
G01 X-69.03865 Y-40.33744
G01 X-68.93293 Y-40.20863
G01 X-68.89135 Y-40.16705
G01 X-68.76255 Y-40.06134
G01 X-68.71363 Y-40.02867
G01 X-68.59999 Y-39.96792
G01 X-68.59999 Y-33.78197
G01 X-68.59468 Y-33.71357
G01 X-68.57185 Y-33.61837
G01 X-68.53085 Y-33.52945
G01 X-68.49819 Y-33.48055
G01 X-68.45353 Y-33.42843
G01 X-63.26000 Y-28.23487
G01 X-63.26000 Y-27.31117
G01 X-64.24320 Y-26.32796
G01 X-64.35057 Y-26.33856
G01 X-64.40940 Y-26.33856
G01 X-64.59459 Y-26.31884
G01 X-64.80094 Y-26.25626
G01 X-64.96586 Y-26.16975
G01 X-65.01475 Y-26.13706
G01 X-65.13599 Y-26.03757
G01 X-65.17757 Y-25.99596
G01 X-65.29461 Y-25.85110
G01 X-65.39626 Y-25.66093
G01 X-65.45885 Y-25.45458
G01 X-65.47853 Y-25.26939
G01 X-65.47853 Y-25.21059
G01 X-65.46317 Y-25.05451
G01 X-65.45169 Y-24.99683
G01 X-65.40617 Y-24.84676
G01 X-65.38366 Y-24.79243
G01 X-65.29461 Y-24.62886
G01 X-65.17757 Y-24.48397
G01 X-65.13599 Y-24.44239
G01 X-65.01475 Y-24.34290
G01 X-64.96586 Y-24.31024
G01 X-64.80094 Y-24.22373
G01 X-64.62314 Y-24.16828
G01 X-64.56545 Y-24.15680
G01 X-64.37998 Y-24.13998
G01 X-64.19451 Y-24.15680
G01 X-64.13683 Y-24.16828
G01 X-63.95903 Y-24.22373
G01 X-63.79411 Y-24.31024
G01 X-63.74521 Y-24.34290
G01 X-63.60216 Y-24.46218
G01 X-63.46538 Y-24.62886
G01 X-63.37630 Y-24.79243
G01 X-63.35380 Y-24.84676
G01 X-63.30828 Y-24.99683
G01 X-63.29680 Y-25.05451
G01 X-63.28143 Y-25.21059
G01 X-63.28143 Y-25.26939
G01 X-63.30112 Y-25.45458
G01 X-63.36373 Y-25.66093
G01 X-63.40874 Y-25.74821
G01 X-62.40643 Y-26.75052
G01 X-62.34425 Y-26.82629
G01 X-62.31062 Y-26.88613
G01 X-62.28812 Y-26.94046
G01 X-62.26960 Y-27.00652
G01 X-62.25997 Y-27.10409
G01 X-62.25997 Y-28.44198
G04 P0 ( dwell for no time -- G64 should not smooth over this point )
G00 Z2.00000 ( retract )

G00 X-63.28143 Y-27.80939 ( rapid move to begin. )
G01 F30.00000
( Mill infeed pass 1/1 )
G01 Z-0.07500
G04 P0 ( dwell for no time -- G64 should not smooth over this point )
G01 F40.00000
G01 X-63.28143 Y-27.80939
G01 X-63.30112 Y-27.99458
G01 X-63.35380 Y-28.17322
G01 X-63.37630 Y-28.22755
G01 X-63.46538 Y-28.39110
G01 X-63.58240 Y-28.53599
G01 X-63.62398 Y-28.57757
G01 X-63.74521 Y-28.67706
G01 X-63.79411 Y-28.70975
G01 X-63.95903 Y-28.79626
G01 X-64.16538 Y-28.85884
G01 X-64.35057 Y-28.87856
G01 X-64.40940 Y-28.87856
G01 X-64.59459 Y-28.85884
G01 X-64.80094 Y-28.79626
G01 X-64.96586 Y-28.70975
G01 X-65.01475 Y-28.67706
G01 X-65.15781 Y-28.55780
G01 X-65.29461 Y-28.39110
G01 X-65.35565 Y-28.27998
G01 X-65.77297 Y-28.27998
G01 X-68.26682 Y-30.77383
G01 X-68.35323 Y-30.84119
G01 X-68.39339 Y-30.86578
G01 X-68.49638 Y-30.90314
G01 X-68.54210 Y-30.91411
G01 X-68.58899 Y-30.91782
G01 X-77.13950 Y-30.92028
G01 X-77.24831 Y-30.90680
G01 X-77.31620 Y-30.88764
G01 X-77.37696 Y-30.86021
G01 X-77.40673 Y-30.84119
G01 X-77.49314 Y-30.77383
G01 X-79.98696 Y-28.27998
G01 X-80.40434 Y-28.27998
G01 X-80.46537 Y-28.39110
G01 X-80.60218 Y-28.55780
G01 X-80.74520 Y-28.67706
G01 X-80.79412 Y-28.70975
G01 X-80.95905 Y-28.79626
G01 X-81.16540 Y-28.85884
G01 X-81.35059 Y-28.87856
G01 X-81.40939 Y-28.87856
G01 X-81.59458 Y-28.85884
G01 X-81.80093 Y-28.79626
G01 X-81.96585 Y-28.70975
G01 X-82.01477 Y-28.67706
G01 X-82.15780 Y-28.55780
G01 X-82.27708 Y-28.41475
G01 X-82.30974 Y-28.36586
G01 X-82.38366 Y-28.22755
G01 X-82.40619 Y-28.17322
G01 X-82.45884 Y-27.99458
G01 X-82.47855 Y-27.80939
G01 X-82.47855 Y-27.75059
G01 X-82.46318 Y-27.59451
G01 X-82.45170 Y-27.53683
G01 X-82.40619 Y-27.38676
G01 X-82.38366 Y-27.33243
G01 X-82.30974 Y-27.19410
G01 X-82.27708 Y-27.14521
G01 X-82.15780 Y-27.00218
G01 X-82.01477 Y-26.88290
G01 X-81.96585 Y-26.85024
G01 X-81.82755 Y-26.77630
G01 X-81.77322 Y-26.75379
G01 X-81.59458 Y-26.70112
G01 X-81.40939 Y-26.68143
G01 X-81.35059 Y-26.68143
G01 X-81.16540 Y-26.70112
G01 X-80.95905 Y-26.76373
G01 X-80.79412 Y-26.85024
G01 X-80.74520 Y-26.88290
G01 X-80.60218 Y-27.00218
G01 X-80.46537 Y-27.16886
G01 X-80.40434 Y-27.27996
G01 X-79.77988 Y-27.27996
G01 X-79.73294 Y-27.28366
G01 X-79.63662 Y-27.30101
G01 X-79.60324 Y-27.31259
G01 X-79.54249 Y-27.34003
G01 X-79.46210 Y-27.39583
G01 X-79.42631 Y-27.42641
G01 X-76.93249 Y-29.92026
G01 X-68.82747 Y-29.92029
G01 X-66.33362 Y-27.42641
G01 X-66.29784 Y-27.39583
G01 X-66.21744 Y-27.34003
G01 X-66.15669 Y-27.31259
G01 X-66.12331 Y-27.30101
G01 X-66.02700 Y-27.28366
G01 X-65.98006 Y-27.27996
