( pcb2gcode 2.5.0 )
( Software-independent Gcode )

( This file uses 3 drill bit sizes. )
( Bit sizes: [0.5mm] [0.8mm] [1mm] )

G94       (Millimeters per minute feed rate.)
G21       (Units == Millimeters.)
G90       (Absolute coordinates.)
G00 S600     (RPM spindle speed.)

G53 G00 Z0.00000 (Retract)
T1
M5      (Spindle stop.)
G04 P3.00000
(MSG, Change tool bit to drill size 0.5mm)
M0      (Temporary machine stop.)
M3      (Spindle on clockwise.)
G0 Z5.00000
G04 P1.00000

G1 F30.00000
G0 X0.00000 Y0.00000
G1 Z-2.00000
G1 Z5.00000
G0 X26.92500 Y-9.75600
G1 Z-2.00000
G1 Z5.00000
G0 X30.03500 Y-8.53100
G1 Z-2.00000
G1 Z5.00000
G0 X33.49100 Y-33.98500
G1 Z-2.00000
G1 Z5.00000
G0 X26.52100 Y-39.05700
G1 Z-2.00000
G1 Z5.00000
G0 X23.41900 Y-36.77000
G1 Z-2.00000
G1 Z5.00000
G0 X14.14300 Y-42.96400
G1 Z-2.00000
G1 Z5.00000
G0 X13.77600 Y-44.60600
G1 Z-2.00000
G1 Z5.00000
G0 X11.33500 Y-44.18500
G1 Z-2.00000
G1 Z5.00000
G0 X10.00900 Y-41.90900
G1 Z-2.00000
G1 Z5.00000
G0 X7.09800 Y-35.87600
G1 Z-2.00000
G1 Z5.00000
G0 X5.99800 Y-55.94200
G1 Z-2.00000
G1 Z5.00000
G0 X22.61200 Y-66.04800
G1 Z-2.00000
G1 Z5.00000
G0 X26.26300 Y-68.94700
G1 Z-2.00000
G1 Z5.00000
G0 X30.84000 Y-72.46700
G1 Z-2.00000
G1 Z5.00000
G0 X35.40500 Y-55.03600
G1 Z-2.00000
G1 Z5.00000
G0 X38.34900 Y-49.44000
G1 Z-2.00000
G1 Z5.00000
G0 X31.92400 Y-46.41600
G1 Z-2.00000
G1 Z5.00000

G53 G00 Z0.00000 (Retract)
T2
M5      (Spindle stop.)
G04 P3.00000
(MSG, Change tool bit to drill size 0.8mm)
M0      (Temporary machine stop.)
M3      (Spindle on clockwise.)
G0 Z5.00000
G04 P1.00000

G1 F30.00000
G0 X8.84000 Y-4.00000
G1 Z-2.00000
G1 Z5.00000
G0 X11.20000 Y-10.00000
G1 Z-2.00000
G1 Z5.00000
G0 X11.20000 Y-12.54000
G1 Z-2.00000
G1 Z5.00000
G0 X11.20000 Y-15.08000
G1 Z-2.00000
G1 Z5.00000
G0 X11.20000 Y-17.62000
G1 Z-2.00000
G1 Z5.00000
G0 X11.20000 Y-20.16000
G1 Z-2.00000
G1 Z5.00000
G0 X11.20000 Y-22.70000
G1 Z-2.00000
G1 Z5.00000
G0 X11.20000 Y-25.24000
G1 Z-2.00000
G1 Z5.00000
G0 X11.20000 Y-27.78000
G1 Z-2.00000
G1 Z5.00000
G0 X11.20000 Y-30.32000
G1 Z-2.00000
G1 Z5.00000
G0 X11.20000 Y-32.86000
G1 Z-2.00000
G1 Z5.00000
G0 X18.82000 Y-27.78000
G1 Z-2.00000
G1 Z5.00000
G0 X18.82000 Y-30.32000
G1 Z-2.00000
G1 Z5.00000
G0 X18.82000 Y-32.86000
G1 Z-2.00000
G1 Z5.00000
G0 X24.00000 Y-27.78000
G1 Z-2.00000
G1 Z5.00000
G0 X24.00000 Y-30.32000
G1 Z-2.00000
G1 Z5.00000
G0 X24.00000 Y-32.86000
G1 Z-2.00000
G1 Z5.00000
G0 X31.62000 Y-27.78000
G1 Z-2.00000
G1 Z5.00000
G0 X31.62000 Y-30.32000
G1 Z-2.00000
G1 Z5.00000
G0 X31.62000 Y-32.86000
G1 Z-2.00000
G1 Z5.00000
G0 X24.00000 Y-25.24000
G1 Z-2.00000
G1 Z5.00000
G0 X24.00000 Y-22.70000
G1 Z-2.00000
G1 Z5.00000
G0 X24.00000 Y-20.16000
G1 Z-2.00000
G1 Z5.00000
G0 X24.00000 Y-17.62000
G1 Z-2.00000
G1 Z5.00000
G0 X24.00000 Y-15.08000
G1 Z-2.00000
G1 Z5.00000
G0 X24.00000 Y-12.54000
G1 Z-2.00000
G1 Z5.00000
G0 X24.00000 Y-10.00000
G1 Z-2.00000
G1 Z5.00000
G0 X18.82000 Y-10.00000
G1 Z-2.00000
G1 Z5.00000
G0 X18.82000 Y-12.54000
G1 Z-2.00000
G1 Z5.00000
G0 X18.82000 Y-15.08000
G1 Z-2.00000
G1 Z5.00000
G0 X18.82000 Y-17.62000
G1 Z-2.00000
G1 Z5.00000
G0 X18.82000 Y-20.16000
G1 Z-2.00000
G1 Z5.00000
G0 X18.82000 Y-22.70000
G1 Z-2.00000
G1 Z5.00000
G0 X18.82000 Y-25.24000
G1 Z-2.00000
G1 Z5.00000
G0 X31.62000 Y-12.54000
G1 Z-2.00000
G1 Z5.00000
G0 X31.62000 Y-10.00000
G1 Z-2.00000
G1 Z5.00000
G0 X31.62000 Y-15.08000
G1 Z-2.00000
G1 Z5.00000
G0 X31.62000 Y-17.62000
G1 Z-2.00000
G1 Z5.00000
G0 X31.62000 Y-20.16000
G1 Z-2.00000
G1 Z5.00000
G0 X31.62000 Y-22.70000
G1 Z-2.00000
G1 Z5.00000
G0 X31.62000 Y-25.24000
G1 Z-2.00000
G1 Z5.00000
G0 X19.00000 Y-4.00000
G1 Z-2.00000
G1 Z5.00000
G0 X24.00000 Y-4.00000
G1 Z-2.00000
G1 Z5.00000
G0 X34.16000 Y-4.00000
G1 Z-2.00000
G1 Z5.00000
G0 X14.00000 Y-51.00000
G1 Z-2.00000
G1 Z5.00000
G0 X14.00000 Y-53.54000
G1 Z-2.00000
G1 Z5.00000
G0 X14.00000 Y-56.08000
G1 Z-2.00000
G1 Z5.00000
G0 X14.00000 Y-58.62000
G1 Z-2.00000
G1 Z5.00000
G0 X14.00000 Y-61.16000
G1 Z-2.00000
G1 Z5.00000
G0 X14.00000 Y-63.70000
G1 Z-2.00000
G1 Z5.00000
G0 X14.00000 Y-66.24000
G1 Z-2.00000
G1 Z5.00000
G0 X14.00000 Y-68.78000
G1 Z-2.00000
G1 Z5.00000
G0 X14.00000 Y-71.32000
G1 Z-2.00000
G1 Z5.00000
G0 X14.00000 Y-73.86000
G1 Z-2.00000
G1 Z5.00000
G0 X14.00000 Y-76.40000
G1 Z-2.00000
G1 Z5.00000
G0 X14.00000 Y-78.94000
G1 Z-2.00000
G1 Z5.00000
G0 X14.00000 Y-81.48000
G1 Z-2.00000
G1 Z5.00000
G0 X14.00000 Y-84.02000
G1 Z-2.00000
G1 Z5.00000
G0 X14.00000 Y-86.56000
G1 Z-2.00000
G1 Z5.00000
G0 X14.00000 Y-89.10000
G1 Z-2.00000
G1 Z5.00000
G0 X29.24000 Y-73.86000
G1 Z-2.00000
G1 Z5.00000
G0 X29.24000 Y-76.40000
G1 Z-2.00000
G1 Z5.00000
G0 X29.24000 Y-78.94000
G1 Z-2.00000
G1 Z5.00000
G0 X29.24000 Y-81.48000
G1 Z-2.00000
G1 Z5.00000
G0 X29.24000 Y-84.02000
G1 Z-2.00000
G1 Z5.00000
G0 X29.24000 Y-86.56000
G1 Z-2.00000
G1 Z5.00000
G0 X29.24000 Y-89.10000
G1 Z-2.00000
G1 Z5.00000
G0 X29.24000 Y-71.32000
G1 Z-2.00000
G1 Z5.00000
G0 X29.24000 Y-68.78000
G1 Z-2.00000
G1 Z5.00000
G0 X29.24000 Y-66.24000
G1 Z-2.00000
G1 Z5.00000
G0 X29.24000 Y-63.70000
G1 Z-2.00000
G1 Z5.00000
G0 X29.24000 Y-61.16000
G1 Z-2.00000
G1 Z5.00000
G0 X29.24000 Y-58.62000
G1 Z-2.00000
G1 Z5.00000
G0 X29.24000 Y-56.08000
G1 Z-2.00000
G1 Z5.00000
G0 X29.24000 Y-53.54000
G1 Z-2.00000
G1 Z5.00000
G0 X29.24000 Y-51.00000
G1 Z-2.00000
G1 Z5.00000
G0 X33.24000 Y-51.00000
G1 Z-2.00000
G1 Z5.00000
G0 X33.24000 Y-61.16000
G1 Z-2.00000
G1 Z5.00000

G53 G00 Z0.00000 (Retract)
T3
M5      (Spindle stop.)
G04 P3.00000
(MSG, Change tool bit to drill size 1mm)
M0      (Temporary machine stop.)
M3      (Spindle on clockwise.)
G0 Z5.00000
G04 P1.00000

G1 F30.00000
G0 X4.00000 Y-4.00000
G1 Z-2.00000
G1 Z5.00000
G0 X4.00000 Y-6.54000
G1 Z-2.00000
G1 Z5.00000
G0 X4.00000 Y-9.08000
G1 Z-2.00000
G1 Z5.00000
G0 X4.00000 Y-11.62000
G1 Z-2.00000
G1 Z5.00000
G0 X4.00000 Y-14.16000
G1 Z-2.00000
G1 Z5.00000
G0 X4.00000 Y-16.70000
G1 Z-2.00000
G1 Z5.00000
G0 X4.00000 Y-19.24000
G1 Z-2.00000
G1 Z5.00000
G0 X4.00000 Y-21.78000
G1 Z-2.00000
G1 Z5.00000
G0 X4.00000 Y-24.32000
G1 Z-2.00000
G1 Z5.00000
G0 X4.00000 Y-26.86000
G1 Z-2.00000
G1 Z5.00000
G0 X4.00000 Y-29.40000
G1 Z-2.00000
G1 Z5.00000
G0 X4.00000 Y-31.94000
G1 Z-2.00000
G1 Z5.00000
G0 X4.00000 Y-34.48000
G1 Z-2.00000
G1 Z5.00000
G0 X4.00000 Y-37.02000
G1 Z-2.00000
G1 Z5.00000
G0 X4.00000 Y-39.56000
G1 Z-2.00000
G1 Z5.00000
G0 X4.00000 Y-42.10000
G1 Z-2.00000
G1 Z5.00000
G0 X4.00000 Y-44.64000
G1 Z-2.00000
G1 Z5.00000
G0 X4.00000 Y-47.18000
G1 Z-2.00000
G1 Z5.00000
G0 X4.00000 Y-49.72000
G1 Z-2.00000
G1 Z5.00000
G0 X4.00000 Y-52.26000
G1 Z-2.00000
G1 Z5.00000
G0 X4.00000 Y-54.80000
G1 Z-2.00000
G1 Z5.00000
G0 X4.00000 Y-57.34000
G1 Z-2.00000
G1 Z5.00000
G0 X4.00000 Y-59.88000
G1 Z-2.00000
G1 Z5.00000
G0 X4.00000 Y-62.42000
G1 Z-2.00000
G1 Z5.00000
G0 X41.00000 Y-26.86000
G1 Z-2.00000
G1 Z5.00000
G0 X41.00000 Y-29.40000
G1 Z-2.00000
G1 Z5.00000
G0 X41.00000 Y-31.94000
G1 Z-2.00000
G1 Z5.00000
G0 X41.00000 Y-34.48000
G1 Z-2.00000
G1 Z5.00000
G0 X41.00000 Y-37.02000
G1 Z-2.00000
G1 Z5.00000
G0 X41.00000 Y-39.56000
G1 Z-2.00000
G1 Z5.00000
G0 X41.00000 Y-42.10000
G1 Z-2.00000
G1 Z5.00000
G0 X41.00000 Y-44.64000
G1 Z-2.00000
G1 Z5.00000
G0 X41.00000 Y-47.18000
G1 Z-2.00000
G1 Z5.00000
G0 X41.00000 Y-24.32000
G1 Z-2.00000
G1 Z5.00000
G0 X41.00000 Y-21.78000
G1 Z-2.00000
G1 Z5.00000
G0 X41.00000 Y-19.24000
G1 Z-2.00000
G1 Z5.00000
G0 X41.00000 Y-16.70000
G1 Z-2.00000
G1 Z5.00000
G0 X41.00000 Y-14.16000
G1 Z-2.00000
G1 Z5.00000
G0 X41.00000 Y-11.62000
G1 Z-2.00000
G1 Z5.00000
G0 X41.00000 Y-9.08000
G1 Z-2.00000
G1 Z5.00000
G0 X41.00000 Y-6.54000
G1 Z-2.00000
G1 Z5.00000
G0 X41.00000 Y-4.00000
G1 Z-2.00000
G1 Z5.00000

G53 G00 Z0.000 ( All done -- retract )

M5      (Spindle off.)
G04 P3.000000
M9      (Coolant off.)
M2      (Program end.)

