( pcb2gcode 2.5.0 )
( Software-independent Gcode )

G94 ( Millimeters per minute feed rate. )
G21 ( Units == Millimeters. )

G90 ( Absolute coordinates. )
G00 S800 ( RPM spindle speed. )
G01 F60.00000 ( Feedrate. )


G53 G00 Z0.00000 (Retract to tool change height)
T1
M5      (Spindle stop.)
G04 P3.00000 (Wait for spindle to stop)
(MSG, Change tool bit to mill diameter 0.50000mm)
M0      (Temporary machine stop.)
M3 ( Spindle on clockwise. )
G04 P1.00000 (Wait for spindle to get up to speed)
G04 P0 ( dwell for no time -- G64 should not smooth over this point )
G00 Z5.00000 ( retract )

G00 X-0.30000 Y-0.50000 ( rapid move to begin. )
G01 F30.00000
( Mill infeed pass 1/2 )
G01 Z-0.07500
G04 P0 ( dwell for no time -- G64 should not smooth over this point )
G01 F60.00000
G01 X-0.30000 Y-0.50000
G01 X-0.30000 Y0.00000
G01 X-0.29423 Y0.05852
G01 X-0.27714 Y0.11478
G01 X-0.24943 Y0.16665
G01 X-0.21212 Y0.21212
G01 X-0.16665 Y0.24943
G01 X-0.11478 Y0.27714
G01 X-0.05852 Y0.29423
G01 X0.00000 Y0.30000
G01 X0.50000 Y0.30000
G01 X0.55529 Y0.29484
G01 X0.60871 Y0.27958
G01 X0.65842 Y0.25474
G01 X0.70267 Y0.22118
G01 X0.73998 Y0.18001
G01 X0.76906 Y0.13266
G01 X0.78890 Y0.08080
G01 X0.79886 Y0.02614
G01 X0.79855 Y-0.02939
G01 X0.78892 Y-0.12695
G01 X0.77747 Y-0.18461
G01 X0.74902 Y-0.27841
G01 X0.72649 Y-0.33274
G01 X0.68029 Y-0.41920
G01 X0.64762 Y-0.46810
G01 X0.58544 Y-0.54386
G01 X0.54386 Y-0.58544
G01 X0.44445 Y-0.66518
G01 X0.30615 Y-0.73909
G01 X0.18461 Y-0.77747
G01 X0.12695 Y-0.78892
G01 X0.02939 Y-0.79855
G01 X-0.02614 Y-0.79886
G01 X-0.08080 Y-0.78890
G01 X-0.13266 Y-0.76906
G01 X-0.18001 Y-0.73998
G01 X-0.22118 Y-0.70267
G01 X-0.25474 Y-0.65842
G01 X-0.27958 Y-0.60871
G01 X-0.29484 Y-0.55529
G01 X-0.30000 Y-0.50000
( Mill infeed pass 2/2 )
G01 Z-0.15000
G04 P0 ( dwell for no time -- G64 should not smooth over this point )
G01 F60.00000
G01 X-0.30000 Y-0.50000
G01 X-0.30000 Y0.00000
G01 X-0.29423 Y0.05852
G01 X-0.27714 Y0.11478
G01 X-0.24943 Y0.16665
G01 X-0.21212 Y0.21212
G01 X-0.16665 Y0.24943
G01 X-0.11478 Y0.27714
G01 X-0.05852 Y0.29423
G01 X0.00000 Y0.30000
G01 X0.50000 Y0.30000
G01 X0.55529 Y0.29484
G01 X0.60871 Y0.27958
G01 X0.65842 Y0.25474
G01 X0.70267 Y0.22118
G01 X0.73998 Y0.18001
G01 X0.76906 Y0.13266
G01 X0.78890 Y0.08080
G01 X0.79886 Y0.02614
G01 X0.79855 Y-0.02939
G01 X0.78892 Y-0.12695
G01 X0.77747 Y-0.18461
G01 X0.74902 Y-0.27841
G01 X0.72649 Y-0.33274
G01 X0.68029 Y-0.41920
G01 X0.64762 Y-0.46810
G01 X0.58544 Y-0.54386
G01 X0.54386 Y-0.58544
G01 X0.44445 Y-0.66518
G01 X0.30615 Y-0.73909
G01 X0.18461 Y-0.77747
G01 X0.12695 Y-0.78892
G01 X0.02939 Y-0.79855
G01 X-0.02614 Y-0.79886
G01 X-0.08080 Y-0.78890
G01 X-0.13266 Y-0.76906
G01 X-0.18001 Y-0.73998
G01 X-0.22118 Y-0.70267
G01 X-0.25474 Y-0.65842
G01 X-0.27958 Y-0.60871
G01 X-0.29484 Y-0.55529
G01 X-0.30000 Y-0.50000
G04 P0 ( dwell for no time -- G64 should not smooth over this point )
G00 Z5.00000 ( retract )

G00 X10.10143 Y-12.56939 ( rapid move to begin. )
G01 F30.00000
( Mill infeed pass 1/2 )
G01 Z-0.07500
G04 P0 ( dwell for no time -- G64 should not smooth over this point )
G01 F60.00000
G01 X10.10143 Y-12.56939
G01 X10.10143 Y-12.51059
G01 X10.12111 Y-12.32538
G01 X10.18372 Y-12.11903
G01 X10.28537 Y-11.92886
G01 X10.40239 Y-11.78397
G01 X10.44397 Y-11.74239
G01 X10.58885 Y-11.62538
G01 X10.75243 Y-11.53630
G01 X10.80676 Y-11.51379
G01 X10.95682 Y-11.46828
G01 X11.01451 Y-11.45680
G01 X11.17059 Y-11.44143
G01 X11.22939 Y-11.44143
G01 X11.41458 Y-11.46111
G01 X11.62093 Y-11.52373
G01 X11.78585 Y-11.61024
G01 X11.83475 Y-11.64290
G01 X11.95598 Y-11.74239
G01 X11.99759 Y-11.78397
G01 X12.11461 Y-11.92886
G01 X12.20366 Y-12.09243
G01 X12.22616 Y-12.14676
G01 X12.27884 Y-12.32538
G01 X12.29855 Y-12.51059
G01 X12.29855 Y-12.56939
G01 X12.28316 Y-12.72548
G01 X12.27171 Y-12.78311
G01 X12.22616 Y-12.93322
G01 X12.20366 Y-12.98755
G01 X12.11461 Y-13.15110
G01 X11.97780 Y-13.31780
G01 X11.83475 Y-13.43706
G01 X11.78585 Y-13.46975
G01 X11.64755 Y-13.54366
G01 X11.59322 Y-13.56617
G01 X11.44316 Y-13.61171
G01 X11.38547 Y-13.62316
G01 X11.22939 Y-13.63856
G01 X11.17059 Y-13.63856
G01 X10.98540 Y-13.61884
G01 X10.77902 Y-13.55626
G01 X10.61410 Y-13.46975
G01 X10.56521 Y-13.43706
G01 X10.44397 Y-13.33757
G01 X10.40239 Y-13.29599
G01 X10.28537 Y-13.15110
G01 X10.19630 Y-12.98755
G01 X10.17379 Y-12.93322
G01 X10.12828 Y-12.78311
G01 X10.11679 Y-12.72548
G01 X10.10143 Y-12.56939
G01 X10.09998 Y-9.19998
G01 X10.10575 Y-9.14146
G01 X10.12281 Y-9.08517
G01 X10.15055 Y-9.03331
G01 X10.18786 Y-8.98787
G01 X10.23330 Y-8.95055
G01 X10.28517 Y-8.92282
G01 X10.34146 Y-8.90575
G01 X10.39998 Y-8.89998
G01 X11.99998 Y-8.89998
G01 X12.05852 Y-8.90575
G01 X12.11478 Y-8.92282
G01 X12.16665 Y-8.95055
G01 X12.21212 Y-8.98787
G01 X12.24943 Y-9.03331
G01 X12.27714 Y-9.08517
G01 X12.29423 Y-9.14146
G01 X12.29998 Y-9.19998
G01 X12.29998 Y-10.39289
G01 X15.86893 Y-13.96182
G01 X15.91358 Y-14.01394
G01 X15.94625 Y-14.06284
G01 X15.97731 Y-14.12403
G01 X15.99862 Y-14.18928
G01 X16.01008 Y-14.24696
G01 X16.01539 Y-14.31539
G01 X16.01539 Y-33.04449
G01 X17.94048 Y-34.96955
G01 X24.77188 Y-34.96955
G01 X24.86942 Y-34.97918
G01 X24.93548 Y-34.99769
G01 X24.98982 Y-35.02020
G01 X25.07331 Y-35.07135
G01 X25.12543 Y-35.11601
G01 X38.70254 Y-48.69312
G01 X38.75100 Y-48.75047
G01 X38.81709 Y-48.79216
G01 X38.91468 Y-48.87410
G01 X38.99662 Y-48.97168
G01 X39.02931 Y-49.02058
G01 X39.08809 Y-49.13363
G01 X39.13363 Y-49.28372
G01 X39.14755 Y-49.41039
G01 X39.14755 Y-49.46919
G01 X39.13363 Y-49.59586
G01 X39.09802 Y-49.71821
G01 X39.07551 Y-49.77254
G01 X39.02931 Y-49.85898
G01 X38.99662 Y-49.90790
G01 X38.93444 Y-49.98367
G01 X38.89286 Y-50.02525
G01 X38.81709 Y-50.08743
G01 X38.76820 Y-50.12009
G01 X38.65514 Y-50.17889
G01 X38.53363 Y-50.21727
G01 X38.47595 Y-50.22873
G01 X38.37838 Y-50.23836
G01 X38.31958 Y-50.23836
G01 X38.19291 Y-50.22441
G01 X38.04285 Y-50.17889
G01 X37.92979 Y-50.12009
G01 X37.88087 Y-50.08743
G01 X37.78331 Y-50.00546
G01 X37.70135 Y-49.90790
G01 X37.66868 Y-49.85898
G01 X37.62248 Y-49.77254
G01 X37.59998 Y-49.71821
G01 X37.57150 Y-49.62441
G01 X37.56005 Y-49.56673
G01 X37.55042 Y-49.46919
G01 X37.55042 Y-49.41039
G01 X37.56436 Y-49.28372
G01 X37.60988 Y-49.13363
G01 X37.65024 Y-49.05505
G01 X24.56477 Y-35.96955
G01 X17.73339 Y-35.96957
G01 X17.66496 Y-35.96427
G01 X17.60728 Y-35.95281
G01 X17.51543 Y-35.91893
G01 X17.48084 Y-35.90044
G01 X17.43194 Y-35.86777
G01 X17.37967 Y-35.82297
G01 X15.14127 Y-33.58111
G01 X15.11079 Y-33.54537
G01 X15.05786 Y-33.44959
G01 X15.03985 Y-33.40611
G01 X15.02885 Y-33.36031
G01 X15.01536 Y-33.25160
G01 X15.01536 Y-14.52248
G01 X11.59289 Y-11.09998
G01 X10.39998 Y-11.09998
G01 X10.34146 Y-11.09421
G01 X10.28517 Y-11.07714
G01 X10.23330 Y-11.04943
G01 X10.18786 Y-11.01212
G01 X10.15055 Y-10.96665
G01 X10.12281 Y-10.91479
G01 X10.10575 Y-10.85853
G01 X10.09998 Y-10.79998
G01 X7.74144 Y-4.02938
G01 X7.74144 Y-3.97058
G01 X7.75680 Y-3.81452
G01 X7.76829 Y-3.75684
G01 X7.81380 Y-3.60675
G01 X7.83631 Y-3.55242
G01 X7.92536 Y-3.38887
G01 X8.04240 Y-3.24399
G01 X8.08398 Y-3.20241
G01 X8.20522 Y-3.10291
G01 X8.25411 Y-3.07022
G01 X8.39241 Y-2.99631
G01 X8.44674 Y-2.97381
G01 X8.62538 Y-2.92113
G01 X8.81057 Y-2.90144
G01 X8.86940 Y-2.90144
G01 X9.05459 Y-2.92113
G01 X9.23323 Y-2.97381
G01 X9.28756 Y-2.99631
G01 X9.42586 Y-3.07022
G01 X9.47476 Y-3.10291
G01 X9.61781 Y-3.22217
G01 X9.75462 Y-3.38887
G01 X9.84367 Y-3.55242
G01 X9.86617 Y-3.60675
G01 X9.91169 Y-3.75684
G01 X9.92317 Y-3.81452
G01 X9.93854 Y-3.97058
G01 X9.93854 Y-4.02938
G01 X9.92317 Y-4.18546
G01 X9.91169 Y-4.24315
G01 X9.86617 Y-4.39321
G01 X9.84367 Y-4.44757
G01 X9.75462 Y-4.61112
G01 X9.63757 Y-4.75600
G01 X9.59599 Y-4.79758
G01 X9.45111 Y-4.91460
G01 X9.28756 Y-5.00367
G01 X9.23323 Y-5.02618
G01 X9.08314 Y-5.07169
G01 X9.02546 Y-5.08317
G01 X8.86940 Y-5.09854
G01 X8.81057 Y-5.09854
G01 X8.65452 Y-5.08317
G01 X8.59683 Y-5.07169
G01 X8.41903 Y-5.01625
G01 X8.25411 Y-4.92973
G01 X8.20522 Y-4.89707
G01 X8.06216 Y-4.77782
G01 X7.95924 Y-4.65470
G01 X7.91025 Y-4.58587
G01 X7.83631 Y-4.44757
G01 X7.81380 Y-4.39321
G01 X7.76112 Y-4.21460
G01 X7.74144 Y-4.02938
( Mill infeed pass 2/2 )
G00 Z5.00000 ( retract )
G00 X10.10143 Y-12.56939 ( rapid move to begin. )
G01 Z-0.15000
G04 P0 ( dwell for no time -- G64 should not smooth over this point )
G01 F60.00000
G01 X10.10143 Y-12.56939
G01 X10.10143 Y-12.51059
G01 X10.12111 Y-12.32538
G01 X10.18372 Y-12.11903
G01 X10.28537 Y-11.92886
G01 X10.40239 Y-11.78397
G01 X10.44397 Y-11.74239
G01 X10.58885 Y-11.62538
G01 X10.75243 Y-11.53630
G01 X10.80676 Y-11.51379
G01 X10.95682 Y-11.46828
G01 X11.01451 Y-11.45680
G01 X11.17059 Y-11.44143
G01 X11.22939 Y-11.44143
G01 X11.41458 Y-11.46111
G01 X11.62093 Y-11.52373
G01 X11.78585 Y-11.61024
G01 X11.83475 Y-11.64290
G01 X11.95598 Y-11.74239
G01 X11.99759 Y-11.78397
G01 X12.11461 Y-11.92886
G01 X12.20366 Y-12.09243
G01 X12.22616 Y-12.14676
G01 X12.27884 Y-12.32538
G01 X12.29855 Y-12.51059
G01 X12.29855 Y-12.56939
G01 X12.28316 Y-12.72548
G01 X12.27171 Y-12.78311
G01 X12.22616 Y-12.93322
G01 X12.20366 Y-12.98755
G01 X12.11461 Y-13.15110
G01 X11.97780 Y-13.31780
G01 X11.83475 Y-13.43706
G01 X11.78585 Y-13.46975
G01 X11.64755 Y-13.54366
G01 X11.59322 Y-13.56617
G01 X11.44316 Y-13.61171
G01 X11.38547 Y-13.62316
G01 X11.22939 Y-13.63856
G01 X11.17059 Y-13.63856
G01 X10.98540 Y-13.61884
G01 X10.77902 Y-13.55626
G01 X10.61410 Y-13.46975
G01 X10.56521 Y-13.43706
G01 X10.44397 Y-13.33757
G01 X10.40239 Y-13.29599
G01 X10.28537 Y-13.15110
G01 X10.19630 Y-12.98755
G01 X10.17379 Y-12.93322
G01 X10.12828 Y-12.78311
G01 X10.11679 Y-12.72548
G01 X10.10143 Y-12.56939
G01 X10.09998 Y-9.19998
G01 X10.10575 Y-9.14146
G01 X10.12281 Y-9.08517
G01 X10.15055 Y-9.03331
G01 X10.18786 Y-8.98787
G01 X10.23330 Y-8.95055
G01 X10.28517 Y-8.92282
G01 X10.34146 Y-8.90575
G01 X10.39998 Y-8.89998
G01 X11.99998 Y-8.89998
G01 X12.05852 Y-8.90575
G01 X12.11478 Y-8.92282
G01 X12.16665 Y-8.95055
G01 X12.21212 Y-8.98787
G01 X12.24943 Y-9.03331
G01 X12.27714 Y-9.08517
G01 X12.29423 Y-9.14146
G01 X12.29998 Y-9.19998
G01 X12.29998 Y-10.39289
G01 X15.86893 Y-13.96182
G01 X15.91358 Y-14.01394
G01 X15.94625 Y-14.06284
G01 X15.97731 Y-14.12403
G01 X15.99862 Y-14.18928
G01 X16.01008 Y-14.24696
G01 X16.01539 Y-14.31539
G01 X16.01539 Y-33.04449
G01 X17.94048 Y-34.96955
G01 X24.77188 Y-34.96955
G01 X24.86942 Y-34.97918
G01 X24.93548 Y-34.99769
G01 X24.98982 Y-35.02020
G01 X25.07331 Y-35.07135
G01 X25.12543 Y-35.11601
G01 X38.70254 Y-48.69312
G01 X38.75100 Y-48.75047
G01 X38.81709 Y-48.79216
G01 X38.91468 Y-48.87410
G01 X38.99662 Y-48.97168
G01 X39.02931 Y-49.02058
G01 X39.08809 Y-49.13363
G01 X39.13363 Y-49.28372
G01 X39.14755 Y-49.41039
G01 X39.14755 Y-49.46919
G01 X39.13363 Y-49.59586
G01 X39.09802 Y-49.71821
G01 X39.07551 Y-49.77254
G01 X39.02931 Y-49.85898
G01 X38.99662 Y-49.90790
G01 X38.93444 Y-49.98367
G01 X38.89286 Y-50.02525
G01 X38.81709 Y-50.08743
G01 X38.76820 Y-50.12009
G01 X38.65514 Y-50.17889
G01 X38.53363 Y-50.21727
G01 X38.47595 Y-50.22873
G01 X38.37838 Y-50.23836
G01 X38.31958 Y-50.23836
G01 X38.19291 Y-50.22441
G01 X38.04285 Y-50.17889
G01 X37.92979 Y-50.12009
G01 X37.88087 Y-50.08743
G01 X37.78331 Y-50.00546
G01 X37.70135 Y-49.90790
G01 X37.66868 Y-49.85898
G01 X37.62248 Y-49.77254
G01 X37.59998 Y-49.71821
G01 X37.57150 Y-49.62441
G01 X37.56005 Y-49.56673
G01 X37.55042 Y-49.46919
G01 X37.55042 Y-49.41039
G01 X37.56436 Y-49.28372
G01 X37.60988 Y-49.13363
G01 X37.65024 Y-49.05505
G01 X24.56477 Y-35.96955
G01 X17.73339 Y-35.96957
G01 X17.66496 Y-35.96427
G01 X17.60728 Y-35.95281
G01 X17.51543 Y-35.91893
G01 X17.48084 Y-35.90044
G01 X17.43194 Y-35.86777
G01 X17.37967 Y-35.82297
G01 X15.14127 Y-33.58111
G01 X15.11079 Y-33.54537
G01 X15.05786 Y-33.44959
G01 X15.03985 Y-33.40611
G01 X15.02885 Y-33.36031
G01 X15.01536 Y-33.25160
G01 X15.01536 Y-14.52248
G01 X11.59289 Y-11.09998
G01 X10.39998 Y-11.09998
G01 X10.34146 Y-11.09421
G01 X10.28517 Y-11.07714
G01 X10.23330 Y-11.04943
G01 X10.18786 Y-11.01212
G01 X10.15055 Y-10.96665
G01 X10.12281 Y-10.91479
G01 X10.10575 Y-10.85853
G01 X10.09998 Y-10.79998
G01 X7.74144 Y-4.02938
G01 X7.74144 Y-3.97058
G01 X7.75680 Y-3.81452
G01 X7.76829 Y-3.75684
G01 X7.81380 Y-3.60675
G01 X7.83631 Y-3.55242
G01 X7.92536 Y-3.38887
G01 X8.04240 Y-3.24399
G01 X8.08398 Y-3.20241
G01 X8.20522 Y-3.10291
G01 X8.25411 Y-3.07022
G01 X8.39241 Y-2.99631
G01 X8.44674 Y-2.97381
G01 X8.62538 Y-2.92113
G01 X8.81057 Y-2.90144
G01 X8.86940 Y-2.90144
G01 X9.05459 Y-2.92113
G01 X9.23323 Y-2.97381
G01 X9.28756 Y-2.99631
G01 X9.42586 Y-3.07022
G01 X9.47476 Y-3.10291
G01 X9.61781 Y-3.22217
G01 X9.75462 Y-3.38887
G01 X9.84367 Y-3.55242
G01 X9.86617 Y-3.60675
G01 X9.91169 Y-3.75684
G01 X9.92317 Y-3.81452
G01 X9.93854 Y-3.97058
G01 X9.93854 Y-4.02938
G01 X9.92317 Y-4.18546
G01 X9.91169 Y-4.24315
G01 X9.86617 Y-4.39321
G01 X9.84367 Y-4.44757
G01 X9.75462 Y-4.61112
G01 X9.63757 Y-4.75600
G01 X9.59599 Y-4.79758
G01 X9.45111 Y-4.91460
G01 X9.28756 Y-5.00367
G01 X9.23323 Y-5.02618
G01 X9.08314 Y-5.07169
G01 X9.02546 Y-5.08317
G01 X8.86940 Y-5.09854
G01 X8.81057 Y-5.09854
G01 X8.65452 Y-5.08317
G01 X8.59683 Y-5.07169
G01 X8.41903 Y-5.01625
G01 X8.25411 Y-4.92973
G01 X8.20522 Y-4.89707
G01 X8.06216 Y-4.77782
G01 X7.95924 Y-4.65470
G01 X7.91025 Y-4.58587
G01 X7.83631 Y-4.44757
G01 X7.81380 Y-4.39321
G01 X7.76112 Y-4.21460
G01 X7.74144 Y-4.02938
G04 P0 ( dwell for no time -- G64 should not smooth over this point )
G00 Z5.00000 ( retract )

G00 X10.09998 Y-20.15998 ( rapid move to begin. )
G01 F30.00000
( Mill infeed pass 1/2 )
G01 Z-0.07500
G04 P0 ( dwell for no time -- G64 should not smooth over this point )
G01 F60.00000
G01 X10.09998 Y-20.15998
G01 X10.11679 Y-19.97451
G01 X10.12828 Y-19.91683
G01 X10.17379 Y-19.76676
G01 X10.19630 Y-19.71243
G01 X10.28537 Y-19.54886
G01 X10.42218 Y-19.38218
G01 X10.56521 Y-19.26290
G01 X10.61410 Y-19.23024
G01 X10.77902 Y-19.14373
G01 X10.95682 Y-19.08828
G01 X11.01451 Y-19.07680
G01 X11.19998 Y-19.05998
G01 X11.38547 Y-19.07680
G01 X11.44316 Y-19.08828
G01 X11.62093 Y-19.14373
G01 X11.78585 Y-19.23024
G01 X11.83475 Y-19.26290
G01 X11.97780 Y-19.38218
G01 X12.11461 Y-19.54886
G01 X12.20366 Y-19.71243
G01 X12.22616 Y-19.76676
G01 X12.27171 Y-19.91683
G01 X12.28316 Y-19.97451
G01 X12.29998 Y-20.15998
G01 X12.28316 Y-20.34548
G01 X12.27171 Y-20.40313
G01 X12.22616 Y-20.55322
G01 X12.20366 Y-20.60755
G01 X12.11461 Y-20.77110
G01 X11.99759 Y-20.91599
G01 X11.95598 Y-20.95757
G01 X11.83475 Y-21.05706
G01 X11.78585 Y-21.08975
G01 X11.62093 Y-21.17626
G01 X11.44316 Y-21.23171
G01 X11.38547 Y-21.24316
G01 X11.19998 Y-21.25998
G01 X11.01451 Y-21.24316
G01 X10.95682 Y-21.23171
G01 X10.77902 Y-21.17626
G01 X10.61410 Y-21.08975
G01 X10.56521 Y-21.05706
G01 X10.42218 Y-20.93780
G01 X10.28537 Y-20.77110
G01 X10.19630 Y-20.60755
G01 X10.17379 Y-20.55322
G01 X10.12828 Y-20.40313
G01 X10.11679 Y-20.34548
G01 X10.09998 Y-20.15998
G01 X10.09998 Y-22.69998
G01 X10.11679 Y-22.51451
G01 X10.12828 Y-22.45683
G01 X10.17379 Y-22.30676
G01 X10.19630 Y-22.25243
G01 X10.27024 Y-22.11410
G01 X10.30290 Y-22.06521
G01 X10.42218 Y-21.92218
G01 X10.56521 Y-21.80290
G01 X10.61410 Y-21.77024
G01 X10.77902 Y-21.68373
G01 X10.95682 Y-21.62828
G01 X11.01451 Y-21.61680
G01 X11.19998 Y-21.59998
G01 X11.38547 Y-21.61680
G01 X11.44316 Y-21.62828
G01 X11.59322 Y-21.67379
G01 X11.64755 Y-21.69630
G01 X11.81113 Y-21.78538
G01 X11.95598 Y-21.90239
G01 X11.99759 Y-21.94397
G01 X12.09705 Y-22.06521
G01 X12.12974 Y-22.11410
G01 X12.20366 Y-22.25243
G01 X12.22616 Y-22.30676
G01 X12.27171 Y-22.45683
G01 X12.28316 Y-22.51451
G01 X12.29998 Y-22.69998
G01 X12.28316 Y-22.88548
G01 X12.27171 Y-22.94313
G01 X12.22616 Y-23.09322
G01 X12.20366 Y-23.14755
G01 X12.12974 Y-23.28586
G01 X12.09705 Y-23.33475
G01 X11.99759 Y-23.45599
G01 X11.95598 Y-23.49757
G01 X11.83475 Y-23.59706
G01 X11.78585 Y-23.62975
G01 X11.62093 Y-23.71626
G01 X11.44316 Y-23.77171
G01 X11.38547 Y-23.78316
G01 X11.22939 Y-23.79856
G01 X11.17059 Y-23.79856
G01 X11.01451 Y-23.78316
G01 X10.95682 Y-23.77171
G01 X10.80676 Y-23.72617
G01 X10.75243 Y-23.70366
G01 X10.61410 Y-23.62975
G01 X10.56521 Y-23.59706
G01 X10.44397 Y-23.49757
G01 X10.40239 Y-23.45599
G01 X10.28537 Y-23.31110
G01 X10.19630 Y-23.14755
G01 X10.17379 Y-23.09322
G01 X10.12828 Y-22.94313
G01 X10.11679 Y-22.88548
G01 X10.09998 Y-22.69998
( Mill infeed pass 2/2 )
G00 Z5.00000 ( retract )
G00 X10.09998 Y-20.15998 ( rapid move to begin. )
G01 Z-0.15000
G04 P0 ( dwell for no time -- G64 should not smooth over this point )
G01 F60.00000
G01 X10.09998 Y-20.15998
G01 X10.11679 Y-19.97451
G01 X10.12828 Y-19.91683
G01 X10.17379 Y-19.76676
G01 X10.19630 Y-19.71243
G01 X10.28537 Y-19.54886
G01 X10.42218 Y-19.38218
G01 X10.56521 Y-19.26290
G01 X10.61410 Y-19.23024
G01 X10.77902 Y-19.14373
G01 X10.95682 Y-19.08828
G01 X11.01451 Y-19.07680
G01 X11.19998 Y-19.05998
G01 X11.38547 Y-19.07680
G01 X11.44316 Y-19.08828
G01 X11.62093 Y-19.14373
G01 X11.78585 Y-19.23024
G01 X11.83475 Y-19.26290
G01 X11.97780 Y-19.38218
G01 X12.11461 Y-19.54886
G01 X12.20366 Y-19.71243
G01 X12.22616 Y-19.76676
G01 X12.27171 Y-19.91683
G01 X12.28316 Y-19.97451
G01 X12.29998 Y-20.15998
G01 X12.28316 Y-20.34548
G01 X12.27171 Y-20.40313
G01 X12.22616 Y-20.55322
G01 X12.20366 Y-20.60755
G01 X12.11461 Y-20.77110
G01 X11.99759 Y-20.91599
G01 X11.95598 Y-20.95757
G01 X11.83475 Y-21.05706
G01 X11.78585 Y-21.08975
G01 X11.62093 Y-21.17626
G01 X11.44316 Y-21.23171
G01 X11.38547 Y-21.24316
G01 X11.19998 Y-21.25998
G01 X11.01451 Y-21.24316
G01 X10.95682 Y-21.23171
G01 X10.77902 Y-21.17626
G01 X10.61410 Y-21.08975
G01 X10.56521 Y-21.05706
G01 X10.42218 Y-20.93780
G01 X10.28537 Y-20.77110
G01 X10.19630 Y-20.60755
G01 X10.17379 Y-20.55322
G01 X10.12828 Y-20.40313
G01 X10.11679 Y-20.34548
G01 X10.09998 Y-20.15998
G01 X10.09998 Y-22.69998
G01 X10.11679 Y-22.51451
G01 X10.12828 Y-22.45683
G01 X10.17379 Y-22.30676
G01 X10.19630 Y-22.25243
G01 X10.27024 Y-22.11410
G01 X10.30290 Y-22.06521
G01 X10.42218 Y-21.92218
G01 X10.56521 Y-21.80290
G01 X10.61410 Y-21.77024
G01 X10.77902 Y-21.68373
G01 X10.95682 Y-21.62828
G01 X11.01451 Y-21.61680
G01 X11.19998 Y-21.59998
G01 X11.38547 Y-21.61680
G01 X11.44316 Y-21.62828
G01 X11.59322 Y-21.67379
G01 X11.64755 Y-21.69630
G01 X11.81113 Y-21.78538
G01 X11.95598 Y-21.90239
G01 X11.99759 Y-21.94397
G01 X12.09705 Y-22.06521
G01 X12.12974 Y-22.11410
G01 X12.20366 Y-22.25243
G01 X12.22616 Y-22.30676
G01 X12.27171 Y-22.45683
G01 X12.28316 Y-22.51451
G01 X12.29998 Y-22.69998
G01 X12.28316 Y-22.88548
G01 X12.27171 Y-22.94313
G01 X12.22616 Y-23.09322
G01 X12.20366 Y-23.14755
G01 X12.12974 Y-23.28586
G01 X12.09705 Y-23.33475
G01 X11.99759 Y-23.45599
G01 X11.95598 Y-23.49757
G01 X11.83475 Y-23.59706
G01 X11.78585 Y-23.62975
G01 X11.62093 Y-23.71626
G01 X11.44316 Y-23.77171
G01 X11.38547 Y-23.78316
G01 X11.22939 Y-23.79856
G01 X11.17059 Y-23.79856
G01 X11.01451 Y-23.78316
G01 X10.95682 Y-23.77171
G01 X10.80676 Y-23.72617
G01 X10.75243 Y-23.70366
G01 X10.61410 Y-23.62975
G01 X10.56521 Y-23.59706
G01 X10.44397 Y-23.49757
G01 X10.40239 Y-23.45599
G01 X10.28537 Y-23.31110
G01 X10.19630 Y-23.14755
G01 X10.17379 Y-23.09322
G01 X10.12828 Y-22.94313
G01 X10.11679 Y-22.88548
G01 X10.09998 Y-22.69998
G04 P0 ( dwell for no time -- G64 should not smooth over this point )
G00 Z5.00000 ( retract )

G00 X17.71998 Y-22.69998 ( rapid move to begin. )
G01 F30.00000
( Mill infeed pass 1/2 )
G01 Z-0.07500
G04 P0 ( dwell for no time -- G64 should not smooth over this point )
G01 F60.00000
G01 X17.71998 Y-22.69998
G01 X17.73679 Y-22.51451
G01 X17.74828 Y-22.45683
G01 X17.79379 Y-22.30676
G01 X17.81630 Y-22.25243
G01 X17.89024 Y-22.11410
G01 X17.92290 Y-22.06521
G01 X18.04218 Y-21.92218
G01 X18.18521 Y-21.80290
G01 X18.23410 Y-21.77024
G01 X18.39902 Y-21.68373
G01 X18.57682 Y-21.62828
G01 X18.63451 Y-21.61680
G01 X18.79059 Y-21.60143
G01 X18.84939 Y-21.60143
G01 X19.00547 Y-21.61680
G01 X19.06316 Y-21.62828
G01 X19.21322 Y-21.67379
G01 X19.26755 Y-21.69630
G01 X19.43113 Y-21.78538
G01 X19.57598 Y-21.90239
G01 X19.61759 Y-21.94397
G01 X19.71705 Y-22.06521
G01 X19.74974 Y-22.11410
G01 X19.79564 Y-22.19998
G01 X20.21296 Y-22.19996
G01 X21.89985 Y-20.51307
G01 X21.89985 Y-20.15998
G01 X21.90516 Y-20.09155
G01 X21.91662 Y-20.03387
G01 X21.93793 Y-19.96862
G01 X21.96899 Y-19.90743
G01 X22.00166 Y-19.85853
G01 X22.06813 Y-19.78665
G01 X22.14733 Y-19.72909
G01 X22.20852 Y-19.69803
G01 X22.27377 Y-19.67672
G01 X22.33145 Y-19.66526
G01 X22.39988 Y-19.65996
G01 X23.02434 Y-19.65996
G01 X23.07024 Y-19.57410
G01 X23.10290 Y-19.52521
G01 X23.20239 Y-19.40397
G01 X23.24397 Y-19.36239
G01 X23.36521 Y-19.26290
G01 X23.41410 Y-19.23024
G01 X23.55243 Y-19.15630
G01 X23.60676 Y-19.13379
G01 X23.75682 Y-19.08828
G01 X23.81451 Y-19.07680
G01 X23.99998 Y-19.05998
G01 X24.18547 Y-19.07680
G01 X24.24316 Y-19.08828
G01 X24.42093 Y-19.14373
G01 X24.58585 Y-19.23024
G01 X24.63475 Y-19.26290
G01 X24.75598 Y-19.36239
G01 X24.79759 Y-19.40397
G01 X24.89705 Y-19.52521
G01 X24.92974 Y-19.57410
G01 X25.00366 Y-19.71243
G01 X25.02616 Y-19.76676
G01 X25.07170 Y-19.91683
G01 X25.08316 Y-19.97451
G01 X25.09998 Y-20.15998
G01 X25.08316 Y-20.34548
G01 X25.07170 Y-20.40313
G01 X25.02616 Y-20.55322
G01 X25.00366 Y-20.60755
G01 X24.92974 Y-20.74586
G01 X24.89705 Y-20.79475
G01 X24.77780 Y-20.93780
G01 X24.63475 Y-21.05706
G01 X24.58585 Y-21.08975
G01 X24.42093 Y-21.17626
G01 X24.24316 Y-21.23171
G01 X24.18547 Y-21.24316
G01 X24.02939 Y-21.25856
G01 X23.97059 Y-21.25856
G01 X23.81451 Y-21.24316
G01 X23.75682 Y-21.23171
G01 X23.57902 Y-21.17626
G01 X23.41410 Y-21.08975
G01 X23.36521 Y-21.05706
G01 X23.22218 Y-20.93780
G01 X23.10290 Y-20.79475
G01 X23.07024 Y-20.74586
G01 X23.02431 Y-20.65998
G01 X22.89988 Y-20.65998
G01 X22.89457 Y-20.78858
G01 X22.87173 Y-20.88378
G01 X22.86180 Y-20.91152
G01 X22.83074 Y-20.97270
G01 X22.79807 Y-21.02160
G01 X22.75342 Y-21.07372
G01 X20.77362 Y-23.05352
G01 X20.72150 Y-23.09818
G01 X20.67260 Y-23.13084
G01 X20.61141 Y-23.16190
G01 X20.54616 Y-23.18322
G01 X20.48848 Y-23.19467
G01 X20.42005 Y-23.19998
G01 X19.79564 Y-23.19998
G01 X19.74974 Y-23.28586
G01 X19.71705 Y-23.33475
G01 X19.59780 Y-23.47780
G01 X19.45475 Y-23.59706
G01 X19.40585 Y-23.62975
G01 X19.24093 Y-23.71626
G01 X19.06316 Y-23.77171
G01 X19.00547 Y-23.78316
G01 X18.81998 Y-23.79998
G01 X18.63451 Y-23.78316
G01 X18.57682 Y-23.77171
G01 X18.42676 Y-23.72617
G01 X18.37243 Y-23.70366
G01 X18.20885 Y-23.61461
G01 X18.06397 Y-23.49757
G01 X18.02239 Y-23.45599
G01 X17.92290 Y-23.33475
G01 X17.89024 Y-23.28586
G01 X17.80372 Y-23.12093
G01 X17.74828 Y-22.94313
G01 X17.73679 Y-22.88548
G01 X17.71998 Y-22.69998
G01 X17.71998 Y-20.15998
G01 X17.73679 Y-19.97451
G01 X17.74828 Y-19.91683
G01 X17.80372 Y-19.73903
G01 X17.89024 Y-19.57410
G01 X17.92290 Y-19.52521
G01 X18.04218 Y-19.38218
G01 X18.18521 Y-19.26290
G01 X18.23410 Y-19.23024
G01 X18.39902 Y-19.14373
G01 X18.57682 Y-19.08828
G01 X18.63451 Y-19.07680
G01 X18.81998 Y-19.05998
G01 X19.00547 Y-19.07680
G01 X19.06316 Y-19.08828
G01 X19.24093 Y-19.14373
G01 X19.40585 Y-19.23024
G01 X19.45475 Y-19.26290
G01 X19.57598 Y-19.36239
G01 X19.61759 Y-19.40397
G01 X19.71705 Y-19.52521
G01 X19.74974 Y-19.57410
G01 X19.79564 Y-19.65998
G01 X19.92005 Y-19.65996
G01 X19.92536 Y-19.53136
G01 X19.94819 Y-19.43616
G01 X19.95813 Y-19.40842
G01 X19.98919 Y-19.34723
G01 X20.04675 Y-19.26803
G01 X22.04631 Y-17.26641
G01 X22.09843 Y-17.22176
G01 X22.14733 Y-17.18909
G01 X22.20852 Y-17.15803
G01 X22.27377 Y-17.13672
G01 X22.33145 Y-17.12526
G01 X22.39988 Y-17.11996
G01 X23.02434 Y-17.11996
G01 X23.07024 Y-17.03410
G01 X23.10290 Y-16.98521
G01 X23.20239 Y-16.86397
G01 X23.24397 Y-16.82239
G01 X23.36521 Y-16.72290
G01 X23.41410 Y-16.69024
G01 X23.57902 Y-16.60373
G01 X23.75682 Y-16.54828
G01 X23.81451 Y-16.53680
G01 X23.99998 Y-16.51998
G01 X24.18547 Y-16.53680
G01 X24.24316 Y-16.54828
G01 X24.39322 Y-16.59379
G01 X24.44755 Y-16.61630
G01 X24.58585 Y-16.69024
G01 X24.63475 Y-16.72290
G01 X24.75598 Y-16.82239
G01 X24.79759 Y-16.86397
G01 X24.89705 Y-16.98521
G01 X24.92974 Y-17.03410
G01 X25.00366 Y-17.17243
G01 X25.02616 Y-17.22676
G01 X25.07170 Y-17.37683
G01 X25.08316 Y-17.43451
G01 X25.09998 Y-17.61998
G01 X25.08316 Y-17.80548
G01 X25.07170 Y-17.86313
G01 X25.02616 Y-18.01322
G01 X25.00366 Y-18.06755
G01 X24.92974 Y-18.20586
G01 X24.89705 Y-18.25475
G01 X24.77780 Y-18.39780
G01 X24.63475 Y-18.51706
G01 X24.58585 Y-18.54975
G01 X24.42093 Y-18.63626
G01 X24.24316 Y-18.69171
G01 X24.18547 Y-18.70316
G01 X24.02939 Y-18.71856
G01 X23.97059 Y-18.71856
G01 X23.81451 Y-18.70316
G01 X23.75682 Y-18.69171
G01 X23.60676 Y-18.64617
G01 X23.55243 Y-18.62366
G01 X23.38885 Y-18.53461
G01 X23.24397 Y-18.41757
G01 X23.20239 Y-18.37599
G01 X23.10290 Y-18.25475
G01 X23.07024 Y-18.20586
G01 X23.02431 Y-18.11998
G01 X22.60697 Y-18.11998
G01 X20.92008 Y-19.80687
G01 X20.91863 Y-20.18937
G01 X20.90331 Y-20.28607
G01 X20.88200 Y-20.35132
G01 X20.85094 Y-20.41251
G01 X20.79338 Y-20.49170
G01 X20.72150 Y-20.55818
G01 X20.67260 Y-20.59084
G01 X20.61141 Y-20.62190
G01 X20.54616 Y-20.64321
G01 X20.48848 Y-20.65467
G01 X20.42005 Y-20.65998
G01 X19.79564 Y-20.65998
G01 X19.74974 Y-20.74586
G01 X19.71705 Y-20.79475
G01 X19.59780 Y-20.93780
G01 X19.45475 Y-21.05706
G01 X19.40585 Y-21.08975
G01 X19.24093 Y-21.17626
G01 X19.06316 Y-21.23171
G01 X19.00547 Y-21.24316
G01 X18.81998 Y-21.25998
G01 X18.63451 Y-21.24316
G01 X18.57682 Y-21.23171
G01 X18.39902 Y-21.17626
G01 X18.23410 Y-21.08975
G01 X18.18521 Y-21.05706
G01 X18.06397 Y-20.95757
G01 X18.02239 Y-20.91599
G01 X17.92290 Y-20.79475
G01 X17.89024 Y-20.74586
G01 X17.81630 Y-20.60755
G01 X17.79379 Y-20.55322
G01 X17.74828 Y-20.40313
G01 X17.73679 Y-20.34548
G01 X17.71998 Y-20.15998
G01 X17.72143 Y-17.59059
G01 X17.73679 Y-17.43451
G01 X17.74828 Y-17.37683
G01 X17.79379 Y-17.22676
G01 X17.81630 Y-17.17243
G01 X17.89024 Y-17.03410
G01 X17.92290 Y-16.98521
G01 X18.04218 Y-16.84218
G01 X18.18521 Y-16.72290
G01 X18.23410 Y-16.69024
G01 X18.39902 Y-16.60373
G01 X18.57682 Y-16.54828
G01 X18.63451 Y-16.53680
G01 X18.81998 Y-16.51998
G01 X19.00547 Y-16.53680
G01 X19.06316 Y-16.54828
G01 X19.21322 Y-16.59379
G01 X19.26755 Y-16.61630
G01 X19.43113 Y-16.70538
G01 X19.57598 Y-16.82239
G01 X19.61759 Y-16.86397
G01 X19.71705 Y-16.98521
G01 X19.74974 Y-17.03410
G01 X19.79564 Y-17.11998
G01 X19.92005 Y-17.11996
G01 X19.92536 Y-16.99136
G01 X19.94819 Y-16.89616
G01 X19.95813 Y-16.86842
G01 X19.98919 Y-16.80723
G01 X20.04675 Y-16.72803
G01 X22.04631 Y-14.72641
G01 X22.09843 Y-14.68176
G01 X22.14733 Y-14.64909
G01 X22.20852 Y-14.61803
G01 X22.27377 Y-14.59672
G01 X22.33145 Y-14.58526
G01 X22.39988 Y-14.57996
G01 X23.02434 Y-14.57996
G01 X23.07024 Y-14.49410
G01 X23.10290 Y-14.44521
G01 X23.20239 Y-14.32397
G01 X23.24397 Y-14.28239
G01 X23.36521 Y-14.18290
G01 X23.41410 Y-14.15024
G01 X23.57902 Y-14.06373
G01 X23.75682 Y-14.00828
G01 X23.81451 Y-13.99680
G01 X23.99998 Y-13.97998
G01 X24.18547 Y-13.99680
G01 X24.24316 Y-14.00828
G01 X24.42093 Y-14.06373
G01 X24.58585 Y-14.15024
G01 X24.63475 Y-14.18290
G01 X24.75598 Y-14.28239
G01 X24.79759 Y-14.32397
G01 X24.89705 Y-14.44521
G01 X24.92974 Y-14.49410
G01 X25.00366 Y-14.63243
G01 X25.02616 Y-14.68676
G01 X25.07170 Y-14.83683
G01 X25.08316 Y-14.89451
G01 X25.09998 Y-15.07998
G01 X25.08316 Y-15.26548
G01 X25.07170 Y-15.32313
G01 X25.02616 Y-15.47322
G01 X25.00366 Y-15.52755
G01 X24.92974 Y-15.66586
G01 X24.89705 Y-15.71475
G01 X24.77780 Y-15.85780
G01 X24.63475 Y-15.97706
G01 X24.58585 Y-16.00975
G01 X24.42093 Y-16.09626
G01 X24.24316 Y-16.15171
G01 X24.18547 Y-16.16316
G01 X24.02939 Y-16.17856
G01 X23.97059 Y-16.17856
G01 X23.81451 Y-16.16316
G01 X23.75682 Y-16.15171
G01 X23.60676 Y-16.10617
G01 X23.55243 Y-16.08366
G01 X23.41410 Y-16.00975
G01 X23.36521 Y-15.97706
G01 X23.24397 Y-15.87757
G01 X23.20239 Y-15.83599
G01 X23.10290 Y-15.71475
G01 X23.07024 Y-15.66586
G01 X23.02431 Y-15.57998
G01 X22.60697 Y-15.57998
G01 X20.92008 Y-17.26687
G01 X20.91863 Y-17.64937
G01 X20.90331 Y-17.74607
G01 X20.88200 Y-17.81132
G01 X20.85094 Y-17.87251
G01 X20.79338 Y-17.95170
G01 X20.72150 Y-18.01818
G01 X20.67260 Y-18.05084
G01 X20.61141 Y-18.08190
G01 X20.54616 Y-18.10321
G01 X20.48848 Y-18.11467
G01 X20.42005 Y-18.11998
G01 X19.79564 Y-18.11998
G01 X19.74974 Y-18.20586
G01 X19.71705 Y-18.25475
G01 X19.59780 Y-18.39780
G01 X19.45475 Y-18.51706
G01 X19.40585 Y-18.54975
G01 X19.24093 Y-18.63626
G01 X19.06316 Y-18.69171
G01 X19.00547 Y-18.70316
G01 X18.81998 Y-18.71998
G01 X18.63451 Y-18.70316
G01 X18.57682 Y-18.69171
G01 X18.41177 Y-18.63997
G01 X18.37243 Y-18.62366
G01 X18.23410 Y-18.54975
G01 X18.18521 Y-18.51706
G01 X18.06397 Y-18.41757
G01 X18.02239 Y-18.37599
G01 X17.92290 Y-18.25475
G01 X17.89024 Y-18.20586
G01 X17.81630 Y-18.06755
G01 X17.79379 Y-18.01322
G01 X17.74828 Y-17.86313
G01 X17.73679 Y-17.80548
G01 X17.72143 Y-17.64939
G01 X17.72143 Y-15.05059
G01 X17.73679 Y-14.89451
G01 X17.74828 Y-14.83683
G01 X17.79379 Y-14.68676
G01 X17.81630 Y-14.63243
G01 X17.89024 Y-14.49410
G01 X17.92290 Y-14.44521
G01 X18.04218 Y-14.30218
G01 X18.18521 Y-14.18290
G01 X18.23410 Y-14.15024
G01 X18.39902 Y-14.06373
G01 X18.57682 Y-14.00828
G01 X18.63451 Y-13.99680
G01 X18.81998 Y-13.97998
G01 X19.00547 Y-13.99680
G01 X19.06316 Y-14.00828
G01 X19.24093 Y-14.06373
G01 X19.40585 Y-14.15024
G01 X19.45475 Y-14.18290
G01 X19.57598 Y-14.28239
G01 X19.61759 Y-14.32397
G01 X19.71705 Y-14.44521
G01 X19.74974 Y-14.49410
G01 X19.79564 Y-14.57998
G01 X20.21296 Y-14.57996
G01 X21.89985 Y-12.89304
G01 X21.89985 Y-12.53998
G01 X21.90516 Y-12.47155
G01 X21.91662 Y-12.41387
G01 X21.93793 Y-12.34862
G01 X21.98413 Y-12.26218
G01 X22.02655 Y-12.20823
G01 X22.06813 Y-12.16665
G01 X22.14733 Y-12.10909
G01 X22.20852 Y-12.07803
G01 X22.27377 Y-12.05672
G01 X22.33145 Y-12.04526
G01 X22.39988 Y-12.03996
G01 X23.02434 Y-12.03996
G01 X23.07024 Y-11.95410
G01 X23.10290 Y-11.90521
G01 X23.20239 Y-11.78397
G01 X23.24397 Y-11.74239
G01 X23.36521 Y-11.64290
G01 X23.41410 Y-11.61024
G01 X23.55243 Y-11.53630
G01 X23.60676 Y-11.51379
G01 X23.75682 Y-11.46828
G01 X23.81451 Y-11.45680
G01 X23.99998 Y-11.43998
G01 X24.18547 Y-11.45680
G01 X24.24316 Y-11.46828
G01 X24.39322 Y-11.51379
G01 X24.44755 Y-11.53630
G01 X24.58585 Y-11.61024
G01 X24.63475 Y-11.64290
G01 X24.75598 Y-11.74239
G01 X24.79759 Y-11.78397
G01 X24.89705 Y-11.90521
G01 X24.92974 Y-11.95410
G01 X25.00366 Y-12.09243
G01 X25.02616 Y-12.14676
G01 X25.07170 Y-12.29683
G01 X25.08316 Y-12.35451
G01 X25.09998 Y-12.53998
G01 X25.08316 Y-12.72548
G01 X25.07170 Y-12.78311
G01 X25.01626 Y-12.96093
G01 X24.92974 Y-13.12583
G01 X24.89705 Y-13.17475
G01 X24.79759 Y-13.29599
G01 X24.75598 Y-13.33757
G01 X24.63475 Y-13.43706
G01 X24.58585 Y-13.46975
G01 X24.42093 Y-13.55626
G01 X24.21458 Y-13.61884
G01 X24.02939 Y-13.63856
G01 X23.97059 Y-13.63856
G01 X23.78540 Y-13.61884
G01 X23.57902 Y-13.55626
G01 X23.41410 Y-13.46975
G01 X23.36521 Y-13.43706
G01 X23.22218 Y-13.31780
G01 X23.10290 Y-13.17475
G01 X23.07024 Y-13.12583
G01 X23.02431 Y-13.03998
G01 X22.89988 Y-13.03998
G01 X22.89457 Y-13.16855
G01 X22.87173 Y-13.26373
G01 X22.83074 Y-13.35268
G01 X22.79807 Y-13.40157
G01 X22.75342 Y-13.45369
G01 X20.77362 Y-15.43352
G01 X20.68721 Y-15.50088
G01 X20.62566 Y-15.53533
G01 X20.56331 Y-15.55892
G01 X20.52879 Y-15.56649
G01 X20.42005 Y-15.57998
G01 X19.79564 Y-15.57998
G01 X19.74974 Y-15.66586
G01 X19.71705 Y-15.71475
G01 X19.61759 Y-15.83599
G01 X19.57598 Y-15.87757
G01 X19.45475 Y-15.97706
G01 X19.40585 Y-16.00975
G01 X19.24093 Y-16.09626
G01 X19.06316 Y-16.15171
G01 X19.00547 Y-16.16316
G01 X18.84939 Y-16.17856
G01 X18.79059 Y-16.17856
G01 X18.63451 Y-16.16316
G01 X18.57682 Y-16.15171
G01 X18.42676 Y-16.10617
G01 X18.37243 Y-16.08366
G01 X18.23410 Y-16.00975
G01 X18.18521 Y-15.97706
G01 X18.06397 Y-15.87757
G01 X18.02239 Y-15.83599
G01 X17.92290 Y-15.71475
G01 X17.89024 Y-15.66586
G01 X17.80372 Y-15.50093
G01 X17.74828 Y-15.32313
G01 X17.73679 Y-15.26548
G01 X17.71998 Y-15.07998
G01 X17.72143 Y-12.51059
G01 X17.73679 Y-12.35451
G01 X17.74828 Y-12.29683
G01 X17.79379 Y-12.14676
G01 X17.81630 Y-12.09243
G01 X17.89024 Y-11.95410
G01 X17.92290 Y-11.90521
G01 X18.02239 Y-11.78397
G01 X18.06397 Y-11.74239
G01 X18.20885 Y-11.62538
G01 X18.37243 Y-11.53630
G01 X18.41185 Y-11.51997
G01 X18.57682 Y-11.46828
G01 X18.63451 Y-11.45680
G01 X18.79059 Y-11.44143
G01 X18.84939 Y-11.44143
G01 X19.00547 Y-11.45680
G01 X19.06316 Y-11.46828
G01 X19.21322 Y-11.51379
G01 X19.26755 Y-11.53630
G01 X19.43113 Y-11.62538
G01 X19.59780 Y-11.76218
G01 X19.71705 Y-11.90521
G01 X19.74974 Y-11.95410
G01 X19.82366 Y-12.09243
G01 X19.84616 Y-12.14676
G01 X19.89171 Y-12.29683
G01 X19.90316 Y-12.35451
G01 X19.91998 Y-12.53998
G01 X19.90316 Y-12.72548
G01 X19.89171 Y-12.78311
G01 X19.83626 Y-12.96093
G01 X19.74974 Y-13.12583
G01 X19.71705 Y-13.17475
G01 X19.59780 Y-13.31780
G01 X19.45475 Y-13.43706
G01 X19.40585 Y-13.46975
G01 X19.24093 Y-13.55626
G01 X19.03458 Y-13.61884
G01 X18.84939 Y-13.63856
G01 X18.79059 Y-13.63856
G01 X18.60540 Y-13.61884
G01 X18.39902 Y-13.55626
G01 X18.23410 Y-13.46975
G01 X18.18521 Y-13.43706
G01 X18.06397 Y-13.33757
G01 X18.02239 Y-13.29599
G01 X17.92290 Y-13.17475
G01 X17.89024 Y-13.12583
G01 X17.81630 Y-12.98755
G01 X17.79379 Y-12.93322
G01 X17.74828 Y-12.78311
G01 X17.73679 Y-12.72548
G01 X17.71998 Y-12.53998
G01 X17.72143 Y-9.97059
G01 X17.73679 Y-9.81451
G01 X17.74828 Y-9.75683
G01 X17.79379 Y-9.60676
G01 X17.81630 Y-9.55243
G01 X17.89024 Y-9.41410
G01 X17.92290 Y-9.36521
G01 X18.04218 Y-9.22218
G01 X18.18521 Y-9.10290
G01 X18.23410 Y-9.07024
G01 X18.37243 Y-8.99630
G01 X18.42676 Y-8.97379
G01 X18.57682 Y-8.92828
G01 X18.63451 Y-8.91680
G01 X18.81998 Y-8.89998
G01 X19.00547 Y-8.91680
G01 X19.06316 Y-8.92828
G01 X19.21322 Y-8.97379
G01 X19.26755 Y-8.99630
G01 X19.43113 Y-9.08538
G01 X19.57598 Y-9.20239
G01 X19.61759 Y-9.24397
G01 X19.71705 Y-9.36521
G01 X19.74974 Y-9.41410
G01 X19.83626 Y-9.57903
G01 X19.89171 Y-9.75683
G01 X19.90316 Y-9.81451
G01 X19.91855 Y-9.97059
G01 X19.91855 Y-10.02939
G01 X19.90316 Y-10.18548
G01 X19.89171 Y-10.24313
G01 X19.83626 Y-10.42093
G01 X19.74974 Y-10.58586
G01 X19.71705 Y-10.63475
G01 X19.59780 Y-10.77780
G01 X19.43113 Y-10.91461
G01 X19.26755 Y-11.00366
G01 X19.21322 Y-11.02617
G01 X19.06316 Y-11.07171
G01 X19.00547 Y-11.08316
G01 X18.84939 Y-11.09856
G01 X18.79059 Y-11.09856
G01 X18.63451 Y-11.08316
G01 X18.57682 Y-11.07171
G01 X18.42676 Y-11.02617
G01 X18.37243 Y-11.00366
G01 X18.23410 Y-10.92975
G01 X18.18521 Y-10.89706
G01 X18.04218 Y-10.77780
G01 X17.92290 Y-10.63475
G01 X17.89024 Y-10.58586
G01 X17.80372 Y-10.42093
G01 X17.74828 Y-10.24313
G01 X17.73679 Y-10.18548
G01 X17.71998 Y-9.99998
G01 X17.90144 Y-3.97058
G01 X17.91680 Y-3.81452
G01 X17.92829 Y-3.75684
G01 X17.97380 Y-3.60675
G01 X17.99631 Y-3.55242
G01 X18.08536 Y-3.38887
G01 X18.20240 Y-3.24399
G01 X18.24398 Y-3.20241
G01 X18.38886 Y-3.08536
G01 X18.55241 Y-2.99631
G01 X18.60674 Y-2.97381
G01 X18.75683 Y-2.92826
G01 X18.81452 Y-2.91681
G01 X18.99999 Y-2.89999
G01 X19.18546 Y-2.91681
G01 X19.24314 Y-2.92826
G01 X19.39323 Y-2.97381
G01 X19.44756 Y-2.99631
G01 X19.61111 Y-3.08536
G01 X19.75599 Y-3.20241
G01 X19.79757 Y-3.24399
G01 X19.89706 Y-3.36522
G01 X19.92973 Y-3.41412
G01 X20.01627 Y-3.57904
G01 X20.07169 Y-3.75684
G01 X20.08317 Y-3.81452
G01 X20.09999 Y-3.99999
G01 X20.08317 Y-4.18546
G01 X20.07169 Y-4.24315
G01 X20.04344 Y-4.33631
G01 X23.60696 Y-7.89986
G01 X23.99998 Y-7.89986
G01 X24.06838 Y-7.90517
G01 X24.12606 Y-7.91662
G01 X24.19132 Y-7.93793
G01 X24.25250 Y-7.96900
G01 X24.33170 Y-8.02655
G01 X24.39817 Y-8.09843
G01 X24.43084 Y-8.14733
G01 X24.46190 Y-8.20852
G01 X24.49035 Y-8.30232
G01 X24.49998 Y-8.39988
G01 X24.49998 Y-8.89998
G01 X24.79998 Y-8.89998
G01 X24.85852 Y-8.90575
G01 X24.91478 Y-8.92282
G01 X24.96665 Y-8.95055
G01 X25.01212 Y-8.98787
G01 X25.04943 Y-9.03331
G01 X25.07714 Y-9.08517
G01 X25.09423 Y-9.14146
G01 X25.09998 Y-9.19998
G01 X25.09998 Y-10.79998
G01 X25.09423 Y-10.85853
G01 X25.07714 Y-10.91479
G01 X25.04943 Y-10.96665
G01 X25.01212 Y-11.01212
G01 X24.96665 Y-11.04943
G01 X24.91478 Y-11.07714
G01 X24.85852 Y-11.09421
G01 X24.79998 Y-11.09998
G01 X23.19998 Y-11.09998
G01 X23.14146 Y-11.09421
G01 X23.08517 Y-11.07714
G01 X23.03330 Y-11.04943
G01 X22.98786 Y-11.01212
G01 X22.95055 Y-10.96665
G01 X22.92281 Y-10.91479
G01 X22.90575 Y-10.85853
G01 X22.89998 Y-10.79998
G01 X22.89998 Y-9.19998
G01 X22.90455 Y-9.14789
G01 X22.91809 Y-9.09739
G01 X22.94019 Y-9.04999
G01 X22.97019 Y-9.00714
G01 X23.00714 Y-8.97016
G01 X23.04999 Y-8.94019
G01 X23.09739 Y-8.91807
G01 X23.14788 Y-8.90455
G01 X23.19998 Y-8.89998
G01 X23.49995 Y-8.89998
G01 X23.39988 Y-8.89988
G01 X23.33145 Y-8.89457
G01 X23.23625 Y-8.87174
G01 X23.20851 Y-8.86181
G01 X23.14732 Y-8.83074
G01 X23.09843 Y-8.79808
G01 X23.04631 Y-8.75342
G01 X19.33633 Y-5.04342
G01 X19.24314 Y-5.07169
G01 X19.18546 Y-5.08317
G01 X18.99999 Y-5.09999
G01 X18.81452 Y-5.08317
G01 X18.75683 Y-5.07169
G01 X18.60674 Y-5.02618
G01 X18.55241 Y-5.00367
G01 X18.38886 Y-4.91460
G01 X18.24398 Y-4.79758
G01 X18.20240 Y-4.75600
G01 X18.10291 Y-4.63476
G01 X18.07025 Y-4.58587
G01 X17.98371 Y-4.42095
G01 X17.92829 Y-4.24315
G01 X17.91680 Y-4.18546
G01 X17.89999 Y-3.99999
( Mill infeed pass 2/2 )
G00 Z5.00000 ( retract )
G00 X17.71998 Y-22.69998 ( rapid move to begin. )
G01 Z-0.15000
G04 P0 ( dwell for no time -- G64 should not smooth over this point )
G01 F60.00000
G01 X17.71998 Y-22.69998
G01 X17.73679 Y-22.51451
G01 X17.74828 Y-22.45683
G01 X17.79379 Y-22.30676
G01 X17.81630 Y-22.25243
G01 X17.89024 Y-22.11410
G01 X17.92290 Y-22.06521
G01 X18.04218 Y-21.92218
G01 X18.18521 Y-21.80290
G01 X18.23410 Y-21.77024
G01 X18.39902 Y-21.68373
G01 X18.57682 Y-21.62828
G01 X18.63451 Y-21.61680
G01 X18.79059 Y-21.60143
G01 X18.84939 Y-21.60143
G01 X19.00547 Y-21.61680
G01 X19.06316 Y-21.62828
G01 X19.21322 Y-21.67379
G01 X19.26755 Y-21.69630
G01 X19.43113 Y-21.78538
G01 X19.57598 Y-21.90239
G01 X19.61759 Y-21.94397
G01 X19.71705 Y-22.06521
G01 X19.74974 Y-22.11410
G01 X19.79564 Y-22.19998
G01 X20.21296 Y-22.19996
G01 X21.89985 Y-20.51307
G01 X21.89985 Y-20.15998
G01 X21.90516 Y-20.09155
G01 X21.91662 Y-20.03387
G01 X21.93793 Y-19.96862
G01 X21.96899 Y-19.90743
G01 X22.00166 Y-19.85853
G01 X22.06813 Y-19.78665
G01 X22.14733 Y-19.72909
G01 X22.20852 Y-19.69803
G01 X22.27377 Y-19.67672
G01 X22.33145 Y-19.66526
G01 X22.39988 Y-19.65996
G01 X23.02434 Y-19.65996
G01 X23.07024 Y-19.57410
G01 X23.10290 Y-19.52521
G01 X23.20239 Y-19.40397
G01 X23.24397 Y-19.36239
G01 X23.36521 Y-19.26290
G01 X23.41410 Y-19.23024
G01 X23.55243 Y-19.15630
G01 X23.60676 Y-19.13379
G01 X23.75682 Y-19.08828
G01 X23.81451 Y-19.07680
G01 X23.99998 Y-19.05998
G01 X24.18547 Y-19.07680
G01 X24.24316 Y-19.08828
G01 X24.42093 Y-19.14373
G01 X24.58585 Y-19.23024
G01 X24.63475 Y-19.26290
G01 X24.75598 Y-19.36239
G01 X24.79759 Y-19.40397
G01 X24.89705 Y-19.52521
G01 X24.92974 Y-19.57410
G01 X25.00366 Y-19.71243
G01 X25.02616 Y-19.76676
G01 X25.07170 Y-19.91683
G01 X25.08316 Y-19.97451
G01 X25.09998 Y-20.15998
G01 X25.08316 Y-20.34548
G01 X25.07170 Y-20.40313
G01 X25.02616 Y-20.55322
G01 X25.00366 Y-20.60755
G01 X24.92974 Y-20.74586
G01 X24.89705 Y-20.79475
G01 X24.77780 Y-20.93780
G01 X24.63475 Y-21.05706
G01 X24.58585 Y-21.08975
G01 X24.42093 Y-21.17626
G01 X24.24316 Y-21.23171
G01 X24.18547 Y-21.24316
G01 X24.02939 Y-21.25856
G01 X23.97059 Y-21.25856
G01 X23.81451 Y-21.24316
G01 X23.75682 Y-21.23171
G01 X23.57902 Y-21.17626
G01 X23.41410 Y-21.08975
G01 X23.36521 Y-21.05706
G01 X23.22218 Y-20.93780
G01 X23.10290 Y-20.79475
G01 X23.07024 Y-20.74586
G01 X23.02431 Y-20.65998
G01 X22.89988 Y-20.65998
G01 X22.89457 Y-20.78858
G01 X22.87173 Y-20.88378
G01 X22.86180 Y-20.91152
G01 X22.83074 Y-20.97270
G01 X22.79807 Y-21.02160
G01 X22.75342 Y-21.07372
G01 X20.77362 Y-23.05352
G01 X20.72150 Y-23.09818
G01 X20.67260 Y-23.13084
G01 X20.61141 Y-23.16190
G01 X20.54616 Y-23.18322
G01 X20.48848 Y-23.19467
G01 X20.42005 Y-23.19998
G01 X19.79564 Y-23.19998
G01 X19.74974 Y-23.28586
G01 X19.71705 Y-23.33475
G01 X19.59780 Y-23.47780
G01 X19.45475 Y-23.59706
G01 X19.40585 Y-23.62975
G01 X19.24093 Y-23.71626
G01 X19.06316 Y-23.77171
G01 X19.00547 Y-23.78316
G01 X18.81998 Y-23.79998
G01 X18.63451 Y-23.78316
G01 X18.57682 Y-23.77171
G01 X18.42676 Y-23.72617
G01 X18.37243 Y-23.70366
G01 X18.20885 Y-23.61461
G01 X18.06397 Y-23.49757
G01 X18.02239 Y-23.45599
G01 X17.92290 Y-23.33475
G01 X17.89024 Y-23.28586
G01 X17.80372 Y-23.12093
G01 X17.74828 Y-22.94313
G01 X17.73679 Y-22.88548
G01 X17.71998 Y-22.69998
G01 X17.71998 Y-20.15998
G01 X17.73679 Y-19.97451
G01 X17.74828 Y-19.91683
G01 X17.80372 Y-19.73903
G01 X17.89024 Y-19.57410
G01 X17.92290 Y-19.52521
G01 X18.04218 Y-19.38218
G01 X18.18521 Y-19.26290
G01 X18.23410 Y-19.23024
G01 X18.39902 Y-19.14373
G01 X18.57682 Y-19.08828
G01 X18.63451 Y-19.07680
G01 X18.81998 Y-19.05998
G01 X19.00547 Y-19.07680
G01 X19.06316 Y-19.08828
G01 X19.24093 Y-19.14373
G01 X19.40585 Y-19.23024
G01 X19.45475 Y-19.26290
G01 X19.57598 Y-19.36239
G01 X19.61759 Y-19.40397
G01 X19.71705 Y-19.52521
G01 X19.74974 Y-19.57410
G01 X19.79564 Y-19.65998
G01 X19.92005 Y-19.65996
G01 X19.92536 Y-19.53136
G01 X19.94819 Y-19.43616
G01 X19.95813 Y-19.40842
G01 X19.98919 Y-19.34723
G01 X20.04675 Y-19.26803
G01 X22.04631 Y-17.26641
G01 X22.09843 Y-17.22176
G01 X22.14733 Y-17.18909
G01 X22.20852 Y-17.15803
G01 X22.27377 Y-17.13672
G01 X22.33145 Y-17.12526
G01 X22.39988 Y-17.11996
G01 X23.02434 Y-17.11996
G01 X23.07024 Y-17.03410
G01 X23.10290 Y-16.98521
G01 X23.20239 Y-16.86397
G01 X23.24397 Y-16.82239
G01 X23.36521 Y-16.72290
G01 X23.41410 Y-16.69024
G01 X23.57902 Y-16.60373
G01 X23.75682 Y-16.54828
G01 X23.81451 Y-16.53680
G01 X23.99998 Y-16.51998
G01 X24.18547 Y-16.53680
G01 X24.24316 Y-16.54828
G01 X24.39322 Y-16.59379
G01 X24.44755 Y-16.61630
G01 X24.58585 Y-16.69024
G01 X24.63475 Y-16.72290
G01 X24.75598 Y-16.82239
G01 X24.79759 Y-16.86397
G01 X24.89705 Y-16.98521
G01 X24.92974 Y-17.03410
G01 X25.00366 Y-17.17243
G01 X25.02616 Y-17.22676
G01 X25.07170 Y-17.37683
G01 X25.08316 Y-17.43451
G01 X25.09998 Y-17.61998
G01 X25.08316 Y-17.80548
G01 X25.07170 Y-17.86313
G01 X25.02616 Y-18.01322
G01 X25.00366 Y-18.06755
G01 X24.92974 Y-18.20586
G01 X24.89705 Y-18.25475
G01 X24.77780 Y-18.39780
G01 X24.63475 Y-18.51706
G01 X24.58585 Y-18.54975
G01 X24.42093 Y-18.63626
G01 X24.24316 Y-18.69171
G01 X24.18547 Y-18.70316
G01 X24.02939 Y-18.71856
G01 X23.97059 Y-18.71856
G01 X23.81451 Y-18.70316
G01 X23.75682 Y-18.69171
G01 X23.60676 Y-18.64617
G01 X23.55243 Y-18.62366
G01 X23.38885 Y-18.53461
G01 X23.24397 Y-18.41757
G01 X23.20239 Y-18.37599
G01 X23.10290 Y-18.25475
G01 X23.07024 Y-18.20586
G01 X23.02431 Y-18.11998
G01 X22.60697 Y-18.11998
G01 X20.92008 Y-19.80687
G01 X20.91863 Y-20.18937
G01 X20.90331 Y-20.28607
G01 X20.88200 Y-20.35132
G01 X20.85094 Y-20.41251
G01 X20.79338 Y-20.49170
G01 X20.72150 Y-20.55818
G01 X20.67260 Y-20.59084
G01 X20.61141 Y-20.62190
G01 X20.54616 Y-20.64321
G01 X20.48848 Y-20.65467
G01 X20.42005 Y-20.65998
G01 X19.79564 Y-20.65998
G01 X19.74974 Y-20.74586
G01 X19.71705 Y-20.79475
G01 X19.59780 Y-20.93780
G01 X19.45475 Y-21.05706
G01 X19.40585 Y-21.08975
G01 X19.24093 Y-21.17626
G01 X19.06316 Y-21.23171
G01 X19.00547 Y-21.24316
G01 X18.81998 Y-21.25998
G01 X18.63451 Y-21.24316
G01 X18.57682 Y-21.23171
G01 X18.39902 Y-21.17626
G01 X18.23410 Y-21.08975
G01 X18.18521 Y-21.05706
G01 X18.06397 Y-20.95757
G01 X18.02239 Y-20.91599
G01 X17.92290 Y-20.79475
G01 X17.89024 Y-20.74586
G01 X17.81630 Y-20.60755
G01 X17.79379 Y-20.55322
G01 X17.74828 Y-20.40313
G01 X17.73679 Y-20.34548
G01 X17.71998 Y-20.15998
G01 X17.72143 Y-17.59059
G01 X17.73679 Y-17.43451
G01 X17.74828 Y-17.37683
G01 X17.79379 Y-17.22676
G01 X17.81630 Y-17.17243
G01 X17.89024 Y-17.03410
G01 X17.92290 Y-16.98521
G01 X18.04218 Y-16.84218
G01 X18.18521 Y-16.72290
G01 X18.23410 Y-16.69024
G01 X18.39902 Y-16.60373
G01 X18.57682 Y-16.54828
G01 X18.63451 Y-16.53680
G01 X18.81998 Y-16.51998
G01 X19.00547 Y-16.53680
G01 X19.06316 Y-16.54828
G01 X19.21322 Y-16.59379
G01 X19.26755 Y-16.61630
G01 X19.43113 Y-16.70538
G01 X19.57598 Y-16.82239
G01 X19.61759 Y-16.86397
G01 X19.71705 Y-16.98521
G01 X19.74974 Y-17.03410
G01 X19.79564 Y-17.11998
G01 X19.92005 Y-17.11996
G01 X19.92536 Y-16.99136
G01 X19.94819 Y-16.89616
G01 X19.95813 Y-16.86842
G01 X19.98919 Y-16.80723
G01 X20.04675 Y-16.72803
G01 X22.04631 Y-14.72641
G01 X22.09843 Y-14.68176
G01 X22.14733 Y-14.64909
G01 X22.20852 Y-14.61803
G01 X22.27377 Y-14.59672
G01 X22.33145 Y-14.58526
G01 X22.39988 Y-14.57996
G01 X23.02434 Y-14.57996
G01 X23.07024 Y-14.49410
G01 X23.10290 Y-14.44521
G01 X23.20239 Y-14.32397
G01 X23.24397 Y-14.28239
G01 X23.36521 Y-14.18290
G01 X23.41410 Y-14.15024
G01 X23.57902 Y-14.06373
G01 X23.75682 Y-14.00828
G01 X23.81451 Y-13.99680
G01 X23.99998 Y-13.97998
G01 X24.18547 Y-13.99680
G01 X24.24316 Y-14.00828
G01 X24.42093 Y-14.06373
G01 X24.58585 Y-14.15024
G01 X24.63475 Y-14.18290
G01 X24.75598 Y-14.28239
G01 X24.79759 Y-14.32397
G01 X24.89705 Y-14.44521
G01 X24.92974 Y-14.49410
G01 X25.00366 Y-14.63243
G01 X25.02616 Y-14.68676
G01 X25.07170 Y-14.83683
G01 X25.08316 Y-14.89451
G01 X25.09998 Y-15.07998
G01 X25.08316 Y-15.26548
G01 X25.07170 Y-15.32313
G01 X25.02616 Y-15.47322
G01 X25.00366 Y-15.52755
G01 X24.92974 Y-15.66586
G01 X24.89705 Y-15.71475
G01 X24.77780 Y-15.85780
G01 X24.63475 Y-15.97706
G01 X24.58585 Y-16.00975
G01 X24.42093 Y-16.09626
G01 X24.24316 Y-16.15171
G01 X24.18547 Y-16.16316
G01 X24.02939 Y-16.17856
G01 X23.97059 Y-16.17856
G01 X23.81451 Y-16.16316
G01 X23.75682 Y-16.15171
G01 X23.60676 Y-16.10617
G01 X23.55243 Y-16.08366
G01 X23.41410 Y-16.00975
G01 X23.36521 Y-15.97706
G01 X23.24397 Y-15.87757
G01 X23.20239 Y-15.83599
G01 X23.10290 Y-15.71475
G01 X23.07024 Y-15.66586
G01 X23.02431 Y-15.57998
G01 X22.60697 Y-15.57998
G01 X20.92008 Y-17.26687
G01 X20.91863 Y-17.64937
G01 X20.90331 Y-17.74607
G01 X20.88200 Y-17.81132
G01 X20.85094 Y-17.87251
G01 X20.79338 Y-17.95170
G01 X20.72150 Y-18.01818
G01 X20.67260 Y-18.05084
G01 X20.61141 Y-18.08190
G01 X20.54616 Y-18.10321
G01 X20.48848 Y-18.11467
G01 X20.42005 Y-18.11998
G01 X19.79564 Y-18.11998
G01 X19.74974 Y-18.20586
G01 X19.71705 Y-18.25475
G01 X19.59780 Y-18.39780
G01 X19.45475 Y-18.51706
G01 X19.40585 Y-18.54975
G01 X19.24093 Y-18.63626
G01 X19.06316 Y-18.69171
G01 X19.00547 Y-18.70316
G01 X18.81998 Y-18.71998
G01 X18.63451 Y-18.70316
G01 X18.57682 Y-18.69171
G01 X18.41177 Y-18.63997
G01 X18.37243 Y-18.62366
G01 X18.23410 Y-18.54975
G01 X18.18521 Y-18.51706
G01 X18.06397 Y-18.41757
G01 X18.02239 Y-18.37599
G01 X17.92290 Y-18.25475
G01 X17.89024 Y-18.20586
G01 X17.81630 Y-18.06755
G01 X17.79379 Y-18.01322
G01 X17.74828 Y-17.86313
G01 X17.73679 Y-17.80548
G01 X17.72143 Y-17.64939
G01 X17.72143 Y-15.05059
G01 X17.73679 Y-14.89451
G01 X17.74828 Y-14.83683
G01 X17.79379 Y-14.68676
G01 X17.81630 Y-14.63243
G01 X17.89024 Y-14.49410
G01 X17.92290 Y-14.44521
G01 X18.04218 Y-14.30218
G01 X18.18521 Y-14.18290
G01 X18.23410 Y-14.15024
G01 X18.39902 Y-14.06373
G01 X18.57682 Y-14.00828
G01 X18.63451 Y-13.99680
G01 X18.81998 Y-13.97998
G01 X19.00547 Y-13.99680
G01 X19.06316 Y-14.00828
G01 X19.24093 Y-14.06373
G01 X19.40585 Y-14.15024
G01 X19.45475 Y-14.18290
G01 X19.57598 Y-14.28239
G01 X19.61759 Y-14.32397
G01 X19.71705 Y-14.44521
G01 X19.74974 Y-14.49410
G01 X19.79564 Y-14.57998
G01 X20.21296 Y-14.57996
G01 X21.89985 Y-12.89304
G01 X21.89985 Y-12.53998
G01 X21.90516 Y-12.47155
G01 X21.91662 Y-12.41387
G01 X21.93793 Y-12.34862
G01 X21.98413 Y-12.26218
G01 X22.02655 Y-12.20823
G01 X22.06813 Y-12.16665
G01 X22.14733 Y-12.10909
G01 X22.20852 Y-12.07803
G01 X22.27377 Y-12.05672
G01 X22.33145 Y-12.04526
G01 X22.39988 Y-12.03996
G01 X23.02434 Y-12.03996
G01 X23.07024 Y-11.95410
G01 X23.10290 Y-11.90521
G01 X23.20239 Y-11.78397
G01 X23.24397 Y-11.74239
G01 X23.36521 Y-11.64290
G01 X23.41410 Y-11.61024
G01 X23.55243 Y-11.53630
G01 X23.60676 Y-11.51379
G01 X23.75682 Y-11.46828
G01 X23.81451 Y-11.45680
G01 X23.99998 Y-11.43998
G01 X24.18547 Y-11.45680
G01 X24.24316 Y-11.46828
G01 X24.39322 Y-11.51379
G01 X24.44755 Y-11.53630
G01 X24.58585 Y-11.61024
G01 X24.63475 Y-11.64290
G01 X24.75598 Y-11.74239
G01 X24.79759 Y-11.78397
G01 X24.89705 Y-11.90521
G01 X24.92974 Y-11.95410
G01 X25.00366 Y-12.09243
G01 X25.02616 Y-12.14676
G01 X25.07170 Y-12.29683
G01 X25.08316 Y-12.35451
G01 X25.09998 Y-12.53998
G01 X25.08316 Y-12.72548
G01 X25.07170 Y-12.78311
G01 X25.01626 Y-12.96093
G01 X24.92974 Y-13.12583
G01 X24.89705 Y-13.17475
G01 X24.79759 Y-13.29599
G01 X24.75598 Y-13.33757
G01 X24.63475 Y-13.43706
G01 X24.58585 Y-13.46975
G01 X24.42093 Y-13.55626
G01 X24.21458 Y-13.61884
G01 X24.02939 Y-13.63856
G01 X23.97059 Y-13.63856
G01 X23.78540 Y-13.61884
G01 X23.57902 Y-13.55626
G01 X23.41410 Y-13.46975
G01 X23.36521 Y-13.43706
G01 X23.22218 Y-13.31780
G01 X23.10290 Y-13.17475
G01 X23.07024 Y-13.12583
G01 X23.02431 Y-13.03998
G01 X22.89988 Y-13.03998
G01 X22.89457 Y-13.16855
G01 X22.87173 Y-13.26373
G01 X22.83074 Y-13.35268
G01 X22.79807 Y-13.40157
G01 X22.75342 Y-13.45369
G01 X20.77362 Y-15.43352
G01 X20.68721 Y-15.50088
G01 X20.62566 Y-15.53533
G01 X20.56331 Y-15.55892
G01 X20.52879 Y-15.56649
G01 X20.42005 Y-15.57998
G01 X19.79564 Y-15.57998
G01 X19.74974 Y-15.66586
G01 X19.71705 Y-15.71475
G01 X19.61759 Y-15.83599
G01 X19.57598 Y-15.87757
G01 X19.45475 Y-15.97706
G01 X19.40585 Y-16.00975
G01 X19.24093 Y-16.09626
G01 X19.06316 Y-16.15171
G01 X19.00547 Y-16.16316
G01 X18.84939 Y-16.17856
G01 X18.79059 Y-16.17856
G01 X18.63451 Y-16.16316
G01 X18.57682 Y-16.15171
G01 X18.42676 Y-16.10617
G01 X18.37243 Y-16.08366
G01 X18.23410 Y-16.00975
G01 X18.18521 Y-15.97706
G01 X18.06397 Y-15.87757
G01 X18.02239 Y-15.83599
G01 X17.92290 Y-15.71475
G01 X17.89024 Y-15.66586
G01 X17.80372 Y-15.50093
G01 X17.74828 Y-15.32313
G01 X17.73679 Y-15.26548
G01 X17.71998 Y-15.07998
G01 X17.72143 Y-12.51059
G01 X17.73679 Y-12.35451
G01 X17.74828 Y-12.29683
G01 X17.79379 Y-12.14676
G01 X17.81630 Y-12.09243
G01 X17.89024 Y-11.95410
G01 X17.92290 Y-11.90521
G01 X18.02239 Y-11.78397
G01 X18.06397 Y-11.74239
G01 X18.20885 Y-11.62538
G01 X18.37243 Y-11.53630
G01 X18.41185 Y-11.51997
G01 X18.57682 Y-11.46828
G01 X18.63451 Y-11.45680
G01 X18.79059 Y-11.44143
G01 X18.84939 Y-11.44143
G01 X19.00547 Y-11.45680
G01 X19.06316 Y-11.46828
G01 X19.21322 Y-11.51379
G01 X19.26755 Y-11.53630
G01 X19.43113 Y-11.62538
G01 X19.59780 Y-11.76218
G01 X19.71705 Y-11.90521
G01 X19.74974 Y-11.95410
G01 X19.82366 Y-12.09243
G01 X19.84616 Y-12.14676
G01 X19.89171 Y-12.29683
G01 X19.90316 Y-12.35451
G01 X19.91998 Y-12.53998
G01 X19.90316 Y-12.72548
G01 X19.89171 Y-12.78311
G01 X19.83626 Y-12.96093
G01 X19.74974 Y-13.12583
G01 X19.71705 Y-13.17475
G01 X19.59780 Y-13.31780
G01 X19.45475 Y-13.43706
G01 X19.40585 Y-13.46975
G01 X19.24093 Y-13.55626
G01 X19.03458 Y-13.61884
G01 X18.84939 Y-13.63856
G01 X18.79059 Y-13.63856
G01 X18.60540 Y-13.61884
G01 X18.39902 Y-13.55626
G01 X18.23410 Y-13.46975
G01 X18.18521 Y-13.43706
G01 X18.06397 Y-13.33757
G01 X18.02239 Y-13.29599
G01 X17.92290 Y-13.17475
G01 X17.89024 Y-13.12583
G01 X17.81630 Y-12.98755
G01 X17.79379 Y-12.93322
G01 X17.74828 Y-12.78311
G01 X17.73679 Y-12.72548
G01 X17.71998 Y-12.53998
G01 X17.72143 Y-9.97059
G01 X17.73679 Y-9.81451
G01 X17.74828 Y-9.75683
G01 X17.79379 Y-9.60676
G01 X17.81630 Y-9.55243
G01 X17.89024 Y-9.41410
G01 X17.92290 Y-9.36521
G01 X18.04218 Y-9.22218
G01 X18.18521 Y-9.10290
G01 X18.23410 Y-9.07024
G01 X18.37243 Y-8.99630
G01 X18.42676 Y-8.97379
G01 X18.57682 Y-8.92828
G01 X18.63451 Y-8.91680
G01 X18.81998 Y-8.89998
G01 X19.00547 Y-8.91680
G01 X19.06316 Y-8.92828
G01 X19.21322 Y-8.97379
G01 X19.26755 Y-8.99630
G01 X19.43113 Y-9.08538
G01 X19.57598 Y-9.20239
G01 X19.61759 Y-9.24397
G01 X19.71705 Y-9.36521
G01 X19.74974 Y-9.41410
G01 X19.83626 Y-9.57903
G01 X19.89171 Y-9.75683
G01 X19.90316 Y-9.81451
G01 X19.91855 Y-9.97059
G01 X19.91855 Y-10.02939
G01 X19.90316 Y-10.18548
G01 X19.89171 Y-10.24313
G01 X19.83626 Y-10.42093
G01 X19.74974 Y-10.58586
G01 X19.71705 Y-10.63475
G01 X19.59780 Y-10.77780
G01 X19.43113 Y-10.91461
G01 X19.26755 Y-11.00366
G01 X19.21322 Y-11.02617
G01 X19.06316 Y-11.07171
G01 X19.00547 Y-11.08316
G01 X18.84939 Y-11.09856
G01 X18.79059 Y-11.09856
G01 X18.63451 Y-11.08316
G01 X18.57682 Y-11.07171
G01 X18.42676 Y-11.02617
G01 X18.37243 Y-11.00366
G01 X18.23410 Y-10.92975
G01 X18.18521 Y-10.89706
G01 X18.04218 Y-10.77780
G01 X17.92290 Y-10.63475
G01 X17.89024 Y-10.58586
G01 X17.80372 Y-10.42093
G01 X17.74828 Y-10.24313
G01 X17.73679 Y-10.18548
G01 X17.71998 Y-9.99998
G01 X17.90144 Y-3.97058
G01 X17.91680 Y-3.81452
G01 X17.92829 Y-3.75684
G01 X17.97380 Y-3.60675
G01 X17.99631 Y-3.55242
G01 X18.08536 Y-3.38887
G01 X18.20240 Y-3.24399
G01 X18.24398 Y-3.20241
G01 X18.38886 Y-3.08536
G01 X18.55241 Y-2.99631
G01 X18.60674 Y-2.97381
G01 X18.75683 Y-2.92826
G01 X18.81452 Y-2.91681
G01 X18.99999 Y-2.89999
G01 X19.18546 Y-2.91681
G01 X19.24314 Y-2.92826
G01 X19.39323 Y-2.97381
G01 X19.44756 Y-2.99631
G01 X19.61111 Y-3.08536
G01 X19.75599 Y-3.20241
G01 X19.79757 Y-3.24399
G01 X19.89706 Y-3.36522
G01 X19.92973 Y-3.41412
G01 X20.01627 Y-3.57904
G01 X20.07169 Y-3.75684
G01 X20.08317 Y-3.81452
G01 X20.09999 Y-3.99999
G01 X20.08317 Y-4.18546
G01 X20.07169 Y-4.24315
G01 X20.04344 Y-4.33631
G01 X23.60696 Y-7.89986
G01 X23.99998 Y-7.89986
G01 X24.06838 Y-7.90517
G01 X24.12606 Y-7.91662
G01 X24.19132 Y-7.93793
G01 X24.25250 Y-7.96900
G01 X24.33170 Y-8.02655
G01 X24.39817 Y-8.09843
G01 X24.43084 Y-8.14733
G01 X24.46190 Y-8.20852
G01 X24.49035 Y-8.30232
G01 X24.49998 Y-8.39988
G01 X24.49998 Y-8.89998
G01 X24.79998 Y-8.89998
G01 X24.85852 Y-8.90575
G01 X24.91478 Y-8.92282
G01 X24.96665 Y-8.95055
G01 X25.01212 Y-8.98787
G01 X25.04943 Y-9.03331
G01 X25.07714 Y-9.08517
G01 X25.09423 Y-9.14146
G01 X25.09998 Y-9.19998
G01 X25.09998 Y-10.79998
G01 X25.09423 Y-10.85853
G01 X25.07714 Y-10.91479
G01 X25.04943 Y-10.96665
G01 X25.01212 Y-11.01212
G01 X24.96665 Y-11.04943
G01 X24.91478 Y-11.07714
G01 X24.85852 Y-11.09421
G01 X24.79998 Y-11.09998
G01 X23.19998 Y-11.09998
G01 X23.14146 Y-11.09421
G01 X23.08517 Y-11.07714
G01 X23.03330 Y-11.04943
G01 X22.98786 Y-11.01212
G01 X22.95055 Y-10.96665
G01 X22.92281 Y-10.91479
G01 X22.90575 Y-10.85853
G01 X22.89998 Y-10.79998
G01 X22.89998 Y-9.19998
G01 X22.90455 Y-9.14789
G01 X22.91809 Y-9.09739
G01 X22.94019 Y-9.04999
G01 X22.97019 Y-9.00714
G01 X23.00714 Y-8.97016
G01 X23.04999 Y-8.94019
G01 X23.09739 Y-8.91807
G01 X23.14788 Y-8.90455
G01 X23.19998 Y-8.89998
G01 X23.49995 Y-8.89998
G01 X23.39988 Y-8.89988
G01 X23.33145 Y-8.89457
G01 X23.23625 Y-8.87174
G01 X23.20851 Y-8.86181
G01 X23.14732 Y-8.83074
G01 X23.09843 Y-8.79808
G01 X23.04631 Y-8.75342
G01 X19.33633 Y-5.04342
G01 X19.24314 Y-5.07169
G01 X19.18546 Y-5.08317
G01 X18.99999 Y-5.09999
G01 X18.81452 Y-5.08317
G01 X18.75683 Y-5.07169
G01 X18.60674 Y-5.02618
G01 X18.55241 Y-5.00367
G01 X18.38886 Y-4.91460
G01 X18.24398 Y-4.79758
G01 X18.20240 Y-4.75600
G01 X18.10291 Y-4.63476
G01 X18.07025 Y-4.58587
G01 X17.98371 Y-4.42095
G01 X17.92829 Y-4.24315
G01 X17.91680 Y-4.18546
G01 X17.89999 Y-3.99999
G04 P0 ( dwell for no time -- G64 should not smooth over this point )
G00 Z5.00000 ( retract )

G00 X26.12634 Y-9.78520 ( rapid move to begin. )
G01 F30.00000
( Mill infeed pass 1/2 )
G01 Z-0.07500
G04 P0 ( dwell for no time -- G64 should not smooth over this point )
G01 F60.00000
G01 X26.12634 Y-9.78520
G01 X26.12634 Y-9.72637
G01 X26.14026 Y-9.59973
G01 X26.18577 Y-9.44964
G01 X26.24455 Y-9.33658
G01 X26.27724 Y-9.28769
G01 X26.35918 Y-9.19010
G01 X26.48044 Y-9.09061
G01 X26.59212 Y-9.02927
G01 X26.64645 Y-9.00676
G01 X26.74026 Y-8.97832
G01 X26.79794 Y-8.96683
G01 X26.89548 Y-8.95723
G01 X26.95430 Y-8.95723
G01 X27.01074 Y-8.96280
G01 X29.19301 Y-6.78053
G01 X29.24513 Y-6.73588
G01 X29.29402 Y-6.70321
G01 X29.35521 Y-6.67215
G01 X29.42046 Y-6.65084
G01 X29.47815 Y-6.63938
G01 X29.54658 Y-6.63407
G01 X38.54867 Y-6.63407
G01 X38.99632 Y-6.18642
G01 X39.04844 Y-6.14177
G01 X39.13193 Y-6.09062
G01 X39.15852 Y-6.07804
G01 X39.22377 Y-6.05673
G01 X39.32047 Y-6.04142
G01 X39.96792 Y-6.03997
G01 X40.04379 Y-5.90108
G01 X40.16705 Y-5.74863
G01 X40.20863 Y-5.70705
G01 X40.36108 Y-5.58381
G01 X40.53329 Y-5.49011
G01 X40.58763 Y-5.46760
G01 X40.77564 Y-5.41208
G01 X40.97058 Y-5.39143
G01 X41.02938 Y-5.39143
G01 X41.22435 Y-5.41208
G01 X41.41236 Y-5.46760
G01 X41.46669 Y-5.49011
G01 X41.61363 Y-5.56867
G01 X41.66253 Y-5.60133
G01 X41.79136 Y-5.70705
G01 X41.83294 Y-5.74863
G01 X41.95618 Y-5.90108
G01 X42.04985 Y-6.07329
G01 X42.07236 Y-6.12762
G01 X42.12788 Y-6.31563
G01 X42.14853 Y-6.51058
G01 X42.14853 Y-6.56938
G01 X42.12788 Y-6.76435
G01 X42.07236 Y-6.95236
G01 X42.04985 Y-7.00669
G01 X41.95618 Y-7.17890
G01 X41.83294 Y-7.33135
G01 X41.79136 Y-7.37293
G01 X41.63888 Y-7.49618
G01 X41.46669 Y-7.58985
G01 X41.41236 Y-7.61235
G01 X41.25290 Y-7.66074
G01 X41.19522 Y-7.67222
G01 X41.02938 Y-7.68855
G01 X40.97058 Y-7.68855
G01 X40.80474 Y-7.67222
G01 X40.74709 Y-7.66074
G01 X40.58763 Y-7.61235
G01 X40.53329 Y-7.58985
G01 X40.36108 Y-7.49618
G01 X40.20863 Y-7.37293
G01 X40.16705 Y-7.33135
G01 X40.04379 Y-7.17890
G01 X39.96792 Y-7.03999
G01 X39.55697 Y-7.03999
G01 X39.10932 Y-7.48764
G01 X39.05720 Y-7.53229
G01 X39.00830 Y-7.56496
G01 X38.94712 Y-7.59602
G01 X38.88186 Y-7.61733
G01 X38.78516 Y-7.63265
G01 X29.75366 Y-7.63410
G01 X27.71788 Y-9.66988
G01 X27.72344 Y-9.72637
G01 X27.72344 Y-9.78520
G01 X27.71384 Y-9.88273
G01 X27.70236 Y-9.94042
G01 X27.67391 Y-10.03422
G01 X27.65141 Y-10.08855
G01 X27.60520 Y-10.17499
G01 X27.57251 Y-10.22388
G01 X27.49057 Y-10.32147
G01 X27.36934 Y-10.42096
G01 X27.25765 Y-10.48230
G01 X27.20332 Y-10.50480
G01 X27.08097 Y-10.54042
G01 X26.95430 Y-10.55433
G01 X26.89548 Y-10.55433
G01 X26.76881 Y-10.54042
G01 X26.64645 Y-10.50480
G01 X26.59212 Y-10.48230
G01 X26.48044 Y-10.42096
G01 X26.35918 Y-10.32147
G01 X26.27724 Y-10.22388
G01 X26.24455 Y-10.17499
G01 X26.18577 Y-10.06193
G01 X26.14742 Y-9.94042
G01 X26.13594 Y-9.88273
G01 X26.12634 Y-9.78520
G01 X23.24397 Y-4.79758
G01 X22.89998 Y-3.99999
G01 X22.91679 Y-3.81452
G01 X22.92828 Y-3.75684
G01 X22.98372 Y-3.57904
G01 X23.07024 Y-3.41412
G01 X23.10290 Y-3.36522
G01 X23.20239 Y-3.24399
G01 X23.24397 Y-3.20241
G01 X23.38885 Y-3.08536
G01 X23.55243 Y-2.99631
G01 X23.60676 Y-2.97381
G01 X23.75682 Y-2.92826
G01 X23.81451 Y-2.91681
G01 X23.99998 Y-2.89999
G01 X24.18547 Y-2.91681
G01 X24.24316 Y-2.92826
G01 X24.39322 Y-2.97381
G01 X24.44755 Y-2.99631
G01 X24.58585 Y-3.07022
G01 X24.63475 Y-3.10291
G01 X24.75598 Y-3.20241
G01 X24.79759 Y-3.24399
G01 X24.89705 Y-3.36522
G01 X24.92974 Y-3.41412
G01 X24.97564 Y-3.49997
G01 X25.62944 Y-3.50142
G01 X25.72614 Y-3.51673
G01 X25.81798 Y-3.55062
G01 X25.85255 Y-3.56911
G01 X25.90147 Y-3.60177
G01 X25.95359 Y-3.64642
G01 X27.40807 Y-5.10085
G01 X37.54189 Y-5.10085
G01 X38.99632 Y-3.64642
G01 X39.07208 Y-3.58424
G01 X39.13193 Y-3.55062
G01 X39.18626 Y-3.52811
G01 X39.28146 Y-3.50528
G01 X39.34988 Y-3.49997
G01 X39.84998 Y-3.49997
G01 X39.84998 Y-3.14998
G01 X39.85575 Y-3.09146
G01 X39.87282 Y-3.03517
G01 X39.90056 Y-2.98331
G01 X39.93787 Y-2.93787
G01 X39.98331 Y-2.90055
G01 X40.03518 Y-2.87282
G01 X40.09146 Y-2.85575
G01 X40.14998 Y-2.84998
G01 X41.84998 Y-2.84998
G01 X41.90853 Y-2.85575
G01 X41.96479 Y-2.87282
G01 X42.01665 Y-2.90055
G01 X42.06212 Y-2.93787
G01 X42.09943 Y-2.98331
G01 X42.12714 Y-3.03517
G01 X42.14421 Y-3.09146
G01 X42.14998 Y-3.14998
G01 X42.14998 Y-4.84998
G01 X42.14421 Y-4.90852
G01 X42.12714 Y-4.96479
G01 X42.09943 Y-5.01665
G01 X42.06212 Y-5.06212
G01 X42.01665 Y-5.09943
G01 X41.96479 Y-5.12714
G01 X41.90853 Y-5.14421
G01 X41.84998 Y-5.14998
G01 X40.14998 Y-5.14998
G01 X40.09146 Y-5.14421
G01 X40.03518 Y-5.12714
G01 X39.98331 Y-5.09943
G01 X39.93787 Y-5.06212
G01 X39.90056 Y-5.01665
G01 X39.87282 Y-4.96479
G01 X39.85575 Y-4.90852
G01 X39.84998 Y-4.84998
G01 X39.84998 Y-4.49999
G01 X39.55697 Y-4.49999
G01 X38.08072 Y-5.97418
G01 X38.02677 Y-6.01660
G01 X37.96693 Y-6.05023
G01 X37.87508 Y-6.08411
G01 X37.77839 Y-6.09943
G01 X27.20099 Y-6.10088
G01 X27.13256 Y-6.09557
G01 X27.07488 Y-6.08411
G01 X26.98303 Y-6.05023
G01 X26.89954 Y-5.99907
G01 X26.84742 Y-5.95442
G01 X25.39294 Y-4.49999
G01 X24.97564 Y-4.49997
G01 X24.92974 Y-4.58587
G01 X24.89705 Y-4.63476
G01 X24.79759 Y-4.75600
G01 X24.75598 Y-4.79758
G01 X24.61113 Y-4.91460
G01 X24.44755 Y-5.00367
G01 X24.39322 Y-5.02618
G01 X24.24316 Y-5.07169
G01 X24.18547 Y-5.08317
G01 X24.02939 Y-5.09854
G01 X23.97059 Y-5.09854
G01 X23.81451 Y-5.08317
G01 X23.75682 Y-5.07169
G01 X23.60676 Y-5.02618
G01 X23.55243 Y-5.00367
G01 X23.38885 Y-4.91460
G01 X23.22218 Y-4.77782
G01 X23.10290 Y-4.63476
G01 X23.07024 Y-4.58587
G01 X22.99630 Y-4.44757
G01 X22.97379 Y-4.39321
G01 X22.92828 Y-4.24315
G01 X22.91679 Y-4.18546
G01 X22.89998 Y-3.99999
( Mill infeed pass 2/2 )
G00 Z5.00000 ( retract )
G00 X26.12634 Y-9.78520 ( rapid move to begin. )
G01 Z-0.15000
G04 P0 ( dwell for no time -- G64 should not smooth over this point )
G01 F60.00000
G01 X26.12634 Y-9.78520
G01 X26.12634 Y-9.72637
G01 X26.14026 Y-9.59973
G01 X26.18577 Y-9.44964
G01 X26.24455 Y-9.33658
G01 X26.27724 Y-9.28769
G01 X26.35918 Y-9.19010
G01 X26.48044 Y-9.09061
G01 X26.59212 Y-9.02927
G01 X26.64645 Y-9.00676
G01 X26.74026 Y-8.97832
G01 X26.79794 Y-8.96683
G01 X26.89548 Y-8.95723
G01 X26.95430 Y-8.95723
G01 X27.01074 Y-8.96280
G01 X29.19301 Y-6.78053
G01 X29.24513 Y-6.73588
G01 X29.29402 Y-6.70321
G01 X29.35521 Y-6.67215
G01 X29.42046 Y-6.65084
G01 X29.47815 Y-6.63938
G01 X29.54658 Y-6.63407
G01 X38.54867 Y-6.63407
G01 X38.99632 Y-6.18642
G01 X39.04844 Y-6.14177
G01 X39.13193 Y-6.09062
G01 X39.15852 Y-6.07804
G01 X39.22377 Y-6.05673
G01 X39.32047 Y-6.04142
G01 X39.96792 Y-6.03997
G01 X40.04379 Y-5.90108
G01 X40.16705 Y-5.74863
G01 X40.20863 Y-5.70705
G01 X40.36108 Y-5.58381
G01 X40.53329 Y-5.49011
G01 X40.58763 Y-5.46760
G01 X40.77564 Y-5.41208
G01 X40.97058 Y-5.39143
G01 X41.02938 Y-5.39143
G01 X41.22435 Y-5.41208
G01 X41.41236 Y-5.46760
G01 X41.46669 Y-5.49011
G01 X41.61363 Y-5.56867
G01 X41.66253 Y-5.60133
G01 X41.79136 Y-5.70705
G01 X41.83294 Y-5.74863
G01 X41.95618 Y-5.90108
G01 X42.04985 Y-6.07329
G01 X42.07236 Y-6.12762
G01 X42.12788 Y-6.31563
G01 X42.14853 Y-6.51058
G01 X42.14853 Y-6.56938
G01 X42.12788 Y-6.76435
G01 X42.07236 Y-6.95236
G01 X42.04985 Y-7.00669
G01 X41.95618 Y-7.17890
G01 X41.83294 Y-7.33135
G01 X41.79136 Y-7.37293
G01 X41.63888 Y-7.49618
G01 X41.46669 Y-7.58985
G01 X41.41236 Y-7.61235
G01 X41.25290 Y-7.66074
G01 X41.19522 Y-7.67222
G01 X41.02938 Y-7.68855
G01 X40.97058 Y-7.68855
G01 X40.80474 Y-7.67222
G01 X40.74709 Y-7.66074
G01 X40.58763 Y-7.61235
G01 X40.53329 Y-7.58985
G01 X40.36108 Y-7.49618
G01 X40.20863 Y-7.37293
G01 X40.16705 Y-7.33135
G01 X40.04379 Y-7.17890
G01 X39.96792 Y-7.03999
G01 X39.55697 Y-7.03999
G01 X39.10932 Y-7.48764
G01 X39.05720 Y-7.53229
G01 X39.00830 Y-7.56496
G01 X38.94712 Y-7.59602
G01 X38.88186 Y-7.61733
G01 X38.78516 Y-7.63265
G01 X29.75366 Y-7.63410
G01 X27.71788 Y-9.66988
G01 X27.72344 Y-9.72637
G01 X27.72344 Y-9.78520
G01 X27.71384 Y-9.88273
G01 X27.70236 Y-9.94042
G01 X27.67391 Y-10.03422
G01 X27.65141 Y-10.08855
G01 X27.60520 Y-10.17499
G01 X27.57251 Y-10.22388
G01 X27.49057 Y-10.32147
G01 X27.36934 Y-10.42096
G01 X27.25765 Y-10.48230
G01 X27.20332 Y-10.50480
G01 X27.08097 Y-10.54042
G01 X26.95430 Y-10.55433
G01 X26.89548 Y-10.55433
G01 X26.76881 Y-10.54042
G01 X26.64645 Y-10.50480
G01 X26.59212 Y-10.48230
G01 X26.48044 Y-10.42096
G01 X26.35918 Y-10.32147
G01 X26.27724 Y-10.22388
G01 X26.24455 Y-10.17499
G01 X26.18577 Y-10.06193
G01 X26.14742 Y-9.94042
G01 X26.13594 Y-9.88273
G01 X26.12634 Y-9.78520
G01 X23.24397 Y-4.79758
G01 X22.89998 Y-3.99999
G01 X22.91679 Y-3.81452
G01 X22.92828 Y-3.75684
G01 X22.98372 Y-3.57904
G01 X23.07024 Y-3.41412
G01 X23.10290 Y-3.36522
G01 X23.20239 Y-3.24399
G01 X23.24397 Y-3.20241
G01 X23.38885 Y-3.08536
G01 X23.55243 Y-2.99631
G01 X23.60676 Y-2.97381
G01 X23.75682 Y-2.92826
G01 X23.81451 Y-2.91681
G01 X23.99998 Y-2.89999
G01 X24.18547 Y-2.91681
G01 X24.24316 Y-2.92826
G01 X24.39322 Y-2.97381
G01 X24.44755 Y-2.99631
G01 X24.58585 Y-3.07022
G01 X24.63475 Y-3.10291
G01 X24.75598 Y-3.20241
G01 X24.79759 Y-3.24399
G01 X24.89705 Y-3.36522
G01 X24.92974 Y-3.41412
G01 X24.97564 Y-3.49997
G01 X25.62944 Y-3.50142
G01 X25.72614 Y-3.51673
G01 X25.81798 Y-3.55062
G01 X25.85255 Y-3.56911
G01 X25.90147 Y-3.60177
G01 X25.95359 Y-3.64642
G01 X27.40807 Y-5.10085
G01 X37.54189 Y-5.10085
G01 X38.99632 Y-3.64642
G01 X39.07208 Y-3.58424
G01 X39.13193 Y-3.55062
G01 X39.18626 Y-3.52811
G01 X39.28146 Y-3.50528
G01 X39.34988 Y-3.49997
G01 X39.84998 Y-3.49997
G01 X39.84998 Y-3.14998
G01 X39.85575 Y-3.09146
G01 X39.87282 Y-3.03517
G01 X39.90056 Y-2.98331
G01 X39.93787 Y-2.93787
G01 X39.98331 Y-2.90055
G01 X40.03518 Y-2.87282
G01 X40.09146 Y-2.85575
G01 X40.14998 Y-2.84998
G01 X41.84998 Y-2.84998
G01 X41.90853 Y-2.85575
G01 X41.96479 Y-2.87282
G01 X42.01665 Y-2.90055
G01 X42.06212 Y-2.93787
G01 X42.09943 Y-2.98331
G01 X42.12714 Y-3.03517
G01 X42.14421 Y-3.09146
G01 X42.14998 Y-3.14998
G01 X42.14998 Y-4.84998
G01 X42.14421 Y-4.90852
G01 X42.12714 Y-4.96479
G01 X42.09943 Y-5.01665
G01 X42.06212 Y-5.06212
G01 X42.01665 Y-5.09943
G01 X41.96479 Y-5.12714
G01 X41.90853 Y-5.14421
G01 X41.84998 Y-5.14998
G01 X40.14998 Y-5.14998
G01 X40.09146 Y-5.14421
G01 X40.03518 Y-5.12714
G01 X39.98331 Y-5.09943
G01 X39.93787 Y-5.06212
G01 X39.90056 Y-5.01665
G01 X39.87282 Y-4.96479
G01 X39.85575 Y-4.90852
G01 X39.84998 Y-4.84998
G01 X39.84998 Y-4.49999
G01 X39.55697 Y-4.49999
G01 X38.08072 Y-5.97418
G01 X38.02677 Y-6.01660
G01 X37.96693 Y-6.05023
G01 X37.87508 Y-6.08411
G01 X37.77839 Y-6.09943
G01 X27.20099 Y-6.10088
G01 X27.13256 Y-6.09557
G01 X27.07488 Y-6.08411
G01 X26.98303 Y-6.05023
G01 X26.89954 Y-5.99907
G01 X26.84742 Y-5.95442
G01 X25.39294 Y-4.49999
G01 X24.97564 Y-4.49997
G01 X24.92974 Y-4.58587
G01 X24.89705 Y-4.63476
G01 X24.79759 Y-4.75600
G01 X24.75598 Y-4.79758
G01 X24.61113 Y-4.91460
G01 X24.44755 Y-5.00367
G01 X24.39322 Y-5.02618
G01 X24.24316 Y-5.07169
G01 X24.18547 Y-5.08317
G01 X24.02939 Y-5.09854
G01 X23.97059 Y-5.09854
G01 X23.81451 Y-5.08317
G01 X23.75682 Y-5.07169
G01 X23.60676 Y-5.02618
G01 X23.55243 Y-5.00367
G01 X23.38885 Y-4.91460
G01 X23.22218 Y-4.77782
G01 X23.10290 Y-4.63476
G01 X23.07024 Y-4.58587
G01 X22.99630 Y-4.44757
G01 X22.97379 Y-4.39321
G01 X22.92828 Y-4.24315
G01 X22.91679 Y-4.18546
G01 X22.89998 Y-3.99999
G04 P0 ( dwell for no time -- G64 should not smooth over this point )
G00 Z5.00000 ( retract )

G00 X30.52143 Y-10.02939 ( rapid move to begin. )
G01 F30.00000
( Mill infeed pass 1/2 )
G01 Z-0.07500
G04 P0 ( dwell for no time -- G64 should not smooth over this point )
G01 F60.00000
G01 X30.52143 Y-10.02939
G01 X30.52143 Y-9.97059
G01 X30.53679 Y-9.81451
G01 X30.54828 Y-9.75683
G01 X30.60372 Y-9.57903
G01 X30.69024 Y-9.41410
G01 X30.72290 Y-9.36521
G01 X30.84218 Y-9.22218
G01 X30.98521 Y-9.10290
G01 X31.03410 Y-9.07024
G01 X31.19902 Y-8.98373
G01 X31.40540 Y-8.92112
G01 X31.59059 Y-8.90143
G01 X31.64939 Y-8.90143
G01 X31.83458 Y-8.92112
G01 X32.01322 Y-8.97379
G01 X32.06755 Y-8.99630
G01 X32.23113 Y-9.08538
G01 X32.39780 Y-9.22218
G01 X32.51705 Y-9.36521
G01 X32.54974 Y-9.41410
G01 X32.63626 Y-9.57903
G01 X32.69170 Y-9.75683
G01 X32.70316 Y-9.81451
G01 X32.71855 Y-9.97059
G01 X32.71855 Y-10.02939
G01 X32.70316 Y-10.18548
G01 X32.69170 Y-10.24313
G01 X32.63626 Y-10.42093
G01 X32.54974 Y-10.58586
G01 X32.51705 Y-10.63475
G01 X32.39780 Y-10.77780
G01 X32.25475 Y-10.89706
G01 X32.20585 Y-10.92975
G01 X32.06755 Y-11.00366
G01 X32.01322 Y-11.02617
G01 X31.86316 Y-11.07171
G01 X31.80547 Y-11.08316
G01 X31.64939 Y-11.09856
G01 X31.59059 Y-11.09856
G01 X31.40540 Y-11.07884
G01 X31.22676 Y-11.02617
G01 X31.17243 Y-11.00366
G01 X31.00885 Y-10.91461
G01 X30.84218 Y-10.77780
G01 X30.72290 Y-10.63475
G01 X30.69024 Y-10.58586
G01 X30.61630 Y-10.44755
G01 X30.59379 Y-10.39322
G01 X30.54828 Y-10.24313
G01 X30.53679 Y-10.18548
G01 X30.52143 Y-10.02939
G01 X29.61549 Y-9.21131
G01 X29.23614 Y-8.56038
G01 X29.23614 Y-8.50158
G01 X29.25006 Y-8.37491
G01 X29.29557 Y-8.22485
G01 X29.35437 Y-8.11179
G01 X29.38704 Y-8.06287
G01 X29.46900 Y-7.96531
G01 X29.59024 Y-7.86582
G01 X29.70192 Y-7.80448
G01 X29.75625 Y-7.78198
G01 X29.87860 Y-7.74636
G01 X30.00527 Y-7.73242
G01 X30.06410 Y-7.73242
G01 X30.16164 Y-7.74205
G01 X30.21932 Y-7.75350
G01 X30.31312 Y-7.78198
G01 X30.36745 Y-7.80448
G01 X30.45389 Y-7.85068
G01 X30.49473 Y-7.87735
G01 X32.33339 Y-7.87735
G01 X32.44210 Y-7.89084
G01 X32.48790 Y-7.90184
G01 X32.58713 Y-7.94827
G01 X32.62724 Y-7.97283
G01 X32.66300 Y-8.00339
G01 X39.72309 Y-15.06205
G01 X39.78064 Y-15.14124
G01 X39.82164 Y-15.23017
G01 X39.84447 Y-15.32537
G01 X39.84978 Y-15.39377
G01 X39.84978 Y-19.92267
G01 X40.62377 Y-20.69666
G01 X40.77564 Y-20.65208
G01 X40.97058 Y-20.63143
G01 X41.02938 Y-20.63143
G01 X41.22435 Y-20.65208
G01 X41.41236 Y-20.70760
G01 X41.46669 Y-20.73011
G01 X41.61363 Y-20.80867
G01 X41.66253 Y-20.84133
G01 X41.79136 Y-20.94705
G01 X41.83294 Y-20.98863
G01 X41.93865 Y-21.11743
G01 X41.97132 Y-21.16633
G01 X42.06245 Y-21.33991
G01 X42.12788 Y-21.55563
G01 X42.14853 Y-21.75058
G01 X42.14853 Y-21.80938
G01 X42.13220 Y-21.97522
G01 X42.12074 Y-22.03290
G01 X42.07236 Y-22.19236
G01 X42.04985 Y-22.24669
G01 X41.97132 Y-22.39363
G01 X41.93865 Y-22.44255
G01 X41.83294 Y-22.57135
G01 X41.79136 Y-22.61293
G01 X41.63888 Y-22.73617
G01 X41.46669 Y-22.82985
G01 X41.41236 Y-22.85235
G01 X41.22435 Y-22.90788
G01 X41.02938 Y-22.92855
G01 X40.97058 Y-22.92855
G01 X40.80474 Y-22.91222
G01 X40.74709 Y-22.90074
G01 X40.58763 Y-22.85235
G01 X40.53329 Y-22.82985
G01 X40.38633 Y-22.75131
G01 X40.33744 Y-22.71865
G01 X40.20863 Y-22.61293
G01 X40.16705 Y-22.57135
G01 X40.06134 Y-22.44255
G01 X40.02867 Y-22.39363
G01 X39.95011 Y-22.24669
G01 X39.92761 Y-22.19236
G01 X39.87208 Y-22.00435
G01 X39.85143 Y-21.80938
G01 X39.85143 Y-21.75058
G01 X39.87208 Y-21.55563
G01 X39.91666 Y-21.40374
G01 X38.99621 Y-20.48332
G01 X38.95156 Y-20.43120
G01 X38.90040 Y-20.34771
G01 X38.87790 Y-20.29338
G01 X38.85938 Y-20.22732
G01 X38.84976 Y-20.12975
G01 X38.84976 Y-15.60088
G01 X32.12628 Y-8.87738
G01 X30.75391 Y-8.87738
G01 X30.71500 Y-8.95020
G01 X30.68234 Y-8.99909
G01 X30.60037 Y-9.09668
G01 X30.47914 Y-9.19617
G01 X30.36745 Y-9.25751
G01 X30.31312 Y-9.28002
G01 X30.21932 Y-9.30846
G01 X30.16164 Y-9.31995
G01 X30.06410 Y-9.32955
G01 X30.00527 Y-9.32955
G01 X29.90774 Y-9.31995
G01 X29.85005 Y-9.30846
G01 X29.75625 Y-9.28002
G01 X29.70192 Y-9.25751
G01 X29.61549 Y-9.21131
G01 X29.56659 Y-9.17862
G01 X29.49082 Y-9.11644
G01 X29.44924 Y-9.07486
G01 X29.38704 Y-8.99909
G01 X29.35437 Y-8.95020
G01 X29.29557 Y-8.83714
G01 X29.25006 Y-8.68705
G01 X29.23614 Y-8.56038
( Mill infeed pass 2/2 )
G00 Z5.00000 ( retract )
G00 X30.52143 Y-10.02939 ( rapid move to begin. )
G01 Z-0.15000
G04 P0 ( dwell for no time -- G64 should not smooth over this point )
G01 F60.00000
G01 X30.52143 Y-10.02939
G01 X30.52143 Y-9.97059
G01 X30.53679 Y-9.81451
G01 X30.54828 Y-9.75683
G01 X30.60372 Y-9.57903
G01 X30.69024 Y-9.41410
G01 X30.72290 Y-9.36521
G01 X30.84218 Y-9.22218
G01 X30.98521 Y-9.10290
G01 X31.03410 Y-9.07024
G01 X31.19902 Y-8.98373
G01 X31.40540 Y-8.92112
G01 X31.59059 Y-8.90143
G01 X31.64939 Y-8.90143
G01 X31.83458 Y-8.92112
G01 X32.01322 Y-8.97379
G01 X32.06755 Y-8.99630
G01 X32.23113 Y-9.08538
G01 X32.39780 Y-9.22218
G01 X32.51705 Y-9.36521
G01 X32.54974 Y-9.41410
G01 X32.63626 Y-9.57903
G01 X32.69170 Y-9.75683
G01 X32.70316 Y-9.81451
G01 X32.71855 Y-9.97059
G01 X32.71855 Y-10.02939
G01 X32.70316 Y-10.18548
G01 X32.69170 Y-10.24313
G01 X32.63626 Y-10.42093
G01 X32.54974 Y-10.58586
G01 X32.51705 Y-10.63475
G01 X32.39780 Y-10.77780
G01 X32.25475 Y-10.89706
G01 X32.20585 Y-10.92975
G01 X32.06755 Y-11.00366
G01 X32.01322 Y-11.02617
G01 X31.86316 Y-11.07171
G01 X31.80547 Y-11.08316
G01 X31.64939 Y-11.09856
G01 X31.59059 Y-11.09856
G01 X31.40540 Y-11.07884
G01 X31.22676 Y-11.02617
G01 X31.17243 Y-11.00366
G01 X31.00885 Y-10.91461
G01 X30.84218 Y-10.77780
G01 X30.72290 Y-10.63475
G01 X30.69024 Y-10.58586
G01 X30.61630 Y-10.44755
G01 X30.59379 Y-10.39322
G01 X30.54828 Y-10.24313
G01 X30.53679 Y-10.18548
G01 X30.52143 Y-10.02939
G01 X29.61549 Y-9.21131
G01 X29.23614 Y-8.56038
G01 X29.23614 Y-8.50158
G01 X29.25006 Y-8.37491
G01 X29.29557 Y-8.22485
G01 X29.35437 Y-8.11179
G01 X29.38704 Y-8.06287
G01 X29.46900 Y-7.96531
G01 X29.59024 Y-7.86582
G01 X29.70192 Y-7.80448
G01 X29.75625 Y-7.78198
G01 X29.87860 Y-7.74636
G01 X30.00527 Y-7.73242
G01 X30.06410 Y-7.73242
G01 X30.16164 Y-7.74205
G01 X30.21932 Y-7.75350
G01 X30.31312 Y-7.78198
G01 X30.36745 Y-7.80448
G01 X30.45389 Y-7.85068
G01 X30.49473 Y-7.87735
G01 X32.33339 Y-7.87735
G01 X32.44210 Y-7.89084
G01 X32.48790 Y-7.90184
G01 X32.58713 Y-7.94827
G01 X32.62724 Y-7.97283
G01 X32.66300 Y-8.00339
G01 X39.72309 Y-15.06205
G01 X39.78064 Y-15.14124
G01 X39.82164 Y-15.23017
G01 X39.84447 Y-15.32537
G01 X39.84978 Y-15.39377
G01 X39.84978 Y-19.92267
G01 X40.62377 Y-20.69666
G01 X40.77564 Y-20.65208
G01 X40.97058 Y-20.63143
G01 X41.02938 Y-20.63143
G01 X41.22435 Y-20.65208
G01 X41.41236 Y-20.70760
G01 X41.46669 Y-20.73011
G01 X41.61363 Y-20.80867
G01 X41.66253 Y-20.84133
G01 X41.79136 Y-20.94705
G01 X41.83294 Y-20.98863
G01 X41.93865 Y-21.11743
G01 X41.97132 Y-21.16633
G01 X42.06245 Y-21.33991
G01 X42.12788 Y-21.55563
G01 X42.14853 Y-21.75058
G01 X42.14853 Y-21.80938
G01 X42.13220 Y-21.97522
G01 X42.12074 Y-22.03290
G01 X42.07236 Y-22.19236
G01 X42.04985 Y-22.24669
G01 X41.97132 Y-22.39363
G01 X41.93865 Y-22.44255
G01 X41.83294 Y-22.57135
G01 X41.79136 Y-22.61293
G01 X41.63888 Y-22.73617
G01 X41.46669 Y-22.82985
G01 X41.41236 Y-22.85235
G01 X41.22435 Y-22.90788
G01 X41.02938 Y-22.92855
G01 X40.97058 Y-22.92855
G01 X40.80474 Y-22.91222
G01 X40.74709 Y-22.90074
G01 X40.58763 Y-22.85235
G01 X40.53329 Y-22.82985
G01 X40.38633 Y-22.75131
G01 X40.33744 Y-22.71865
G01 X40.20863 Y-22.61293
G01 X40.16705 Y-22.57135
G01 X40.06134 Y-22.44255
G01 X40.02867 Y-22.39363
G01 X39.95011 Y-22.24669
G01 X39.92761 Y-22.19236
G01 X39.87208 Y-22.00435
G01 X39.85143 Y-21.80938
G01 X39.85143 Y-21.75058
G01 X39.87208 Y-21.55563
G01 X39.91666 Y-21.40374
G01 X38.99621 Y-20.48332
G01 X38.95156 Y-20.43120
G01 X38.90040 Y-20.34771
G01 X38.87790 Y-20.29338
G01 X38.85938 Y-20.22732
G01 X38.84976 Y-20.12975
G01 X38.84976 Y-15.60088
G01 X32.12628 Y-8.87738
G01 X30.75391 Y-8.87738
G01 X30.71500 Y-8.95020
G01 X30.68234 Y-8.99909
G01 X30.60037 Y-9.09668
G01 X30.47914 Y-9.19617
G01 X30.36745 Y-9.25751
G01 X30.31312 Y-9.28002
G01 X30.21932 Y-9.30846
G01 X30.16164 Y-9.31995
G01 X30.06410 Y-9.32955
G01 X30.00527 Y-9.32955
G01 X29.90774 Y-9.31995
G01 X29.85005 Y-9.30846
G01 X29.75625 Y-9.28002
G01 X29.70192 Y-9.25751
G01 X29.61549 Y-9.21131
G01 X29.56659 Y-9.17862
G01 X29.49082 Y-9.11644
G01 X29.44924 Y-9.07486
G01 X29.38704 Y-8.99909
G01 X29.35437 Y-8.95020
G01 X29.29557 Y-8.83714
G01 X29.25006 Y-8.68705
G01 X29.23614 Y-8.56038
G04 P0 ( dwell for no time -- G64 should not smooth over this point )
G00 Z5.00000 ( retract )

G00 X33.06143 Y-4.02938 ( rapid move to begin. )
G01 F30.00000
( Mill infeed pass 1/2 )
G01 Z-0.07500
G04 P0 ( dwell for no time -- G64 should not smooth over this point )
G01 F60.00000
G01 X33.06143 Y-4.02938
G01 X33.06143 Y-3.97058
G01 X33.07679 Y-3.81452
G01 X33.08828 Y-3.75684
G01 X33.14372 Y-3.57904
G01 X33.23024 Y-3.41412
G01 X33.26290 Y-3.36522
G01 X33.36239 Y-3.24399
G01 X33.40397 Y-3.20241
G01 X33.52521 Y-3.10291
G01 X33.57410 Y-3.07022
G01 X33.73902 Y-2.98371
G01 X33.94540 Y-2.92113
G01 X34.13059 Y-2.90144
G01 X34.18939 Y-2.90144
G01 X34.37458 Y-2.92113
G01 X34.55322 Y-2.97381
G01 X34.60755 Y-2.99631
G01 X34.77113 Y-3.08536
G01 X34.93780 Y-3.22217
G01 X35.05705 Y-3.36522
G01 X35.08974 Y-3.41412
G01 X35.17626 Y-3.57904
G01 X35.23170 Y-3.75684
G01 X35.24316 Y-3.81452
G01 X35.25855 Y-3.97058
G01 X35.25855 Y-4.02938
G01 X35.24316 Y-4.18546
G01 X35.23170 Y-4.24315
G01 X35.17626 Y-4.42095
G01 X35.08974 Y-4.58587
G01 X35.05705 Y-4.63476
G01 X34.95759 Y-4.75600
G01 X34.91598 Y-4.79758
G01 X34.77113 Y-4.91460
G01 X34.60755 Y-5.00367
G01 X34.55322 Y-5.02618
G01 X34.37458 Y-5.07886
G01 X34.18939 Y-5.09854
G01 X34.13059 Y-5.09854
G01 X33.94540 Y-5.07886
G01 X33.76676 Y-5.02618
G01 X33.71243 Y-5.00367
G01 X33.54885 Y-4.91460
G01 X33.38218 Y-4.77782
G01 X33.26290 Y-4.63476
G01 X33.23024 Y-4.58587
G01 X33.14372 Y-4.42095
G01 X33.08828 Y-4.24315
G01 X33.07679 Y-4.18546
G01 X33.06143 Y-4.02938
( Mill infeed pass 2/2 )
G01 Z-0.15000
G04 P0 ( dwell for no time -- G64 should not smooth over this point )
G01 F60.00000
G01 X33.06143 Y-4.02938
G01 X33.06143 Y-3.97058
G01 X33.07679 Y-3.81452
G01 X33.08828 Y-3.75684
G01 X33.14372 Y-3.57904
G01 X33.23024 Y-3.41412
G01 X33.26290 Y-3.36522
G01 X33.36239 Y-3.24399
G01 X33.40397 Y-3.20241
G01 X33.52521 Y-3.10291
G01 X33.57410 Y-3.07022
G01 X33.73902 Y-2.98371
G01 X33.94540 Y-2.92113
G01 X34.13059 Y-2.90144
G01 X34.18939 Y-2.90144
G01 X34.37458 Y-2.92113
G01 X34.55322 Y-2.97381
G01 X34.60755 Y-2.99631
G01 X34.77113 Y-3.08536
G01 X34.93780 Y-3.22217
G01 X35.05705 Y-3.36522
G01 X35.08974 Y-3.41412
G01 X35.17626 Y-3.57904
G01 X35.23170 Y-3.75684
G01 X35.24316 Y-3.81452
G01 X35.25855 Y-3.97058
G01 X35.25855 Y-4.02938
G01 X35.24316 Y-4.18546
G01 X35.23170 Y-4.24315
G01 X35.17626 Y-4.42095
G01 X35.08974 Y-4.58587
G01 X35.05705 Y-4.63476
G01 X34.95759 Y-4.75600
G01 X34.91598 Y-4.79758
G01 X34.77113 Y-4.91460
G01 X34.60755 Y-5.00367
G01 X34.55322 Y-5.02618
G01 X34.37458 Y-5.07886
G01 X34.18939 Y-5.09854
G01 X34.13059 Y-5.09854
G01 X33.94540 Y-5.07886
G01 X33.76676 Y-5.02618
G01 X33.71243 Y-5.00367
G01 X33.54885 Y-4.91460
G01 X33.38218 Y-4.77782
G01 X33.26290 Y-4.63476
G01 X33.23024 Y-4.58587
G01 X33.14372 Y-4.42095
G01 X33.08828 Y-4.24315
G01 X33.07679 Y-4.18546
G01 X33.06143 Y-4.02938
G04 P0 ( dwell for no time -- G64 should not smooth over this point )
G00 Z5.00000 ( retract )

G00 X39.85143 Y-19.21058 ( rapid move to begin. )
G01 F30.00000
( Mill infeed pass 1/2 )
G01 Z-0.07500
G04 P0 ( dwell for no time -- G64 should not smooth over this point )
G01 F60.00000
G01 X39.85143 Y-19.21058
G01 X39.87208 Y-19.01563
G01 X39.93754 Y-18.79991
G01 X40.02867 Y-18.62633
G01 X40.06134 Y-18.57743
G01 X40.16705 Y-18.44863
G01 X40.20863 Y-18.40705
G01 X40.36108 Y-18.28381
G01 X40.53329 Y-18.19011
G01 X40.58763 Y-18.16760
G01 X40.77564 Y-18.11208
G01 X40.97058 Y-18.09143
G01 X41.02938 Y-18.09143
G01 X41.22435 Y-18.11208
G01 X41.41236 Y-18.16760
G01 X41.46669 Y-18.19011
G01 X41.63888 Y-18.28381
G01 X41.79136 Y-18.40705
G01 X41.83294 Y-18.44863
G01 X41.93865 Y-18.57743
G01 X41.97132 Y-18.62633
G01 X42.06245 Y-18.79991
G01 X42.12788 Y-19.01563
G01 X42.14853 Y-19.21058
G01 X42.14853 Y-19.26938
G01 X42.12788 Y-19.46435
G01 X42.06245 Y-19.68007
G01 X41.97132 Y-19.85363
G01 X41.93865 Y-19.90255
G01 X41.83294 Y-20.03135
G01 X41.79136 Y-20.07293
G01 X41.63888 Y-20.19617
G01 X41.46669 Y-20.28985
G01 X41.41236 Y-20.31235
G01 X41.22435 Y-20.36788
G01 X41.02938 Y-20.38855
G01 X40.97058 Y-20.38855
G01 X40.77564 Y-20.36788
G01 X40.58763 Y-20.31235
G01 X40.53329 Y-20.28985
G01 X40.36108 Y-20.19617
G01 X40.20863 Y-20.07293
G01 X40.16705 Y-20.03135
G01 X40.06134 Y-19.90255
G01 X40.02867 Y-19.85363
G01 X39.93754 Y-19.68007
G01 X39.87208 Y-19.46435
G01 X39.85143 Y-19.26938
G01 X39.85143 Y-16.67058
G01 X39.87208 Y-16.47563
G01 X39.93754 Y-16.25991
G01 X40.02867 Y-16.08633
G01 X40.06134 Y-16.03743
G01 X40.16705 Y-15.90863
G01 X40.20863 Y-15.86705
G01 X40.30175 Y-15.79062
G01 X40.36108 Y-15.74381
G01 X40.38633 Y-15.72867
G01 X40.53329 Y-15.65011
G01 X40.58763 Y-15.62760
G01 X40.77564 Y-15.57208
G01 X40.97058 Y-15.55143
G01 X41.02938 Y-15.55143
G01 X41.22435 Y-15.57208
G01 X41.41236 Y-15.62760
G01 X41.46669 Y-15.65011
G01 X41.61363 Y-15.72867
G01 X41.66253 Y-15.76133
G01 X41.79136 Y-15.86705
G01 X41.83294 Y-15.90863
G01 X41.93865 Y-16.03743
G01 X41.97132 Y-16.08633
G01 X42.06245 Y-16.25991
G01 X42.12074 Y-16.44708
G01 X42.13220 Y-16.50477
G01 X42.14853 Y-16.67058
G01 X42.14853 Y-16.72938
G01 X42.12788 Y-16.92435
G01 X42.06245 Y-17.14007
G01 X41.97132 Y-17.31363
G01 X41.93865 Y-17.36255
G01 X41.83294 Y-17.49135
G01 X41.79136 Y-17.53293
G01 X41.66253 Y-17.63865
G01 X41.61363 Y-17.67131
G01 X41.46669 Y-17.74985
G01 X41.41236 Y-17.77235
G01 X41.25290 Y-17.82074
G01 X41.19522 Y-17.83222
G01 X41.02938 Y-17.84855
G01 X40.97058 Y-17.84855
G01 X40.77564 Y-17.82788
G01 X40.58763 Y-17.77235
G01 X40.53329 Y-17.74985
G01 X40.36108 Y-17.65617
G01 X40.20863 Y-17.53293
G01 X40.16705 Y-17.49135
G01 X40.06134 Y-17.36255
G01 X40.02867 Y-17.31363
G01 X39.93754 Y-17.14007
G01 X39.87924 Y-16.95290
G01 X39.86776 Y-16.89522
G01 X39.85143 Y-16.72938
G01 X39.85143 Y-14.13058
G01 X39.87208 Y-13.93563
G01 X39.93754 Y-13.71991
G01 X40.02867 Y-13.54633
G01 X40.06134 Y-13.49743
G01 X40.16705 Y-13.36863
G01 X40.20863 Y-13.32705
G01 X40.33744 Y-13.22133
G01 X40.38633 Y-13.18867
G01 X40.53329 Y-13.11011
G01 X40.58763 Y-13.08760
G01 X40.77564 Y-13.03208
G01 X40.97058 Y-13.01140
G01 X41.02938 Y-13.01140
G01 X41.22435 Y-13.03208
G01 X41.41236 Y-13.08760
G01 X41.46669 Y-13.11011
G01 X41.52257 Y-13.13995
G01 X41.61363 Y-13.18867
G01 X41.66253 Y-13.22133
G01 X41.79136 Y-13.32705
G01 X41.83294 Y-13.36863
G01 X41.93865 Y-13.49743
G01 X41.97132 Y-13.54633
G01 X42.06245 Y-13.71991
G01 X42.12074 Y-13.90708
G01 X42.13220 Y-13.96477
G01 X42.14853 Y-14.13058
G01 X42.14853 Y-14.18938
G01 X42.12788 Y-14.38435
G01 X42.07236 Y-14.57236
G01 X42.04985 Y-14.62669
G01 X41.97132 Y-14.77363
G01 X41.93865 Y-14.82255
G01 X41.83294 Y-14.95135
G01 X41.79136 Y-14.99293
G01 X41.63888 Y-15.11618
G01 X41.46669 Y-15.20985
G01 X41.41236 Y-15.23235
G01 X41.25290 Y-15.28074
G01 X41.19522 Y-15.29222
G01 X41.02938 Y-15.30855
G01 X40.97058 Y-15.30855
G01 X40.77564 Y-15.28788
G01 X40.58763 Y-15.23235
G01 X40.53329 Y-15.20985
G01 X40.38633 Y-15.13131
G01 X40.33744 Y-15.09865
G01 X40.20863 Y-14.99293
G01 X40.16705 Y-14.95135
G01 X40.06134 Y-14.82255
G01 X40.02867 Y-14.77363
G01 X39.95011 Y-14.62669
G01 X39.92761 Y-14.57236
G01 X39.87208 Y-14.38435
G01 X39.85143 Y-14.18938
G01 X39.85143 Y-11.59058
G01 X39.87208 Y-11.39563
G01 X39.92761 Y-11.20762
G01 X39.95011 Y-11.15329
G01 X40.04379 Y-10.98108
G01 X40.16705 Y-10.82863
G01 X40.20863 Y-10.78705
G01 X40.36108 Y-10.66381
G01 X40.53329 Y-10.57011
G01 X40.58763 Y-10.54760
G01 X40.74709 Y-10.49924
G01 X40.80474 Y-10.48776
G01 X40.97058 Y-10.47143
G01 X41.02938 Y-10.47143
G01 X41.22435 Y-10.49208
G01 X41.41236 Y-10.54760
G01 X41.46669 Y-10.57011
G01 X41.61363 Y-10.64867
G01 X41.66253 Y-10.68133
G01 X41.79136 Y-10.78705
G01 X41.83294 Y-10.82863
G01 X41.95618 Y-10.98108
G01 X42.06245 Y-11.17991
G01 X42.12788 Y-11.39563
G01 X42.14853 Y-11.59058
G01 X42.14853 Y-11.64938
G01 X42.13220 Y-11.81522
G01 X42.12074 Y-11.87290
G01 X42.07236 Y-12.03236
G01 X42.04985 Y-12.08669
G01 X41.95618 Y-12.25890
G01 X41.83294 Y-12.41135
G01 X41.79136 Y-12.45293
G01 X41.63888 Y-12.57617
G01 X41.46669 Y-12.66985
G01 X41.41236 Y-12.69235
G01 X41.25290 Y-12.74074
G01 X41.19522 Y-12.75220
G01 X41.02938 Y-12.76855
G01 X40.97058 Y-12.76855
G01 X40.77564 Y-12.74788
G01 X40.58763 Y-12.69235
G01 X40.53329 Y-12.66985
G01 X40.38633 Y-12.59131
G01 X40.33744 Y-12.55865
G01 X40.20863 Y-12.45293
G01 X40.16705 Y-12.41135
G01 X40.04379 Y-12.25890
G01 X39.95011 Y-12.08669
G01 X39.92761 Y-12.03236
G01 X39.87208 Y-11.84435
G01 X39.85143 Y-11.64938
G01 X39.85143 Y-9.05058
G01 X39.87208 Y-8.85563
G01 X39.92761 Y-8.66762
G01 X39.95011 Y-8.61329
G01 X40.02867 Y-8.46633
G01 X40.06134 Y-8.41743
G01 X40.16705 Y-8.28863
G01 X40.20863 Y-8.24705
G01 X40.36108 Y-8.12381
G01 X40.53329 Y-8.03011
G01 X40.58763 Y-8.00760
G01 X40.77564 Y-7.95208
G01 X40.97058 Y-7.93143
G01 X41.02938 Y-7.93143
G01 X41.22435 Y-7.95208
G01 X41.41236 Y-8.00760
G01 X41.46669 Y-8.03011
G01 X41.52257 Y-8.05998
G01 X41.61363 Y-8.10867
G01 X41.66253 Y-8.14133
G01 X41.79136 Y-8.24705
G01 X41.83294 Y-8.28863
G01 X41.95618 Y-8.44108
G01 X42.06245 Y-8.63991
G01 X42.12788 Y-8.85563
G01 X42.14853 Y-9.05058
G01 X42.14853 Y-9.10938
G01 X42.12788 Y-9.30435
G01 X42.07236 Y-9.49236
G01 X42.04985 Y-9.54669
G01 X41.95618 Y-9.71890
G01 X41.83294 Y-9.87135
G01 X41.79136 Y-9.91293
G01 X41.63888 Y-10.03618
G01 X41.46669 Y-10.12985
G01 X41.41236 Y-10.15235
G01 X41.25290 Y-10.20074
G01 X41.19522 Y-10.21222
G01 X41.02938 Y-10.22855
G01 X40.97058 Y-10.22855
G01 X40.77564 Y-10.20788
G01 X40.58763 Y-10.15235
G01 X40.53329 Y-10.12985
G01 X40.38633 Y-10.05131
G01 X40.33744 Y-10.01865
G01 X40.20863 Y-9.91293
G01 X40.16705 Y-9.87135
G01 X40.06134 Y-9.74255
G01 X40.02867 Y-9.69363
G01 X39.95011 Y-9.54669
G01 X39.92761 Y-9.49236
G01 X39.87208 Y-9.30435
G01 X39.85143 Y-9.10938
( Mill infeed pass 2/2 )
G00 Z5.00000 ( retract )
G00 X39.85143 Y-19.21058 ( rapid move to begin. )
G01 Z-0.15000
G04 P0 ( dwell for no time -- G64 should not smooth over this point )
G01 F60.00000
G01 X39.85143 Y-19.21058
G01 X39.87208 Y-19.01563
G01 X39.93754 Y-18.79991
G01 X40.02867 Y-18.62633
G01 X40.06134 Y-18.57743
G01 X40.16705 Y-18.44863
G01 X40.20863 Y-18.40705
G01 X40.36108 Y-18.28381
G01 X40.53329 Y-18.19011
G01 X40.58763 Y-18.16760
G01 X40.77564 Y-18.11208
G01 X40.97058 Y-18.09143
G01 X41.02938 Y-18.09143
G01 X41.22435 Y-18.11208
G01 X41.41236 Y-18.16760
G01 X41.46669 Y-18.19011
G01 X41.63888 Y-18.28381
G01 X41.79136 Y-18.40705
G01 X41.83294 Y-18.44863
G01 X41.93865 Y-18.57743
G01 X41.97132 Y-18.62633
G01 X42.06245 Y-18.79991
G01 X42.12788 Y-19.01563
G01 X42.14853 Y-19.21058
G01 X42.14853 Y-19.26938
G01 X42.12788 Y-19.46435
G01 X42.06245 Y-19.68007
G01 X41.97132 Y-19.85363
G01 X41.93865 Y-19.90255
G01 X41.83294 Y-20.03135
G01 X41.79136 Y-20.07293
G01 X41.63888 Y-20.19617
G01 X41.46669 Y-20.28985
G01 X41.41236 Y-20.31235
G01 X41.22435 Y-20.36788
G01 X41.02938 Y-20.38855
G01 X40.97058 Y-20.38855
G01 X40.77564 Y-20.36788
G01 X40.58763 Y-20.31235
G01 X40.53329 Y-20.28985
G01 X40.36108 Y-20.19617
G01 X40.20863 Y-20.07293
G01 X40.16705 Y-20.03135
G01 X40.06134 Y-19.90255
G01 X40.02867 Y-19.85363
G01 X39.93754 Y-19.68007
G01 X39.87208 Y-19.46435
G01 X39.85143 Y-19.26938
G01 X39.85143 Y-16.67058
G01 X39.87208 Y-16.47563
G01 X39.93754 Y-16.25991
G01 X40.02867 Y-16.08633
G01 X40.06134 Y-16.03743
G01 X40.16705 Y-15.90863
G01 X40.20863 Y-15.86705
G01 X40.30175 Y-15.79062
G01 X40.36108 Y-15.74381
G01 X40.38633 Y-15.72867
G01 X40.53329 Y-15.65011
G01 X40.58763 Y-15.62760
G01 X40.77564 Y-15.57208
G01 X40.97058 Y-15.55143
G01 X41.02938 Y-15.55143
G01 X41.22435 Y-15.57208
G01 X41.41236 Y-15.62760
G01 X41.46669 Y-15.65011
G01 X41.61363 Y-15.72867
G01 X41.66253 Y-15.76133
G01 X41.79136 Y-15.86705
G01 X41.83294 Y-15.90863
G01 X41.93865 Y-16.03743
G01 X41.97132 Y-16.08633
G01 X42.06245 Y-16.25991
G01 X42.12074 Y-16.44708
G01 X42.13220 Y-16.50477
G01 X42.14853 Y-16.67058
G01 X42.14853 Y-16.72938
G01 X42.12788 Y-16.92435
G01 X42.06245 Y-17.14007
G01 X41.97132 Y-17.31363
G01 X41.93865 Y-17.36255
G01 X41.83294 Y-17.49135
G01 X41.79136 Y-17.53293
G01 X41.66253 Y-17.63865
G01 X41.61363 Y-17.67131
G01 X41.46669 Y-17.74985
G01 X41.41236 Y-17.77235
G01 X41.25290 Y-17.82074
G01 X41.19522 Y-17.83222
G01 X41.02938 Y-17.84855
G01 X40.97058 Y-17.84855
G01 X40.77564 Y-17.82788
G01 X40.58763 Y-17.77235
G01 X40.53329 Y-17.74985
G01 X40.36108 Y-17.65617
G01 X40.20863 Y-17.53293
G01 X40.16705 Y-17.49135
G01 X40.06134 Y-17.36255
G01 X40.02867 Y-17.31363
G01 X39.93754 Y-17.14007
G01 X39.87924 Y-16.95290
G01 X39.86776 Y-16.89522
G01 X39.85143 Y-16.72938
G01 X39.85143 Y-14.13058
G01 X39.87208 Y-13.93563
G01 X39.93754 Y-13.71991
G01 X40.02867 Y-13.54633
G01 X40.06134 Y-13.49743
G01 X40.16705 Y-13.36863
G01 X40.20863 Y-13.32705
G01 X40.33744 Y-13.22133
G01 X40.38633 Y-13.18867
G01 X40.53329 Y-13.11011
G01 X40.58763 Y-13.08760
G01 X40.77564 Y-13.03208
G01 X40.97058 Y-13.01140
G01 X41.02938 Y-13.01140
G01 X41.22435 Y-13.03208
G01 X41.41236 Y-13.08760
G01 X41.46669 Y-13.11011
G01 X41.52257 Y-13.13995
G01 X41.61363 Y-13.18867
G01 X41.66253 Y-13.22133
G01 X41.79136 Y-13.32705
G01 X41.83294 Y-13.36863
G01 X41.93865 Y-13.49743
G01 X41.97132 Y-13.54633
G01 X42.06245 Y-13.71991
G01 X42.12074 Y-13.90708
G01 X42.13220 Y-13.96477
G01 X42.14853 Y-14.13058
G01 X42.14853 Y-14.18938
G01 X42.12788 Y-14.38435
G01 X42.07236 Y-14.57236
G01 X42.04985 Y-14.62669
G01 X41.97132 Y-14.77363
G01 X41.93865 Y-14.82255
G01 X41.83294 Y-14.95135
G01 X41.79136 Y-14.99293
G01 X41.63888 Y-15.11618
G01 X41.46669 Y-15.20985
G01 X41.41236 Y-15.23235
G01 X41.25290 Y-15.28074
G01 X41.19522 Y-15.29222
G01 X41.02938 Y-15.30855
G01 X40.97058 Y-15.30855
G01 X40.77564 Y-15.28788
G01 X40.58763 Y-15.23235
G01 X40.53329 Y-15.20985
G01 X40.38633 Y-15.13131
G01 X40.33744 Y-15.09865
G01 X40.20863 Y-14.99293
G01 X40.16705 Y-14.95135
G01 X40.06134 Y-14.82255
G01 X40.02867 Y-14.77363
G01 X39.95011 Y-14.62669
G01 X39.92761 Y-14.57236
G01 X39.87208 Y-14.38435
G01 X39.85143 Y-14.18938
G01 X39.85143 Y-11.59058
G01 X39.87208 Y-11.39563
G01 X39.92761 Y-11.20762
G01 X39.95011 Y-11.15329
G01 X40.04379 Y-10.98108
G01 X40.16705 Y-10.82863
G01 X40.20863 Y-10.78705
G01 X40.36108 Y-10.66381
G01 X40.53329 Y-10.57011
G01 X40.58763 Y-10.54760
G01 X40.74709 Y-10.49924
G01 X40.80474 Y-10.48776
G01 X40.97058 Y-10.47143
G01 X41.02938 Y-10.47143
G01 X41.22435 Y-10.49208
G01 X41.41236 Y-10.54760
G01 X41.46669 Y-10.57011
G01 X41.61363 Y-10.64867
G01 X41.66253 Y-10.68133
G01 X41.79136 Y-10.78705
G01 X41.83294 Y-10.82863
G01 X41.95618 Y-10.98108
G01 X42.06245 Y-11.17991
G01 X42.12788 Y-11.39563
G01 X42.14853 Y-11.59058
G01 X42.14853 Y-11.64938
G01 X42.13220 Y-11.81522
G01 X42.12074 Y-11.87290
G01 X42.07236 Y-12.03236
G01 X42.04985 Y-12.08669
G01 X41.95618 Y-12.25890
G01 X41.83294 Y-12.41135
G01 X41.79136 Y-12.45293
G01 X41.63888 Y-12.57617
G01 X41.46669 Y-12.66985
G01 X41.41236 Y-12.69235
G01 X41.25290 Y-12.74074
G01 X41.19522 Y-12.75220
G01 X41.02938 Y-12.76855
G01 X40.97058 Y-12.76855
G01 X40.77564 Y-12.74788
G01 X40.58763 Y-12.69235
G01 X40.53329 Y-12.66985
G01 X40.38633 Y-12.59131
G01 X40.33744 Y-12.55865
G01 X40.20863 Y-12.45293
G01 X40.16705 Y-12.41135
G01 X40.04379 Y-12.25890
G01 X39.95011 Y-12.08669
G01 X39.92761 Y-12.03236
G01 X39.87208 Y-11.84435
G01 X39.85143 Y-11.64938
G01 X39.85143 Y-9.05058
G01 X39.87208 Y-8.85563
G01 X39.92761 Y-8.66762
G01 X39.95011 Y-8.61329
G01 X40.02867 Y-8.46633
G01 X40.06134 Y-8.41743
G01 X40.16705 Y-8.28863
G01 X40.20863 Y-8.24705
G01 X40.36108 Y-8.12381
G01 X40.53329 Y-8.03011
G01 X40.58763 Y-8.00760
G01 X40.77564 Y-7.95208
G01 X40.97058 Y-7.93143
G01 X41.02938 Y-7.93143
G01 X41.22435 Y-7.95208
G01 X41.41236 Y-8.00760
G01 X41.46669 Y-8.03011
G01 X41.52257 Y-8.05998
G01 X41.61363 Y-8.10867
G01 X41.66253 Y-8.14133
G01 X41.79136 Y-8.24705
G01 X41.83294 Y-8.28863
G01 X41.95618 Y-8.44108
G01 X42.06245 Y-8.63991
G01 X42.12788 Y-8.85563
G01 X42.14853 Y-9.05058
G01 X42.14853 Y-9.10938
G01 X42.12788 Y-9.30435
G01 X42.07236 Y-9.49236
G01 X42.04985 Y-9.54669
G01 X41.95618 Y-9.71890
G01 X41.83294 Y-9.87135
G01 X41.79136 Y-9.91293
G01 X41.63888 Y-10.03618
G01 X41.46669 Y-10.12985
G01 X41.41236 Y-10.15235
G01 X41.25290 Y-10.20074
G01 X41.19522 Y-10.21222
G01 X41.02938 Y-10.22855
G01 X40.97058 Y-10.22855
G01 X40.77564 Y-10.20788
G01 X40.58763 Y-10.15235
G01 X40.53329 Y-10.12985
G01 X40.38633 Y-10.05131
G01 X40.33744 Y-10.01865
G01 X40.20863 Y-9.91293
G01 X40.16705 Y-9.87135
G01 X40.06134 Y-9.74255
G01 X40.02867 Y-9.69363
G01 X39.95011 Y-9.54669
G01 X39.92761 Y-9.49236
G01 X39.87208 Y-9.30435
G01 X39.85143 Y-9.10938
G04 P0 ( dwell for no time -- G64 should not smooth over this point )
G00 Z5.00000 ( retract )

G00 X30.52143 Y-32.83059 ( rapid move to begin. )
G01 F30.00000
( Mill infeed pass 1/2 )
G01 Z-0.07500
G04 P0 ( dwell for no time -- G64 should not smooth over this point )
G01 F60.00000
G01 X30.52143 Y-32.83059
G01 X30.54111 Y-32.64538
G01 X30.59379 Y-32.46676
G01 X30.61630 Y-32.41243
G01 X30.69024 Y-32.27410
G01 X30.72290 Y-32.22521
G01 X30.84218 Y-32.08218
G01 X30.98521 Y-31.96290
G01 X31.03410 Y-31.93024
G01 X31.19902 Y-31.84373
G01 X31.37682 Y-31.78828
G01 X31.43451 Y-31.77680
G01 X31.59059 Y-31.76143
G01 X31.64939 Y-31.76143
G01 X31.83458 Y-31.78111
G01 X32.01322 Y-31.83379
G01 X32.06755 Y-31.85630
G01 X32.20585 Y-31.93024
G01 X32.25475 Y-31.96290
G01 X32.37598 Y-32.06239
G01 X32.41759 Y-32.10397
G01 X32.51705 Y-32.22521
G01 X32.54974 Y-32.27410
G01 X32.62366 Y-32.41243
G01 X32.64616 Y-32.46676
G01 X32.69170 Y-32.61683
G01 X32.70316 Y-32.67451
G01 X32.71855 Y-32.83059
G01 X32.71855 Y-32.88939
G01 X32.70316 Y-33.04548
G01 X32.69170 Y-33.10313
G01 X32.64616 Y-33.25322
G01 X32.62366 Y-33.30755
G01 X32.54974 Y-33.44586
G01 X32.51705 Y-33.49475
G01 X32.41759 Y-33.61599
G01 X32.37598 Y-33.65757
G01 X32.25475 Y-33.75706
G01 X32.20585 Y-33.78975
G01 X32.11998 Y-33.83564
G01 X32.11998 Y-34.25297
G01 X39.46698 Y-41.59997
G01 X39.96792 Y-41.59997
G01 X40.04379 Y-41.46108
G01 X40.16705 Y-41.30863
G01 X40.20863 Y-41.26705
G01 X40.33744 Y-41.16133
G01 X40.38633 Y-41.12867
G01 X40.53329 Y-41.05011
G01 X40.58763 Y-41.02760
G01 X40.74709 Y-40.97924
G01 X40.80474 Y-40.96776
G01 X40.97058 Y-40.95143
G01 X41.02938 Y-40.95143
G01 X41.19522 Y-40.96776
G01 X41.25290 Y-40.97924
G01 X41.41236 Y-41.02760
G01 X41.46669 Y-41.05011
G01 X41.63888 Y-41.14381
G01 X41.79136 Y-41.26705
G01 X41.83294 Y-41.30863
G01 X41.95618 Y-41.46108
G01 X42.04985 Y-41.63329
G01 X42.07236 Y-41.68762
G01 X42.12788 Y-41.87563
G01 X42.14853 Y-42.07058
G01 X42.14853 Y-42.12938
G01 X42.12788 Y-42.32435
G01 X42.07236 Y-42.51236
G01 X42.04985 Y-42.56669
G01 X41.95618 Y-42.73890
G01 X41.83294 Y-42.89135
G01 X41.79136 Y-42.93293
G01 X41.63888 Y-43.05617
G01 X41.46669 Y-43.14985
G01 X41.41236 Y-43.17235
G01 X41.25290 Y-43.22074
G01 X41.19522 Y-43.23222
G01 X41.02938 Y-43.24855
G01 X40.97058 Y-43.24855
G01 X40.80474 Y-43.23222
G01 X40.74709 Y-43.22074
G01 X40.58763 Y-43.17235
G01 X40.53329 Y-43.14985
G01 X40.38633 Y-43.07131
G01 X40.33744 Y-43.03865
G01 X40.20863 Y-42.93293
G01 X40.16705 Y-42.89135
G01 X40.04379 Y-42.73890
G01 X39.96792 Y-42.59999
G01 X39.25989 Y-42.59999
G01 X39.19146 Y-42.59468
G01 X39.13378 Y-42.58323
G01 X39.04193 Y-42.54934
G01 X38.98209 Y-42.51571
G01 X38.92814 Y-42.47330
G01 X31.24665 Y-34.79180
G01 X31.20423 Y-34.73785
G01 X31.17060 Y-34.67801
G01 X31.13672 Y-34.58616
G01 X31.12526 Y-34.52848
G01 X31.11995 Y-34.46005
G01 X31.11998 Y-33.83562
G01 X31.03410 Y-33.78975
G01 X30.98521 Y-33.75706
G01 X30.86397 Y-33.65757
G01 X30.82239 Y-33.61599
G01 X30.72290 Y-33.49475
G01 X30.69024 Y-33.44586
G01 X30.61630 Y-33.30755
G01 X30.59379 Y-33.25322
G01 X30.54111 Y-33.07458
G01 X30.52143 Y-32.88939
G01 X30.52143 Y-30.29059
G01 X30.54111 Y-30.10538
G01 X30.59379 Y-29.92676
G01 X30.61630 Y-29.87243
G01 X30.69024 Y-29.73410
G01 X30.72290 Y-29.68521
G01 X30.84218 Y-29.54218
G01 X30.98521 Y-29.42290
G01 X31.03410 Y-29.39024
G01 X31.19902 Y-29.30373
G01 X31.37682 Y-29.24828
G01 X31.43451 Y-29.23680
G01 X31.59059 Y-29.22143
G01 X31.64939 Y-29.22143
G01 X31.80547 Y-29.23680
G01 X31.86316 Y-29.24828
G01 X32.01322 Y-29.29379
G01 X32.06755 Y-29.31630
G01 X32.20585 Y-29.39024
G01 X32.25475 Y-29.42290
G01 X32.39780 Y-29.54218
G01 X32.51705 Y-29.68521
G01 X32.54974 Y-29.73410
G01 X32.62366 Y-29.87243
G01 X32.64616 Y-29.92676
G01 X32.69170 Y-30.07683
G01 X32.70316 Y-30.13451
G01 X32.71855 Y-30.29059
G01 X32.71855 Y-30.34939
G01 X32.69884 Y-30.53458
G01 X32.64616 Y-30.71322
G01 X32.62366 Y-30.76755
G01 X32.54974 Y-30.90586
G01 X32.51705 Y-30.95475
G01 X32.41759 Y-31.07599
G01 X32.37598 Y-31.11757
G01 X32.25475 Y-31.21706
G01 X32.20585 Y-31.24975
G01 X32.06755 Y-31.32366
G01 X32.01322 Y-31.34617
G01 X31.83458 Y-31.39884
G01 X31.64939 Y-31.41856
G01 X31.59059 Y-31.41856
G01 X31.43451 Y-31.40316
G01 X31.37682 Y-31.39171
G01 X31.22676 Y-31.34617
G01 X31.17243 Y-31.32366
G01 X31.03410 Y-31.24975
G01 X30.98521 Y-31.21706
G01 X30.84218 Y-31.09780
G01 X30.72290 Y-30.95475
G01 X30.69024 Y-30.90586
G01 X30.61630 Y-30.76755
G01 X30.59379 Y-30.71322
G01 X30.54111 Y-30.53458
G01 X30.52143 Y-30.34939
G01 X30.52143 Y-27.75059
G01 X30.54111 Y-27.56538
G01 X30.59379 Y-27.38676
G01 X30.61630 Y-27.33243
G01 X30.69024 Y-27.19410
G01 X30.72290 Y-27.14521
G01 X30.82239 Y-27.02397
G01 X30.86397 Y-26.98239
G01 X30.98521 Y-26.88290
G01 X31.03410 Y-26.85024
G01 X31.19902 Y-26.76373
G01 X31.37682 Y-26.70828
G01 X31.43451 Y-26.69680
G01 X31.59059 Y-26.68143
G01 X31.64939 Y-26.68143
G01 X31.83458 Y-26.70112
G01 X32.01322 Y-26.75379
G01 X32.06755 Y-26.77630
G01 X32.20585 Y-26.85024
G01 X32.25475 Y-26.88290
G01 X32.39780 Y-27.00218
G01 X32.51705 Y-27.14521
G01 X32.54974 Y-27.19410
G01 X32.63626 Y-27.35903
G01 X32.69170 Y-27.53683
G01 X32.70316 Y-27.59451
G01 X32.71855 Y-27.75059
G01 X32.71855 Y-27.80939
G01 X32.69884 Y-27.99458
G01 X32.66343 Y-28.11633
G01 X33.83783 Y-29.29072
G01 X33.90001 Y-29.36649
G01 X33.93364 Y-29.42633
G01 X33.95614 Y-29.48066
G01 X33.97466 Y-29.54673
G01 X33.98429 Y-29.64426
G01 X33.98429 Y-30.94728
G01 X39.55697 Y-36.51997
G01 X39.96792 Y-36.51997
G01 X40.04379 Y-36.38108
G01 X40.16705 Y-36.22863
G01 X40.20863 Y-36.18705
G01 X40.36108 Y-36.06381
G01 X40.53329 Y-35.97011
G01 X40.58763 Y-35.94760
G01 X40.77564 Y-35.89208
G01 X40.97058 Y-35.87143
G01 X41.02938 Y-35.87143
G01 X41.22435 Y-35.89208
G01 X41.41236 Y-35.94760
G01 X41.46669 Y-35.97011
G01 X41.63888 Y-36.06381
G01 X41.79136 Y-36.18705
G01 X41.83294 Y-36.22863
G01 X41.95618 Y-36.38108
G01 X42.04985 Y-36.55329
G01 X42.07236 Y-36.60762
G01 X42.12788 Y-36.79563
G01 X42.14853 Y-36.99058
G01 X42.14853 Y-37.04938
G01 X42.12788 Y-37.24435
G01 X42.07236 Y-37.43236
G01 X42.04985 Y-37.48669
G01 X41.97132 Y-37.63363
G01 X41.93865 Y-37.68255
G01 X41.83294 Y-37.81135
G01 X41.79136 Y-37.85293
G01 X41.63888 Y-37.97617
G01 X41.46669 Y-38.06985
G01 X41.41236 Y-38.09235
G01 X41.25290 Y-38.14074
G01 X41.19522 Y-38.15222
G01 X41.02938 Y-38.16855
G01 X40.97058 Y-38.16855
G01 X40.77564 Y-38.14788
G01 X40.58763 Y-38.09235
G01 X40.53329 Y-38.06985
G01 X40.36108 Y-37.97617
G01 X40.20863 Y-37.85293
G01 X40.16705 Y-37.81135
G01 X40.04379 Y-37.65890
G01 X39.96792 Y-37.51999
G01 X39.34988 Y-37.51999
G01 X39.28146 Y-37.51468
G01 X39.25232 Y-37.51036
G01 X39.18626 Y-37.49185
G01 X39.13193 Y-37.46934
G01 X39.07208 Y-37.43571
G01 X39.04844 Y-37.41819
G01 X38.99632 Y-37.37353
G01 X33.13072 Y-31.50794
G01 X33.08607 Y-31.45582
G01 X33.06854 Y-31.43217
G01 X33.03491 Y-31.37233
G01 X33.01241 Y-31.31800
G01 X32.99389 Y-31.25193
G01 X32.98571 Y-31.18378
G01 X32.98426 Y-29.85138
G01 X31.95632 Y-28.82344
G01 X31.83458 Y-28.85884
G01 X31.64939 Y-28.87856
G01 X31.59059 Y-28.87856
G01 X31.40540 Y-28.85884
G01 X31.22676 Y-28.80617
G01 X31.17243 Y-28.78366
G01 X31.03410 Y-28.70975
G01 X30.98521 Y-28.67706
G01 X30.84218 Y-28.55780
G01 X30.72290 Y-28.41475
G01 X30.69024 Y-28.36586
G01 X30.61630 Y-28.22755
G01 X30.59379 Y-28.17322
G01 X30.54111 Y-27.99458
G01 X30.52143 Y-27.80939
G01 X30.52143 Y-25.21059
G01 X30.53679 Y-25.05451
G01 X30.54828 Y-24.99683
G01 X30.59379 Y-24.84676
G01 X30.61630 Y-24.79243
G01 X30.69024 Y-24.65410
G01 X30.72290 Y-24.60521
G01 X30.84218 Y-24.46218
G01 X30.98521 Y-24.34290
G01 X31.03410 Y-24.31024
G01 X31.19902 Y-24.22373
G01 X31.37682 Y-24.16828
G01 X31.43451 Y-24.15680
G01 X31.61998 Y-24.13998
G01 X31.80547 Y-24.15680
G01 X31.86316 Y-24.16828
G01 X32.01322 Y-24.21379
G01 X32.06755 Y-24.23630
G01 X32.20585 Y-24.31024
G01 X32.25475 Y-24.34290
G01 X32.39780 Y-24.46218
G01 X32.51705 Y-24.60521
G01 X32.54974 Y-24.65410
G01 X32.62366 Y-24.79243
G01 X32.64616 Y-24.84676
G01 X32.69170 Y-24.99683
G01 X32.70316 Y-25.05451
G01 X32.71855 Y-25.21059
G01 X32.71855 Y-25.26939
G01 X32.69884 Y-25.45458
G01 X32.66343 Y-25.57633
G01 X39.70343 Y-32.61632
G01 X39.74808 Y-32.66844
G01 X39.76560 Y-32.69209
G01 X39.79923 Y-32.75193
G01 X39.82174 Y-32.80626
G01 X39.84026 Y-32.87232
G01 X39.84843 Y-32.94047
G01 X39.84988 Y-33.97997
G01 X39.96792 Y-33.97997
G01 X40.04379 Y-33.84108
G01 X40.16705 Y-33.68863
G01 X40.20863 Y-33.64705
G01 X40.36108 Y-33.52381
G01 X40.53329 Y-33.43011
G01 X40.58763 Y-33.40760
G01 X40.74709 Y-33.35924
G01 X40.80474 Y-33.34776
G01 X40.97058 Y-33.33143
G01 X41.02938 Y-33.33143
G01 X41.19522 Y-33.34776
G01 X41.25290 Y-33.35924
G01 X41.41236 Y-33.40760
G01 X41.46669 Y-33.43011
