( pcb2gcode 2.5.0 )
( Software-independent Gcode )

G94 ( Millimeters per minute feed rate. )
G21 ( Units == Millimeters. )

G90 ( Absolute coordinates. )
G00 S800 ( RPM spindle speed. )
G01 F60.00000 ( Feedrate. )


G53 G00 Z0.00000 (Retract to tool change height)
T1
M5      (Spindle stop.)
G04 P3.00000 (Wait for spindle to stop)
(MSG, Change tool bit to mill diameter 0.50000mm)
M0      (Temporary machine stop.)
M3 ( Spindle on clockwise. )
G04 P1.00000 (Wait for spindle to get up to speed)
G04 P0 ( dwell for no time -- G64 should not smooth over this point )
G00 Z5.00000 ( retract )

G00 X0.30000 Y-0.50000 ( rapid move to begin. )
G01 F30.00000
( Mill infeed pass 1/2 )
G01 Z-0.07500
G04 P0 ( dwell for no time -- G64 should not smooth over this point )
G01 F60.00000
G01 X0.30000 Y-0.50000
G01 X0.29484 Y-0.55529
G01 X0.27958 Y-0.60871
G01 X0.25474 Y-0.65842
G01 X0.22118 Y-0.70267
G01 X0.18001 Y-0.73998
G01 X0.13266 Y-0.76906
G01 X0.08080 Y-0.78890
G01 X0.02614 Y-0.79886
G01 X-0.02939 Y-0.79855
G01 X-0.12695 Y-0.78892
G01 X-0.18461 Y-0.77747
G01 X-0.30615 Y-0.73909
G01 X-0.44445 Y-0.66518
G01 X-0.54386 Y-0.58544
G01 X-0.58544 Y-0.54386
G01 X-0.64762 Y-0.46810
G01 X-0.68029 Y-0.41920
G01 X-0.72649 Y-0.33274
G01 X-0.74902 Y-0.27841
G01 X-0.77747 Y-0.18461
G01 X-0.78892 Y-0.12695
G01 X-0.79855 Y-0.02939
G01 X-0.79886 Y0.02614
G01 X-0.78890 Y0.08080
G01 X-0.76906 Y0.13266
G01 X-0.73998 Y0.18001
G01 X-0.70267 Y0.22118
G01 X-0.65842 Y0.25474
G01 X-0.60871 Y0.27958
G01 X-0.55529 Y0.29484
G01 X-0.50000 Y0.30000
G01 X-0.00000 Y0.30000
G01 X0.05852 Y0.29423
G01 X0.11478 Y0.27714
G01 X0.16665 Y0.24943
G01 X0.21212 Y0.21212
G01 X0.24943 Y0.16665
G01 X0.27714 Y0.11478
G01 X0.29423 Y0.05852
G01 X0.30000 Y0.00000
G01 X0.30000 Y-0.50000
( Mill infeed pass 2/2 )
G01 Z-0.15000
G04 P0 ( dwell for no time -- G64 should not smooth over this point )
G01 F60.00000
G01 X0.30000 Y-0.50000
G01 X0.29484 Y-0.55529
G01 X0.27958 Y-0.60871
G01 X0.25474 Y-0.65842
G01 X0.22118 Y-0.70267
G01 X0.18001 Y-0.73998
G01 X0.13266 Y-0.76906
G01 X0.08080 Y-0.78890
G01 X0.02614 Y-0.79886
G01 X-0.02939 Y-0.79855
G01 X-0.12695 Y-0.78892
G01 X-0.18461 Y-0.77747
G01 X-0.30615 Y-0.73909
G01 X-0.44445 Y-0.66518
G01 X-0.54386 Y-0.58544
G01 X-0.58544 Y-0.54386
G01 X-0.64762 Y-0.46810
G01 X-0.68029 Y-0.41920
G01 X-0.72649 Y-0.33274
G01 X-0.74902 Y-0.27841
G01 X-0.77747 Y-0.18461
G01 X-0.78892 Y-0.12695
G01 X-0.79855 Y-0.02939
G01 X-0.79886 Y0.02614
G01 X-0.78890 Y0.08080
G01 X-0.76906 Y0.13266
G01 X-0.73998 Y0.18001
G01 X-0.70267 Y0.22118
G01 X-0.65842 Y0.25474
G01 X-0.60871 Y0.27958
G01 X-0.55529 Y0.29484
G01 X-0.50000 Y0.30000
G01 X-0.00000 Y0.30000
G01 X0.05852 Y0.29423
G01 X0.11478 Y0.27714
G01 X0.16665 Y0.24943
G01 X0.21212 Y0.21212
G01 X0.24943 Y0.16665
G01 X0.27714 Y0.11478
G01 X0.29423 Y0.05852
G01 X0.30000 Y0.00000
G01 X0.30000 Y-0.50000
G04 P0 ( dwell for no time -- G64 should not smooth over this point )
G00 Z5.00000 ( retract )

G00 X-7.74144 Y-4.02938 ( rapid move to begin. )
G01 F30.00000
( Mill infeed pass 1/2 )
G01 Z-0.07500
G04 P0 ( dwell for no time -- G64 should not smooth over this point )
G01 F60.00000
G01 X-7.74144 Y-4.02938
G01 X-7.76112 Y-4.21460
G01 X-7.81380 Y-4.39321
G01 X-7.83631 Y-4.44757
G01 X-7.92536 Y-4.61112
G01 X-8.04240 Y-4.75600
G01 X-8.08398 Y-4.79758
G01 X-8.20522 Y-4.89707
G01 X-8.25411 Y-4.92973
G01 X-8.41903 Y-5.01625
G01 X-8.62538 Y-5.07886
G01 X-8.81057 Y-5.09854
G01 X-8.86940 Y-5.09854
G01 X-9.05459 Y-5.07886
G01 X-9.23323 Y-5.02618
G01 X-9.28756 Y-5.00367
G01 X-9.45111 Y-4.91460
G01 X-9.59599 Y-4.79758
G01 X-9.63757 Y-4.75600
G01 X-9.75462 Y-4.61112
G01 X-9.81565 Y-4.49999
G01 X-10.23295 Y-4.49999
G01 X-11.68872 Y-5.95574
G01 X-11.75804 Y-6.01342
G01 X-11.78852 Y-6.03128
G01 X-11.88776 Y-6.07771
G01 X-11.93355 Y-6.08871
G01 X-12.04229 Y-6.10220
G01 X-18.31995 Y-6.10217
G01 X-18.31995 Y-9.02434
G01 X-18.20885 Y-9.08538
G01 X-18.06397 Y-9.20239
G01 X-18.02239 Y-9.24397
G01 X-17.92290 Y-9.36521
G01 X-17.89024 Y-9.41410
G01 X-17.80372 Y-9.57903
G01 X-17.74828 Y-9.75683
G01 X-17.73679 Y-9.81451
G01 X-17.72143 Y-9.97059
G01 X-17.72143 Y-10.02939
G01 X-17.73679 Y-10.18548
G01 X-17.74828 Y-10.24313
G01 X-17.80372 Y-10.42093
G01 X-17.89024 Y-10.58586
G01 X-17.92290 Y-10.63475
G01 X-18.02239 Y-10.75599
G01 X-18.06397 Y-10.79757
G01 X-18.18521 Y-10.89706
G01 X-18.23410 Y-10.92975
G01 X-18.37243 Y-11.00366
G01 X-18.42676 Y-11.02617
G01 X-18.57682 Y-11.07171
G01 X-18.63451 Y-11.08316
G01 X-18.81998 Y-11.09998
G01 X-19.00547 Y-11.08316
G01 X-19.06316 Y-11.07171
G01 X-19.21322 Y-11.02617
G01 X-19.26755 Y-11.00366
G01 X-19.43113 Y-10.91461
G01 X-19.59780 Y-10.77780
G01 X-19.71705 Y-10.63475
G01 X-19.74974 Y-10.58586
G01 X-19.83626 Y-10.42093
G01 X-19.89171 Y-10.24313
G01 X-19.90316 Y-10.18548
G01 X-19.91998 Y-9.99998
G01 X-19.90316 Y-9.81451
G01 X-19.89171 Y-9.75683
G01 X-19.84616 Y-9.60676
G01 X-19.82366 Y-9.55243
G01 X-19.74974 Y-9.41410
G01 X-19.71705 Y-9.36521
G01 X-19.59780 Y-9.22218
G01 X-19.43113 Y-9.08538
G01 X-19.31998 Y-9.02432
G01 X-19.31998 Y-6.10217
G01 X-20.79767 Y-6.10220
G01 X-20.84461 Y-6.09849
G01 X-20.94093 Y-6.08114
G01 X-21.03506 Y-6.04213
G01 X-21.11545 Y-5.98632
G01 X-21.15124 Y-5.95574
G01 X-22.60697 Y-4.49999
G01 X-23.02434 Y-4.49999
G01 X-23.07024 Y-4.58587
G01 X-23.10290 Y-4.63476
G01 X-23.20239 Y-4.75600
G01 X-23.24397 Y-4.79758
G01 X-23.38885 Y-4.91460
G01 X-23.55243 Y-5.00367
G01 X-23.60676 Y-5.02618
G01 X-23.75682 Y-5.07169
G01 X-23.81451 Y-5.08317
G01 X-23.99998 Y-5.09999
G01 X-24.18547 Y-5.08317
G01 X-24.24316 Y-5.07169
G01 X-24.39322 Y-5.02618
G01 X-24.44755 Y-5.00367
G01 X-24.61113 Y-4.91460
G01 X-24.75598 Y-4.79758
G01 X-24.79759 Y-4.75600
G01 X-24.89705 Y-4.63476
G01 X-24.92974 Y-4.58587
G01 X-24.97564 Y-4.49999
G01 X-27.16566 Y-4.49999
G01 X-31.11995 Y-8.45426
G01 X-31.11998 Y-9.02434
G01 X-31.03410 Y-9.07024
G01 X-30.98521 Y-9.10290
G01 X-30.86397 Y-9.20239
G01 X-30.82239 Y-9.24397
G01 X-30.72290 Y-9.36521
G01 X-30.69024 Y-9.41410
G01 X-30.60372 Y-9.57903
G01 X-30.54828 Y-9.75683
G01 X-30.53679 Y-9.81451
G01 X-30.52143 Y-9.97059
G01 X-30.52143 Y-10.02939
G01 X-30.53679 Y-10.18548
G01 X-30.54828 Y-10.24313
G01 X-30.57655 Y-10.33630
G01 X-28.86667 Y-12.04824
G01 X-28.80911 Y-12.12743
G01 X-28.76812 Y-12.21636
G01 X-28.74528 Y-12.31156
G01 X-28.73997 Y-12.37999
G01 X-28.74000 Y-50.02433
G01 X-28.65412 Y-50.07023
G01 X-28.60520 Y-50.10290
G01 X-28.46217 Y-50.22218
G01 X-28.34292 Y-50.36520
G01 X-28.31023 Y-50.41412
G01 X-28.23632 Y-50.55243
G01 X-28.21381 Y-50.60676
G01 X-28.16827 Y-50.75682
G01 X-28.15681 Y-50.81448
G01 X-28.14142 Y-50.97059
G01 X-28.14142 Y-51.02936
G01 X-28.15681 Y-51.18545
G01 X-28.16827 Y-51.24315
G01 X-28.22372 Y-51.42093
G01 X-28.31023 Y-51.58585
G01 X-28.34292 Y-51.63477
G01 X-28.46217 Y-51.77777
G01 X-28.62885 Y-51.91460
G01 X-28.79242 Y-52.00366
G01 X-28.84675 Y-52.02616
G01 X-29.02539 Y-52.07884
G01 X-29.21058 Y-52.09855
G01 X-29.26939 Y-52.09855
G01 X-29.45458 Y-52.07884
G01 X-29.63321 Y-52.02616
G01 X-29.68755 Y-52.00366
G01 X-29.82587 Y-51.92972
G01 X-29.87477 Y-51.89708
G01 X-30.01780 Y-51.77777
G01 X-30.13707 Y-51.63477
G01 X-30.16974 Y-51.58585
G01 X-30.24368 Y-51.44755
G01 X-30.26618 Y-51.39322
G01 X-30.31886 Y-51.21458
G01 X-30.33855 Y-51.02936
G01 X-30.33855 Y-50.97059
G01 X-30.32318 Y-50.81448
G01 X-30.31170 Y-50.75682
G01 X-30.25625 Y-50.57905
G01 X-30.16974 Y-50.41412
G01 X-30.13707 Y-50.36520
G01 X-30.03758 Y-50.24399
G01 X-29.99600 Y-50.20239
G01 X-29.87477 Y-50.10290
G01 X-29.82587 Y-50.07023
G01 X-29.74000 Y-50.02433
G01 X-29.74000 Y-12.58707
G01 X-31.28363 Y-11.04341
G01 X-31.40540 Y-11.07884
G01 X-31.59059 Y-11.09856
G01 X-31.64939 Y-11.09856
G01 X-31.83458 Y-11.07884
G01 X-32.01322 Y-11.02617
G01 X-32.06755 Y-11.00366
G01 X-32.23113 Y-10.91461
G01 X-32.39780 Y-10.77780
G01 X-32.51705 Y-10.63475
G01 X-32.54974 Y-10.58586
G01 X-32.62366 Y-10.44755
G01 X-32.64616 Y-10.39322
G01 X-32.69170 Y-10.24313
G01 X-32.70316 Y-10.18548
G01 X-32.71855 Y-10.02939
G01 X-32.71855 Y-9.97059
G01 X-32.70316 Y-9.81451
G01 X-32.69170 Y-9.75683
G01 X-32.63626 Y-9.57903
G01 X-32.54974 Y-9.41410
G01 X-32.51705 Y-9.36521
G01 X-32.41759 Y-9.24397
G01 X-32.37598 Y-9.20239
G01 X-32.23113 Y-9.08538
G01 X-32.11995 Y-9.02432
G01 X-32.11998 Y-8.24718
G01 X-32.10649 Y-8.13844
G01 X-32.09892 Y-8.10392
G01 X-32.07532 Y-8.04156
G01 X-32.04088 Y-7.98002
G01 X-31.97352 Y-7.89361
G01 X-27.72634 Y-3.64642
G01 X-27.65057 Y-3.58424
G01 X-27.59072 Y-3.55062
G01 X-27.53639 Y-3.52811
G01 X-27.44119 Y-3.50528
G01 X-27.37277 Y-3.49997
G01 X-24.97564 Y-3.49997
G01 X-24.92974 Y-3.41412
G01 X-24.89705 Y-3.36522
G01 X-24.79759 Y-3.24399
G01 X-24.75598 Y-3.20241
G01 X-24.61113 Y-3.08536
G01 X-24.44755 Y-2.99631
G01 X-24.39322 Y-2.97381
G01 X-24.24316 Y-2.92826
G01 X-24.18547 Y-2.91681
G01 X-23.99998 Y-2.89999
G01 X-23.81451 Y-2.91681
G01 X-23.75682 Y-2.92826
G01 X-23.60676 Y-2.97381
G01 X-23.55243 Y-2.99631
G01 X-23.38885 Y-3.08536
G01 X-23.24397 Y-3.20241
G01 X-23.20239 Y-3.24399
G01 X-23.10290 Y-3.36522
G01 X-23.07024 Y-3.41412
G01 X-23.02434 Y-3.49997
G01 X-22.39988 Y-3.49997
G01 X-22.35294 Y-3.50368
G01 X-22.24535 Y-3.52445
G01 X-22.14611 Y-3.57088
G01 X-22.10610 Y-3.59537
G01 X-22.07042 Y-3.62580
G01 X-20.59076 Y-5.10220
G01 X-12.24938 Y-5.10220
G01 X-10.79363 Y-3.64642
G01 X-10.70722 Y-3.57906
G01 X-10.66706 Y-3.55448
G01 X-10.62358 Y-3.53647
G01 X-10.52987 Y-3.50820
G01 X-10.49490 Y-3.50337
G01 X-10.44006 Y-3.49997
G01 X-9.81563 Y-3.49997
G01 X-9.75462 Y-3.38887
G01 X-9.61781 Y-3.22217
G01 X-9.47476 Y-3.10291
G01 X-9.42586 Y-3.07022
G01 X-9.26094 Y-2.98371
G01 X-9.08314 Y-2.92826
G01 X-9.02546 Y-2.91681
G01 X-8.86940 Y-2.90144
G01 X-8.81057 Y-2.90144
G01 X-8.62538 Y-2.92113
G01 X-8.41903 Y-2.98371
G01 X-8.25411 Y-3.07022
G01 X-8.20522 Y-3.10291
G01 X-8.08398 Y-3.20241
G01 X-8.04240 Y-3.24399
G01 X-7.92536 Y-3.38887
G01 X-7.83631 Y-3.55242
G01 X-7.81380 Y-3.60675
G01 X-7.76112 Y-3.78539
G01 X-7.74144 Y-3.97058
G01 X-7.74144 Y-4.02938
( Mill infeed pass 2/2 )
G01 Z-0.15000
G04 P0 ( dwell for no time -- G64 should not smooth over this point )
G01 F60.00000
G01 X-7.74144 Y-4.02938
G01 X-7.76112 Y-4.21460
G01 X-7.81380 Y-4.39321
G01 X-7.83631 Y-4.44757
G01 X-7.92536 Y-4.61112
G01 X-8.04240 Y-4.75600
G01 X-8.08398 Y-4.79758
G01 X-8.20522 Y-4.89707
G01 X-8.25411 Y-4.92973
G01 X-8.41903 Y-5.01625
G01 X-8.62538 Y-5.07886
G01 X-8.81057 Y-5.09854
G01 X-8.86940 Y-5.09854
G01 X-9.05459 Y-5.07886
G01 X-9.23323 Y-5.02618
G01 X-9.28756 Y-5.00367
G01 X-9.45111 Y-4.91460
G01 X-9.59599 Y-4.79758
G01 X-9.63757 Y-4.75600
G01 X-9.75462 Y-4.61112
G01 X-9.81565 Y-4.49999
G01 X-10.23295 Y-4.49999
G01 X-11.68872 Y-5.95574
G01 X-11.75804 Y-6.01342
G01 X-11.78852 Y-6.03128
G01 X-11.88776 Y-6.07771
G01 X-11.93355 Y-6.08871
G01 X-12.04229 Y-6.10220
G01 X-18.31995 Y-6.10217
G01 X-18.31995 Y-9.02434
G01 X-18.20885 Y-9.08538
G01 X-18.06397 Y-9.20239
G01 X-18.02239 Y-9.24397
G01 X-17.92290 Y-9.36521
G01 X-17.89024 Y-9.41410
G01 X-17.80372 Y-9.57903
G01 X-17.74828 Y-9.75683
G01 X-17.73679 Y-9.81451
G01 X-17.72143 Y-9.97059
G01 X-17.72143 Y-10.02939
G01 X-17.73679 Y-10.18548
G01 X-17.74828 Y-10.24313
G01 X-17.80372 Y-10.42093
G01 X-17.89024 Y-10.58586
G01 X-17.92290 Y-10.63475
G01 X-18.02239 Y-10.75599
G01 X-18.06397 Y-10.79757
G01 X-18.18521 Y-10.89706
G01 X-18.23410 Y-10.92975
G01 X-18.37243 Y-11.00366
G01 X-18.42676 Y-11.02617
G01 X-18.57682 Y-11.07171
G01 X-18.63451 Y-11.08316
G01 X-18.81998 Y-11.09998
G01 X-19.00547 Y-11.08316
G01 X-19.06316 Y-11.07171
G01 X-19.21322 Y-11.02617
G01 X-19.26755 Y-11.00366
G01 X-19.43113 Y-10.91461
G01 X-19.59780 Y-10.77780
G01 X-19.71705 Y-10.63475
G01 X-19.74974 Y-10.58586
G01 X-19.83626 Y-10.42093
G01 X-19.89171 Y-10.24313
G01 X-19.90316 Y-10.18548
G01 X-19.91998 Y-9.99998
G01 X-19.90316 Y-9.81451
G01 X-19.89171 Y-9.75683
G01 X-19.84616 Y-9.60676
G01 X-19.82366 Y-9.55243
G01 X-19.74974 Y-9.41410
G01 X-19.71705 Y-9.36521
G01 X-19.59780 Y-9.22218
G01 X-19.43113 Y-9.08538
G01 X-19.31998 Y-9.02432
G01 X-19.31998 Y-6.10217
G01 X-20.79767 Y-6.10220
G01 X-20.84461 Y-6.09849
G01 X-20.94093 Y-6.08114
G01 X-21.03506 Y-6.04213
G01 X-21.11545 Y-5.98632
G01 X-21.15124 Y-5.95574
G01 X-22.60697 Y-4.49999
G01 X-23.02434 Y-4.49999
G01 X-23.07024 Y-4.58587
G01 X-23.10290 Y-4.63476
G01 X-23.20239 Y-4.75600
G01 X-23.24397 Y-4.79758
G01 X-23.38885 Y-4.91460
G01 X-23.55243 Y-5.00367
G01 X-23.60676 Y-5.02618
G01 X-23.75682 Y-5.07169
G01 X-23.81451 Y-5.08317
G01 X-23.99998 Y-5.09999
G01 X-24.18547 Y-5.08317
G01 X-24.24316 Y-5.07169
G01 X-24.39322 Y-5.02618
G01 X-24.44755 Y-5.00367
G01 X-24.61113 Y-4.91460
G01 X-24.75598 Y-4.79758
G01 X-24.79759 Y-4.75600
G01 X-24.89705 Y-4.63476
G01 X-24.92974 Y-4.58587
G01 X-24.97564 Y-4.49999
G01 X-27.16566 Y-4.49999
G01 X-31.11995 Y-8.45426
G01 X-31.11998 Y-9.02434
G01 X-31.03410 Y-9.07024
G01 X-30.98521 Y-9.10290
G01 X-30.86397 Y-9.20239
G01 X-30.82239 Y-9.24397
G01 X-30.72290 Y-9.36521
G01 X-30.69024 Y-9.41410
G01 X-30.60372 Y-9.57903
G01 X-30.54828 Y-9.75683
G01 X-30.53679 Y-9.81451
G01 X-30.52143 Y-9.97059
G01 X-30.52143 Y-10.02939
G01 X-30.53679 Y-10.18548
G01 X-30.54828 Y-10.24313
G01 X-30.57655 Y-10.33630
G01 X-28.86667 Y-12.04824
G01 X-28.80911 Y-12.12743
G01 X-28.76812 Y-12.21636
G01 X-28.74528 Y-12.31156
G01 X-28.73997 Y-12.37999
G01 X-28.74000 Y-50.02433
G01 X-28.65412 Y-50.07023
G01 X-28.60520 Y-50.10290
G01 X-28.46217 Y-50.22218
G01 X-28.34292 Y-50.36520
G01 X-28.31023 Y-50.41412
G01 X-28.23632 Y-50.55243
G01 X-28.21381 Y-50.60676
G01 X-28.16827 Y-50.75682
G01 X-28.15681 Y-50.81448
G01 X-28.14142 Y-50.97059
G01 X-28.14142 Y-51.02936
G01 X-28.15681 Y-51.18545
G01 X-28.16827 Y-51.24315
G01 X-28.22372 Y-51.42093
G01 X-28.31023 Y-51.58585
G01 X-28.34292 Y-51.63477
G01 X-28.46217 Y-51.77777
G01 X-28.62885 Y-51.91460
G01 X-28.79242 Y-52.00366
G01 X-28.84675 Y-52.02616
G01 X-29.02539 Y-52.07884
G01 X-29.21058 Y-52.09855
G01 X-29.26939 Y-52.09855
G01 X-29.45458 Y-52.07884
G01 X-29.63321 Y-52.02616
G01 X-29.68755 Y-52.00366
G01 X-29.82587 Y-51.92972
G01 X-29.87477 Y-51.89708
G01 X-30.01780 Y-51.77777
G01 X-30.13707 Y-51.63477
G01 X-30.16974 Y-51.58585
G01 X-30.24368 Y-51.44755
G01 X-30.26618 Y-51.39322
G01 X-30.31886 Y-51.21458
G01 X-30.33855 Y-51.02936
G01 X-30.33855 Y-50.97059
G01 X-30.32318 Y-50.81448
G01 X-30.31170 Y-50.75682
G01 X-30.25625 Y-50.57905
G01 X-30.16974 Y-50.41412
G01 X-30.13707 Y-50.36520
G01 X-30.03758 Y-50.24399
G01 X-29.99600 Y-50.20239
G01 X-29.87477 Y-50.10290
G01 X-29.82587 Y-50.07023
G01 X-29.74000 Y-50.02433
G01 X-29.74000 Y-12.58707
G01 X-31.28363 Y-11.04341
G01 X-31.40540 Y-11.07884
G01 X-31.59059 Y-11.09856
G01 X-31.64939 Y-11.09856
G01 X-31.83458 Y-11.07884
G01 X-32.01322 Y-11.02617
G01 X-32.06755 Y-11.00366
G01 X-32.23113 Y-10.91461
G01 X-32.39780 Y-10.77780
G01 X-32.51705 Y-10.63475
G01 X-32.54974 Y-10.58586
G01 X-32.62366 Y-10.44755
G01 X-32.64616 Y-10.39322
G01 X-32.69170 Y-10.24313
G01 X-32.70316 Y-10.18548
G01 X-32.71855 Y-10.02939
G01 X-32.71855 Y-9.97059
G01 X-32.70316 Y-9.81451
G01 X-32.69170 Y-9.75683
G01 X-32.63626 Y-9.57903
G01 X-32.54974 Y-9.41410
G01 X-32.51705 Y-9.36521
G01 X-32.41759 Y-9.24397
G01 X-32.37598 Y-9.20239
G01 X-32.23113 Y-9.08538
G01 X-32.11995 Y-9.02432
G01 X-32.11998 Y-8.24718
G01 X-32.10649 Y-8.13844
G01 X-32.09892 Y-8.10392
G01 X-32.07532 Y-8.04156
G01 X-32.04088 Y-7.98002
G01 X-31.97352 Y-7.89361
G01 X-27.72634 Y-3.64642
G01 X-27.65057 Y-3.58424
G01 X-27.59072 Y-3.55062
G01 X-27.53639 Y-3.52811
G01 X-27.44119 Y-3.50528
G01 X-27.37277 Y-3.49997
G01 X-24.97564 Y-3.49997
G01 X-24.92974 Y-3.41412
G01 X-24.89705 Y-3.36522
G01 X-24.79759 Y-3.24399
G01 X-24.75598 Y-3.20241
G01 X-24.61113 Y-3.08536
G01 X-24.44755 Y-2.99631
G01 X-24.39322 Y-2.97381
G01 X-24.24316 Y-2.92826
G01 X-24.18547 Y-2.91681
G01 X-23.99998 Y-2.89999
G01 X-23.81451 Y-2.91681
G01 X-23.75682 Y-2.92826
G01 X-23.60676 Y-2.97381
G01 X-23.55243 Y-2.99631
G01 X-23.38885 Y-3.08536
G01 X-23.24397 Y-3.20241
G01 X-23.20239 Y-3.24399
G01 X-23.10290 Y-3.36522
G01 X-23.07024 Y-3.41412
G01 X-23.02434 Y-3.49997
G01 X-22.39988 Y-3.49997
G01 X-22.35294 Y-3.50368
G01 X-22.24535 Y-3.52445
G01 X-22.14611 Y-3.57088
G01 X-22.10610 Y-3.59537
G01 X-22.07042 Y-3.62580
G01 X-20.59076 Y-5.10220
G01 X-12.24938 Y-5.10220
G01 X-10.79363 Y-3.64642
G01 X-10.70722 Y-3.57906
G01 X-10.66706 Y-3.55448
G01 X-10.62358 Y-3.53647
G01 X-10.52987 Y-3.50820
G01 X-10.49490 Y-3.50337
G01 X-10.44006 Y-3.49997
G01 X-9.81563 Y-3.49997
G01 X-9.75462 Y-3.38887
G01 X-9.61781 Y-3.22217
G01 X-9.47476 Y-3.10291
G01 X-9.42586 Y-3.07022
G01 X-9.26094 Y-2.98371
G01 X-9.08314 Y-2.92826
G01 X-9.02546 Y-2.91681
G01 X-8.86940 Y-2.90144
G01 X-8.81057 Y-2.90144
G01 X-8.62538 Y-2.92113
G01 X-8.41903 Y-2.98371
G01 X-8.25411 Y-3.07022
G01 X-8.20522 Y-3.10291
G01 X-8.08398 Y-3.20241
G01 X-8.04240 Y-3.24399
G01 X-7.92536 Y-3.38887
G01 X-7.83631 Y-3.55242
G01 X-7.81380 Y-3.60675
G01 X-7.76112 Y-3.78539
G01 X-7.74144 Y-3.97058
G01 X-7.74144 Y-4.02938
G04 P0 ( dwell for no time -- G64 should not smooth over this point )
G00 Z5.00000 ( retract )

G00 X-17.71998 Y-12.53998 ( rapid move to begin. )
G01 F30.00000
( Mill infeed pass 1/2 )
G01 Z-0.07500
G04 P0 ( dwell for no time -- G64 should not smooth over this point )
G01 F60.00000
G01 X-17.71998 Y-12.53998
G01 X-17.73679 Y-12.72548
G01 X-17.74828 Y-12.78311
G01 X-17.80372 Y-12.96093
G01 X-17.89024 Y-13.12583
G01 X-17.92290 Y-13.17475
G01 X-18.02239 Y-13.29599
G01 X-18.06397 Y-13.33757
G01 X-18.18521 Y-13.43706
G01 X-18.23410 Y-13.46975
G01 X-18.37243 Y-13.54366
G01 X-18.42676 Y-13.56617
G01 X-18.60540 Y-13.61884
G01 X-18.79059 Y-13.63856
G01 X-18.84939 Y-13.63856
G01 X-19.03458 Y-13.61884
G01 X-19.21322 Y-13.56617
G01 X-19.26755 Y-13.54366
G01 X-19.40585 Y-13.46975
G01 X-19.45475 Y-13.43706
G01 X-19.59780 Y-13.31780
G01 X-19.71705 Y-13.17475
G01 X-19.74974 Y-13.12583
G01 X-19.83626 Y-12.96093
G01 X-19.89171 Y-12.78311
G01 X-19.90316 Y-12.72548
G01 X-19.91855 Y-12.56939
G01 X-19.91855 Y-12.51059
G01 X-19.90316 Y-12.35451
G01 X-19.89171 Y-12.29683
G01 X-19.83171 Y-12.10945
G01 X-23.09338 Y-8.84779
G01 X-29.30063 Y-8.84779
G01 X-29.35437 Y-8.95020
G01 X-29.38704 Y-8.99909
G01 X-29.44924 Y-9.07486
G01 X-29.49082 Y-9.11644
G01 X-29.59024 Y-9.19617
G01 X-29.70192 Y-9.25751
G01 X-29.75625 Y-9.28002
G01 X-29.85005 Y-9.30846
G01 X-29.90774 Y-9.31995
G01 X-30.00527 Y-9.32955
G01 X-30.06410 Y-9.32955
G01 X-30.19077 Y-9.31563
G01 X-30.31312 Y-9.28002
G01 X-30.36745 Y-9.25751
G01 X-30.47914 Y-9.19617
G01 X-30.57855 Y-9.11644
G01 X-30.62013 Y-9.07486
G01 X-30.68234 Y-8.99909
G01 X-30.71500 Y-8.95020
G01 X-30.77380 Y-8.83714
G01 X-30.81216 Y-8.71563
G01 X-30.82364 Y-8.65795
G01 X-30.83324 Y-8.56038
G01 X-30.83324 Y-8.50158
G01 X-30.82364 Y-8.40405
G01 X-30.81216 Y-8.34636
G01 X-30.78371 Y-8.25256
G01 X-30.76120 Y-8.19823
G01 X-30.71500 Y-8.11179
G01 X-30.68234 Y-8.06287
G01 X-30.60037 Y-7.96531
G01 X-30.47914 Y-7.86582
G01 X-30.36745 Y-7.80448
G01 X-30.31312 Y-7.78198
G01 X-30.19077 Y-7.74636
G01 X-30.06410 Y-7.73242
G01 X-30.00527 Y-7.73242
G01 X-29.90774 Y-7.74205
G01 X-29.85005 Y-7.75350
G01 X-29.75625 Y-7.78198
G01 X-29.70192 Y-7.80448
G01 X-29.62092 Y-7.84776
G01 X-22.88626 Y-7.84776
G01 X-22.81786 Y-7.85307
G01 X-22.72266 Y-7.87590
G01 X-22.69493 Y-7.88584
G01 X-22.63374 Y-7.91690
G01 X-22.58484 Y-7.94956
G01 X-22.53272 Y-7.99422
G01 X-19.05940 Y-11.46754
G01 X-19.00547 Y-11.45680
G01 X-18.81998 Y-11.43998
G01 X-18.63451 Y-11.45680
G01 X-18.57682 Y-11.46828
G01 X-18.42676 Y-11.51379
G01 X-18.37243 Y-11.53630
G01 X-18.23410 Y-11.61024
G01 X-18.18521 Y-11.64290
G01 X-18.04218 Y-11.76218
G01 X-17.92290 Y-11.90521
G01 X-17.89024 Y-11.95410
G01 X-17.80372 Y-12.11903
G01 X-17.74828 Y-12.29683
G01 X-17.73679 Y-12.35451
G01 X-17.71998 Y-12.53998
G01 X-10.39998 Y-11.09998
G01 X-10.09998 Y-10.79998
G01 X-10.21763 Y-11.03655
G01 X-10.23330 Y-11.04943
G01 X-10.28517 Y-11.07714
G01 X-10.34146 Y-11.09421
G01 X-10.39998 Y-11.09998
G01 X-11.99998 Y-11.09998
G01 X-12.05852 Y-11.09421
G01 X-12.11478 Y-11.07714
G01 X-12.16665 Y-11.04943
G01 X-12.21212 Y-11.01212
G01 X-12.24943 Y-10.96665
G01 X-12.27714 Y-10.91479
G01 X-12.29423 Y-10.85853
G01 X-12.29998 Y-10.79998
G01 X-12.29998 Y-9.19998
G01 X-12.29423 Y-9.14146
G01 X-12.27714 Y-9.08517
G01 X-12.24943 Y-9.03331
G01 X-12.21212 Y-8.98787
G01 X-12.16665 Y-8.95055
G01 X-12.11478 Y-8.92282
G01 X-12.05852 Y-8.90575
G01 X-11.99998 Y-8.89998
G01 X-10.39998 Y-8.89998
G01 X-10.34146 Y-8.90575
G01 X-10.28517 Y-8.92282
G01 X-10.23330 Y-8.95055
G01 X-10.18786 Y-8.98787
G01 X-10.15055 Y-9.03331
G01 X-10.12281 Y-9.08517
G01 X-10.10575 Y-9.14146
G01 X-10.09998 Y-9.19998
G01 X-10.09998 Y-10.79998
( Mill infeed pass 2/2 )
G00 Z5.00000 ( retract )
G00 X-17.71998 Y-12.53998 ( rapid move to begin. )
G01 Z-0.15000
G04 P0 ( dwell for no time -- G64 should not smooth over this point )
G01 F60.00000
G01 X-17.71998 Y-12.53998
G01 X-17.73679 Y-12.72548
G01 X-17.74828 Y-12.78311
G01 X-17.80372 Y-12.96093
G01 X-17.89024 Y-13.12583
G01 X-17.92290 Y-13.17475
G01 X-18.02239 Y-13.29599
G01 X-18.06397 Y-13.33757
G01 X-18.18521 Y-13.43706
G01 X-18.23410 Y-13.46975
G01 X-18.37243 Y-13.54366
G01 X-18.42676 Y-13.56617
G01 X-18.60540 Y-13.61884
G01 X-18.79059 Y-13.63856
G01 X-18.84939 Y-13.63856
G01 X-19.03458 Y-13.61884
G01 X-19.21322 Y-13.56617
G01 X-19.26755 Y-13.54366
G01 X-19.40585 Y-13.46975
G01 X-19.45475 Y-13.43706
G01 X-19.59780 Y-13.31780
G01 X-19.71705 Y-13.17475
G01 X-19.74974 Y-13.12583
G01 X-19.83626 Y-12.96093
G01 X-19.89171 Y-12.78311
G01 X-19.90316 Y-12.72548
G01 X-19.91855 Y-12.56939
G01 X-19.91855 Y-12.51059
G01 X-19.90316 Y-12.35451
G01 X-19.89171 Y-12.29683
G01 X-19.83171 Y-12.10945
G01 X-23.09338 Y-8.84779
G01 X-29.30063 Y-8.84779
G01 X-29.35437 Y-8.95020
G01 X-29.38704 Y-8.99909
G01 X-29.44924 Y-9.07486
G01 X-29.49082 Y-9.11644
G01 X-29.59024 Y-9.19617
G01 X-29.70192 Y-9.25751
G01 X-29.75625 Y-9.28002
G01 X-29.85005 Y-9.30846
G01 X-29.90774 Y-9.31995
G01 X-30.00527 Y-9.32955
G01 X-30.06410 Y-9.32955
G01 X-30.19077 Y-9.31563
G01 X-30.31312 Y-9.28002
G01 X-30.36745 Y-9.25751
G01 X-30.47914 Y-9.19617
G01 X-30.57855 Y-9.11644
G01 X-30.62013 Y-9.07486
G01 X-30.68234 Y-8.99909
G01 X-30.71500 Y-8.95020
G01 X-30.77380 Y-8.83714
G01 X-30.81216 Y-8.71563
G01 X-30.82364 Y-8.65795
G01 X-30.83324 Y-8.56038
G01 X-30.83324 Y-8.50158
G01 X-30.82364 Y-8.40405
G01 X-30.81216 Y-8.34636
G01 X-30.78371 Y-8.25256
G01 X-30.76120 Y-8.19823
G01 X-30.71500 Y-8.11179
G01 X-30.68234 Y-8.06287
G01 X-30.60037 Y-7.96531
G01 X-30.47914 Y-7.86582
G01 X-30.36745 Y-7.80448
G01 X-30.31312 Y-7.78198
G01 X-30.19077 Y-7.74636
G01 X-30.06410 Y-7.73242
G01 X-30.00527 Y-7.73242
G01 X-29.90774 Y-7.74205
G01 X-29.85005 Y-7.75350
G01 X-29.75625 Y-7.78198
G01 X-29.70192 Y-7.80448
G01 X-29.62092 Y-7.84776
G01 X-22.88626 Y-7.84776
G01 X-22.81786 Y-7.85307
G01 X-22.72266 Y-7.87590
G01 X-22.69493 Y-7.88584
G01 X-22.63374 Y-7.91690
G01 X-22.58484 Y-7.94956
G01 X-22.53272 Y-7.99422
G01 X-19.05940 Y-11.46754
G01 X-19.00547 Y-11.45680
G01 X-18.81998 Y-11.43998
G01 X-18.63451 Y-11.45680
G01 X-18.57682 Y-11.46828
G01 X-18.42676 Y-11.51379
G01 X-18.37243 Y-11.53630
G01 X-18.23410 Y-11.61024
G01 X-18.18521 Y-11.64290
G01 X-18.04218 Y-11.76218
G01 X-17.92290 Y-11.90521
G01 X-17.89024 Y-11.95410
G01 X-17.80372 Y-12.11903
G01 X-17.74828 Y-12.29683
G01 X-17.73679 Y-12.35451
G01 X-17.71998 Y-12.53998
G01 X-10.39998 Y-11.09998
G01 X-10.09998 Y-10.79998
G01 X-10.21763 Y-11.03655
G01 X-10.23330 Y-11.04943
G01 X-10.28517 Y-11.07714
G01 X-10.34146 Y-11.09421
G01 X-10.39998 Y-11.09998
G01 X-11.99998 Y-11.09998
G01 X-12.05852 Y-11.09421
G01 X-12.11478 Y-11.07714
G01 X-12.16665 Y-11.04943
G01 X-12.21212 Y-11.01212
G01 X-12.24943 Y-10.96665
G01 X-12.27714 Y-10.91479
G01 X-12.29423 Y-10.85853
G01 X-12.29998 Y-10.79998
G01 X-12.29998 Y-9.19998
G01 X-12.29423 Y-9.14146
G01 X-12.27714 Y-9.08517
G01 X-12.24943 Y-9.03331
G01 X-12.21212 Y-8.98787
G01 X-12.16665 Y-8.95055
G01 X-12.11478 Y-8.92282
G01 X-12.05852 Y-8.90575
G01 X-11.99998 Y-8.89998
G01 X-10.39998 Y-8.89998
G01 X-10.34146 Y-8.90575
G01 X-10.28517 Y-8.92282
G01 X-10.23330 Y-8.95055
G01 X-10.18786 Y-8.98787
G01 X-10.15055 Y-9.03331
G01 X-10.12281 Y-9.08517
G01 X-10.10575 Y-9.14146
G01 X-10.09998 Y-9.19998
G01 X-10.09998 Y-10.79998
G04 P0 ( dwell for no time -- G64 should not smooth over this point )
G00 Z5.00000 ( retract )

G00 X-10.09998 Y-15.07998 ( rapid move to begin. )
G01 F30.00000
( Mill infeed pass 1/2 )
G01 Z-0.07500
G04 P0 ( dwell for no time -- G64 should not smooth over this point )
G01 F60.00000
G01 X-10.09998 Y-15.07998
G01 X-10.11679 Y-15.26548
G01 X-10.12828 Y-15.32313
G01 X-10.17379 Y-15.47322
G01 X-10.19630 Y-15.52755
G01 X-10.28537 Y-15.69110
G01 X-10.42218 Y-15.85780
G01 X-10.56521 Y-15.97706
G01 X-10.61410 Y-16.00975
G01 X-10.77902 Y-16.09626
G01 X-10.95682 Y-16.15171
G01 X-11.01451 Y-16.16316
G01 X-11.19998 Y-16.17998
G01 X-11.38547 Y-16.16316
G01 X-11.44316 Y-16.15171
G01 X-11.62093 Y-16.09626
G01 X-11.78585 Y-16.00975
G01 X-11.83475 Y-15.97706
G01 X-11.95598 Y-15.87757
G01 X-11.99759 Y-15.83599
G01 X-12.11461 Y-15.69110
G01 X-12.20366 Y-15.52755
G01 X-12.22616 Y-15.47322
G01 X-12.27171 Y-15.32313
G01 X-12.28316 Y-15.26548
G01 X-12.29998 Y-15.07998
G01 X-12.28316 Y-14.89451
G01 X-12.27171 Y-14.83683
G01 X-12.22616 Y-14.68676
G01 X-12.20366 Y-14.63243
G01 X-12.11461 Y-14.46886
G01 X-11.97780 Y-14.30218
G01 X-11.83475 Y-14.18290
G01 X-11.78585 Y-14.15024
G01 X-11.62093 Y-14.06373
G01 X-11.44316 Y-14.00828
G01 X-11.38547 Y-13.99680
G01 X-11.19998 Y-13.97998
G01 X-11.01451 Y-13.99680
G01 X-10.95682 Y-14.00828
G01 X-10.77902 Y-14.06373
G01 X-10.61410 Y-14.15024
G01 X-10.56521 Y-14.18290
G01 X-10.42218 Y-14.30218
G01 X-10.28537 Y-14.46886
G01 X-10.19630 Y-14.63243
G01 X-10.17379 Y-14.68676
G01 X-10.12828 Y-14.83683
G01 X-10.11679 Y-14.89451
G01 X-10.10143 Y-15.05059
G01 X-10.10143 Y-17.64939
G01 X-10.11679 Y-17.80548
G01 X-10.12828 Y-17.86313
G01 X-10.17379 Y-18.01322
G01 X-10.19630 Y-18.06755
G01 X-10.27024 Y-18.20586
G01 X-10.30290 Y-18.25475
G01 X-10.40239 Y-18.37599
G01 X-10.44397 Y-18.41757
G01 X-10.56521 Y-18.51706
G01 X-10.61410 Y-18.54975
G01 X-10.75243 Y-18.62366
G01 X-10.80676 Y-18.64617
G01 X-10.95682 Y-18.69171
G01 X-11.01451 Y-18.70316
G01 X-11.17059 Y-18.71856
G01 X-11.22939 Y-18.71856
G01 X-11.38547 Y-18.70316
G01 X-11.44316 Y-18.69171
G01 X-11.62093 Y-18.63626
G01 X-11.78585 Y-18.54975
G01 X-11.83475 Y-18.51706
G01 X-11.95598 Y-18.41757
G01 X-11.99759 Y-18.37599
G01 X-12.09705 Y-18.25475
G01 X-12.12974 Y-18.20586
G01 X-12.20366 Y-18.06755
G01 X-12.22616 Y-18.01322
G01 X-12.27171 Y-17.86313
G01 X-12.28316 Y-17.80548
G01 X-12.29998 Y-17.61998
G01 X-12.28316 Y-17.43451
G01 X-12.27171 Y-17.37683
G01 X-12.22616 Y-17.22676
G01 X-12.20366 Y-17.17243
G01 X-12.12974 Y-17.03410
G01 X-12.09705 Y-16.98521
G01 X-11.99759 Y-16.86397
G01 X-11.95598 Y-16.82239
G01 X-11.81113 Y-16.70538
G01 X-11.64755 Y-16.61630
G01 X-11.59322 Y-16.59379
G01 X-11.44316 Y-16.54828
G01 X-11.38547 Y-16.53680
G01 X-11.19998 Y-16.51998
G01 X-11.01451 Y-16.53680
G01 X-10.95682 Y-16.54828
G01 X-10.77902 Y-16.60373
G01 X-10.61410 Y-16.69024
G01 X-10.56521 Y-16.72290
G01 X-10.42218 Y-16.84218
G01 X-10.30290 Y-16.98521
G01 X-10.27024 Y-17.03410
G01 X-10.19630 Y-17.17243
G01 X-10.17379 Y-17.22676
G01 X-10.12828 Y-17.37683
G01 X-10.11679 Y-17.43451
G01 X-10.09998 Y-17.61998
( Mill infeed pass 2/2 )
G00 Z5.00000 ( retract )
G00 X-10.09998 Y-15.07998 ( rapid move to begin. )
G01 Z-0.15000
G04 P0 ( dwell for no time -- G64 should not smooth over this point )
G01 F60.00000
G01 X-10.09998 Y-15.07998
G01 X-10.11679 Y-15.26548
G01 X-10.12828 Y-15.32313
G01 X-10.17379 Y-15.47322
G01 X-10.19630 Y-15.52755
G01 X-10.28537 Y-15.69110
G01 X-10.42218 Y-15.85780
G01 X-10.56521 Y-15.97706
G01 X-10.61410 Y-16.00975
G01 X-10.77902 Y-16.09626
G01 X-10.95682 Y-16.15171
G01 X-11.01451 Y-16.16316
G01 X-11.19998 Y-16.17998
G01 X-11.38547 Y-16.16316
G01 X-11.44316 Y-16.15171
G01 X-11.62093 Y-16.09626
G01 X-11.78585 Y-16.00975
G01 X-11.83475 Y-15.97706
G01 X-11.95598 Y-15.87757
G01 X-11.99759 Y-15.83599
G01 X-12.11461 Y-15.69110
G01 X-12.20366 Y-15.52755
G01 X-12.22616 Y-15.47322
G01 X-12.27171 Y-15.32313
G01 X-12.28316 Y-15.26548
G01 X-12.29998 Y-15.07998
G01 X-12.28316 Y-14.89451
G01 X-12.27171 Y-14.83683
G01 X-12.22616 Y-14.68676
G01 X-12.20366 Y-14.63243
G01 X-12.11461 Y-14.46886
G01 X-11.97780 Y-14.30218
G01 X-11.83475 Y-14.18290
G01 X-11.78585 Y-14.15024
G01 X-11.62093 Y-14.06373
G01 X-11.44316 Y-14.00828
G01 X-11.38547 Y-13.99680
G01 X-11.19998 Y-13.97998
G01 X-11.01451 Y-13.99680
G01 X-10.95682 Y-14.00828
G01 X-10.77902 Y-14.06373
G01 X-10.61410 Y-14.15024
G01 X-10.56521 Y-14.18290
G01 X-10.42218 Y-14.30218
G01 X-10.28537 Y-14.46886
G01 X-10.19630 Y-14.63243
G01 X-10.17379 Y-14.68676
G01 X-10.12828 Y-14.83683
G01 X-10.11679 Y-14.89451
G01 X-10.10143 Y-15.05059
G01 X-10.10143 Y-17.64939
G01 X-10.11679 Y-17.80548
G01 X-10.12828 Y-17.86313
G01 X-10.17379 Y-18.01322
G01 X-10.19630 Y-18.06755
G01 X-10.27024 Y-18.20586
G01 X-10.30290 Y-18.25475
G01 X-10.40239 Y-18.37599
G01 X-10.44397 Y-18.41757
G01 X-10.56521 Y-18.51706
G01 X-10.61410 Y-18.54975
G01 X-10.75243 Y-18.62366
G01 X-10.80676 Y-18.64617
G01 X-10.95682 Y-18.69171
G01 X-11.01451 Y-18.70316
G01 X-11.17059 Y-18.71856
G01 X-11.22939 Y-18.71856
G01 X-11.38547 Y-18.70316
G01 X-11.44316 Y-18.69171
G01 X-11.62093 Y-18.63626
G01 X-11.78585 Y-18.54975
G01 X-11.83475 Y-18.51706
G01 X-11.95598 Y-18.41757
G01 X-11.99759 Y-18.37599
G01 X-12.09705 Y-18.25475
G01 X-12.12974 Y-18.20586
G01 X-12.20366 Y-18.06755
G01 X-12.22616 Y-18.01322
G01 X-12.27171 Y-17.86313
G01 X-12.28316 Y-17.80548
G01 X-12.29998 Y-17.61998
G01 X-12.28316 Y-17.43451
G01 X-12.27171 Y-17.37683
G01 X-12.22616 Y-17.22676
G01 X-12.20366 Y-17.17243
G01 X-12.12974 Y-17.03410
G01 X-12.09705 Y-16.98521
G01 X-11.99759 Y-16.86397
G01 X-11.95598 Y-16.82239
G01 X-11.81113 Y-16.70538
G01 X-11.64755 Y-16.61630
G01 X-11.59322 Y-16.59379
G01 X-11.44316 Y-16.54828
G01 X-11.38547 Y-16.53680
G01 X-11.19998 Y-16.51998
G01 X-11.01451 Y-16.53680
G01 X-10.95682 Y-16.54828
G01 X-10.77902 Y-16.60373
G01 X-10.61410 Y-16.69024
G01 X-10.56521 Y-16.72290
G01 X-10.42218 Y-16.84218
G01 X-10.30290 Y-16.98521
G01 X-10.27024 Y-17.03410
G01 X-10.19630 Y-17.17243
G01 X-10.17379 Y-17.22676
G01 X-10.12828 Y-17.37683
G01 X-10.11679 Y-17.43451
G01 X-10.09998 Y-17.61998
G04 P0 ( dwell for no time -- G64 should not smooth over this point )
G00 Z5.00000 ( retract )

G00 X-10.09998 Y-25.23998 ( rapid move to begin. )
G01 F30.00000
( Mill infeed pass 1/2 )
G01 Z-0.07500
G04 P0 ( dwell for no time -- G64 should not smooth over this point )
G01 F60.00000
G01 X-10.09998 Y-25.23998
G01 X-10.12111 Y-25.45458
G01 X-10.18372 Y-25.66093
G01 X-10.27024 Y-25.82586
G01 X-10.30290 Y-25.87475
G01 X-10.42218 Y-26.01780
G01 X-10.56521 Y-26.13706
G01 X-10.61410 Y-26.16975
G01 X-10.75243 Y-26.24366
G01 X-10.80676 Y-26.26614
G01 X-10.98540 Y-26.31884
G01 X-11.17059 Y-26.33856
G01 X-11.22939 Y-26.33856
G01 X-11.41458 Y-26.31884
G01 X-11.59322 Y-26.26614
G01 X-11.64755 Y-26.24366
G01 X-11.81113 Y-26.15461
G01 X-11.95598 Y-26.03757
G01 X-11.99759 Y-25.99596
G01 X-12.09705 Y-25.87475
G01 X-12.12974 Y-25.82586
G01 X-12.21626 Y-25.66093
G01 X-12.27884 Y-25.45458
G01 X-12.29998 Y-25.23998
G01 X-12.28316 Y-25.05451
G01 X-12.27171 Y-24.99683
G01 X-12.22616 Y-24.84676
G01 X-12.20366 Y-24.79243
G01 X-12.11461 Y-24.62886
G01 X-11.97780 Y-24.46218
G01 X-11.83475 Y-24.34290
G01 X-11.78585 Y-24.31024
G01 X-11.62093 Y-24.22373
G01 X-11.44316 Y-24.16828
G01 X-11.38547 Y-24.15680
G01 X-11.19998 Y-24.13998
G01 X-11.01451 Y-24.15680
G01 X-10.95682 Y-24.16828
G01 X-10.77902 Y-24.22373
G01 X-10.61410 Y-24.31024
G01 X-10.56521 Y-24.34290
G01 X-10.42218 Y-24.46218
G01 X-10.28537 Y-24.62886
G01 X-10.19630 Y-24.79243
G01 X-10.17379 Y-24.84676
G01 X-10.12828 Y-24.99683
G01 X-10.11679 Y-25.05451
G01 X-10.09998 Y-25.23998
G01 X-10.10143 Y-27.80939
G01 X-10.12111 Y-27.99458
G01 X-10.17379 Y-28.17322
G01 X-10.19630 Y-28.22755
G01 X-10.28537 Y-28.39110
G01 X-10.40239 Y-28.53599
G01 X-10.44397 Y-28.57757
G01 X-10.56521 Y-28.67706
G01 X-10.61410 Y-28.70975
G01 X-10.77902 Y-28.79626
G01 X-10.95682 Y-28.85171
G01 X-11.01451 Y-28.86316
G01 X-11.17059 Y-28.87856
G01 X-11.22939 Y-28.87856
G01 X-11.38547 Y-28.86316
G01 X-11.44316 Y-28.85171
G01 X-11.62093 Y-28.79626
G01 X-11.81113 Y-28.69461
G01 X-11.95598 Y-28.57757
G01 X-11.99759 Y-28.53599
G01 X-12.11461 Y-28.39110
G01 X-12.20366 Y-28.22755
G01 X-12.22616 Y-28.17322
G01 X-12.27171 Y-28.02313
G01 X-12.28316 Y-27.96548
G01 X-12.29855 Y-27.80939
G01 X-12.29855 Y-27.75059
G01 X-12.27884 Y-27.56538
G01 X-12.21626 Y-27.35903
G01 X-12.12974 Y-27.19410
G01 X-12.09705 Y-27.14521
G01 X-11.99759 Y-27.02397
G01 X-11.95598 Y-26.98239
G01 X-11.83475 Y-26.88290
G01 X-11.78585 Y-26.85024
G01 X-11.64755 Y-26.77630
G01 X-11.59322 Y-26.75379
G01 X-11.44316 Y-26.70828
G01 X-11.38547 Y-26.69680
G01 X-11.22939 Y-26.68143
G01 X-11.17059 Y-26.68143
G01 X-11.01451 Y-26.69680
G01 X-10.95682 Y-26.70828
G01 X-10.77902 Y-26.76373
G01 X-10.61410 Y-26.85024
G01 X-10.56521 Y-26.88290
G01 X-10.44397 Y-26.98239
G01 X-10.40239 Y-27.02397
G01 X-10.28537 Y-27.16886
G01 X-10.19630 Y-27.33243
G01 X-10.17379 Y-27.38676
G01 X-10.12111 Y-27.56538
G01 X-10.10143 Y-27.75059
G01 X-10.10143 Y-30.34939
G01 X-10.12111 Y-30.53458
G01 X-10.17379 Y-30.71322
G01 X-10.19630 Y-30.76755
G01 X-10.28537 Y-30.93110
G01 X-10.40239 Y-31.07599
G01 X-10.44397 Y-31.11757
G01 X-10.56521 Y-31.21706
G01 X-10.61410 Y-31.24975
G01 X-10.77902 Y-31.33626
G01 X-10.95682 Y-31.39171
G01 X-11.01451 Y-31.40316
G01 X-11.17059 Y-31.41856
G01 X-11.22939 Y-31.41856
G01 X-11.38547 Y-31.40316
G01 X-11.44316 Y-31.39171
G01 X-11.62093 Y-31.33626
G01 X-11.78585 Y-31.24975
G01 X-11.83475 Y-31.21706
G01 X-11.95598 Y-31.11757
G01 X-11.99759 Y-31.07599
G01 X-12.11461 Y-30.93110
G01 X-12.20366 Y-30.76755
G01 X-12.22616 Y-30.71322
G01 X-12.27884 Y-30.53458
G01 X-12.29855 Y-30.34939
G01 X-12.29855 Y-30.29059
G01 X-12.28316 Y-30.13451
G01 X-12.27171 Y-30.07683
G01 X-12.21626 Y-29.89903
G01 X-12.12974 Y-29.73410
G01 X-12.09705 Y-29.68521
G01 X-11.99759 Y-29.56397
G01 X-11.95598 Y-29.52239
G01 X-11.83475 Y-29.42290
G01 X-11.78585 Y-29.39024
G01 X-11.64755 Y-29.31630
G01 X-11.59322 Y-29.29379
G01 X-11.44316 Y-29.24828
G01 X-11.38547 Y-29.23680
G01 X-11.22939 Y-29.22143
G01 X-11.17059 Y-29.22143
G01 X-11.01451 Y-29.23680
G01 X-10.95682 Y-29.24828
G01 X-10.80676 Y-29.29379
G01 X-10.75243 Y-29.31630
G01 X-10.61410 Y-29.39024
G01 X-10.56521 Y-29.42290
G01 X-10.42218 Y-29.54218
G01 X-10.30290 Y-29.68521
G01 X-10.27024 Y-29.73410
G01 X-10.19630 Y-29.87243
G01 X-10.17379 Y-29.92676
G01 X-10.12111 Y-30.10538
G01 X-10.10143 Y-30.29059
G01 X-10.10143 Y-32.88939
G01 X-10.11679 Y-33.04548
G01 X-10.12828 Y-33.10313
G01 X-10.17379 Y-33.25322
G01 X-10.19630 Y-33.30755
G01 X-10.27024 Y-33.44586
G01 X-10.30290 Y-33.49475
G01 X-10.40239 Y-33.61599
G01 X-10.44397 Y-33.65757
G01 X-10.56521 Y-33.75706
G01 X-10.61410 Y-33.78975
G01 X-10.77902 Y-33.87626
G01 X-10.95682 Y-33.93171
G01 X-11.01451 Y-33.94316
G01 X-11.17059 Y-33.95856
G01 X-11.22939 Y-33.95856
G01 X-11.38547 Y-33.94316
G01 X-11.44316 Y-33.93171
G01 X-11.62093 Y-33.87626
G01 X-11.78585 Y-33.78975
G01 X-11.83475 Y-33.75706
G01 X-11.95598 Y-33.65757
G01 X-11.99759 Y-33.61599
G01 X-12.11461 Y-33.47110
G01 X-12.20366 Y-33.30755
G01 X-12.22616 Y-33.25322
G01 X-12.27171 Y-33.10313
G01 X-12.28316 Y-33.04548
G01 X-12.29855 Y-32.88939
G01 X-12.29855 Y-32.83059
G01 X-12.27884 Y-32.64538
G01 X-12.21626 Y-32.43903
G01 X-12.12974 Y-32.27410
G01 X-12.09705 Y-32.22521
G01 X-11.97780 Y-32.08218
G01 X-11.83475 Y-31.96290
G01 X-11.78585 Y-31.93024
G01 X-11.62093 Y-31.84373
G01 X-11.44316 Y-31.78828
G01 X-11.38547 Y-31.77680
G01 X-11.22939 Y-31.76143
G01 X-11.17059 Y-31.76143
G01 X-11.01451 Y-31.77680
G01 X-10.95682 Y-31.78828
G01 X-10.80676 Y-31.83379
G01 X-10.75243 Y-31.85630
G01 X-10.61410 Y-31.93024
G01 X-10.56521 Y-31.96290
G01 X-10.44397 Y-32.06239
G01 X-10.40239 Y-32.10397
G01 X-10.28537 Y-32.24886
G01 X-10.19630 Y-32.41243
G01 X-10.17379 Y-32.46676
G01 X-10.12111 Y-32.64538
G01 X-10.10143 Y-32.83059
( Mill infeed pass 2/2 )
G00 Z5.00000 ( retract )
G00 X-10.09998 Y-25.23998 ( rapid move to begin. )
G01 Z-0.15000
G04 P0 ( dwell for no time -- G64 should not smooth over this point )
G01 F60.00000
G01 X-10.09998 Y-25.23998
G01 X-10.12111 Y-25.45458
G01 X-10.18372 Y-25.66093
G01 X-10.27024 Y-25.82586
G01 X-10.30290 Y-25.87475
G01 X-10.42218 Y-26.01780
G01 X-10.56521 Y-26.13706
G01 X-10.61410 Y-26.16975
G01 X-10.75243 Y-26.24366
G01 X-10.80676 Y-26.26614
G01 X-10.98540 Y-26.31884
G01 X-11.17059 Y-26.33856
G01 X-11.22939 Y-26.33856
G01 X-11.41458 Y-26.31884
G01 X-11.59322 Y-26.26614
G01 X-11.64755 Y-26.24366
G01 X-11.81113 Y-26.15461
G01 X-11.95598 Y-26.03757
G01 X-11.99759 Y-25.99596
G01 X-12.09705 Y-25.87475
G01 X-12.12974 Y-25.82586
G01 X-12.21626 Y-25.66093
G01 X-12.27884 Y-25.45458
G01 X-12.29998 Y-25.23998
G01 X-12.28316 Y-25.05451
G01 X-12.27171 Y-24.99683
G01 X-12.22616 Y-24.84676
G01 X-12.20366 Y-24.79243
G01 X-12.11461 Y-24.62886
G01 X-11.97780 Y-24.46218
G01 X-11.83475 Y-24.34290
G01 X-11.78585 Y-24.31024
G01 X-11.62093 Y-24.22373
G01 X-11.44316 Y-24.16828
G01 X-11.38547 Y-24.15680
G01 X-11.19998 Y-24.13998
G01 X-11.01451 Y-24.15680
G01 X-10.95682 Y-24.16828
G01 X-10.77902 Y-24.22373
G01 X-10.61410 Y-24.31024
G01 X-10.56521 Y-24.34290
G01 X-10.42218 Y-24.46218
G01 X-10.28537 Y-24.62886
G01 X-10.19630 Y-24.79243
G01 X-10.17379 Y-24.84676
G01 X-10.12828 Y-24.99683
G01 X-10.11679 Y-25.05451
G01 X-10.09998 Y-25.23998
G01 X-10.10143 Y-27.80939
G01 X-10.12111 Y-27.99458
G01 X-10.17379 Y-28.17322
G01 X-10.19630 Y-28.22755
G01 X-10.28537 Y-28.39110
G01 X-10.40239 Y-28.53599
G01 X-10.44397 Y-28.57757
G01 X-10.56521 Y-28.67706
G01 X-10.61410 Y-28.70975
G01 X-10.77902 Y-28.79626
G01 X-10.95682 Y-28.85171
G01 X-11.01451 Y-28.86316
G01 X-11.17059 Y-28.87856
G01 X-11.22939 Y-28.87856
G01 X-11.38547 Y-28.86316
G01 X-11.44316 Y-28.85171
G01 X-11.62093 Y-28.79626
G01 X-11.81113 Y-28.69461
G01 X-11.95598 Y-28.57757
G01 X-11.99759 Y-28.53599
G01 X-12.11461 Y-28.39110
G01 X-12.20366 Y-28.22755
G01 X-12.22616 Y-28.17322
G01 X-12.27171 Y-28.02313
G01 X-12.28316 Y-27.96548
G01 X-12.29855 Y-27.80939
G01 X-12.29855 Y-27.75059
G01 X-12.27884 Y-27.56538
G01 X-12.21626 Y-27.35903
G01 X-12.12974 Y-27.19410
G01 X-12.09705 Y-27.14521
G01 X-11.99759 Y-27.02397
G01 X-11.95598 Y-26.98239
G01 X-11.83475 Y-26.88290
G01 X-11.78585 Y-26.85024
G01 X-11.64755 Y-26.77630
G01 X-11.59322 Y-26.75379
G01 X-11.44316 Y-26.70828
G01 X-11.38547 Y-26.69680
G01 X-11.22939 Y-26.68143
G01 X-11.17059 Y-26.68143
G01 X-11.01451 Y-26.69680
G01 X-10.95682 Y-26.70828
G01 X-10.77902 Y-26.76373
G01 X-10.61410 Y-26.85024
G01 X-10.56521 Y-26.88290
G01 X-10.44397 Y-26.98239
G01 X-10.40239 Y-27.02397
G01 X-10.28537 Y-27.16886
G01 X-10.19630 Y-27.33243
G01 X-10.17379 Y-27.38676
G01 X-10.12111 Y-27.56538
G01 X-10.10143 Y-27.75059
G01 X-10.10143 Y-30.34939
G01 X-10.12111 Y-30.53458
G01 X-10.17379 Y-30.71322
G01 X-10.19630 Y-30.76755
G01 X-10.28537 Y-30.93110
G01 X-10.40239 Y-31.07599
G01 X-10.44397 Y-31.11757
G01 X-10.56521 Y-31.21706
G01 X-10.61410 Y-31.24975
G01 X-10.77902 Y-31.33626
G01 X-10.95682 Y-31.39171
G01 X-11.01451 Y-31.40316
G01 X-11.17059 Y-31.41856
G01 X-11.22939 Y-31.41856
G01 X-11.38547 Y-31.40316
G01 X-11.44316 Y-31.39171
G01 X-11.62093 Y-31.33626
G01 X-11.78585 Y-31.24975
G01 X-11.83475 Y-31.21706
G01 X-11.95598 Y-31.11757
G01 X-11.99759 Y-31.07599
G01 X-12.11461 Y-30.93110
G01 X-12.20366 Y-30.76755
G01 X-12.22616 Y-30.71322
G01 X-12.27884 Y-30.53458
G01 X-12.29855 Y-30.34939
G01 X-12.29855 Y-30.29059
G01 X-12.28316 Y-30.13451
G01 X-12.27171 Y-30.07683
G01 X-12.21626 Y-29.89903
G01 X-12.12974 Y-29.73410
G01 X-12.09705 Y-29.68521
G01 X-11.99759 Y-29.56397
G01 X-11.95598 Y-29.52239
G01 X-11.83475 Y-29.42290
G01 X-11.78585 Y-29.39024
G01 X-11.64755 Y-29.31630
G01 X-11.59322 Y-29.29379
G01 X-11.44316 Y-29.24828
G01 X-11.38547 Y-29.23680
G01 X-11.22939 Y-29.22143
G01 X-11.17059 Y-29.22143
G01 X-11.01451 Y-29.23680
G01 X-10.95682 Y-29.24828
G01 X-10.80676 Y-29.29379
G01 X-10.75243 Y-29.31630
G01 X-10.61410 Y-29.39024
G01 X-10.56521 Y-29.42290
G01 X-10.42218 Y-29.54218
G01 X-10.30290 Y-29.68521
G01 X-10.27024 Y-29.73410
G01 X-10.19630 Y-29.87243
G01 X-10.17379 Y-29.92676
G01 X-10.12111 Y-30.10538
G01 X-10.10143 Y-30.29059
G01 X-10.10143 Y-32.88939
G01 X-10.11679 Y-33.04548
G01 X-10.12828 Y-33.10313
G01 X-10.17379 Y-33.25322
G01 X-10.19630 Y-33.30755
G01 X-10.27024 Y-33.44586
G01 X-10.30290 Y-33.49475
G01 X-10.40239 Y-33.61599
G01 X-10.44397 Y-33.65757
G01 X-10.56521 Y-33.75706
G01 X-10.61410 Y-33.78975
G01 X-10.77902 Y-33.87626
G01 X-10.95682 Y-33.93171
G01 X-11.01451 Y-33.94316
G01 X-11.17059 Y-33.95856
G01 X-11.22939 Y-33.95856
G01 X-11.38547 Y-33.94316
G01 X-11.44316 Y-33.93171
G01 X-11.62093 Y-33.87626
G01 X-11.78585 Y-33.78975
G01 X-11.83475 Y-33.75706
G01 X-11.95598 Y-33.65757
G01 X-11.99759 Y-33.61599
G01 X-12.11461 Y-33.47110
G01 X-12.20366 Y-33.30755
G01 X-12.22616 Y-33.25322
G01 X-12.27171 Y-33.10313
G01 X-12.28316 Y-33.04548
G01 X-12.29855 Y-32.88939
G01 X-12.29855 Y-32.83059
G01 X-12.27884 Y-32.64538
G01 X-12.21626 Y-32.43903
G01 X-12.12974 Y-32.27410
G01 X-12.09705 Y-32.22521
G01 X-11.97780 Y-32.08218
G01 X-11.83475 Y-31.96290
G01 X-11.78585 Y-31.93024
G01 X-11.62093 Y-31.84373
G01 X-11.44316 Y-31.78828
G01 X-11.38547 Y-31.77680
G01 X-11.22939 Y-31.76143
G01 X-11.17059 Y-31.76143
G01 X-11.01451 Y-31.77680
G01 X-10.95682 Y-31.78828
G01 X-10.80676 Y-31.83379
G01 X-10.75243 Y-31.85630
G01 X-10.61410 Y-31.93024
G01 X-10.56521 Y-31.96290
G01 X-10.44397 Y-32.06239
G01 X-10.40239 Y-32.10397
G01 X-10.28537 Y-32.24886
G01 X-10.19630 Y-32.41243
G01 X-10.17379 Y-32.46676
G01 X-10.12111 Y-32.64538
G01 X-10.10143 Y-32.83059
G04 P0 ( dwell for no time -- G64 should not smooth over this point )
G00 Z5.00000 ( retract )

G00 X-12.65146 Y-35.41210 ( rapid move to begin. )
G01 F30.00000
( Mill infeed pass 1/2 )
G01 Z-0.07500
G04 P0 ( dwell for no time -- G64 should not smooth over this point )
G01 F60.00000
G01 X-12.65146 Y-35.41210
G01 X-12.66495 Y-35.52081
G01 X-12.67595 Y-35.56660
G01 X-12.69395 Y-35.61009
G01 X-12.74023 Y-35.69632
G01 X-12.79792 Y-35.76564
G01 X-18.57649 Y-41.54419
G01 X-18.57647 Y-42.57995
G01 X-18.58178 Y-42.64838
G01 X-18.60461 Y-42.74358
G01 X-18.61454 Y-42.77131
G01 X-18.64561 Y-42.83250
G01 X-18.66074 Y-42.85775
G01 X-18.70316 Y-42.91170
G01 X-19.12427 Y-43.33486
G01 X-19.12427 Y-53.55727
G01 X-18.38132 Y-54.30022
G01 X-18.35074 Y-54.33601
G01 X-18.28937 Y-54.42679
G01 X-18.27136 Y-54.47027
G01 X-18.24309 Y-54.56398
G01 X-18.23486 Y-54.65379
G01 X-18.23486 Y-76.53797
G01 X-14.33632 Y-80.43654
G01 X-14.24315 Y-80.40827
G01 X-14.18547 Y-80.39679
G01 X-14.02939 Y-80.38142
G01 X-13.97058 Y-80.38142
G01 X-13.81450 Y-80.39679
G01 X-13.75682 Y-80.40827
G01 X-13.60675 Y-80.45381
G01 X-13.55242 Y-80.47632
G01 X-13.41412 Y-80.55023
G01 X-13.36520 Y-80.58290
G01 X-13.22215 Y-80.70218
G01 X-13.10289 Y-80.84520
G01 X-13.07023 Y-80.89412
G01 X-12.99629 Y-81.03243
G01 X-12.97381 Y-81.08676
G01 X-12.92824 Y-81.23682
G01 X-12.91681 Y-81.29450
G01 X-12.90142 Y-81.45059
G01 X-12.90142 Y-81.50939
G01 X-12.91681 Y-81.66547
G01 X-12.92824 Y-81.72315
G01 X-12.97381 Y-81.87322
G01 X-12.99629 Y-81.92755
G01 X-13.07023 Y-82.06585
G01 X-13.10289 Y-82.11477
G01 X-13.20239 Y-82.23598
G01 X-13.24399 Y-82.27759
G01 X-13.38885 Y-82.39460
G01 X-13.57904 Y-82.49625
G01 X-13.75682 Y-82.55170
G01 X-13.81450 Y-82.56318
G01 X-13.97058 Y-82.57855
G01 X-14.02939 Y-82.57855
G01 X-14.18547 Y-82.56318
G01 X-14.24315 Y-82.55170
G01 X-14.42095 Y-82.49625
G01 X-14.61112 Y-82.39460
G01 X-14.75600 Y-82.27759
G01 X-14.79758 Y-82.23598
G01 X-14.89707 Y-82.11477
G01 X-14.92974 Y-82.06585
G01 X-15.00368 Y-81.92755
G01 X-15.02618 Y-81.87322
G01 X-15.07170 Y-81.72315
G01 X-15.08318 Y-81.66547
G01 X-15.10000 Y-81.48000
G01 X-15.08318 Y-81.29450
G01 X-15.07170 Y-81.23682
G01 X-15.04343 Y-81.14365
G01 X-19.08843 Y-77.09863
G01 X-19.13308 Y-77.04651
G01 X-19.18424 Y-76.96302
G01 X-19.21812 Y-76.87117
G01 X-19.22958 Y-76.81349
G01 X-19.23489 Y-76.74508
G01 X-19.23489 Y-54.86088
G01 X-19.97784 Y-54.11793
G01 X-20.00842 Y-54.08214
G01 X-20.06978 Y-53.99136
G01 X-20.08779 Y-53.94787
G01 X-20.11606 Y-53.85417
G01 X-20.12335 Y-53.78790
G01 X-20.12429 Y-43.12778
G01 X-20.11898 Y-43.05935
G01 X-20.09615 Y-42.96415
G01 X-20.07365 Y-42.90982
G01 X-20.04002 Y-42.84998
G01 X-19.97784 Y-42.77421
G01 X-19.57649 Y-42.37286
G01 X-19.57649 Y-41.33708
G01 X-19.56300 Y-41.22834
G01 X-19.55201 Y-41.18254
G01 X-19.53400 Y-41.13906
G01 X-19.48101 Y-41.04320
G01 X-19.45048 Y-41.00744
G01 X-13.65146 Y-35.20501
G01 X-13.65148 Y-20.95558
G01 X-18.48363 Y-16.12341
G01 X-18.57682 Y-16.15171
G01 X-18.63451 Y-16.16316
G01 X-18.81998 Y-16.17998
G01 X-19.00547 Y-16.16316
G01 X-19.06316 Y-16.15171
G01 X-19.21322 Y-16.10617
G01 X-19.26755 Y-16.08366
G01 X-19.40585 Y-16.00975
G01 X-19.45475 Y-15.97706
G01 X-19.59780 Y-15.85780
G01 X-19.71705 Y-15.71475
G01 X-19.74974 Y-15.66586
G01 X-19.83626 Y-15.50093
G01 X-19.89171 Y-15.32313
G01 X-19.90316 Y-15.26548
G01 X-19.91998 Y-15.07998
G01 X-19.90316 Y-14.89451
G01 X-19.89171 Y-14.83683
G01 X-19.83626 Y-14.65903
G01 X-19.74974 Y-14.49410
G01 X-19.71705 Y-14.44521
G01 X-19.61759 Y-14.32397
G01 X-19.57598 Y-14.28239
G01 X-19.45475 Y-14.18290
G01 X-19.40585 Y-14.15024
G01 X-19.26755 Y-14.07630
G01 X-19.21322 Y-14.05379
G01 X-19.06316 Y-14.00828
G01 X-19.00547 Y-13.99680
G01 X-18.84939 Y-13.98143
G01 X-18.79059 Y-13.98143
G01 X-18.63451 Y-13.99680
G01 X-18.57682 Y-14.00828
G01 X-18.39902 Y-14.06373
G01 X-18.23410 Y-14.15024
G01 X-18.18521 Y-14.18290
G01 X-18.04218 Y-14.30218
G01 X-17.92290 Y-14.44521
G01 X-17.89024 Y-14.49410
G01 X-17.80372 Y-14.65903
G01 X-17.74828 Y-14.83683
G01 X-17.73679 Y-14.89451
G01 X-17.71998 Y-15.07998
G01 X-17.73679 Y-15.26548
G01 X-17.74828 Y-15.32313
G01 X-17.77655 Y-15.41630
G01 X-12.79792 Y-20.39493
G01 X-12.75326 Y-20.44705
G01 X-12.72060 Y-20.49595
G01 X-12.67960 Y-20.58487
G01 X-12.65677 Y-20.68007
G01 X-12.65146 Y-20.74850
G01 X-12.65146 Y-35.41210
( Mill infeed pass 2/2 )
G01 Z-0.15000
G04 P0 ( dwell for no time -- G64 should not smooth over this point )
G01 F60.00000
G01 X-12.65146 Y-35.41210
G01 X-12.66495 Y-35.52081
G01 X-12.67595 Y-35.56660
G01 X-12.69395 Y-35.61009
G01 X-12.74023 Y-35.69632
G01 X-12.79792 Y-35.76564
G01 X-18.57649 Y-41.54419
G01 X-18.57647 Y-42.57995
G01 X-18.58178 Y-42.64838
G01 X-18.60461 Y-42.74358
G01 X-18.61454 Y-42.77131
G01 X-18.64561 Y-42.83250
G01 X-18.66074 Y-42.85775
G01 X-18.70316 Y-42.91170
G01 X-19.12427 Y-43.33486
G01 X-19.12427 Y-53.55727
G01 X-18.38132 Y-54.30022
G01 X-18.35074 Y-54.33601
G01 X-18.28937 Y-54.42679
G01 X-18.27136 Y-54.47027
G01 X-18.24309 Y-54.56398
G01 X-18.23486 Y-54.65379
G01 X-18.23486 Y-76.53797
G01 X-14.33632 Y-80.43654
G01 X-14.24315 Y-80.40827
G01 X-14.18547 Y-80.39679
G01 X-14.02939 Y-80.38142
G01 X-13.97058 Y-80.38142
G01 X-13.81450 Y-80.39679
G01 X-13.75682 Y-80.40827
G01 X-13.60675 Y-80.45381
G01 X-13.55242 Y-80.47632
G01 X-13.41412 Y-80.55023
G01 X-13.36520 Y-80.58290
G01 X-13.22215 Y-80.70218
G01 X-13.10289 Y-80.84520
G01 X-13.07023 Y-80.89412
G01 X-12.99629 Y-81.03243
G01 X-12.97381 Y-81.08676
G01 X-12.92824 Y-81.23682
G01 X-12.91681 Y-81.29450
G01 X-12.90142 Y-81.45059
G01 X-12.90142 Y-81.50939
G01 X-12.91681 Y-81.66547
G01 X-12.92824 Y-81.72315
G01 X-12.97381 Y-81.87322
G01 X-12.99629 Y-81.92755
G01 X-13.07023 Y-82.06585
G01 X-13.10289 Y-82.11477
G01 X-13.20239 Y-82.23598
G01 X-13.24399 Y-82.27759
G01 X-13.38885 Y-82.39460
G01 X-13.57904 Y-82.49625
G01 X-13.75682 Y-82.55170
G01 X-13.81450 Y-82.56318
G01 X-13.97058 Y-82.57855
G01 X-14.02939 Y-82.57855
G01 X-14.18547 Y-82.56318
G01 X-14.24315 Y-82.55170
G01 X-14.42095 Y-82.49625
G01 X-14.61112 Y-82.39460
G01 X-14.75600 Y-82.27759
G01 X-14.79758 Y-82.23598
G01 X-14.89707 Y-82.11477
G01 X-14.92974 Y-82.06585
G01 X-15.00368 Y-81.92755
G01 X-15.02618 Y-81.87322
G01 X-15.07170 Y-81.72315
G01 X-15.08318 Y-81.66547
G01 X-15.10000 Y-81.48000
G01 X-15.08318 Y-81.29450
G01 X-15.07170 Y-81.23682
G01 X-15.04343 Y-81.14365
G01 X-19.08843 Y-77.09863
G01 X-19.13308 Y-77.04651
G01 X-19.18424 Y-76.96302
G01 X-19.21812 Y-76.87117
G01 X-19.22958 Y-76.81349
G01 X-19.23489 Y-76.74508
G01 X-19.23489 Y-54.86088
G01 X-19.97784 Y-54.11793
G01 X-20.00842 Y-54.08214
G01 X-20.06978 Y-53.99136
G01 X-20.08779 Y-53.94787
G01 X-20.11606 Y-53.85417
G01 X-20.12335 Y-53.78790
G01 X-20.12429 Y-43.12778
G01 X-20.11898 Y-43.05935
G01 X-20.09615 Y-42.96415
G01 X-20.07365 Y-42.90982
G01 X-20.04002 Y-42.84998
G01 X-19.97784 Y-42.77421
G01 X-19.57649 Y-42.37286
G01 X-19.57649 Y-41.33708
G01 X-19.56300 Y-41.22834
G01 X-19.55201 Y-41.18254
G01 X-19.53400 Y-41.13906
G01 X-19.48101 Y-41.04320
G01 X-19.45048 Y-41.00744
G01 X-13.65146 Y-35.20501
G01 X-13.65148 Y-20.95558
G01 X-18.48363 Y-16.12341
G01 X-18.57682 Y-16.15171
G01 X-18.63451 Y-16.16316
G01 X-18.81998 Y-16.17998
G01 X-19.00547 Y-16.16316
G01 X-19.06316 Y-16.15171
G01 X-19.21322 Y-16.10617
G01 X-19.26755 Y-16.08366
G01 X-19.40585 Y-16.00975
G01 X-19.45475 Y-15.97706
G01 X-19.59780 Y-15.85780
G01 X-19.71705 Y-15.71475
G01 X-19.74974 Y-15.66586
G01 X-19.83626 Y-15.50093
G01 X-19.89171 Y-15.32313
G01 X-19.90316 Y-15.26548
G01 X-19.91998 Y-15.07998
G01 X-19.90316 Y-14.89451
G01 X-19.89171 Y-14.83683
G01 X-19.83626 Y-14.65903
G01 X-19.74974 Y-14.49410
G01 X-19.71705 Y-14.44521
G01 X-19.61759 Y-14.32397
G01 X-19.57598 Y-14.28239
G01 X-19.45475 Y-14.18290
G01 X-19.40585 Y-14.15024
G01 X-19.26755 Y-14.07630
G01 X-19.21322 Y-14.05379
G01 X-19.06316 Y-14.00828
G01 X-19.00547 Y-13.99680
G01 X-18.84939 Y-13.98143
G01 X-18.79059 Y-13.98143
G01 X-18.63451 Y-13.99680
G01 X-18.57682 Y-14.00828
G01 X-18.39902 Y-14.06373
G01 X-18.23410 Y-14.15024
G01 X-18.18521 Y-14.18290
G01 X-18.04218 Y-14.30218
G01 X-17.92290 Y-14.44521
G01 X-17.89024 Y-14.49410
G01 X-17.80372 Y-14.65903
G01 X-17.74828 Y-14.83683
G01 X-17.73679 Y-14.89451
G01 X-17.71998 Y-15.07998
G01 X-17.73679 Y-15.26548
G01 X-17.74828 Y-15.32313
G01 X-17.77655 Y-15.41630
G01 X-12.79792 Y-20.39493
G01 X-12.75326 Y-20.44705
G01 X-12.72060 Y-20.49595
G01 X-12.67960 Y-20.58487
G01 X-12.65677 Y-20.68007
G01 X-12.65146 Y-20.74850
G01 X-12.65146 Y-35.41210
G04 P0 ( dwell for no time -- G64 should not smooth over this point )
G00 Z5.00000 ( retract )

G00 X-15.65176 Y-34.16938 ( rapid move to begin. )
G01 F30.00000
( Mill infeed pass 1/2 )
G01 Z-0.07500
G04 P0 ( dwell for no time -- G64 should not smooth over this point )
G01 F60.00000
G01 X-15.65176 Y-34.16938
G01 X-15.65707 Y-34.23778
G01 X-15.66852 Y-34.29546
G01 X-15.70241 Y-34.38731
G01 X-15.75356 Y-34.47080
G01 X-15.79822 Y-34.52292
G01 X-21.72025 Y-40.44498
G01 X-21.72025 Y-40.83820
G01 X-21.73374 Y-40.94693
G01 X-21.74474 Y-40.99270
G01 X-21.79117 Y-41.09194
G01 X-21.83033 Y-41.15059
G01 X-21.86673 Y-41.19174
G01 X-22.12457 Y-41.44960
G01 X-22.12457 Y-65.41630
G01 X-22.04631 Y-65.48239
G01 X-21.96435 Y-65.57998
G01 X-21.93168 Y-65.62888
G01 X-21.88548 Y-65.71534
G01 X-21.86297 Y-65.76967
G01 X-21.83450 Y-65.86344
G01 X-21.82305 Y-65.92113
G01 X-21.81200 Y-66.04808
G01 X-21.82305 Y-66.17503
G01 X-21.83450 Y-66.23271
G01 X-21.86297 Y-66.32651
G01 X-21.88548 Y-66.38084
G01 X-21.93168 Y-66.46728
G01 X-21.96435 Y-66.51620
G01 X-22.04631 Y-66.61376
G01 X-22.14387 Y-66.69573
G01 X-22.19279 Y-66.72839
G01 X-22.27923 Y-66.77459
G01 X-22.33356 Y-66.79710
G01 X-22.42736 Y-66.82557
G01 X-22.48505 Y-66.83703
G01 X-22.61199 Y-66.84808
G01 X-22.73894 Y-66.83703
G01 X-22.79663 Y-66.82557
G01 X-22.89040 Y-66.79710
G01 X-22.94476 Y-66.77459
G01 X-23.03120 Y-66.72839
G01 X-23.08009 Y-66.69573
G01 X-23.17768 Y-66.61376
G01 X-23.25962 Y-66.51620
G01 X-23.29231 Y-66.46728
G01 X-23.33851 Y-66.38084
G01 X-23.36101 Y-66.32651
G01 X-23.38946 Y-66.23271
G01 X-23.40094 Y-66.17503
G01 X-23.41199 Y-66.04808
G01 X-23.40094 Y-65.92113
G01 X-23.38946 Y-65.86344
G01 X-23.35108 Y-65.74193
G01 X-23.29231 Y-65.62888
G01 X-23.25962 Y-65.57998
G01 X-23.17768 Y-65.48239
G01 X-23.12457 Y-65.43695
G01 X-23.12213 Y-41.21114
G01 X-23.11842 Y-41.16423
G01 X-23.08809 Y-41.05897
G01 X-23.07008 Y-41.01546
G01 X-23.00869 Y-40.92471
G01 X-22.97811 Y-40.88892
G01 X-22.72025 Y-40.63106
G01 X-22.72027 Y-40.23787
G01 X-22.71497 Y-40.16946
G01 X-22.70351 Y-40.11178
G01 X-22.66963 Y-40.01994
G01 X-22.61847 Y-39.93645
G01 X-22.59358 Y-39.90614
G01 X-16.65178 Y-33.96226
G01 X-16.65178 Y-25.57529
G01 X-18.48363 Y-23.74341
G01 X-18.57682 Y-23.77171
G01 X-18.63451 Y-23.78316
G01 X-18.81998 Y-23.79998
G01 X-19.00547 Y-23.78316
G01 X-19.06316 Y-23.77171
G01 X-19.24093 Y-23.71626
G01 X-19.40585 Y-23.62975
G01 X-19.45475 Y-23.59706
G01 X-19.57598 Y-23.49757
G01 X-19.61759 Y-23.45599
G01 X-19.71705 Y-23.33475
G01 X-19.74974 Y-23.28586
G01 X-19.83626 Y-23.12093
G01 X-19.89171 Y-22.94313
G01 X-19.90316 Y-22.88548
G01 X-19.91855 Y-22.72939
G01 X-19.91855 Y-22.67059
G01 X-19.90316 Y-22.51451
G01 X-19.89171 Y-22.45683
G01 X-19.83626 Y-22.27903
G01 X-19.74974 Y-22.11410
G01 X-19.71705 Y-22.06521
G01 X-19.61759 Y-21.94397
G01 X-19.57598 Y-21.90239
G01 X-19.43113 Y-21.78538
G01 X-19.26755 Y-21.69630
G01 X-19.21322 Y-21.67379
G01 X-19.06316 Y-21.62828
G01 X-19.00547 Y-21.61680
G01 X-18.81998 Y-21.59998
G01 X-18.63451 Y-21.61680
G01 X-18.57682 Y-21.62828
G01 X-18.39902 Y-21.68373
G01 X-18.23410 Y-21.77024
G01 X-18.18521 Y-21.80290
G01 X-18.04218 Y-21.92218
G01 X-17.92290 Y-22.06521
G01 X-17.89024 Y-22.11410
G01 X-17.80372 Y-22.27903
G01 X-17.74828 Y-22.45683
G01 X-17.73679 Y-22.51451
G01 X-17.71998 Y-22.69998
G01 X-17.73679 Y-22.88548
G01 X-17.74828 Y-22.94313
G01 X-17.77655 Y-23.03630
G01 X-15.79822 Y-25.01463
G01 X-15.75356 Y-25.06675
G01 X-15.72090 Y-25.11565
G01 X-15.70241 Y-25.15024
G01 X-15.66852 Y-25.24209
G01 X-15.65707 Y-25.29977
G01 X-15.65176 Y-25.36820
G01 X-15.65176 Y-34.16938
( Mill infeed pass 2/2 )
G01 Z-0.15000
G04 P0 ( dwell for no time -- G64 should not smooth over this point )
G01 F60.00000
G01 X-15.65176 Y-34.16938
G01 X-15.65707 Y-34.23778
G01 X-15.66852 Y-34.29546
G01 X-15.70241 Y-34.38731
G01 X-15.75356 Y-34.47080
G01 X-15.79822 Y-34.52292
G01 X-21.72025 Y-40.44498
G01 X-21.72025 Y-40.83820
G01 X-21.73374 Y-40.94693
G01 X-21.74474 Y-40.99270
G01 X-21.79117 Y-41.09194
G01 X-21.83033 Y-41.15059
G01 X-21.86673 Y-41.19174
G01 X-22.12457 Y-41.44960
G01 X-22.12457 Y-65.41630
G01 X-22.04631 Y-65.48239
G01 X-21.96435 Y-65.57998
G01 X-21.93168 Y-65.62888
G01 X-21.88548 Y-65.71534
G01 X-21.86297 Y-65.76967
G01 X-21.83450 Y-65.86344
G01 X-21.82305 Y-65.92113
G01 X-21.81200 Y-66.04808
G01 X-21.82305 Y-66.17503
G01 X-21.83450 Y-66.23271
G01 X-21.86297 Y-66.32651
G01 X-21.88548 Y-66.38084
G01 X-21.93168 Y-66.46728
G01 X-21.96435 Y-66.51620
G01 X-22.04631 Y-66.61376
G01 X-22.14387 Y-66.69573
G01 X-22.19279 Y-66.72839
G01 X-22.27923 Y-66.77459
G01 X-22.33356 Y-66.79710
G01 X-22.42736 Y-66.82557
G01 X-22.48505 Y-66.83703
G01 X-22.61199 Y-66.84808
G01 X-22.73894 Y-66.83703
G01 X-22.79663 Y-66.82557
G01 X-22.89040 Y-66.79710
G01 X-22.94476 Y-66.77459
G01 X-23.03120 Y-66.72839
G01 X-23.08009 Y-66.69573
G01 X-23.17768 Y-66.61376
G01 X-23.25962 Y-66.51620
G01 X-23.29231 Y-66.46728
G01 X-23.33851 Y-66.38084
G01 X-23.36101 Y-66.32651
G01 X-23.38946 Y-66.23271
G01 X-23.40094 Y-66.17503
G01 X-23.41199 Y-66.04808
G01 X-23.40094 Y-65.92113
G01 X-23.38946 Y-65.86344
G01 X-23.35108 Y-65.74193
G01 X-23.29231 Y-65.62888
G01 X-23.25962 Y-65.57998
G01 X-23.17768 Y-65.48239
G01 X-23.12457 Y-65.43695
G01 X-23.12213 Y-41.21114
G01 X-23.11842 Y-41.16423
G01 X-23.08809 Y-41.05897
G01 X-23.07008 Y-41.01546
G01 X-23.00869 Y-40.92471
G01 X-22.97811 Y-40.88892
G01 X-22.72025 Y-40.63106
G01 X-22.72027 Y-40.23787
G01 X-22.71497 Y-40.16946
G01 X-22.70351 Y-40.11178
G01 X-22.66963 Y-40.01994
G01 X-22.61847 Y-39.93645
G01 X-22.59358 Y-39.90614
G01 X-16.65178 Y-33.96226
G01 X-16.65178 Y-25.57529
G01 X-18.48363 Y-23.74341
G01 X-18.57682 Y-23.77171
G01 X-18.63451 Y-23.78316
G01 X-18.81998 Y-23.79998
G01 X-19.00547 Y-23.78316
G01 X-19.06316 Y-23.77171
G01 X-19.24093 Y-23.71626
G01 X-19.40585 Y-23.62975
G01 X-19.45475 Y-23.59706
G01 X-19.57598 Y-23.49757
G01 X-19.61759 Y-23.45599
G01 X-19.71705 Y-23.33475
G01 X-19.74974 Y-23.28586
G01 X-19.83626 Y-23.12093
G01 X-19.89171 Y-22.94313
G01 X-19.90316 Y-22.88548
G01 X-19.91855 Y-22.72939
G01 X-19.91855 Y-22.67059
G01 X-19.90316 Y-22.51451
G01 X-19.89171 Y-22.45683
G01 X-19.83626 Y-22.27903
G01 X-19.74974 Y-22.11410
G01 X-19.71705 Y-22.06521
G01 X-19.61759 Y-21.94397
G01 X-19.57598 Y-21.90239
G01 X-19.43113 Y-21.78538
G01 X-19.26755 Y-21.69630
G01 X-19.21322 Y-21.67379
G01 X-19.06316 Y-21.62828
G01 X-19.00547 Y-21.61680
G01 X-18.81998 Y-21.59998
G01 X-18.63451 Y-21.61680
G01 X-18.57682 Y-21.62828
G01 X-18.39902 Y-21.68373
G01 X-18.23410 Y-21.77024
G01 X-18.18521 Y-21.80290
G01 X-18.04218 Y-21.92218
G01 X-17.92290 Y-22.06521
G01 X-17.89024 Y-22.11410
G01 X-17.80372 Y-22.27903
G01 X-17.74828 Y-22.45683
G01 X-17.73679 Y-22.51451
G01 X-17.71998 Y-22.69998
G01 X-17.73679 Y-22.88548
G01 X-17.74828 Y-22.94313
G01 X-17.77655 Y-23.03630
G01 X-15.79822 Y-25.01463
G01 X-15.75356 Y-25.06675
G01 X-15.72090 Y-25.11565
G01 X-15.70241 Y-25.15024
G01 X-15.66852 Y-25.24209
G01 X-15.65707 Y-25.29977
G01 X-15.65176 Y-25.36820
G01 X-15.65176 Y-34.16938
G04 P0 ( dwell for no time -- G64 should not smooth over this point )
G00 Z5.00000 ( retract )

G00 X-17.71998 Y-30.31998 ( rapid move to begin. )
G01 F30.00000
( Mill infeed pass 1/2 )
G01 Z-0.07500
G04 P0 ( dwell for no time -- G64 should not smooth over this point )
G01 F60.00000
G01 X-17.71998 Y-30.31998
G01 X-17.73679 Y-30.50548
G01 X-17.74828 Y-30.56313
G01 X-17.79379 Y-30.71322
G01 X-17.81630 Y-30.76755
G01 X-17.89024 Y-30.90586
G01 X-17.92290 Y-30.95475
G01 X-18.02239 Y-31.07599
G01 X-18.06397 Y-31.11757
G01 X-18.18521 Y-31.21706
G01 X-18.23410 Y-31.24975
G01 X-18.39902 Y-31.33626
G01 X-18.57682 Y-31.39171
G01 X-18.63451 Y-31.40316
G01 X-18.79059 Y-31.41856
G01 X-18.84939 Y-31.41856
G01 X-19.00547 Y-31.40316
G01 X-19.06316 Y-31.39171
G01 X-19.15632 Y-31.36344
G01 X-20.62259 Y-32.82968
G01 X-20.62256 Y-36.31156
G01 X-20.62787 Y-36.37999
G01 X-20.63933 Y-36.43767
G01 X-20.67321 Y-36.52952
G01 X-20.72437 Y-36.61301
G01 X-20.76902 Y-36.66513
G01 X-23.72045 Y-39.61658
G01 X-23.72045 Y-40.00978
G01 X-23.72576 Y-40.07818
G01 X-23.74859 Y-40.17338
G01 X-23.75852 Y-40.20111
G01 X-23.78959 Y-40.26230
G01 X-23.82225 Y-40.31120
G01 X-23.86691 Y-40.36332
G01 X-24.42467 Y-40.92108
G01 X-24.42467 Y-66.82547
G01 X-23.60933 Y-67.64081
G01 X-23.54196 Y-67.72722
G01 X-23.51738 Y-67.76738
G01 X-23.48001 Y-67.87037
G01 X-23.46904 Y-67.91615
G01 X-23.46533 Y-67.96308
G01 X-23.46533 Y-76.23416
G01 X-23.46904 Y-76.28110
G01 X-23.48001 Y-76.32687
G01 X-23.51738 Y-76.42987
G01 X-23.54196 Y-76.47003
G01 X-23.60933 Y-76.55644
G01 X-28.19654 Y-81.14365
G01 X-28.16113 Y-81.26539
G01 X-28.14142 Y-81.45059
G01 X-28.14142 Y-81.50939
G01 X-28.16113 Y-81.69458
G01 X-28.22372 Y-81.90093
G01 X-28.31023 Y-82.06585
G01 X-28.34292 Y-82.11477
G01 X-28.46217 Y-82.25780
G01 X-28.62885 Y-82.39460
G01 X-28.79242 Y-82.48366
G01 X-28.84675 Y-82.50619
G01 X-29.02539 Y-82.55884
G01 X-29.21058 Y-82.57855
G01 X-29.26939 Y-82.57855
G01 X-29.45458 Y-82.55884
G01 X-29.63321 Y-82.50619
G01 X-29.68755 Y-82.48366
G01 X-29.85112 Y-82.39460
G01 X-29.99600 Y-82.27759
G01 X-30.03758 Y-82.23598
G01 X-30.13707 Y-82.11477
G01 X-30.16974 Y-82.06585
G01 X-30.25625 Y-81.90093
G01 X-30.31170 Y-81.72315
G01 X-30.32318 Y-81.66547
G01 X-30.33855 Y-81.50939
G01 X-30.33855 Y-81.45059
G01 X-30.32318 Y-81.29450
G01 X-30.31170 Y-81.23682
G01 X-30.25625 Y-81.05905
G01 X-30.16974 Y-80.89412
G01 X-30.13707 Y-80.84520
G01 X-30.01780 Y-80.70218
G01 X-29.87477 Y-80.58290
G01 X-29.82587 Y-80.55023
G01 X-29.68755 Y-80.47632
G01 X-29.63321 Y-80.45381
G01 X-29.45458 Y-80.40113
G01 X-29.26939 Y-80.38142
G01 X-29.21058 Y-80.38142
G01 X-29.05450 Y-80.39679
G01 X-28.99682 Y-80.40827
G01 X-28.90365 Y-80.43654
G01 X-24.46289 Y-75.99578
G01 X-24.46289 Y-68.20146
G01 X-25.27823 Y-67.38612
G01 X-25.30881 Y-67.35034
G01 X-25.37018 Y-67.25956
G01 X-25.38819 Y-67.21607
G01 X-25.41646 Y-67.12237
G01 X-25.42469 Y-67.03258
G01 X-25.42469 Y-40.71399
G01 X-25.41938 Y-40.64556
G01 X-25.40792 Y-40.58788
G01 X-25.38661 Y-40.52263
G01 X-25.35555 Y-40.46144
G01 X-25.34041 Y-40.43619
G01 X-25.29799 Y-40.38224
G01 X-24.72047 Y-39.80266
G01 X-24.72047 Y-39.40950
G01 X-24.71517 Y-39.34107
G01 X-24.70371 Y-39.28339
G01 X-24.66983 Y-39.19154
G01 X-24.61867 Y-39.10805
G01 X-24.59378 Y-39.07775
G01 X-21.62259 Y-36.10447
G01 X-21.62259 Y-32.62259
G01 X-21.61728 Y-32.55416
G01 X-21.59445 Y-32.45896
G01 X-21.57194 Y-32.40463
G01 X-21.53831 Y-32.34479
G01 X-21.47613 Y-32.26902
G01 X-19.86343 Y-30.65633
G01 X-19.89171 Y-30.56313
G01 X-19.90316 Y-30.50548
G01 X-19.91998 Y-30.31998
G01 X-19.90316 Y-30.13451
G01 X-19.89171 Y-30.07683
G01 X-19.83626 Y-29.89903
G01 X-19.74974 Y-29.73410
G01 X-19.71705 Y-29.68521
G01 X-19.59780 Y-29.54218
G01 X-19.45475 Y-29.42290
G01 X-19.40585 Y-29.39024
G01 X-19.24093 Y-29.30373
G01 X-19.06316 Y-29.24828
G01 X-19.00547 Y-29.23680
G01 X-18.84939 Y-29.22143
G01 X-18.79059 Y-29.22143
G01 X-18.63451 Y-29.23680
G01 X-18.57682 Y-29.24828
G01 X-18.39902 Y-29.30373
G01 X-18.23410 Y-29.39024
G01 X-18.18521 Y-29.42290
G01 X-18.04218 Y-29.54218
G01 X-17.92290 Y-29.68521
G01 X-17.89024 Y-29.73410
G01 X-17.81630 Y-29.87243
G01 X-17.79379 Y-29.92676
G01 X-17.74828 Y-30.07683
G01 X-17.73679 Y-30.13451
G01 X-17.71998 Y-30.31998
G01 X-17.71998 Y-32.85998
G01 X-17.73679 Y-33.04548
G01 X-17.74828 Y-33.10313
G01 X-17.79379 Y-33.25322
G01 X-17.81630 Y-33.30755
G01 X-17.89024 Y-33.44586
G01 X-17.92290 Y-33.49475
G01 X-18.04218 Y-33.63780
G01 X-18.18521 Y-33.75706
G01 X-18.23410 Y-33.78975
G01 X-18.37243 Y-33.86366
G01 X-18.42676 Y-33.88617
G01 X-18.57682 Y-33.93171
G01 X-18.63451 Y-33.94316
G01 X-18.79059 Y-33.95856
G01 X-18.84939 Y-33.95856
G01 X-19.00547 Y-33.94316
G01 X-19.06316 Y-33.93171
G01 X-19.24093 Y-33.87626
G01 X-19.40585 Y-33.78975
G01 X-19.45475 Y-33.75706
G01 X-19.57598 Y-33.65757
G01 X-19.61759 Y-33.61599
G01 X-19.71705 Y-33.49475
G01 X-19.74974 Y-33.44586
G01 X-19.82366 Y-33.30755
G01 X-19.84616 Y-33.25322
G01 X-19.89171 Y-33.10313
G01 X-19.90316 Y-33.04548
G01 X-19.91998 Y-32.85998
G01 X-19.90316 Y-32.67451
G01 X-19.89171 Y-32.61683
G01 X-19.84616 Y-32.46676
G01 X-19.82366 Y-32.41243
G01 X-19.74974 Y-32.27410
G01 X-19.71705 Y-32.22521
G01 X-19.61759 Y-32.10397
G01 X-19.57598 Y-32.06239
G01 X-19.45475 Y-31.96290
G01 X-19.40585 Y-31.93024
G01 X-19.26755 Y-31.85630
G01 X-19.21322 Y-31.83379
G01 X-19.06316 Y-31.78828
G01 X-19.00547 Y-31.77680
G01 X-18.84939 Y-31.76143
G01 X-18.79059 Y-31.76143
G01 X-18.63451 Y-31.77680
G01 X-18.57682 Y-31.78828
G01 X-18.39902 Y-31.84373
G01 X-18.23410 Y-31.93024
G01 X-18.18521 Y-31.96290
G01 X-18.04218 Y-32.08218
G01 X-17.92290 Y-32.22521
G01 X-17.89024 Y-32.27410
G01 X-17.81630 Y-32.41243
G01 X-17.79379 Y-32.46676
G01 X-17.74828 Y-32.61683
G01 X-17.73679 Y-32.67451
G01 X-17.71998 Y-32.85998
( Mill infeed pass 2/2 )
G00 Z5.00000 ( retract )
G00 X-17.71998 Y-30.31998 ( rapid move to begin. )
G01 Z-0.15000
G04 P0 ( dwell for no time -- G64 should not smooth over this point )
G01 F60.00000
G01 X-17.71998 Y-30.31998
G01 X-17.73679 Y-30.50548
G01 X-17.74828 Y-30.56313
G01 X-17.79379 Y-30.71322
G01 X-17.81630 Y-30.76755
G01 X-17.89024 Y-30.90586
G01 X-17.92290 Y-30.95475
G01 X-18.02239 Y-31.07599
G01 X-18.06397 Y-31.11757
G01 X-18.18521 Y-31.21706
G01 X-18.23410 Y-31.24975
G01 X-18.39902 Y-31.33626
G01 X-18.57682 Y-31.39171
G01 X-18.63451 Y-31.40316
G01 X-18.79059 Y-31.41856
G01 X-18.84939 Y-31.41856
G01 X-19.00547 Y-31.40316
G01 X-19.06316 Y-31.39171
G01 X-19.15632 Y-31.36344
G01 X-20.62259 Y-32.82968
G01 X-20.62256 Y-36.31156
G01 X-20.62787 Y-36.37999
G01 X-20.63933 Y-36.43767
G01 X-20.67321 Y-36.52952
G01 X-20.72437 Y-36.61301
G01 X-20.76902 Y-36.66513
G01 X-23.72045 Y-39.61658
G01 X-23.72045 Y-40.00978
G01 X-23.72576 Y-40.07818
G01 X-23.74859 Y-40.17338
G01 X-23.75852 Y-40.20111
G01 X-23.78959 Y-40.26230
G01 X-23.82225 Y-40.31120
G01 X-23.86691 Y-40.36332
G01 X-24.42467 Y-40.92108
G01 X-24.42467 Y-66.82547
G01 X-23.60933 Y-67.64081
G01 X-23.54196 Y-67.72722
G01 X-23.51738 Y-67.76738
G01 X-23.48001 Y-67.87037
G01 X-23.46904 Y-67.91615
G01 X-23.46533 Y-67.96308
G01 X-23.46533 Y-76.23416
G01 X-23.46904 Y-76.28110
G01 X-23.48001 Y-76.32687
G01 X-23.51738 Y-76.42987
G01 X-23.54196 Y-76.47003
G01 X-23.60933 Y-76.55644
G01 X-28.19654 Y-81.14365
G01 X-28.16113 Y-81.26539
G01 X-28.14142 Y-81.45059
G01 X-28.14142 Y-81.50939
G01 X-28.16113 Y-81.69458
G01 X-28.22372 Y-81.90093
G01 X-28.31023 Y-82.06585
G01 X-28.34292 Y-82.11477
G01 X-28.46217 Y-82.25780
G01 X-28.62885 Y-82.39460
G01 X-28.79242 Y-82.48366
G01 X-28.84675 Y-82.50619
G01 X-29.02539 Y-82.55884
G01 X-29.21058 Y-82.57855
G01 X-29.26939 Y-82.57855
G01 X-29.45458 Y-82.55884
G01 X-29.63321 Y-82.50619
G01 X-29.68755 Y-82.48366
G01 X-29.85112 Y-82.39460
G01 X-29.99600 Y-82.27759
G01 X-30.03758 Y-82.23598
G01 X-30.13707 Y-82.11477
G01 X-30.16974 Y-82.06585
G01 X-30.25625 Y-81.90093
G01 X-30.31170 Y-81.72315
G01 X-30.32318 Y-81.66547
G01 X-30.33855 Y-81.50939
G01 X-30.33855 Y-81.45059
G01 X-30.32318 Y-81.29450
G01 X-30.31170 Y-81.23682
G01 X-30.25625 Y-81.05905
G01 X-30.16974 Y-80.89412
G01 X-30.13707 Y-80.84520
G01 X-30.01780 Y-80.70218
G01 X-29.87477 Y-80.58290
G01 X-29.82587 Y-80.55023
G01 X-29.68755 Y-80.47632
G01 X-29.63321 Y-80.45381
G01 X-29.45458 Y-80.40113
G01 X-29.26939 Y-80.38142
G01 X-29.21058 Y-80.38142
G01 X-29.05450 Y-80.39679
G01 X-28.99682 Y-80.40827
G01 X-28.90365 Y-80.43654
G01 X-24.46289 Y-75.99578
G01 X-24.46289 Y-68.20146
G01 X-25.27823 Y-67.38612
G01 X-25.30881 Y-67.35034
G01 X-25.37018 Y-67.25956
G01 X-25.38819 Y-67.21607
G01 X-25.41646 Y-67.12237
G01 X-25.42469 Y-67.03258
G01 X-25.42469 Y-40.71399
G01 X-25.41938 Y-40.64556
G01 X-25.40792 Y-40.58788
G01 X-25.38661 Y-40.52263
G01 X-25.35555 Y-40.46144
G01 X-25.34041 Y-40.43619
G01 X-25.29799 Y-40.38224
G01 X-24.72047 Y-39.80266
G01 X-24.72047 Y-39.40950
G01 X-24.71517 Y-39.34107
G01 X-24.70371 Y-39.28339
G01 X-24.66983 Y-39.19154
G01 X-24.61867 Y-39.10805
G01 X-24.59378 Y-39.07775
G01 X-21.62259 Y-36.10447
G01 X-21.62259 Y-32.62259
G01 X-21.61728 Y-32.55416
G01 X-21.59445 Y-32.45896
G01 X-21.57194 Y-32.40463
G01 X-21.53831 Y-32.34479
G01 X-21.47613 Y-32.26902
G01 X-19.86343 Y-30.65633
G01 X-19.89171 Y-30.56313
G01 X-19.90316 Y-30.50548
G01 X-19.91998 Y-30.31998
G01 X-19.90316 Y-30.13451
G01 X-19.89171 Y-30.07683
G01 X-19.83626 Y-29.89903
G01 X-19.74974 Y-29.73410
G01 X-19.71705 Y-29.68521
G01 X-19.59780 Y-29.54218
G01 X-19.45475 Y-29.42290
G01 X-19.40585 Y-29.39024
G01 X-19.24093 Y-29.30373
G01 X-19.06316 Y-29.24828
G01 X-19.00547 Y-29.23680
G01 X-18.84939 Y-29.22143
G01 X-18.79059 Y-29.22143
G01 X-18.63451 Y-29.23680
G01 X-18.57682 Y-29.24828
G01 X-18.39902 Y-29.30373
G01 X-18.23410 Y-29.39024
G01 X-18.18521 Y-29.42290
G01 X-18.04218 Y-29.54218
G01 X-17.92290 Y-29.68521
G01 X-17.89024 Y-29.73410
G01 X-17.81630 Y-29.87243
G01 X-17.79379 Y-29.92676
G01 X-17.74828 Y-30.07683
G01 X-17.73679 Y-30.13451
G01 X-17.71998 Y-30.31998
G01 X-17.71998 Y-32.85998
G01 X-17.73679 Y-33.04548
G01 X-17.74828 Y-33.10313
G01 X-17.79379 Y-33.25322
G01 X-17.81630 Y-33.30755
G01 X-17.89024 Y-33.44586
G01 X-17.92290 Y-33.49475
G01 X-18.04218 Y-33.63780
G01 X-18.18521 Y-33.75706
G01 X-18.23410 Y-33.78975
G01 X-18.37243 Y-33.86366
G01 X-18.42676 Y-33.88617
G01 X-18.57682 Y-33.93171
G01 X-18.63451 Y-33.94316
G01 X-18.79059 Y-33.95856
G01 X-18.84939 Y-33.95856
G01 X-19.00547 Y-33.94316
G01 X-19.06316 Y-33.93171
G01 X-19.24093 Y-33.87626
G01 X-19.40585 Y-33.78975
G01 X-19.45475 Y-33.75706
G01 X-19.57598 Y-33.65757
G01 X-19.61759 Y-33.61599
G01 X-19.71705 Y-33.49475
G01 X-19.74974 Y-33.44586
G01 X-19.82366 Y-33.30755
G01 X-19.84616 Y-33.25322
G01 X-19.89171 Y-33.10313
G01 X-19.90316 Y-33.04548
G01 X-19.91998 Y-32.85998
G01 X-19.90316 Y-32.67451
G01 X-19.89171 Y-32.61683
G01 X-19.84616 Y-32.46676
G01 X-19.82366 Y-32.41243
G01 X-19.74974 Y-32.27410
G01 X-19.71705 Y-32.22521
G01 X-19.61759 Y-32.10397
G01 X-19.57598 Y-32.06239
G01 X-19.45475 Y-31.96290
G01 X-19.40585 Y-31.93024
G01 X-19.26755 Y-31.85630
G01 X-19.21322 Y-31.83379
G01 X-19.06316 Y-31.78828
G01 X-19.00547 Y-31.77680
G01 X-18.84939 Y-31.76143
G01 X-18.79059 Y-31.76143
G01 X-18.63451 Y-31.77680
G01 X-18.57682 Y-31.78828
G01 X-18.39902 Y-31.84373
G01 X-18.23410 Y-31.93024
G01 X-18.18521 Y-31.96290
G01 X-18.04218 Y-32.08218
G01 X-17.92290 Y-32.22521
G01 X-17.89024 Y-32.27410
G01 X-17.81630 Y-32.41243
G01 X-17.79379 Y-32.46676
G01 X-17.74828 Y-32.61683
G01 X-17.73679 Y-32.67451
G01 X-17.71998 Y-32.85998
G04 P0 ( dwell for no time -- G64 should not smooth over this point )
G00 Z5.00000 ( retract )

G00 X-22.62083 Y-36.79909 ( rapid move to begin. )
G01 F30.00000
( Mill infeed pass 1/2 )
G01 Z-0.07500
G04 P0 ( dwell for no time -- G64 should not smooth over this point )
G01 F60.00000
G01 X-22.62083 Y-36.79909
G01 X-22.63475 Y-36.92576
G01 X-22.67036 Y-37.04811
G01 X-22.69287 Y-37.10244
G01 X-22.75421 Y-37.21415
G01 X-22.83394 Y-37.31357
G01 X-22.87552 Y-37.35515
G01 X-22.95129 Y-37.41732
G01 X-23.00018 Y-37.44999
G01 X-23.11324 Y-37.50879
G01 X-23.23475 Y-37.54717
G01 X-23.29243 Y-37.55862
G01 X-23.38997 Y-37.56825
G01 X-23.44880 Y-37.56825
G01 X-23.57547 Y-37.55431
G01 X-23.72553 Y-37.50879
G01 X-23.83859 Y-37.44999
G01 X-23.88748 Y-37.41732
G01 X-23.96325 Y-37.35515
G01 X-24.00485 Y-37.31357
G01 X-24.08456 Y-37.21415
G01 X-24.14590 Y-37.10244
G01 X-24.16840 Y-37.04811
G01 X-24.19685 Y-36.95431
G01 X-24.20833 Y-36.89665
G01 X-24.21793 Y-36.79909
G01 X-24.21793 Y-36.74029
G01 X-24.20402 Y-36.61362
G01 X-24.16840 Y-36.49127
G01 X-24.14590 Y-36.43693
G01 X-24.09970 Y-36.35047
G01 X-24.06703 Y-36.30158
G01 X-23.98507 Y-36.20399
G01 X-23.91938 Y-36.14821
G01 X-23.91938 Y-35.24778
G01 X-24.35352 Y-34.81362
G01 X-24.39817 Y-34.76150
G01 X-24.44933 Y-34.67801
G01 X-24.48321 Y-34.58616
G01 X-24.49853 Y-34.48947
G01 X-24.49995 Y-33.83564
G01 X-24.58585 Y-33.78975
G01 X-24.63475 Y-33.75706
G01 X-24.77780 Y-33.63780
G01 X-24.89705 Y-33.49475
G01 X-24.92974 Y-33.44586
G01 X-25.00366 Y-33.30755
G01 X-25.02616 Y-33.25322
G01 X-25.07170 Y-33.10313
G01 X-25.08316 Y-33.04548
G01 X-25.09998 Y-32.85998
G01 X-25.08316 Y-32.67451
G01 X-25.07170 Y-32.61683
G01 X-25.02616 Y-32.46676
G01 X-25.00366 Y-32.41243
G01 X-24.92974 Y-32.27410
G01 X-24.89705 Y-32.22521
G01 X-24.77780 Y-32.08218
G01 X-24.63475 Y-31.96290
G01 X-24.58585 Y-31.93024
G01 X-24.42093 Y-31.84373
G01 X-24.24316 Y-31.78828
G01 X-24.18547 Y-31.77680
G01 X-24.02939 Y-31.76143
G01 X-23.97059 Y-31.76143
G01 X-23.81451 Y-31.77680
G01 X-23.75682 Y-31.78828
G01 X-23.57902 Y-31.84373
G01 X-23.41410 Y-31.93024
G01 X-23.36521 Y-31.96290
G01 X-23.24397 Y-32.06239
G01 X-23.20239 Y-32.10397
G01 X-23.10290 Y-32.22521
G01 X-23.07024 Y-32.27410
G01 X-22.99630 Y-32.41243
G01 X-22.97379 Y-32.46676
G01 X-22.92828 Y-32.61683
G01 X-22.91679 Y-32.67451
G01 X-22.89998 Y-32.85998
G01 X-22.91679 Y-33.04548
G01 X-22.92828 Y-33.10313
G01 X-22.97379 Y-33.25322
G01 X-22.99630 Y-33.30755
G01 X-23.07024 Y-33.44586
G01 X-23.10290 Y-33.49475
G01 X-23.20239 Y-33.61599
G01 X-23.24397 Y-33.65757
G01 X-23.36521 Y-33.75706
G01 X-23.41410 Y-33.78975
G01 X-23.49998 Y-33.83562
G01 X-23.49995 Y-34.25297
G01 X-23.04603 Y-34.70895
G01 X-22.98850 Y-34.78817
G01 X-22.94750 Y-34.87707
G01 X-22.92467 Y-34.97227
G01 X-22.91936 Y-35.04067
G01 X-22.91936 Y-36.14824
G01 X-22.85370 Y-36.20399
G01 X-22.77176 Y-36.30158
G01 X-22.73907 Y-36.35047
G01 X-22.69287 Y-36.43693
G01 X-22.67036 Y-36.49127
G01 X-22.63475 Y-36.61362
G01 X-22.62083 Y-36.74029
G01 X-22.62083 Y-36.79909
G01 X-22.89998 Y-30.31998
G01 X-22.91679 Y-30.50548
G01 X-22.92828 Y-30.56313
G01 X-22.97379 Y-30.71322
G01 X-22.99630 Y-30.76755
G01 X-23.07024 Y-30.90586
G01 X-23.10290 Y-30.95475
G01 X-23.20239 Y-31.07599
G01 X-23.24397 Y-31.11757
G01 X-23.36521 Y-31.21706
G01 X-23.41410 Y-31.24975
G01 X-23.57902 Y-31.33626
G01 X-23.75682 Y-31.39171
G01 X-23.81451 Y-31.40316
G01 X-23.97059 Y-31.41856
G01 X-24.02939 Y-31.41856
G01 X-24.18547 Y-31.40316
G01 X-24.24316 Y-31.39171
G01 X-24.33630 Y-31.36344
G01 X-25.10566 Y-32.13278
G01 X-25.10564 Y-37.92637
G01 X-24.86701 Y-38.16505
G01 X-24.82238 Y-38.21717
G01 X-24.77122 Y-38.30063
G01 X-24.73734 Y-38.39248
G01 X-24.72588 Y-38.45016
G01 X-24.72058 Y-38.51859
G01 X-24.72058 Y-39.59558
G01 X-24.72588 Y-39.66398
G01 X-24.74872 Y-39.75918
G01 X-24.77122 Y-39.81351
G01 X-24.82238 Y-39.89700
G01 X-24.86703 Y-39.94912
G01 X-25.42476 Y-40.50688
G01 X-25.42476 Y-67.23967
G01 X-24.58977 Y-68.07675
G01 X-24.56487 Y-68.10705
G01 X-24.51372 Y-68.19054
G01 X-24.47983 Y-68.28239
G01 X-24.46838 Y-68.34007
G01 X-24.46307 Y-68.40860
G01 X-24.46553 Y-74.69449
G01 X-24.46924 Y-74.74135
G01 X-24.48022 Y-74.78707
G01 X-24.51758 Y-74.89007
G01 X-24.54217 Y-74.93023
G01 X-24.60953 Y-75.01664
G01 X-28.19654 Y-78.60365
G01 X-28.16113 Y-78.72539
G01 X-28.14142 Y-78.91059
G01 X-28.14142 Y-78.96939
G01 X-28.16113 Y-79.15458
G01 X-28.22372 Y-79.36093
G01 X-28.31023 Y-79.52585
G01 X-28.34292 Y-79.57477
G01 X-28.46217 Y-79.71780
G01 X-28.62885 Y-79.85460
G01 X-28.79242 Y-79.94366
G01 X-28.84675 Y-79.96618
G01 X-29.02539 Y-80.01884
G01 X-29.21058 Y-80.03855
G01 X-29.26939 Y-80.03855
G01 X-29.45458 Y-80.01884
G01 X-29.63321 Y-79.96618
G01 X-29.68755 Y-79.94366
G01 X-29.85112 Y-79.85460
G01 X-29.99600 Y-79.73758
G01 X-30.03758 Y-79.69598
G01 X-30.13707 Y-79.57477
G01 X-30.16974 Y-79.52585
G01 X-30.25625 Y-79.36093
G01 X-30.31170 Y-79.18315
G01 X-30.32318 Y-79.12547
G01 X-30.33855 Y-78.96939
G01 X-30.33855 Y-78.91059
G01 X-30.32318 Y-78.75450
G01 X-30.31170 Y-78.69682
G01 X-30.25625 Y-78.51905
G01 X-30.16974 Y-78.35412
G01 X-30.13707 Y-78.30520
G01 X-30.01780 Y-78.16218
G01 X-29.87477 Y-78.04290
G01 X-29.82587 Y-78.01023
G01 X-29.68755 Y-77.93632
G01 X-29.63321 Y-77.91381
G01 X-29.45458 Y-77.86113
G01 X-29.26939 Y-77.84142
G01 X-29.21058 Y-77.84142
G01 X-29.05450 Y-77.85679
G01 X-28.99682 Y-77.86827
G01 X-28.90365 Y-77.89654
G01 X-25.46307 Y-74.45599
G01 X-25.46307 Y-68.61559
G01 X-26.29809 Y-67.77850
G01 X-26.35565 Y-67.69931
G01 X-26.39665 Y-67.61038
G01 X-26.41948 Y-67.51518
G01 X-26.42479 Y-67.44678
G01 X-26.42479 Y-40.29979
G01 X-26.41948 Y-40.23136
G01 X-26.39665 Y-40.13617
G01 X-26.35565 Y-40.04724
G01 X-26.32299 Y-39.99835
G01 X-26.27833 Y-39.94622
G01 X-25.72057 Y-39.38847
G01 X-25.72057 Y-38.72565
G01 X-25.95923 Y-38.48699
G01 X-26.00386 Y-38.43487
G01 X-26.03652 Y-38.38598
G01 X-26.07752 Y-38.29708
G01 X-26.08890 Y-38.25956
G01 X-26.10421 Y-38.16286
G01 X-26.10421 Y-31.89628
G01 X-26.08890 Y-31.79958
G01 X-26.07752 Y-31.76206
G01 X-26.03652 Y-31.67314
G01 X-25.97897 Y-31.59394
G01 X-25.04343 Y-30.65633
G01 X-25.07170 Y-30.56313
G01 X-25.08316 Y-30.50548
G01 X-25.09998 Y-30.31998
G01 X-25.08316 Y-30.13451
G01 X-25.07170 Y-30.07683
G01 X-25.01626 Y-29.89903
G01 X-24.92974 Y-29.73410
G01 X-24.89705 Y-29.68521
G01 X-24.77780 Y-29.54218
G01 X-24.63475 Y-29.42290
G01 X-24.58585 Y-29.39024
G01 X-24.44755 Y-29.31630
G01 X-24.39322 Y-29.29379
G01 X-24.24316 Y-29.24828
G01 X-24.18547 Y-29.23680
G01 X-24.02939 Y-29.22143
G01 X-23.97059 Y-29.22143
G01 X-23.81451 Y-29.23680
G01 X-23.75682 Y-29.24828
G01 X-23.60676 Y-29.29379
G01 X-23.55243 Y-29.31630
G01 X-23.41410 Y-29.39024
G01 X-23.36521 Y-29.42290
G01 X-23.22218 Y-29.54218
G01 X-23.10290 Y-29.68521
G01 X-23.07024 Y-29.73410
G01 X-22.99630 Y-29.87243
G01 X-22.97379 Y-29.92676
G01 X-22.92828 Y-30.07683
G01 X-22.91679 Y-30.13451
G01 X-22.89998 Y-30.31998
G01 X-22.89998 Y-27.77998
G01 X-22.91679 Y-27.96548
G01 X-22.92828 Y-28.02313
G01 X-22.97379 Y-28.17322
G01 X-22.99630 Y-28.22755
G01 X-23.07024 Y-28.36586
G01 X-23.10290 Y-28.41475
G01 X-23.22218 Y-28.55780
G01 X-23.36521 Y-28.67706
G01 X-23.41410 Y-28.70975
G01 X-23.57902 Y-28.79626
G01 X-23.75682 Y-28.85171
G01 X-23.81451 Y-28.86316
G01 X-23.97059 Y-28.87856
G01 X-24.02939 Y-28.87856
G01 X-24.18547 Y-28.86316
G01 X-24.24316 Y-28.85171
G01 X-24.42093 Y-28.79626
G01 X-24.58585 Y-28.70975
G01 X-24.63475 Y-28.67706
G01 X-24.75598 Y-28.57757
G01 X-24.79759 Y-28.53599
G01 X-24.89705 Y-28.41475
G01 X-24.92974 Y-28.36586
G01 X-25.00366 Y-28.22755
G01 X-25.02616 Y-28.17322
G01 X-25.07170 Y-28.02313
G01 X-25.08316 Y-27.96548
G01 X-25.09998 Y-27.77998
G01 X-25.08316 Y-27.59451
G01 X-25.07170 Y-27.53683
G01 X-25.01626 Y-27.35903
G01 X-24.92974 Y-27.19410
G01 X-24.89705 Y-27.14521
G01 X-24.79759 Y-27.02397
G01 X-24.75598 Y-26.98239
G01 X-24.63475 Y-26.88290
G01 X-24.58585 Y-26.85024
G01 X-24.42093 Y-26.76373
G01 X-24.24316 Y-26.70828
G01 X-24.18547 Y-26.69680
G01 X-24.02939 Y-26.68143
G01 X-23.97059 Y-26.68143
G01 X-23.81451 Y-26.69680
G01 X-23.75682 Y-26.70828
G01 X-23.57902 Y-26.76373
G01 X-23.41410 Y-26.85024
G01 X-23.36521 Y-26.88290
G01 X-23.22218 Y-27.00218
G01 X-23.10290 Y-27.14521
G01 X-23.07024 Y-27.19410
G01 X-22.99630 Y-27.33243
G01 X-22.97379 Y-27.38676
G01 X-22.92828 Y-27.53683
G01 X-22.91679 Y-27.59451
G01 X-22.89998 Y-27.77998
G01 X-22.89998 Y-25.23998
G01 X-22.92111 Y-25.45458
G01 X-22.98372 Y-25.66093
G01 X-23.07024 Y-25.82586
G01 X-23.10290 Y-25.87475
G01 X-23.22218 Y-26.01780
G01 X-23.36521 Y-26.13706
G01 X-23.41410 Y-26.16975
G01 X-23.55243 Y-26.24366
G01 X-23.60676 Y-26.26614
G01 X-23.78540 Y-26.31884
G01 X-23.97059 Y-26.33856
G01 X-24.02939 Y-26.33856
G01 X-24.21458 Y-26.31884
G01 X-24.39322 Y-26.26614
G01 X-24.44755 Y-26.24366
G01 X-24.58585 Y-26.16975
G01 X-24.63475 Y-26.13706
G01 X-24.75598 Y-26.03757
G01 X-24.79759 Y-25.99596
G01 X-24.89705 Y-25.87475
G01 X-24.92974 Y-25.82586
G01 X-25.01626 Y-25.66093
G01 X-25.07170 Y-25.48313
G01 X-25.08316 Y-25.42548
G01 X-25.09998 Y-25.23998
G01 X-25.08316 Y-25.05451
G01 X-25.07170 Y-24.99683
G01 X-25.01626 Y-24.81903
G01 X-24.92974 Y-24.65410
G01 X-24.89705 Y-24.60521
G01 X-24.79759 Y-24.48397
G01 X-24.75598 Y-24.44239
G01 X-24.63475 Y-24.34290
G01 X-24.58585 Y-24.31024
G01 X-24.42093 Y-24.22373
G01 X-24.24316 Y-24.16828
G01 X-24.18547 Y-24.15680
G01 X-24.02939 Y-24.14143
G01 X-23.97059 Y-24.14143
G01 X-23.81451 Y-24.15680
G01 X-23.75682 Y-24.16828
G01 X-23.57902 Y-24.22373
G01 X-23.41410 Y-24.31024
G01 X-23.36521 Y-24.34290
G01 X-23.22218 Y-24.46218
G01 X-23.10290 Y-24.60521
G01 X-23.07024 Y-24.65410
G01 X-22.98372 Y-24.81903
G01 X-22.92828 Y-24.99683
G01 X-22.91679 Y-25.05451
G01 X-22.89998 Y-25.23998
G01 X-22.89998 Y-22.69998
G01 X-22.91679 Y-22.88548
G01 X-22.92828 Y-22.94313
G01 X-22.98372 Y-23.12093
G01 X-23.07024 Y-23.28586
G01 X-23.10290 Y-23.33475
G01 X-23.20239 Y-23.45599
G01 X-23.24397 Y-23.49757
G01 X-23.38885 Y-23.61461
G01 X-23.55243 Y-23.70366
G01 X-23.60676 Y-23.72617
G01 X-23.75682 Y-23.77171
G01 X-23.81451 Y-23.78316
G01 X-23.97059 Y-23.79856
G01 X-24.02939 Y-23.79856
G01 X-24.18547 Y-23.78316
G01 X-24.24316 Y-23.77171
G01 X-24.42093 Y-23.71626
G01 X-24.58585 Y-23.62975
G01 X-24.63475 Y-23.59706
G01 X-24.75598 Y-23.49757
G01 X-24.79759 Y-23.45599
G01 X-24.89705 Y-23.33475
G01 X-24.92974 Y-23.28586
G01 X-25.01626 Y-23.12093
G01 X-25.07170 Y-22.94313
G01 X-25.08316 Y-22.88548
G01 X-25.09998 Y-22.69998
G01 X-25.08316 Y-22.51451
G01 X-25.07170 Y-22.45683
G01 X-25.01626 Y-22.27903
G01 X-24.92974 Y-22.11410
G01 X-24.89705 Y-22.06521
G01 X-24.79759 Y-21.94397
G01 X-24.75598 Y-21.90239
G01 X-24.61113 Y-21.78538
G01 X-24.44755 Y-21.69630
G01 X-24.39322 Y-21.67379
G01 X-24.24316 Y-21.62828
G01 X-24.18547 Y-21.61680
G01 X-24.02939 Y-21.60143
G01 X-23.97059 Y-21.60143
G01 X-23.81451 Y-21.61680
G01 X-23.75682 Y-21.62828
G01 X-23.57902 Y-21.68373
G01 X-23.41410 Y-21.77024
G01 X-23.36521 Y-21.80290
G01 X-23.22218 Y-21.92218
G01 X-23.10290 Y-22.06521
G01 X-23.07024 Y-22.11410
G01 X-22.98372 Y-22.27903
G01 X-22.92828 Y-22.45683
G01 X-22.91679 Y-22.51451
G01 X-22.89998 Y-22.69998
G01 X-22.89998 Y-20.15998
G01 X-22.91679 Y-20.34548
G01 X-22.92828 Y-20.40313
G01 X-22.98372 Y-20.58093
G01 X-23.07024 Y-20.74586
G01 X-23.10290 Y-20.79475
G01 X-23.22218 Y-20.93780
G01 X-23.36521 Y-21.05706
G01 X-23.41410 Y-21.08975
G01 X-23.57902 Y-21.17626
G01 X-23.75682 Y-21.23171
G01 X-23.81451 Y-21.24316
G01 X-23.99998 Y-21.25998
G01 X-24.18547 Y-21.24316
G01 X-24.24316 Y-21.23171
G01 X-24.42093 Y-21.17626
G01 X-24.58585 Y-21.08975
G01 X-24.63475 Y-21.05706
G01 X-24.77780 Y-20.93780
G01 X-24.89705 Y-20.79475
G01 X-24.92974 Y-20.74586
G01 X-25.01626 Y-20.58093
G01 X-25.07170 Y-20.40313
G01 X-25.08316 Y-20.34548
G01 X-25.09998 Y-20.15998
G01 X-25.08316 Y-19.97451
G01 X-25.07170 Y-19.91683
G01 X-25.01626 Y-19.73903
G01 X-24.92974 Y-19.57410
G01 X-24.89705 Y-19.52521
G01 X-24.77780 Y-19.38218
G01 X-24.63475 Y-19.26290
G01 X-24.58585 Y-19.23024
G01 X-24.42093 Y-19.14373
G01 X-24.24316 Y-19.08828
G01 X-24.18547 Y-19.07680
G01 X-23.99998 Y-19.05998
G01 X-23.81451 Y-19.07680
G01 X-23.75682 Y-19.08828
G01 X-23.57902 Y-19.14373
G01 X-23.41410 Y-19.23024
G01 X-23.36521 Y-19.26290
G01 X-23.22218 Y-19.38218
G01 X-23.10290 Y-19.52521
G01 X-23.07024 Y-19.57410
G01 X-22.98372 Y-19.73903
G01 X-22.92828 Y-19.91683
G01 X-22.91679 Y-19.97451
G01 X-22.89998 Y-20.15998
G01 X-22.89998 Y-17.61998
G01 X-22.91679 Y-17.80548
G01 X-22.92828 Y-17.86313
G01 X-22.98372 Y-18.04093
G01 X-23.07024 Y-18.20586
G01 X-23.10290 Y-18.25475
G01 X-23.20239 Y-18.37599
G01 X-23.24397 Y-18.41757
G01 X-23.38885 Y-18.53461
G01 X-23.55243 Y-18.62366
G01 X-23.60676 Y-18.64617
G01 X-23.75682 Y-18.69171
G01 X-23.81451 Y-18.70316
G01 X-23.99998 Y-18.71998
G01 X-24.18547 Y-18.70316
G01 X-24.24316 Y-18.69171
G01 X-24.42093 Y-18.63626
G01 X-24.58585 Y-18.54975
G01 X-24.63475 Y-18.51706
G01 X-24.77780 Y-18.39780
G01 X-24.89705 Y-18.25475
G01 X-24.92974 Y-18.20586
G01 X-25.01626 Y-18.04093
G01 X-25.07170 Y-17.86313
G01 X-25.08316 Y-17.80548
G01 X-25.09998 Y-17.61998
G01 X-25.08316 Y-17.43451
G01 X-25.07170 Y-17.37683
G01 X-25.01626 Y-17.19903
G01 X-24.92974 Y-17.03410
G01 X-24.89705 Y-16.98521
G01 X-24.79759 Y-16.86397
G01 X-24.75598 Y-16.82239
G01 X-24.61113 Y-16.70538
G01 X-24.44755 Y-16.61630
G01 X-24.39322 Y-16.59379
G01 X-24.24316 Y-16.54828
G01 X-24.18547 Y-16.53680
G01 X-23.99998 Y-16.51998
G01 X-23.81451 Y-16.53680
G01 X-23.75682 Y-16.54828
G01 X-23.57902 Y-16.60373
G01 X-23.41410 Y-16.69024
G01 X-23.36521 Y-16.72290
G01 X-23.22218 Y-16.84218
G01 X-23.10290 Y-16.98521
G01 X-23.07024 Y-17.03410
G01 X-22.98372 Y-17.19903
G01 X-22.92828 Y-17.37683
G01 X-22.91679 Y-17.43451
G01 X-22.89998 Y-17.61998
G01 X-22.89998 Y-15.07998
G01 X-22.91679 Y-15.26548
G01 X-22.92828 Y-15.32313
G01 X-22.98372 Y-15.50093
G01 X-23.07024 Y-15.66586
G01 X-23.10290 Y-15.71475
G01 X-23.22218 Y-15.85780
G01 X-23.36521 Y-15.97706
G01 X-23.41410 Y-16.00975
G01 X-23.57902 Y-16.09626
G01 X-23.75682 Y-16.15171
G01 X-23.81451 Y-16.16316
G01 X-23.99998 Y-16.17998
G01 X-24.18547 Y-16.16316
G01 X-24.24316 Y-16.15171
G01 X-24.42093 Y-16.09626
G01 X-24.58585 Y-16.00975
G01 X-24.63475 Y-15.97706
G01 X-24.77780 Y-15.85780
G01 X-24.89705 Y-15.71475
G01 X-24.92974 Y-15.66586
G01 X-25.01626 Y-15.50093
G01 X-25.07170 Y-15.32313
G01 X-25.08316 Y-15.26548
G01 X-25.09998 Y-15.07998
G01 X-25.08316 Y-14.89451
G01 X-25.07170 Y-14.83683
G01 X-25.01626 Y-14.65903
G01 X-24.92974 Y-14.49410
G01 X-24.89705 Y-14.44521
G01 X-24.77780 Y-14.30218
G01 X-24.63475 Y-14.18290
G01 X-24.58585 Y-14.15024
G01 X-24.42093 Y-14.06373
G01 X-24.24316 Y-14.00828
G01 X-24.18547 Y-13.99680
G01 X-23.99998 Y-13.97998
G01 X-23.81451 Y-13.99680
G01 X-23.75682 Y-14.00828
G01 X-23.57902 Y-14.06373
G01 X-23.41410 Y-14.15024
G01 X-23.36521 Y-14.18290
G01 X-23.22218 Y-14.30218
G01 X-23.10290 Y-14.44521
G01 X-23.07024 Y-14.49410
G01 X-22.98372 Y-14.65903
G01 X-22.92828 Y-14.83683
G01 X-22.91679 Y-14.89451
G01 X-22.89998 Y-15.07998
G01 X-22.89998 Y-12.53998
G01 X-22.91679 Y-12.72548
G01 X-22.92828 Y-12.78311
G01 X-22.98372 Y-12.96093
G01 X-23.07024 Y-13.12583
G01 X-23.10290 Y-13.17475
G01 X-23.22218 Y-13.31780
G01 X-23.36521 Y-13.43706
G01 X-23.41410 Y-13.46975
G01 X-23.57902 Y-13.55626
G01 X-23.78540 Y-13.61884
G01 X-23.97059 Y-13.63856
G01 X-24.02939 Y-13.63856
G01 X-24.21458 Y-13.61884
G01 X-24.42093 Y-13.55626
G01 X-24.58585 Y-13.46975
G01 X-24.63475 Y-13.43706
G01 X-24.77780 Y-13.31780
G01 X-24.89705 Y-13.17475
G01 X-24.92974 Y-13.12583
G01 X-25.01626 Y-12.96093
G01 X-25.07170 Y-12.78311
G01 X-25.08316 Y-12.72548
G01 X-25.09998 Y-12.53998
G01 X-25.08316 Y-12.35451
G01 X-25.07170 Y-12.29683
G01 X-25.01626 Y-12.11903
G01 X-24.92974 Y-11.95410
G01 X-24.89705 Y-11.90521
G01 X-24.77780 Y-11.76218
G01 X-24.61113 Y-11.62538
G01 X-24.44755 Y-11.53630
G01 X-24.39322 Y-11.51379
G01 X-24.24316 Y-11.46828
G01 X-24.18547 Y-11.45680
G01 X-23.99998 Y-11.43998
G01 X-23.81451 Y-11.45680
G01 X-23.75682 Y-11.46828
G01 X-23.60676 Y-11.51379
G01 X-23.55243 Y-11.53630
G01 X-23.38885 Y-11.62538
G01 X-23.22218 Y-11.76218
G01 X-23.10290 Y-11.90521
G01 X-23.07024 Y-11.95410
G01 X-22.98372 Y-12.11903
G01 X-22.92828 Y-12.29683
G01 X-22.91679 Y-12.35451
G01 X-22.89998 Y-12.53998
G01 X-22.89998 Y-10.79998
G01 X-22.90575 Y-10.85853
G01 X-22.92281 Y-10.91479
G01 X-22.95055 Y-10.96665
G01 X-22.98786 Y-11.01212
G01 X-23.03330 Y-11.04943
G01 X-23.08517 Y-11.07714
G01 X-23.14146 Y-11.09421
G01 X-23.19998 Y-11.09998
G01 X-24.79998 Y-11.09998
G01 X-24.85852 Y-11.09421
G01 X-24.91478 Y-11.07714
G01 X-24.96665 Y-11.04943
G01 X-25.01212 Y-11.01212
G01 X-25.04943 Y-10.96665
G01 X-25.07714 Y-10.91479
G01 X-25.09423 Y-10.85853
G01 X-25.09998 Y-10.79998
G01 X-25.09998 Y-9.19998
G01 X-25.09423 Y-9.14146
G01 X-25.07714 Y-9.08517
G01 X-25.04943 Y-9.03331
G01 X-25.01212 Y-8.98787
G01 X-24.98745 Y-8.96762
G01 X-24.87176 Y-8.90976
G01 X-24.79998 Y-8.89998
G01 X-23.19998 Y-8.89998
G01 X-23.14146 Y-8.90575
G01 X-23.08517 Y-8.92282
G01 X-23.05873 Y-8.93696
G01 X-22.91766 Y-9.10219
G01 X-22.90575 Y-9.14146
G01 X-22.89998 Y-9.19998
G01 X-22.89998 Y-10.79998
( Mill infeed pass 2/2 )
G00 Z5.00000 ( retract )
G00 X-22.62083 Y-36.79909 ( rapid move to begin. )
G01 Z-0.15000
G04 P0 ( dwell for no time -- G64 should not smooth over this point )
G01 F60.00000
G01 X-22.62083 Y-36.79909
G01 X-22.63475 Y-36.92576
G01 X-22.67036 Y-37.04811
G01 X-22.69287 Y-37.10244
G01 X-22.75421 Y-37.21415
G01 X-22.83394 Y-37.31357
G01 X-22.87552 Y-37.35515
G01 X-22.95129 Y-37.41732
G01 X-23.00018 Y-37.44999
G01 X-23.11324 Y-37.50879
G01 X-23.23475 Y-37.54717
G01 X-23.29243 Y-37.55862
G01 X-23.38997 Y-37.56825
G01 X-23.44880 Y-37.56825
G01 X-23.57547 Y-37.55431
G01 X-23.72553 Y-37.50879
G01 X-23.83859 Y-37.44999
G01 X-23.88748 Y-37.41732
G01 X-23.96325 Y-37.35515
G01 X-24.00485 Y-37.31357
G01 X-24.08456 Y-37.21415
G01 X-24.14590 Y-37.10244
G01 X-24.16840 Y-37.04811
G01 X-24.19685 Y-36.95431
G01 X-24.20833 Y-36.89665
G01 X-24.21793 Y-36.79909
G01 X-24.21793 Y-36.74029
G01 X-24.20402 Y-36.61362
G01 X-24.16840 Y-36.49127
G01 X-24.14590 Y-36.43693
G01 X-24.09970 Y-36.35047
G01 X-24.06703 Y-36.30158
G01 X-23.98507 Y-36.20399
G01 X-23.91938 Y-36.14821
G01 X-23.91938 Y-35.24778
G01 X-24.35352 Y-34.81362
G01 X-24.39817 Y-34.76150
G01 X-24.44933 Y-34.67801
G01 X-24.48321 Y-34.58616
G01 X-24.49853 Y-34.48947
G01 X-24.49995 Y-33.83564
G01 X-24.58585 Y-33.78975
G01 X-24.63475 Y-33.75706
G01 X-24.77780 Y-33.63780
G01 X-24.89705 Y-33.49475
G01 X-24.92974 Y-33.44586
G01 X-25.00366 Y-33.30755
G01 X-25.02616 Y-33.25322
G01 X-25.07170 Y-33.10313
G01 X-25.08316 Y-33.04548
G01 X-25.09998 Y-32.85998
G01 X-25.08316 Y-32.67451
G01 X-25.07170 Y-32.61683
G01 X-25.02616 Y-32.46676
G01 X-25.00366 Y-32.41243
G01 X-24.92974 Y-32.27410
G01 X-24.89705 Y-32.22521
G01 X-24.77780 Y-32.08218
G01 X-24.63475 Y-31.96290
G01 X-24.58585 Y-31.93024
G01 X-24.42093 Y-31.84373
G01 X-24.24316 Y-31.78828
G01 X-24.18547 Y-31.77680
G01 X-24.02939 Y-31.76143
G01 X-23.97059 Y-31.76143
G01 X-23.81451 Y-31.77680
G01 X-23.75682 Y-31.78828
G01 X-23.57902 Y-31.84373
G01 X-23.41410 Y-31.93024
G01 X-23.36521 Y-31.96290
G01 X-23.24397 Y-32.06239
G01 X-23.20239 Y-32.10397
G01 X-23.10290 Y-32.22521
G01 X-23.07024 Y-32.27410
G01 X-22.99630 Y-32.41243
G01 X-22.97379 Y-32.46676
G01 X-22.92828 Y-32.61683
G01 X-22.91679 Y-32.67451
G01 X-22.89998 Y-32.85998
G01 X-22.91679 Y-33.04548
G01 X-22.92828 Y-33.10313
G01 X-22.97379 Y-33.25322
G01 X-22.99630 Y-33.30755
G01 X-23.07024 Y-33.44586
G01 X-23.10290 Y-33.49475
G01 X-23.20239 Y-33.61599
G01 X-23.24397 Y-33.65757
G01 X-23.36521 Y-33.75706
G01 X-23.41410 Y-33.78975
G01 X-23.49998 Y-33.83562
G01 X-23.49995 Y-34.25297
G01 X-23.04603 Y-34.70895
G01 X-22.98850 Y-34.78817
G01 X-22.94750 Y-34.87707
G01 X-22.92467 Y-34.97227
G01 X-22.91936 Y-35.04067
G01 X-22.91936 Y-36.14824
G01 X-22.85370 Y-36.20399
G01 X-22.77176 Y-36.30158
G01 X-22.73907 Y-36.35047
G01 X-22.69287 Y-36.43693
G01 X-22.67036 Y-36.49127
G01 X-22.63475 Y-36.61362
G01 X-22.62083 Y-36.74029
G01 X-22.62083 Y-36.79909
G01 X-22.89998 Y-30.31998
G01 X-22.91679 Y-30.50548
G01 X-22.92828 Y-30.56313
G01 X-22.97379 Y-30.71322
G01 X-22.99630 Y-30.76755
G01 X-23.07024 Y-30.90586
G01 X-23.10290 Y-30.95475
G01 X-23.20239 Y-31.07599
G01 X-23.24397 Y-31.11757
G01 X-23.36521 Y-31.21706
G01 X-23.41410 Y-31.24975
G01 X-23.57902 Y-31.33626
G01 X-23.75682 Y-31.39171
G01 X-23.81451 Y-31.40316
G01 X-23.97059 Y-31.41856
G01 X-24.02939 Y-31.41856
G01 X-24.18547 Y-31.40316
G01 X-24.24316 Y-31.39171
G01 X-24.33630 Y-31.36344
G01 X-25.10566 Y-32.13278
G01 X-25.10564 Y-37.92637
G01 X-24.86701 Y-38.16505
G01 X-24.82238 Y-38.21717
G01 X-24.77122 Y-38.30063
G01 X-24.73734 Y-38.39248
G01 X-24.72588 Y-38.45016
G01 X-24.72058 Y-38.51859
G01 X-24.72058 Y-39.59558
G01 X-24.72588 Y-39.66398
G01 X-24.74872 Y-39.75918
G01 X-24.77122 Y-39.81351
G01 X-24.82238 Y-39.89700
G01 X-24.86703 Y-39.94912
G01 X-25.42476 Y-40.50688
G01 X-25.42476 Y-67.23967
G01 X-24.58977 Y-68.07675
G01 X-24.56487 Y-68.10705
G01 X-24.51372 Y-68.19054
G01 X-24.47983 Y-68.28239
G01 X-24.46838 Y-68.34007
G01 X-24.46307 Y-68.40860
G01 X-24.46553 Y-74.69449
G01 X-24.46924 Y-74.74135
G01 X-24.48022 Y-74.78707
G01 X-24.51758 Y-74.89007
G01 X-24.54217 Y-74.93023
G01 X-24.60953 Y-75.01664
G01 X-28.19654 Y-78.60365
G01 X-28.16113 Y-78.72539
G01 X-28.14142 Y-78.91059
G01 X-28.14142 Y-78.96939
G01 X-28.16113 Y-79.15458
G01 X-28.22372 Y-79.36093
G01 X-28.31023 Y-79.52585
G01 X-28.34292 Y-79.57477
G01 X-28.46217 Y-79.71780
G01 X-28.62885 Y-79.85460
G01 X-28.79242 Y-79.94366
G01 X-28.84675 Y-79.96618
G01 X-29.02539 Y-80.01884
G01 X-29.21058 Y-80.03855
G01 X-29.26939 Y-80.03855
G01 X-29.45458 Y-80.01884
G01 X-29.63321 Y-79.96618
G01 X-29.68755 Y-79.94366
G01 X-29.85112 Y-79.85460
G01 X-29.99600 Y-79.73758
G01 X-30.03758 Y-79.69598
G01 X-30.13707 Y-79.57477
G01 X-30.16974 Y-79.52585
G01 X-30.25625 Y-79.36093
G01 X-30.31170 Y-79.18315
G01 X-30.32318 Y-79.12547
G01 X-30.33855 Y-78.96939
G01 X-30.33855 Y-78.91059
G01 X-30.32318 Y-78.75450
G01 X-30.31170 Y-78.69682
G01 X-30.25625 Y-78.51905
G01 X-30.16974 Y-78.35412
G01 X-30.13707 Y-78.30520
G01 X-30.01780 Y-78.16218
G01 X-29.87477 Y-78.04290
G01 X-29.82587 Y-78.01023
G01 X-29.68755 Y-77.93632
G01 X-29.63321 Y-77.91381
G01 X-29.45458 Y-77.86113
G01 X-29.26939 Y-77.84142
G01 X-29.21058 Y-77.84142
G01 X-29.05450 Y-77.85679
G01 X-28.99682 Y-77.86827
G01 X-28.90365 Y-77.89654
G01 X-25.46307 Y-74.45599
G01 X-25.46307 Y-68.61559
G01 X-26.29809 Y-67.77850
G01 X-26.35565 Y-67.69931
G01 X-26.39665 Y-67.61038
G01 X-26.41948 Y-67.51518
G01 X-26.42479 Y-67.44678
G01 X-26.42479 Y-40.29979
G01 X-26.41948 Y-40.23136
G01 X-26.39665 Y-40.13617
G01 X-26.35565 Y-40.04724
G01 X-26.32299 Y-39.99835
G01 X-26.27833 Y-39.94622
G01 X-25.72057 Y-39.38847
G01 X-25.72057 Y-38.72565
G01 X-25.95923 Y-38.48699
G01 X-26.00386 Y-38.43487
G01 X-26.03652 Y-38.38598
G01 X-26.07752 Y-38.29708
G01 X-26.08890 Y-38.25956
G01 X-26.10421 Y-38.16286
G01 X-26.10421 Y-31.89628
G01 X-26.08890 Y-31.79958
G01 X-26.07752 Y-31.76206
G01 X-26.03652 Y-31.67314
G01 X-25.97897 Y-31.59394
G01 X-25.04343 Y-30.65633
G01 X-25.07170 Y-30.56313
G01 X-25.08316 Y-30.50548
G01 X-25.09998 Y-30.31998
G01 X-25.08316 Y-30.13451
G01 X-25.07170 Y-30.07683
G01 X-25.01626 Y-29.89903
G01 X-24.92974 Y-29.73410
G01 X-24.89705 Y-29.68521
G01 X-24.77780 Y-29.54218
G01 X-24.63475 Y-29.42290
G01 X-24.58585 Y-29.39024
G01 X-24.44755 Y-29.31630
G01 X-24.39322 Y-29.29379
G01 X-24.24316 Y-29.24828
G01 X-24.18547 Y-29.23680
G01 X-24.02939 Y-29.22143
G01 X-23.97059 Y-29.22143
G01 X-23.81451 Y-29.23680
G01 X-23.75682 Y-29.24828
G01 X-23.60676 Y-29.29379
G01 X-23.55243 Y-29.31630
G01 X-23.41410 Y-29.39024
G01 X-23.36521 Y-29.42290
G01 X-23.22218 Y-29.54218
G01 X-23.10290 Y-29.68521
G01 X-23.07024 Y-29.73410
G01 X-22.99630 Y-29.87243
G01 X-22.97379 Y-29.92676
G01 X-22.92828 Y-30.07683
G01 X-22.91679 Y-30.13451
G01 X-22.89998 Y-30.31998
G01 X-22.89998 Y-27.77998
G01 X-22.91679 Y-27.96548
G01 X-22.92828 Y-28.02313
G01 X-22.97379 Y-28.17322
G01 X-22.99630 Y-28.22755
G01 X-23.07024 Y-28.36586
G01 X-23.10290 Y-28.41475
G01 X-23.22218 Y-28.55780
G01 X-23.36521 Y-28.67706
G01 X-23.41410 Y-28.70975
G01 X-23.57902 Y-28.79626
G01 X-23.75682 Y-28.85171
G01 X-23.81451 Y-28.86316
G01 X-23.97059 Y-28.87856
G01 X-24.02939 Y-28.87856
G01 X-24.18547 Y-28.86316
G01 X-24.24316 Y-28.85171
G01 X-24.42093 Y-28.79626
G01 X-24.58585 Y-28.70975
G01 X-24.63475 Y-28.67706
G01 X-24.75598 Y-28.57757
G01 X-24.79759 Y-28.53599
G01 X-24.89705 Y-28.41475
G01 X-24.92974 Y-28.36586
G01 X-25.00366 Y-28.22755
G01 X-25.02616 Y-28.17322
G01 X-25.07170 Y-28.02313
G01 X-25.08316 Y-27.96548
G01 X-25.09998 Y-27.77998
G01 X-25.08316 Y-27.59451
G01 X-25.07170 Y-27.53683
G01 X-25.01626 Y-27.35903
G01 X-24.92974 Y-27.19410
G01 X-24.89705 Y-27.14521
G01 X-24.79759 Y-27.02397
G01 X-24.75598 Y-26.98239
G01 X-24.63475 Y-26.88290
G01 X-24.58585 Y-26.85024
G01 X-24.42093 Y-26.76373
G01 X-24.24316 Y-26.70828
G01 X-24.18547 Y-26.69680
G01 X-24.02939 Y-26.68143
G01 X-23.97059 Y-26.68143
G01 X-23.81451 Y-26.69680
G01 X-23.75682 Y-26.70828
G01 X-23.57902 Y-26.76373
G01 X-23.41410 Y-26.85024
G01 X-23.36521 Y-26.88290
G01 X-23.22218 Y-27.00218
G01 X-23.10290 Y-27.14521
G01 X-23.07024 Y-27.19410
G01 X-22.99630 Y-27.33243
G01 X-22.97379 Y-27.38676
G01 X-22.92828 Y-27.53683
G01 X-22.91679 Y-27.59451
G01 X-22.89998 Y-27.77998
G01 X-22.89998 Y-25.23998
G01 X-22.92111 Y-25.45458
G01 X-22.98372 Y-25.66093
G01 X-23.07024 Y-25.82586
G01 X-23.10290 Y-25.87475
G01 X-23.22218 Y-26.01780
G01 X-23.36521 Y-26.13706
G01 X-23.41410 Y-26.16975
G01 X-23.55243 Y-26.24366
G01 X-23.60676 Y-26.26614
G01 X-23.78540 Y-26.31884
G01 X-23.97059 Y-26.33856
G01 X-24.02939 Y-26.33856
G01 X-24.21458 Y-26.31884
G01 X-24.39322 Y-26.26614
G01 X-24.44755 Y-26.24366
G01 X-24.58585 Y-26.16975
G01 X-24.63475 Y-26.13706
G01 X-24.75598 Y-26.03757
G01 X-24.79759 Y-25.99596
G01 X-24.89705 Y-25.87475
G01 X-24.92974 Y-25.82586
G01 X-25.01626 Y-25.66093
G01 X-25.07170 Y-25.48313
G01 X-25.08316 Y-25.42548
G01 X-25.09998 Y-25.23998
G01 X-25.08316 Y-25.05451
G01 X-25.07170 Y-24.99683
G01 X-25.01626 Y-24.81903
G01 X-24.92974 Y-24.65410
G01 X-24.89705 Y-24.60521
G01 X-24.79759 Y-24.48397
G01 X-24.75598 Y-24.44239
G01 X-24.63475 Y-24.34290
G01 X-24.58585 Y-24.31024
G01 X-24.42093 Y-24.22373
G01 X-24.24316 Y-24.16828
G01 X-24.18547 Y-24.15680
G01 X-24.02939 Y-24.14143
G01 X-23.97059 Y-24.14143
G01 X-23.81451 Y-24.15680
G01 X-23.75682 Y-24.16828
G01 X-23.57902 Y-24.22373
G01 X-23.41410 Y-24.31024
G01 X-23.36521 Y-24.34290
G01 X-23.22218 Y-24.46218
G01 X-23.10290 Y-24.60521
G01 X-23.07024 Y-24.65410
G01 X-22.98372 Y-24.81903
G01 X-22.92828 Y-24.99683
G01 X-22.91679 Y-25.05451
G01 X-22.89998 Y-25.23998
G01 X-22.89998 Y-22.69998
G01 X-22.91679 Y-22.88548
G01 X-22.92828 Y-22.94313
G01 X-22.98372 Y-23.12093
G01 X-23.07024 Y-23.28586
G01 X-23.10290 Y-23.33475
G01 X-23.20239 Y-23.45599
G01 X-23.24397 Y-23.49757
G01 X-23.38885 Y-23.61461
G01 X-23.55243 Y-23.70366
G01 X-23.60676 Y-23.72617
G01 X-23.75682 Y-23.77171
G01 X-23.81451 Y-23.78316
G01 X-23.97059 Y-23.79856
G01 X-24.02939 Y-23.79856
G01 X-24.18547 Y-23.78316
G01 X-24.24316 Y-23.77171
G01 X-24.42093 Y-23.71626
G01 X-24.58585 Y-23.62975
G01 X-24.63475 Y-23.59706
G01 X-24.75598 Y-23.49757
G01 X-24.79759 Y-23.45599
G01 X-24.89705 Y-23.33475
G01 X-24.92974 Y-23.28586
G01 X-25.01626 Y-23.12093
G01 X-25.07170 Y-22.94313
G01 X-25.08316 Y-22.88548
G01 X-25.09998 Y-22.69998
G01 X-25.08316 Y-22.51451
G01 X-25.07170 Y-22.45683
G01 X-25.01626 Y-22.27903
G01 X-24.92974 Y-22.11410
G01 X-24.89705 Y-22.06521
G01 X-24.79759 Y-21.94397
G01 X-24.75598 Y-21.90239
G01 X-24.61113 Y-21.78538
G01 X-24.44755 Y-21.69630
G01 X-24.39322 Y-21.67379
G01 X-24.24316 Y-21.62828
G01 X-24.18547 Y-21.61680
G01 X-24.02939 Y-21.60143
G01 X-23.97059 Y-21.60143
G01 X-23.81451 Y-21.61680
G01 X-23.75682 Y-21.62828
G01 X-23.57902 Y-21.68373
G01 X-23.41410 Y-21.77024
G01 X-23.36521 Y-21.80290
G01 X-23.22218 Y-21.92218
G01 X-23.10290 Y-22.06521
G01 X-23.07024 Y-22.11410
G01 X-22.98372 Y-22.27903
G01 X-22.92828 Y-22.45683
G01 X-22.91679 Y-22.51451
G01 X-22.89998 Y-22.69998
G01 X-22.89998 Y-20.15998
G01 X-22.91679 Y-20.34548
G01 X-22.92828 Y-20.40313
G01 X-22.98372 Y-20.58093
G01 X-23.07024 Y-20.74586
G01 X-23.10290 Y-20.79475
G01 X-23.22218 Y-20.93780
G01 X-23.36521 Y-21.05706
G01 X-23.41410 Y-21.08975
G01 X-23.57902 Y-21.17626
G01 X-23.75682 Y-21.23171
G01 X-23.81451 Y-21.24316
G01 X-23.99998 Y-21.25998
G01 X-24.18547 Y-21.24316
G01 X-24.24316 Y-21.23171
G01 X-24.42093 Y-21.17626
G01 X-24.58585 Y-21.08975
G01 X-24.63475 Y-21.05706
G01 X-24.77780 Y-20.93780
G01 X-24.89705 Y-20.79475
G01 X-24.92974 Y-20.74586
G01 X-25.01626 Y-20.58093
G01 X-25.07170 Y-20.40313
G01 X-25.08316 Y-20.34548
G01 X-25.09998 Y-20.15998
G01 X-25.08316 Y-19.97451
G01 X-25.07170 Y-19.91683
G01 X-25.01626 Y-19.73903
G01 X-24.92974 Y-19.57410
G01 X-24.89705 Y-19.52521
G01 X-24.77780 Y-19.38218
G01 X-24.63475 Y-19.26290
G01 X-24.58585 Y-19.23024
G01 X-24.42093 Y-19.14373
G01 X-24.24316 Y-19.08828
G01 X-24.18547 Y-19.07680
G01 X-23.99998 Y-19.05998
G01 X-23.81451 Y-19.07680
G01 X-23.75682 Y-19.08828
G01 X-23.57902 Y-19.14373
G01 X-23.41410 Y-19.23024
G01 X-23.36521 Y-19.26290
G01 X-23.22218 Y-19.38218
G01 X-23.10290 Y-19.52521
G01 X-23.07024 Y-19.57410
G01 X-22.98372 Y-19.73903
G01 X-22.92828 Y-19.91683
G01 X-22.91679 Y-19.97451
G01 X-22.89998 Y-20.15998
G01 X-22.89998 Y-17.61998
G01 X-22.91679 Y-17.80548
G01 X-22.92828 Y-17.86313
G01 X-22.98372 Y-18.04093
G01 X-23.07024 Y-18.20586
G01 X-23.10290 Y-18.25475
G01 X-23.20239 Y-18.37599
G01 X-23.24397 Y-18.41757
G01 X-23.38885 Y-18.53461
G01 X-23.55243 Y-18.62366
G01 X-23.60676 Y-18.64617
G01 X-23.75682 Y-18.69171
G01 X-23.81451 Y-18.70316
G01 X-23.99998 Y-18.71998
G01 X-24.18547 Y-18.70316
G01 X-24.24316 Y-18.69171
G01 X-24.42093 Y-18.63626
G01 X-24.58585 Y-18.54975
G01 X-24.63475 Y-18.51706
G01 X-24.77780 Y-18.39780
G01 X-24.89705 Y-18.25475
G01 X-24.92974 Y-18.20586
G01 X-25.01626 Y-18.04093
G01 X-25.07170 Y-17.86313
G01 X-25.08316 Y-17.80548
G01 X-25.09998 Y-17.61998
G01 X-25.08316 Y-17.43451
G01 X-25.07170 Y-17.37683
G01 X-25.01626 Y-17.19903
G01 X-24.92974 Y-17.03410
G01 X-24.89705 Y-16.98521
G01 X-24.79759 Y-16.86397
G01 X-24.75598 Y-16.82239
G01 X-24.61113 Y-16.70538
G01 X-24.44755 Y-16.61630
G01 X-24.39322 Y-16.59379
G01 X-24.24316 Y-16.54828
G01 X-24.18547 Y-16.53680
G01 X-23.99998 Y-16.51998
G01 X-23.81451 Y-16.53680
G01 X-23.75682 Y-16.54828
G01 X-23.57902 Y-16.60373
G01 X-23.41410 Y-16.69024
G01 X-23.36521 Y-16.72290
G01 X-23.22218 Y-16.84218
G01 X-23.10290 Y-16.98521
G01 X-23.07024 Y-17.03410
G01 X-22.98372 Y-17.19903
G01 X-22.92828 Y-17.37683
G01 X-22.91679 Y-17.43451
G01 X-22.89998 Y-17.61998
G01 X-22.89998 Y-15.07998
G01 X-22.91679 Y-15.26548
G01 X-22.92828 Y-15.32313
G01 X-22.98372 Y-15.50093
G01 X-23.07024 Y-15.66586
G01 X-23.10290 Y-15.71475
G01 X-23.22218 Y-15.85780
G01 X-23.36521 Y-15.97706
G01 X-23.41410 Y-16.00975
G01 X-23.57902 Y-16.09626
G01 X-23.75682 Y-16.15171
G01 X-23.81451 Y-16.16316
G01 X-23.99998 Y-16.17998
G01 X-24.18547 Y-16.16316
G01 X-24.24316 Y-16.15171
G01 X-24.42093 Y-16.09626
G01 X-24.58585 Y-16.00975
G01 X-24.63475 Y-15.97706
G01 X-24.77780 Y-15.85780
G01 X-24.89705 Y-15.71475
G01 X-24.92974 Y-15.66586
G01 X-25.01626 Y-15.50093
G01 X-25.07170 Y-15.32313
G01 X-25.08316 Y-15.26548
G01 X-25.09998 Y-15.07998
G01 X-25.08316 Y-14.89451
G01 X-25.07170 Y-14.83683
G01 X-25.01626 Y-14.65903
