( pcb2gcode 2.5.0 )
( Software-independent Gcode )

G94 ( Millimeters per minute feed rate. )
G21 ( Units == Millimeters. )

G90 ( Absolute coordinates. )
G00 S8000 ( RPM spindle speed. )
G01 F600.00000 ( Feedrate. )


G53 G00 Z0.00000 (Retract to tool change height)
T1
M5      (Spindle stop.)
G04 P3.00000 (Wait for spindle to stop)
(MSG, Change tool bit to cutter diameter 2.00000mm)
M0      (Temporary machine stop.)
M3 ( Spindle on clockwise. )
G04 P1.00000 (Wait for spindle to get up to speed)
G04 P0 ( dwell for no time -- G64 should not smooth over this point )
G00 Z5.00000 ( retract )

G00 X1.04999 Y-44.99999 ( rapid move to begin. )
G01 Z-0.50000 F30.00000 ( plunge. )
G04 P0 ( dwell for no time -- G64 should not smooth over this point )
G01 F600.00000
G01 X1.02982 Y-45.20481
G01 X0.97005 Y-45.40179
G01 X0.87302 Y-45.58332
G01 X0.74244 Y-45.74243
G01 X0.58334 Y-45.87301
G01 X0.40180 Y-45.97004
G01 X0.20483 Y-46.02980
G01 X-0.00000 Y-46.04997
G01 X-46.24999 Y-46.04997
G01 X-48.74999 Y-46.04997
G01 X-94.99999 Y-46.04997
G01 X-95.20481 Y-46.02980
G01 X-95.40179 Y-45.97004
G01 X-95.58332 Y-45.87301
G01 X-95.74243 Y-45.74243
G01 X-95.87301 Y-45.58332
G01 X-95.97004 Y-45.40179
G01 X-96.02981 Y-45.20481
G01 X-96.04997 Y-44.99999
G01 X-96.04997 Y-23.74999
G01 X-96.04997 Y-21.24999
G01 X-96.04997 Y0.00000
G01 X-96.02981 Y0.20483
G01 X-95.97004 Y0.40180
G01 X-95.87301 Y0.58334
G01 X-95.74243 Y0.74244
G01 X-95.58332 Y0.87302
G01 X-95.40179 Y0.97005
G01 X-95.20481 Y1.02982
G01 X-94.99999 Y1.04999
G01 X-48.74999 Y1.04999
G01 X-46.24999 Y1.04999
G01 X-0.00000 Y1.04999
G01 X0.20483 Y1.02982
G01 X0.40180 Y0.97005
G01 X0.58334 Y0.87302
G01 X0.74244 Y0.74244
G01 X0.87302 Y0.58334
G01 X0.97005 Y0.40180
G01 X1.02982 Y0.20483
G01 X1.04999 Y0.00000
G01 X1.04999 Y-21.24999
G01 X1.04999 Y-23.74999
G01 X1.04999 Y-44.99999
G01 Z-1.00000 F30.00000 ( plunge. )
G04 P0 ( dwell for no time -- G64 should not smooth over this point )
G01 F600.00000
G01 X1.02982 Y-45.20481
G01 X0.97005 Y-45.40179
G01 X0.87302 Y-45.58332
G01 X0.74244 Y-45.74243
G01 X0.58334 Y-45.87301
G01 X0.40180 Y-45.97004
G01 X0.20483 Y-46.02980
G01 X-0.00000 Y-46.04997
G01 X-46.24999 Y-46.04997
G00 Z-0.60000
G01 X-48.74999 Y-46.04997
G01 Z-1.00000 F30.00000
G01 F600.00000
G01 X-94.99999 Y-46.04997
G01 X-95.20481 Y-46.02980
G01 X-95.40179 Y-45.97004
G01 X-95.58332 Y-45.87301
G01 X-95.74243 Y-45.74243
G01 X-95.87301 Y-45.58332
G01 X-95.97004 Y-45.40179
G01 X-96.02981 Y-45.20481
G01 X-96.04997 Y-44.99999
G01 X-96.04997 Y-23.74999
G00 Z-0.60000
G01 X-96.04997 Y-21.24999
G01 Z-1.00000 F30.00000
G01 F600.00000
G01 X-96.04997 Y0.00000
G01 X-96.02981 Y0.20483
G01 X-95.97004 Y0.40180
G01 X-95.87301 Y0.58334
G01 X-95.74243 Y0.74244
G01 X-95.58332 Y0.87302
G01 X-95.40179 Y0.97005
G01 X-95.20481 Y1.02982
G01 X-94.99999 Y1.04999
G01 X-48.74999 Y1.04999
G00 Z-0.60000
G01 X-46.24999 Y1.04999
G01 Z-1.00000 F30.00000
G01 F600.00000
G01 X-0.00000 Y1.04999
G01 X0.20483 Y1.02982
G01 X0.40180 Y0.97005
G01 X0.58334 Y0.87302
G01 X0.74244 Y0.74244
G01 X0.87302 Y0.58334
G01 X0.97005 Y0.40180
G01 X1.02982 Y0.20483
G01 X1.04999 Y0.00000
G01 X1.04999 Y-21.24999
G00 Z-0.60000
G01 X1.04999 Y-23.74999
G01 Z-1.00000 F30.00000
G01 F600.00000
G01 X1.04999 Y-44.99999
G01 Z-1.50000 F30.00000 ( plunge. )
G04 P0 ( dwell for no time -- G64 should not smooth over this point )
G01 F600.00000
G01 X1.02982 Y-45.20481
G01 X0.97005 Y-45.40179
G01 X0.87302 Y-45.58332
G01 X0.74244 Y-45.74243
G01 X0.58334 Y-45.87301
G01 X0.40180 Y-45.97004
G01 X0.20483 Y-46.02980
G01 X-0.00000 Y-46.04997
G01 X-46.24999 Y-46.04997
G00 Z-0.60000
G01 X-48.74999 Y-46.04997
G01 Z-1.50000 F30.00000
G01 F600.00000
G01 X-94.99999 Y-46.04997
G01 X-95.20481 Y-46.02980
G01 X-95.40179 Y-45.97004
G01 X-95.58332 Y-45.87301
G01 X-95.74243 Y-45.74243
G01 X-95.87301 Y-45.58332
G01 X-95.97004 Y-45.40179
G01 X-96.02981 Y-45.20481
G01 X-96.04997 Y-44.99999
G01 X-96.04997 Y-23.74999
G00 Z-0.60000
G01 X-96.04997 Y-21.24999
G01 Z-1.50000 F30.00000
G01 F600.00000
G01 X-96.04997 Y0.00000
G01 X-96.02981 Y0.20483
G01 X-95.97004 Y0.40180
G01 X-95.87301 Y0.58334
G01 X-95.74243 Y0.74244
G01 X-95.58332 Y0.87302
G01 X-95.40179 Y0.97005
G01 X-95.20481 Y1.02982
G01 X-94.99999 Y1.04999
G01 X-48.74999 Y1.04999
G00 Z-0.60000
G01 X-46.24999 Y1.04999
G01 Z-1.50000 F30.00000
G01 F600.00000
G01 X-0.00000 Y1.04999
G01 X0.20483 Y1.02982
G01 X0.40180 Y0.97005
G01 X0.58334 Y0.87302
G01 X0.74244 Y0.74244
G01 X0.87302 Y0.58334
G01 X0.97005 Y0.40180
G01 X1.02982 Y0.20483
G01 X1.04999 Y0.00000
G01 X1.04999 Y-21.24999
G00 Z-0.60000
G01 X1.04999 Y-23.74999
G01 Z-1.50000 F30.00000
G01 F600.00000
G01 X1.04999 Y-44.99999
G01 Z-2.00000 F30.00000 ( plunge. )
G04 P0 ( dwell for no time -- G64 should not smooth over this point )
G01 F600.00000
G01 X1.02982 Y-45.20481
G01 X0.97005 Y-45.40179
G01 X0.87302 Y-45.58332
G01 X0.74244 Y-45.74243
G01 X0.58334 Y-45.87301
G01 X0.40180 Y-45.97004
G01 X0.20483 Y-46.02980
G01 X-0.00000 Y-46.04997
G01 X-46.24999 Y-46.04997
G00 Z-0.60000
G01 X-48.74999 Y-46.04997
G01 Z-2.00000 F30.00000
G01 F600.00000
G01 X-94.99999 Y-46.04997
G01 X-95.20481 Y-46.02980
G01 X-95.40179 Y-45.97004
G01 X-95.58332 Y-45.87301
G01 X-95.74243 Y-45.74243
G01 X-95.87301 Y-45.58332
G01 X-95.97004 Y-45.40179
G01 X-96.02981 Y-45.20481
G01 X-96.04997 Y-44.99999
G01 X-96.04997 Y-23.74999
G00 Z-0.60000
G01 X-96.04997 Y-21.24999
G01 Z-2.00000 F30.00000
G01 F600.00000
G01 X-96.04997 Y0.00000
G01 X-96.02981 Y0.20483
G01 X-95.97004 Y0.40180
G01 X-95.87301 Y0.58334
G01 X-95.74243 Y0.74244
G01 X-95.58332 Y0.87302
G01 X-95.40179 Y0.97005
G01 X-95.20481 Y1.02982
G01 X-94.99999 Y1.04999
G01 X-48.74999 Y1.04999
G00 Z-0.60000
G01 X-46.24999 Y1.04999
G01 Z-2.00000 F30.00000
G01 F600.00000
G01 X-0.00000 Y1.04999
G01 X0.20483 Y1.02982
G01 X0.40180 Y0.97005
G01 X0.58334 Y0.87302
G01 X0.74244 Y0.74244
G01 X0.87302 Y0.58334
G01 X0.97005 Y0.40180
G01 X1.02982 Y0.20483
G01 X1.04999 Y0.00000
G01 X1.04999 Y-21.24999
G00 Z-0.60000
G01 X1.04999 Y-23.74999
G01 Z-2.00000 F30.00000
G01 F600.00000
G01 X1.04999 Y-44.99999

G04 P0 ( dwell for no time -- G64 should not smooth over this point )
G53 G00 Z0.000000 ( retract )

M5 ( Spindle off. )
G04 P3.000000
M9 ( Coolant off. )
M2 ( Program end. )

