( pcb2gcode 2.5.0 )
( Software-independent Gcode )

G94 ( Millimeters per minute feed rate. )
G21 ( Units == Millimeters. )

G90 ( Absolute coordinates. )
G00 S8000 ( RPM spindle speed. )
G01 F60.00000 ( Feedrate. )


G53 G00 Z10.00000 (Retract to tool change height)
T1
M5      (Spindle stop.)
G04 P3.00000 (Wait for spindle to stop)
(MSG, Change tool bit to mill diameter 0.50000mm)
M0      (Temporary machine stop.)
M3 ( Spindle on clockwise. )
G04 P1.00000 (Wait for spindle to get up to speed)
G04 P0 ( dwell for no time -- G64 should not smooth over this point )
G00 Z5.00000 ( retract )

G00 X-0.30000 Y-0.50000 ( rapid move to begin. )
G01 F30.00000
( Mill infeed pass 1/2 )
G01 Z-0.07500
G04 P0 ( dwell for no time -- G64 should not smooth over this point )
G01 F60.00000
G01 X-0.30000 Y-0.50000
G01 X-0.30000 Y0.00000
G01 X-0.29423 Y0.05852
G01 X-0.27714 Y0.11478
G01 X-0.24943 Y0.16665
G01 X-0.21212 Y0.21212
G01 X-0.16665 Y0.24943
G01 X-0.11478 Y0.27714
G01 X-0.05852 Y0.29423
G01 X0.00000 Y0.30000
G01 X0.50000 Y0.30000
G01 X0.55529 Y0.29484
G01 X0.60871 Y0.27958
G01 X0.65842 Y0.25474
G01 X0.70267 Y0.22118
G01 X0.73998 Y0.18001
G01 X0.76906 Y0.13266
G01 X0.78890 Y0.08080
G01 X0.79886 Y0.02614
G01 X0.79855 Y-0.02939
G01 X0.78892 Y-0.12695
G01 X0.77747 Y-0.18461
G01 X0.74902 Y-0.27841
G01 X0.72649 Y-0.33274
G01 X0.68029 Y-0.41920
G01 X0.64762 Y-0.46810
G01 X0.58544 Y-0.54386
G01 X0.54386 Y-0.58544
G01 X0.44445 Y-0.66518
G01 X0.30615 Y-0.73909
G01 X0.18461 Y-0.77747
G01 X0.12695 Y-0.78892
G01 X0.02939 Y-0.79855
G01 X-0.02614 Y-0.79886
G01 X-0.08080 Y-0.78890
G01 X-0.13266 Y-0.76906
G01 X-0.18001 Y-0.73998
G01 X-0.22118 Y-0.70267
G01 X-0.25474 Y-0.65842
G01 X-0.27958 Y-0.60871
G01 X-0.29484 Y-0.55529
G01 X-0.30000 Y-0.50000
( Mill infeed pass 2/2 )
G01 Z-0.15000
G04 P0 ( dwell for no time -- G64 should not smooth over this point )
G01 F60.00000
G01 X-0.30000 Y-0.50000
G01 X-0.30000 Y0.00000
G01 X-0.29423 Y0.05852
G01 X-0.27714 Y0.11478
G01 X-0.24943 Y0.16665
G01 X-0.21212 Y0.21212
G01 X-0.16665 Y0.24943
G01 X-0.11478 Y0.27714
G01 X-0.05852 Y0.29423
G01 X0.00000 Y0.30000
G01 X0.50000 Y0.30000
G01 X0.55529 Y0.29484
G01 X0.60871 Y0.27958
G01 X0.65842 Y0.25474
G01 X0.70267 Y0.22118
G01 X0.73998 Y0.18001
G01 X0.76906 Y0.13266
G01 X0.78890 Y0.08080
G01 X0.79886 Y0.02614
G01 X0.79855 Y-0.02939
G01 X0.78892 Y-0.12695
G01 X0.77747 Y-0.18461
G01 X0.74902 Y-0.27841
G01 X0.72649 Y-0.33274
G01 X0.68029 Y-0.41920
G01 X0.64762 Y-0.46810
G01 X0.58544 Y-0.54386
G01 X0.54386 Y-0.58544
G01 X0.44445 Y-0.66518
G01 X0.30615 Y-0.73909
G01 X0.18461 Y-0.77747
G01 X0.12695 Y-0.78892
G01 X0.02939 Y-0.79855
G01 X-0.02614 Y-0.79886
G01 X-0.08080 Y-0.78890
G01 X-0.13266 Y-0.76906
G01 X-0.18001 Y-0.73998
G01 X-0.22118 Y-0.70267
G01 X-0.25474 Y-0.65842
G01 X-0.27958 Y-0.60871
G01 X-0.29484 Y-0.55529
G01 X-0.30000 Y-0.50000
G04 P0 ( dwell for no time -- G64 should not smooth over this point )
G00 Z5.00000 ( retract )

G00 X20.95998 Y-14.00000 ( rapid move to begin. )
G01 F30.00000
( Mill infeed pass 1/2 )
G01 Z-0.07500
G04 P0 ( dwell for no time -- G64 should not smooth over this point )
G01 F60.00000
G01 X20.95998 Y-14.00000
G01 X20.97679 Y-13.81450
G01 X20.98827 Y-13.75682
G01 X21.03379 Y-13.60675
G01 X21.05630 Y-13.55242
G01 X21.14537 Y-13.38885
G01 X21.26239 Y-13.24399
G01 X21.30400 Y-13.20239
G01 X21.42520 Y-13.10289
G01 X21.47410 Y-13.07023
G01 X21.63905 Y-12.98372
G01 X21.81682 Y-12.92824
G01 X21.87451 Y-12.91681
G01 X22.05998 Y-12.90000
G01 X22.24547 Y-12.91681
G01 X22.30316 Y-12.92824
G01 X22.48093 Y-12.98372
G01 X22.64585 Y-13.07023
G01 X22.69477 Y-13.10289
G01 X22.83780 Y-13.22215
G01 X22.95708 Y-13.36520
G01 X22.98974 Y-13.41412
G01 X23.07626 Y-13.57904
G01 X23.13170 Y-13.75682
G01 X23.14316 Y-13.81450
G01 X23.16000 Y-14.00000
G01 X23.14316 Y-14.18547
G01 X23.13170 Y-14.24315
G01 X23.08616 Y-14.39321
G01 X23.06366 Y-14.44755
G01 X22.98974 Y-14.58587
G01 X22.95708 Y-14.63477
G01 X22.83780 Y-14.77780
G01 X22.69477 Y-14.89707
G01 X22.64585 Y-14.92974
G01 X22.50755 Y-15.00368
G01 X22.45322 Y-15.02618
G01 X22.30316 Y-15.07170
G01 X22.24547 Y-15.08318
G01 X22.05998 Y-15.10000
G01 X21.87451 Y-15.08318
G01 X21.81682 Y-15.07170
G01 X21.66676 Y-15.02618
G01 X21.61243 Y-15.00368
G01 X21.47410 Y-14.92974
G01 X21.42520 Y-14.89707
G01 X21.28218 Y-14.77780
G01 X21.16290 Y-14.63477
G01 X21.13023 Y-14.58587
G01 X21.04372 Y-14.42095
G01 X20.98827 Y-14.24315
G01 X20.97679 Y-14.18547
G01 X20.95998 Y-14.00000
G01 X19.98000 Y-9.99998
G01 X19.99681 Y-9.81451
G01 X20.00827 Y-9.75683
G01 X20.05381 Y-9.60676
G01 X20.07631 Y-9.55243
G01 X20.16536 Y-9.38886
G01 X20.28241 Y-9.24397
G01 X20.32399 Y-9.20239
G01 X20.44522 Y-9.10290
G01 X20.49412 Y-9.07024
G01 X20.63242 Y-8.99630
G01 X20.68675 Y-8.97379
G01 X20.83684 Y-8.92828
G01 X20.89452 Y-8.91680
G01 X21.07999 Y-8.89998
G01 X21.26546 Y-8.91680
G01 X21.32315 Y-8.92828
G01 X21.47321 Y-8.97379
G01 X21.52754 Y-8.99630
G01 X21.66587 Y-9.07024
G01 X21.71476 Y-9.10290
G01 X21.85779 Y-9.22218
G01 X21.97707 Y-9.36521
G01 X22.00973 Y-9.41410
G01 X22.09625 Y-9.57903
G01 X22.15170 Y-9.75683
G01 X22.16318 Y-9.81451
G01 X22.17999 Y-9.99998
G01 X22.16318 Y-10.18548
G01 X22.15170 Y-10.24313
G01 X22.09625 Y-10.42093
G01 X22.00973 Y-10.58586
G01 X21.97707 Y-10.63475
G01 X21.85779 Y-10.77780
G01 X21.69112 Y-10.91461
G01 X21.52754 Y-11.00366
G01 X21.47321 Y-11.02617
G01 X21.32315 Y-11.07171
G01 X21.26546 Y-11.08316
G01 X21.07999 Y-11.09998
G01 X20.89452 Y-11.08316
G01 X20.83684 Y-11.07171
G01 X20.68675 Y-11.02617
G01 X20.63242 Y-11.00366
G01 X20.49412 Y-10.92975
G01 X20.44522 Y-10.89706
G01 X20.32399 Y-10.79757
G01 X20.28241 Y-10.75599
G01 X20.18292 Y-10.63475
G01 X20.15023 Y-10.58586
G01 X20.06371 Y-10.42093
G01 X20.00827 Y-10.24313
G01 X19.99681 Y-10.18548
G01 X19.98000 Y-9.99998
( Mill infeed pass 2/2 )
G00 Z5.00000 ( retract )
G00 X20.95998 Y-14.00000 ( rapid move to begin. )
G01 Z-0.15000
G04 P0 ( dwell for no time -- G64 should not smooth over this point )
G01 F60.00000
G01 X20.95998 Y-14.00000
G01 X20.97679 Y-13.81450
G01 X20.98827 Y-13.75682
G01 X21.03379 Y-13.60675
G01 X21.05630 Y-13.55242
G01 X21.14537 Y-13.38885
G01 X21.26239 Y-13.24399
G01 X21.30400 Y-13.20239
G01 X21.42520 Y-13.10289
G01 X21.47410 Y-13.07023
G01 X21.63905 Y-12.98372
G01 X21.81682 Y-12.92824
G01 X21.87451 Y-12.91681
G01 X22.05998 Y-12.90000
G01 X22.24547 Y-12.91681
G01 X22.30316 Y-12.92824
G01 X22.48093 Y-12.98372
G01 X22.64585 Y-13.07023
G01 X22.69477 Y-13.10289
G01 X22.83780 Y-13.22215
G01 X22.95708 Y-13.36520
G01 X22.98974 Y-13.41412
G01 X23.07626 Y-13.57904
G01 X23.13170 Y-13.75682
G01 X23.14316 Y-13.81450
G01 X23.16000 Y-14.00000
G01 X23.14316 Y-14.18547
G01 X23.13170 Y-14.24315
G01 X23.08616 Y-14.39321
G01 X23.06366 Y-14.44755
G01 X22.98974 Y-14.58587
G01 X22.95708 Y-14.63477
G01 X22.83780 Y-14.77780
G01 X22.69477 Y-14.89707
G01 X22.64585 Y-14.92974
G01 X22.50755 Y-15.00368
G01 X22.45322 Y-15.02618
G01 X22.30316 Y-15.07170
G01 X22.24547 Y-15.08318
G01 X22.05998 Y-15.10000
G01 X21.87451 Y-15.08318
G01 X21.81682 Y-15.07170
G01 X21.66676 Y-15.02618
G01 X21.61243 Y-15.00368
G01 X21.47410 Y-14.92974
G01 X21.42520 Y-14.89707
G01 X21.28218 Y-14.77780
G01 X21.16290 Y-14.63477
G01 X21.13023 Y-14.58587
G01 X21.04372 Y-14.42095
G01 X20.98827 Y-14.24315
G01 X20.97679 Y-14.18547
G01 X20.95998 Y-14.00000
G01 X19.98000 Y-9.99998
G01 X19.99681 Y-9.81451
G01 X20.00827 Y-9.75683
G01 X20.05381 Y-9.60676
G01 X20.07631 Y-9.55243
G01 X20.16536 Y-9.38886
G01 X20.28241 Y-9.24397
G01 X20.32399 Y-9.20239
G01 X20.44522 Y-9.10290
G01 X20.49412 Y-9.07024
G01 X20.63242 Y-8.99630
G01 X20.68675 Y-8.97379
G01 X20.83684 Y-8.92828
G01 X20.89452 Y-8.91680
G01 X21.07999 Y-8.89998
G01 X21.26546 Y-8.91680
G01 X21.32315 Y-8.92828
G01 X21.47321 Y-8.97379
G01 X21.52754 Y-8.99630
G01 X21.66587 Y-9.07024
G01 X21.71476 Y-9.10290
G01 X21.85779 Y-9.22218
G01 X21.97707 Y-9.36521
G01 X22.00973 Y-9.41410
G01 X22.09625 Y-9.57903
G01 X22.15170 Y-9.75683
G01 X22.16318 Y-9.81451
G01 X22.17999 Y-9.99998
G01 X22.16318 Y-10.18548
G01 X22.15170 Y-10.24313
G01 X22.09625 Y-10.42093
G01 X22.00973 Y-10.58586
G01 X21.97707 Y-10.63475
G01 X21.85779 Y-10.77780
G01 X21.69112 Y-10.91461
G01 X21.52754 Y-11.00366
G01 X21.47321 Y-11.02617
G01 X21.32315 Y-11.07171
G01 X21.26546 Y-11.08316
G01 X21.07999 Y-11.09998
G01 X20.89452 Y-11.08316
G01 X20.83684 Y-11.07171
G01 X20.68675 Y-11.02617
G01 X20.63242 Y-11.00366
G01 X20.49412 Y-10.92975
G01 X20.44522 Y-10.89706
G01 X20.32399 Y-10.79757
G01 X20.28241 Y-10.75599
G01 X20.18292 Y-10.63475
G01 X20.15023 Y-10.58586
G01 X20.06371 Y-10.42093
G01 X20.00827 Y-10.24313
G01 X19.99681 Y-10.18548
G01 X19.98000 Y-9.99998
G04 P0 ( dwell for no time -- G64 should not smooth over this point )
G00 Z5.00000 ( retract )

G00 X23.49998 Y-14.00000 ( rapid move to begin. )
G01 F30.00000
( Mill infeed pass 1/2 )
G01 Z-0.07500
G04 P0 ( dwell for no time -- G64 should not smooth over this point )
G01 F60.00000
G01 X23.49998 Y-14.00000
G01 X23.51679 Y-13.81450
G01 X23.52827 Y-13.75682
G01 X23.58372 Y-13.57904
G01 X23.67023 Y-13.41412
G01 X23.70290 Y-13.36520
G01 X23.82218 Y-13.22215
G01 X23.96520 Y-13.10289
G01 X24.01410 Y-13.07023
G01 X24.17905 Y-12.98372
G01 X24.35682 Y-12.92824
G01 X24.41451 Y-12.91681
G01 X24.59998 Y-12.90000
G01 X24.78547 Y-12.91681
G01 X24.84316 Y-12.92824
G01 X25.02093 Y-12.98372
G01 X25.18585 Y-13.07023
G01 X25.23477 Y-13.10289
G01 X25.37780 Y-13.22215
G01 X25.49708 Y-13.36520
G01 X25.52972 Y-13.41412
G01 X25.61623 Y-13.57904
G01 X25.67170 Y-13.75682
G01 X25.68313 Y-13.81450
G01 X25.70000 Y-14.00000
G01 X25.68313 Y-14.18547
G01 X25.67170 Y-14.24315
G01 X25.61623 Y-14.42095
G01 X25.52972 Y-14.58587
G01 X25.49708 Y-14.63477
G01 X25.37780 Y-14.77780
G01 X25.23477 Y-14.89707
G01 X25.18585 Y-14.92974
G01 X25.02093 Y-15.01625
G01 X24.84316 Y-15.07170
G01 X24.78547 Y-15.08318
G01 X24.59998 Y-15.10000
G01 X24.41451 Y-15.08318
G01 X24.35682 Y-15.07170
G01 X24.17905 Y-15.01625
G01 X24.01410 Y-14.92974
G01 X23.96520 Y-14.89707
G01 X23.82218 Y-14.77780
G01 X23.70290 Y-14.63477
G01 X23.67023 Y-14.58587
G01 X23.58372 Y-14.42095
G01 X23.52827 Y-14.24315
G01 X23.51679 Y-14.18547
G01 X23.49998 Y-14.00000
( Mill infeed pass 2/2 )
G01 Z-0.15000
G04 P0 ( dwell for no time -- G64 should not smooth over this point )
G01 F60.00000
G01 X23.49998 Y-14.00000
G01 X23.51679 Y-13.81450
G01 X23.52827 Y-13.75682
G01 X23.58372 Y-13.57904
G01 X23.67023 Y-13.41412
G01 X23.70290 Y-13.36520
G01 X23.82218 Y-13.22215
G01 X23.96520 Y-13.10289
G01 X24.01410 Y-13.07023
G01 X24.17905 Y-12.98372
G01 X24.35682 Y-12.92824
G01 X24.41451 Y-12.91681
G01 X24.59998 Y-12.90000
G01 X24.78547 Y-12.91681
G01 X24.84316 Y-12.92824
G01 X25.02093 Y-12.98372
G01 X25.18585 Y-13.07023
G01 X25.23477 Y-13.10289
G01 X25.37780 Y-13.22215
G01 X25.49708 Y-13.36520
G01 X25.52972 Y-13.41412
G01 X25.61623 Y-13.57904
G01 X25.67170 Y-13.75682
G01 X25.68313 Y-13.81450
G01 X25.70000 Y-14.00000
G01 X25.68313 Y-14.18547
G01 X25.67170 Y-14.24315
G01 X25.61623 Y-14.42095
G01 X25.52972 Y-14.58587
G01 X25.49708 Y-14.63477
G01 X25.37780 Y-14.77780
G01 X25.23477 Y-14.89707
G01 X25.18585 Y-14.92974
G01 X25.02093 Y-15.01625
G01 X24.84316 Y-15.07170
G01 X24.78547 Y-15.08318
G01 X24.59998 Y-15.10000
G01 X24.41451 Y-15.08318
G01 X24.35682 Y-15.07170
G01 X24.17905 Y-15.01625
G01 X24.01410 Y-14.92974
G01 X23.96520 Y-14.89707
G01 X23.82218 Y-14.77780
G01 X23.70290 Y-14.63477
G01 X23.67023 Y-14.58587
G01 X23.58372 Y-14.42095
G01 X23.52827 Y-14.24315
G01 X23.51679 Y-14.18547
G01 X23.49998 Y-14.00000
G04 P0 ( dwell for no time -- G64 should not smooth over this point )
G00 Z5.00000 ( retract )

G00 X26.04143 Y-14.02939 ( rapid move to begin. )
G01 F30.00000
( Mill infeed pass 1/2 )
G01 Z-0.07500
G04 P0 ( dwell for no time -- G64 should not smooth over this point )
G01 F60.00000
G01 X26.04143 Y-14.02939
G01 X26.04143 Y-13.97058
G01 X26.05677 Y-13.81450
G01 X26.06827 Y-13.75682
G01 X26.12372 Y-13.57904
G01 X26.21021 Y-13.41412
G01 X26.24290 Y-13.36520
G01 X26.36218 Y-13.22215
G01 X26.50520 Y-13.10289
G01 X26.55410 Y-13.07023
G01 X26.71905 Y-12.98372
G01 X26.89682 Y-12.92824
G01 X26.95451 Y-12.91681
G01 X27.13998 Y-12.90000
G01 X27.32547 Y-12.91681
G01 X27.38316 Y-12.92824
G01 X27.53322 Y-12.97381
G01 X27.58755 Y-12.99629
G01 X27.72585 Y-13.07023
G01 X27.77477 Y-13.10289
G01 X27.91780 Y-13.22215
G01 X28.03708 Y-13.36520
G01 X28.06974 Y-13.41412
G01 X28.15626 Y-13.57904
G01 X28.21170 Y-13.75682
G01 X28.22316 Y-13.81450
G01 X28.23855 Y-13.97058
G01 X28.23855 Y-14.02939
G01 X28.22316 Y-14.18547
G01 X28.21170 Y-14.24315
G01 X28.15626 Y-14.42095
G01 X28.06974 Y-14.58587
G01 X28.03708 Y-14.63477
G01 X27.91780 Y-14.77780
G01 X27.77477 Y-14.89707
G01 X27.72585 Y-14.92974
G01 X27.58755 Y-15.00368
G01 X27.53322 Y-15.02618
G01 X27.38316 Y-15.07170
G01 X27.32547 Y-15.08318
G01 X27.13998 Y-15.10000
G01 X26.95451 Y-15.08318
G01 X26.89682 Y-15.07170
G01 X26.74676 Y-15.02618
G01 X26.69243 Y-15.00368
G01 X26.55410 Y-14.92974
G01 X26.50520 Y-14.89707
G01 X26.36218 Y-14.77780
G01 X26.24290 Y-14.63477
G01 X26.21021 Y-14.58587
G01 X26.12372 Y-14.42095
G01 X26.06827 Y-14.24315
G01 X26.05677 Y-14.18547
G01 X26.04143 Y-14.02939
( Mill infeed pass 2/2 )
G01 Z-0.15000
G04 P0 ( dwell for no time -- G64 should not smooth over this point )
G01 F60.00000
G01 X26.04143 Y-14.02939
G01 X26.04143 Y-13.97058
G01 X26.05677 Y-13.81450
G01 X26.06827 Y-13.75682
G01 X26.12372 Y-13.57904
G01 X26.21021 Y-13.41412
G01 X26.24290 Y-13.36520
G01 X26.36218 Y-13.22215
G01 X26.50520 Y-13.10289
G01 X26.55410 Y-13.07023
G01 X26.71905 Y-12.98372
G01 X26.89682 Y-12.92824
G01 X26.95451 Y-12.91681
G01 X27.13998 Y-12.90000
G01 X27.32547 Y-12.91681
G01 X27.38316 Y-12.92824
G01 X27.53322 Y-12.97381
G01 X27.58755 Y-12.99629
G01 X27.72585 Y-13.07023
G01 X27.77477 Y-13.10289
G01 X27.91780 Y-13.22215
G01 X28.03708 Y-13.36520
G01 X28.06974 Y-13.41412
G01 X28.15626 Y-13.57904
G01 X28.21170 Y-13.75682
G01 X28.22316 Y-13.81450
G01 X28.23855 Y-13.97058
G01 X28.23855 Y-14.02939
G01 X28.22316 Y-14.18547
G01 X28.21170 Y-14.24315
G01 X28.15626 Y-14.42095
G01 X28.06974 Y-14.58587
G01 X28.03708 Y-14.63477
G01 X27.91780 Y-14.77780
G01 X27.77477 Y-14.89707
G01 X27.72585 Y-14.92974
G01 X27.58755 Y-15.00368
G01 X27.53322 Y-15.02618
G01 X27.38316 Y-15.07170
G01 X27.32547 Y-15.08318
G01 X27.13998 Y-15.10000
G01 X26.95451 Y-15.08318
G01 X26.89682 Y-15.07170
G01 X26.74676 Y-15.02618
G01 X26.69243 Y-15.00368
G01 X26.55410 Y-14.92974
G01 X26.50520 Y-14.89707
G01 X26.36218 Y-14.77780
G01 X26.24290 Y-14.63477
G01 X26.21021 Y-14.58587
G01 X26.12372 Y-14.42095
G01 X26.06827 Y-14.24315
G01 X26.05677 Y-14.18547
G01 X26.04143 Y-14.02939
G04 P0 ( dwell for no time -- G64 should not smooth over this point )
G00 Z5.00000 ( retract )

G00 X28.58143 Y-14.02939 ( rapid move to begin. )
G01 F30.00000
( Mill infeed pass 1/2 )
G01 Z-0.07500
G04 P0 ( dwell for no time -- G64 should not smooth over this point )
G01 F60.00000
G01 X28.58143 Y-14.02939
G01 X28.58143 Y-13.97058
G01 X28.59679 Y-13.81450
G01 X28.60827 Y-13.75682
G01 X28.66372 Y-13.57904
G01 X28.75023 Y-13.41412
G01 X28.78290 Y-13.36520
G01 X28.90218 Y-13.22215
G01 X29.04520 Y-13.10289
G01 X29.09410 Y-13.07023
G01 X29.25905 Y-12.98372
G01 X29.43682 Y-12.92824
G01 X29.49451 Y-12.91681
G01 X29.67998 Y-12.90000
G01 X29.86547 Y-12.91681
G01 X29.92316 Y-12.92824
G01 X30.07322 Y-12.97381
G01 X30.12755 Y-12.99629
G01 X30.26585 Y-13.07023
G01 X30.31477 Y-13.10289
G01 X30.45780 Y-13.22215
G01 X30.57708 Y-13.36520
G01 X30.60974 Y-13.41412
G01 X30.69626 Y-13.57904
G01 X30.75170 Y-13.75682
G01 X30.76316 Y-13.81450
G01 X30.77855 Y-13.97058
G01 X30.77855 Y-14.02939
G01 X30.76316 Y-14.18547
G01 X30.75170 Y-14.24315
G01 X30.69626 Y-14.42095
G01 X30.60974 Y-14.58587
G01 X30.57708 Y-14.63477
G01 X30.45780 Y-14.77780
G01 X30.31477 Y-14.89707
G01 X30.26585 Y-14.92974
G01 X30.12755 Y-15.00368
G01 X30.07322 Y-15.02618
G01 X29.92316 Y-15.07170
G01 X29.86547 Y-15.08318
G01 X29.67998 Y-15.10000
G01 X29.49451 Y-15.08318
G01 X29.43682 Y-15.07170
G01 X29.28676 Y-15.02618
G01 X29.23243 Y-15.00368
G01 X29.09410 Y-14.92974
G01 X29.04520 Y-14.89707
G01 X28.90218 Y-14.77780
G01 X28.78290 Y-14.63477
G01 X28.75023 Y-14.58587
G01 X28.66372 Y-14.42095
G01 X28.60827 Y-14.24315
G01 X28.59679 Y-14.18547
G01 X28.58143 Y-14.02939
( Mill infeed pass 2/2 )
G01 Z-0.15000
G04 P0 ( dwell for no time -- G64 should not smooth over this point )
G01 F60.00000
G01 X28.58143 Y-14.02939
G01 X28.58143 Y-13.97058
G01 X28.59679 Y-13.81450
G01 X28.60827 Y-13.75682
G01 X28.66372 Y-13.57904
G01 X28.75023 Y-13.41412
G01 X28.78290 Y-13.36520
G01 X28.90218 Y-13.22215
G01 X29.04520 Y-13.10289
G01 X29.09410 Y-13.07023
G01 X29.25905 Y-12.98372
G01 X29.43682 Y-12.92824
G01 X29.49451 Y-12.91681
G01 X29.67998 Y-12.90000
G01 X29.86547 Y-12.91681
G01 X29.92316 Y-12.92824
G01 X30.07322 Y-12.97381
G01 X30.12755 Y-12.99629
G01 X30.26585 Y-13.07023
G01 X30.31477 Y-13.10289
G01 X30.45780 Y-13.22215
G01 X30.57708 Y-13.36520
G01 X30.60974 Y-13.41412
G01 X30.69626 Y-13.57904
G01 X30.75170 Y-13.75682
G01 X30.76316 Y-13.81450
G01 X30.77855 Y-13.97058
G01 X30.77855 Y-14.02939
G01 X30.76316 Y-14.18547
G01 X30.75170 Y-14.24315
G01 X30.69626 Y-14.42095
G01 X30.60974 Y-14.58587
G01 X30.57708 Y-14.63477
G01 X30.45780 Y-14.77780
G01 X30.31477 Y-14.89707
G01 X30.26585 Y-14.92974
G01 X30.12755 Y-15.00368
G01 X30.07322 Y-15.02618
G01 X29.92316 Y-15.07170
G01 X29.86547 Y-15.08318
G01 X29.67998 Y-15.10000
G01 X29.49451 Y-15.08318
G01 X29.43682 Y-15.07170
G01 X29.28676 Y-15.02618
G01 X29.23243 Y-15.00368
G01 X29.09410 Y-14.92974
G01 X29.04520 Y-14.89707
G01 X28.90218 Y-14.77780
G01 X28.78290 Y-14.63477
G01 X28.75023 Y-14.58587
G01 X28.66372 Y-14.42095
G01 X28.60827 Y-14.24315
G01 X28.59679 Y-14.18547
G01 X28.58143 Y-14.02939
G04 P0 ( dwell for no time -- G64 should not smooth over this point )
G00 Z5.00000 ( retract )

G00 X33.66143 Y-14.02939 ( rapid move to begin. )
G01 F30.00000
( Mill infeed pass 1/2 )
G01 Z-0.07500
G04 P0 ( dwell for no time -- G64 should not smooth over this point )
G01 F60.00000
G01 X33.66143 Y-14.02939
G01 X33.66143 Y-13.97058
G01 X33.67679 Y-13.81450
G01 X33.68827 Y-13.75682
G01 X33.74372 Y-13.57904
G01 X33.83023 Y-13.41412
G01 X33.86290 Y-13.36520
G01 X33.98218 Y-13.22215
G01 X34.12520 Y-13.10289
G01 X34.17410 Y-13.07023
G01 X34.33905 Y-12.98372
G01 X34.51682 Y-12.92824
G01 X34.57451 Y-12.91681
G01 X34.73059 Y-12.90142
G01 X34.78939 Y-12.90142
G01 X34.94547 Y-12.91681
G01 X35.00316 Y-12.92824
G01 X35.09630 Y-12.95654
G01 X41.05293 Y-6.99991
G01 X41.10505 Y-6.95526
G01 X41.15394 Y-6.92259
G01 X41.21513 Y-6.89153
G01 X41.28038 Y-6.87022
G01 X41.33807 Y-6.85876
G01 X41.40650 Y-6.85345
G01 X65.89359 Y-6.85345
G01 X65.98341 Y-6.86168
G01 X66.07708 Y-6.88995
G01 X66.12057 Y-6.90796
G01 X66.16073 Y-6.93255
G01 X66.24714 Y-6.99991
G01 X67.83093 Y-8.58373
G01 X67.87558 Y-8.63585
G01 X67.92674 Y-8.71934
G01 X67.94924 Y-8.77367
G01 X67.96062 Y-8.81118
G01 X67.97594 Y-8.90788
G01 X67.97738 Y-10.14448
G01 X69.26903 Y-11.43612
G01 X69.31368 Y-11.48824
G01 X69.34634 Y-11.53714
G01 X69.36483 Y-11.57173
G01 X69.39872 Y-11.66358
G01 X69.41017 Y-11.72126
G01 X69.41548 Y-11.78969
G01 X69.41548 Y-22.44857
G01 X70.75333 Y-23.78641
G01 X70.81550 Y-23.86218
G01 X70.84913 Y-23.92202
G01 X70.87164 Y-23.97636
G01 X70.89016 Y-24.04242
G01 X70.89978 Y-24.13998
G01 X70.89976 Y-31.13578
G01 X72.42708 Y-32.66310
G01 X72.48357 Y-32.65754
G01 X72.54240 Y-32.65754
G01 X72.63994 Y-32.66714
G01 X72.69762 Y-32.67862
G01 X72.81913 Y-32.71698
G01 X72.93219 Y-32.77578
G01 X72.98108 Y-32.80844
G01 X73.05685 Y-32.87062
G01 X73.09843 Y-32.91223
G01 X73.17816 Y-33.01164
G01 X73.23950 Y-33.12333
G01 X73.26201 Y-33.17766
G01 X73.29046 Y-33.27146
G01 X73.30194 Y-33.32914
G01 X73.31299 Y-33.45609
G01 X73.30194 Y-33.58304
G01 X73.29046 Y-33.64073
G01 X73.26201 Y-33.73450
G01 X73.23950 Y-33.78886
G01 X73.17816 Y-33.90054
G01 X73.09843 Y-33.99996
G01 X73.05685 Y-34.04154
G01 X72.98108 Y-34.10372
G01 X72.93219 Y-34.13641
G01 X72.81913 Y-34.19518
G01 X72.69762 Y-34.23356
G01 X72.63994 Y-34.24504
G01 X72.54240 Y-34.25464
G01 X72.48357 Y-34.25464
G01 X72.35690 Y-34.24072
G01 X72.20684 Y-34.19518
G01 X72.09379 Y-34.13641
G01 X72.04489 Y-34.10372
G01 X71.94730 Y-34.02178
G01 X71.86534 Y-33.92419
G01 X71.83267 Y-33.87529
G01 X71.78647 Y-33.78886
G01 X71.76397 Y-33.73450
G01 X71.73552 Y-33.64073
G01 X71.72404 Y-33.58304
G01 X71.71299 Y-33.45609
G01 X71.72000 Y-33.37022
G01 X70.04622 Y-31.69643
G01 X70.00156 Y-31.64431
G01 X69.96890 Y-31.59542
G01 X69.95041 Y-31.56082
G01 X69.91652 Y-31.46897
G01 X69.90507 Y-31.41129
G01 X69.89976 Y-31.34289
G01 X69.89976 Y-24.34707
G01 X68.54215 Y-22.98741
G01 X68.49974 Y-22.93346
G01 X68.46611 Y-22.87361
G01 X68.43222 Y-22.78177
G01 X68.42509 Y-22.75322
G01 X68.41691 Y-22.68507
G01 X68.41546 Y-11.99678
G01 X67.12382 Y-10.70513
G01 X67.06164 Y-10.62937
G01 X67.02801 Y-10.56952
G01 X67.00550 Y-10.51519
G01 X66.98699 Y-10.44913
G01 X66.97881 Y-10.38098
G01 X66.97736 Y-9.14438
G01 X65.68648 Y-7.85348
G01 X41.61358 Y-7.85348
G01 X35.80343 Y-13.66363
G01 X35.83170 Y-13.75682
G01 X35.84316 Y-13.81450
G01 X35.85855 Y-13.97058
G01 X35.85855 Y-14.02939
G01 X35.84316 Y-14.18547
G01 X35.83170 Y-14.24315
G01 X35.78616 Y-14.39321
G01 X35.76366 Y-14.44755
G01 X35.68974 Y-14.58587
G01 X35.65708 Y-14.63477
G01 X35.53780 Y-14.77780
G01 X35.39477 Y-14.89707
G01 X35.34585 Y-14.92974
G01 X35.20755 Y-15.00368
G01 X35.15322 Y-15.02618
G01 X35.00316 Y-15.07170
G01 X34.94547 Y-15.08318
G01 X34.75998 Y-15.10000
G01 X34.57451 Y-15.08318
G01 X34.51682 Y-15.07170
G01 X34.36676 Y-15.02618
G01 X34.31243 Y-15.00368
G01 X34.17410 Y-14.92974
G01 X34.12520 Y-14.89707
G01 X33.98218 Y-14.77780
G01 X33.86290 Y-14.63477
G01 X33.83023 Y-14.58587
G01 X33.75630 Y-14.44755
G01 X33.73379 Y-14.39321
G01 X33.68827 Y-14.24315
G01 X33.67679 Y-14.18547
G01 X33.66143 Y-14.02939
( Mill infeed pass 2/2 )
G01 Z-0.15000
G04 P0 ( dwell for no time -- G64 should not smooth over this point )
G01 F60.00000
G01 X33.66143 Y-14.02939
G01 X33.66143 Y-13.97058
G01 X33.67679 Y-13.81450
G01 X33.68827 Y-13.75682
G01 X33.74372 Y-13.57904
G01 X33.83023 Y-13.41412
G01 X33.86290 Y-13.36520
G01 X33.98218 Y-13.22215
G01 X34.12520 Y-13.10289
G01 X34.17410 Y-13.07023
G01 X34.33905 Y-12.98372
G01 X34.51682 Y-12.92824
G01 X34.57451 Y-12.91681
G01 X34.73059 Y-12.90142
G01 X34.78939 Y-12.90142
G01 X34.94547 Y-12.91681
G01 X35.00316 Y-12.92824
G01 X35.09630 Y-12.95654
G01 X41.05293 Y-6.99991
G01 X41.10505 Y-6.95526
G01 X41.15394 Y-6.92259
G01 X41.21513 Y-6.89153
G01 X41.28038 Y-6.87022
G01 X41.33807 Y-6.85876
G01 X41.40650 Y-6.85345
G01 X65.89359 Y-6.85345
G01 X65.98341 Y-6.86168
G01 X66.07708 Y-6.88995
G01 X66.12057 Y-6.90796
G01 X66.16073 Y-6.93255
G01 X66.24714 Y-6.99991
G01 X67.83093 Y-8.58373
G01 X67.87558 Y-8.63585
G01 X67.92674 Y-8.71934
G01 X67.94924 Y-8.77367
G01 X67.96062 Y-8.81118
G01 X67.97594 Y-8.90788
G01 X67.97738 Y-10.14448
G01 X69.26903 Y-11.43612
G01 X69.31368 Y-11.48824
G01 X69.34634 Y-11.53714
G01 X69.36483 Y-11.57173
G01 X69.39872 Y-11.66358
G01 X69.41017 Y-11.72126
G01 X69.41548 Y-11.78969
G01 X69.41548 Y-22.44857
G01 X70.75333 Y-23.78641
G01 X70.81550 Y-23.86218
G01 X70.84913 Y-23.92202
G01 X70.87164 Y-23.97636
G01 X70.89016 Y-24.04242
G01 X70.89978 Y-24.13998
G01 X70.89976 Y-31.13578
G01 X72.42708 Y-32.66310
G01 X72.48357 Y-32.65754
G01 X72.54240 Y-32.65754
G01 X72.63994 Y-32.66714
G01 X72.69762 Y-32.67862
G01 X72.81913 Y-32.71698
G01 X72.93219 Y-32.77578
G01 X72.98108 Y-32.80844
G01 X73.05685 Y-32.87062
G01 X73.09843 Y-32.91223
G01 X73.17816 Y-33.01164
G01 X73.23950 Y-33.12333
G01 X73.26201 Y-33.17766
G01 X73.29046 Y-33.27146
G01 X73.30194 Y-33.32914
G01 X73.31299 Y-33.45609
G01 X73.30194 Y-33.58304
G01 X73.29046 Y-33.64073
G01 X73.26201 Y-33.73450
G01 X73.23950 Y-33.78886
G01 X73.17816 Y-33.90054
G01 X73.09843 Y-33.99996
G01 X73.05685 Y-34.04154
G01 X72.98108 Y-34.10372
G01 X72.93219 Y-34.13641
G01 X72.81913 Y-34.19518
G01 X72.69762 Y-34.23356
G01 X72.63994 Y-34.24504
G01 X72.54240 Y-34.25464
G01 X72.48357 Y-34.25464
G01 X72.35690 Y-34.24072
G01 X72.20684 Y-34.19518
G01 X72.09379 Y-34.13641
G01 X72.04489 Y-34.10372
G01 X71.94730 Y-34.02178
G01 X71.86534 Y-33.92419
G01 X71.83267 Y-33.87529
G01 X71.78647 Y-33.78886
G01 X71.76397 Y-33.73450
G01 X71.73552 Y-33.64073
G01 X71.72404 Y-33.58304
G01 X71.71299 Y-33.45609
G01 X71.72000 Y-33.37022
G01 X70.04622 Y-31.69643
G01 X70.00156 Y-31.64431
G01 X69.96890 Y-31.59542
G01 X69.95041 Y-31.56082
G01 X69.91652 Y-31.46897
G01 X69.90507 Y-31.41129
G01 X69.89976 Y-31.34289
G01 X69.89976 Y-24.34707
G01 X68.54215 Y-22.98741
G01 X68.49974 Y-22.93346
G01 X68.46611 Y-22.87361
G01 X68.43222 Y-22.78177
G01 X68.42509 Y-22.75322
G01 X68.41691 Y-22.68507
G01 X68.41546 Y-11.99678
G01 X67.12382 Y-10.70513
G01 X67.06164 Y-10.62937
G01 X67.02801 Y-10.56952
G01 X67.00550 Y-10.51519
G01 X66.98699 Y-10.44913
G01 X66.97881 Y-10.38098
G01 X66.97736 Y-9.14438
G01 X65.68648 Y-7.85348
G01 X41.61358 Y-7.85348
G01 X35.80343 Y-13.66363
G01 X35.83170 Y-13.75682
G01 X35.84316 Y-13.81450
G01 X35.85855 Y-13.97058
G01 X35.85855 Y-14.02939
G01 X35.84316 Y-14.18547
G01 X35.83170 Y-14.24315
G01 X35.78616 Y-14.39321
G01 X35.76366 Y-14.44755
G01 X35.68974 Y-14.58587
G01 X35.65708 Y-14.63477
G01 X35.53780 Y-14.77780
G01 X35.39477 Y-14.89707
G01 X35.34585 Y-14.92974
G01 X35.20755 Y-15.00368
G01 X35.15322 Y-15.02618
G01 X35.00316 Y-15.07170
G01 X34.94547 Y-15.08318
G01 X34.75998 Y-15.10000
G01 X34.57451 Y-15.08318
G01 X34.51682 Y-15.07170
G01 X34.36676 Y-15.02618
G01 X34.31243 Y-15.00368
G01 X34.17410 Y-14.92974
G01 X34.12520 Y-14.89707
G01 X33.98218 Y-14.77780
G01 X33.86290 Y-14.63477
G01 X33.83023 Y-14.58587
G01 X33.75630 Y-14.44755
G01 X33.73379 Y-14.39321
G01 X33.68827 Y-14.24315
G01 X33.67679 Y-14.18547
G01 X33.66143 Y-14.02939
G04 P0 ( dwell for no time -- G64 should not smooth over this point )
G00 Z5.00000 ( retract )

G00 X38.74143 Y-14.02939 ( rapid move to begin. )
G01 F30.00000
( Mill infeed pass 1/2 )
G01 Z-0.07500
G04 P0 ( dwell for no time -- G64 should not smooth over this point )
G01 F60.00000
G01 X38.74143 Y-14.02939
G01 X38.74143 Y-13.97058
G01 X38.75679 Y-13.81450
G01 X38.76827 Y-13.75682
G01 X38.82372 Y-13.57904
G01 X38.91023 Y-13.41412
G01 X38.94290 Y-13.36520
G01 X39.04239 Y-13.24399
G01 X39.08400 Y-13.20239
G01 X39.20520 Y-13.10289
G01 X39.25410 Y-13.07023
G01 X39.41905 Y-12.98372
G01 X39.59682 Y-12.92824
G01 X39.65451 Y-12.91681
G01 X39.81059 Y-12.90142
G01 X39.86939 Y-12.90142
G01 X40.02547 Y-12.91681
G01 X40.08316 Y-12.92824
G01 X40.17630 Y-12.95654
G01 X44.10692 Y-9.02592
G01 X44.15904 Y-8.98126
G01 X44.20794 Y-8.94860
G01 X44.26913 Y-8.91753
G01 X44.33438 Y-8.89622
G01 X44.43108 Y-8.88091
G01 X51.91849 Y-8.87946
G01 X51.98687 Y-8.88477
G01 X52.08209 Y-8.90760
G01 X52.17102 Y-8.94860
G01 X52.21991 Y-8.98126
G01 X52.27203 Y-9.02592
G01 X55.95633 Y-12.71019
G01 X56.02369 Y-12.79660
G01 X56.04827 Y-12.83675
G01 X56.06628 Y-12.88024
G01 X56.09661 Y-12.98550
G01 X56.10032 Y-13.03238
G01 X56.10278 Y-31.62663
G01 X56.09747 Y-31.69509
G01 X56.08602 Y-31.75277
G01 X56.05214 Y-31.84461
G01 X56.03364 Y-31.87921
G01 X56.00098 Y-31.92810
G01 X55.95633 Y-31.98023
G01 X48.27999 Y-39.65656
G01 X48.27999 Y-39.96792
G01 X48.41890 Y-40.04379
G01 X48.57135 Y-40.16705
G01 X48.61293 Y-40.20863
G01 X48.73617 Y-40.36108
G01 X48.82985 Y-40.53329
G01 X48.85238 Y-40.58763
G01 X48.90074 Y-40.74709
G01 X48.91222 Y-40.80474
G01 X48.92855 Y-40.97058
G01 X48.92855 Y-41.02938
G01 X48.90788 Y-41.22435
G01 X48.85238 Y-41.41236
G01 X48.82985 Y-41.46669
G01 X48.73617 Y-41.63888
G01 X48.61293 Y-41.79136
G01 X48.57135 Y-41.83294
G01 X48.44255 Y-41.93865
G01 X48.39363 Y-41.97132
G01 X48.24669 Y-42.04985
G01 X48.19236 Y-42.07236
G01 X48.00435 Y-42.12788
G01 X47.80940 Y-42.14853
G01 X47.75058 Y-42.14853
G01 X47.58477 Y-42.13220
G01 X47.52708 Y-42.12074
G01 X47.36762 Y-42.07236
G01 X47.31329 Y-42.04985
G01 X47.16633 Y-41.97132
G01 X47.11743 Y-41.93865
G01 X46.98863 Y-41.83294
G01 X46.94705 Y-41.79136
G01 X46.82381 Y-41.63888
G01 X46.73011 Y-41.46669
G01 X46.70760 Y-41.41236
G01 X46.65924 Y-41.25290
G01 X46.64776 Y-41.19522
G01 X46.63143 Y-41.02938
G01 X46.63143 Y-40.97058
G01 X46.65208 Y-40.77564
G01 X46.70760 Y-40.58763
G01 X46.73011 Y-40.53329
G01 X46.82381 Y-40.36108
G01 X46.94705 Y-40.20863
G01 X46.98863 Y-40.16705
G01 X47.14108 Y-40.04379
G01 X47.27997 Y-39.96792
G01 X47.28141 Y-39.32047
G01 X47.28959 Y-39.25232
G01 X47.30811 Y-39.18626
G01 X47.33061 Y-39.13193
G01 X47.36424 Y-39.07208
G01 X47.40666 Y-39.01813
G01 X47.44824 Y-38.97655
G01 X47.50219 Y-38.93414
G01 X47.56203 Y-38.90051
G01 X47.65629 Y-38.86604
G01 X55.10276 Y-31.41957
G01 X55.10276 Y-13.27084
G01 X51.71135 Y-9.87946
G01 X44.66758 Y-9.87948
G01 X40.88343 Y-13.66363
G01 X40.91170 Y-13.75682
G01 X40.92316 Y-13.81450
G01 X40.93855 Y-13.97058
G01 X40.93855 Y-14.02939
G01 X40.92316 Y-14.18547
G01 X40.91170 Y-14.24315
G01 X40.86616 Y-14.39321
G01 X40.84366 Y-14.44755
G01 X40.76974 Y-14.58587
G01 X40.73708 Y-14.63477
G01 X40.61780 Y-14.77780
G01 X40.47477 Y-14.89707
G01 X40.42585 Y-14.92974
G01 X40.28755 Y-15.00368
G01 X40.23322 Y-15.02618
G01 X40.08316 Y-15.07170
G01 X40.02547 Y-15.08318
G01 X39.83998 Y-15.10000
G01 X39.65451 Y-15.08318
G01 X39.59682 Y-15.07170
G01 X39.44676 Y-15.02618
G01 X39.39243 Y-15.00368
G01 X39.25410 Y-14.92974
G01 X39.20520 Y-14.89707
G01 X39.06218 Y-14.77780
G01 X38.94290 Y-14.63477
G01 X38.91023 Y-14.58587
G01 X38.83630 Y-14.44755
G01 X38.81379 Y-14.39321
G01 X38.76827 Y-14.24315
G01 X38.75679 Y-14.18547
G01 X38.74143 Y-14.02939
( Mill infeed pass 2/2 )
G01 Z-0.15000
G04 P0 ( dwell for no time -- G64 should not smooth over this point )
G01 F60.00000
G01 X38.74143 Y-14.02939
G01 X38.74143 Y-13.97058
G01 X38.75679 Y-13.81450
G01 X38.76827 Y-13.75682
G01 X38.82372 Y-13.57904
G01 X38.91023 Y-13.41412
G01 X38.94290 Y-13.36520
G01 X39.04239 Y-13.24399
G01 X39.08400 Y-13.20239
G01 X39.20520 Y-13.10289
G01 X39.25410 Y-13.07023
G01 X39.41905 Y-12.98372
G01 X39.59682 Y-12.92824
G01 X39.65451 Y-12.91681
G01 X39.81059 Y-12.90142
G01 X39.86939 Y-12.90142
G01 X40.02547 Y-12.91681
G01 X40.08316 Y-12.92824
G01 X40.17630 Y-12.95654
G01 X44.10692 Y-9.02592
G01 X44.15904 Y-8.98126
G01 X44.20794 Y-8.94860
G01 X44.26913 Y-8.91753
G01 X44.33438 Y-8.89622
G01 X44.43108 Y-8.88091
G01 X51.91849 Y-8.87946
G01 X51.98687 Y-8.88477
G01 X52.08209 Y-8.90760
G01 X52.17102 Y-8.94860
G01 X52.21991 Y-8.98126
G01 X52.27203 Y-9.02592
G01 X55.95633 Y-12.71019
G01 X56.02369 Y-12.79660
G01 X56.04827 Y-12.83675
G01 X56.06628 Y-12.88024
G01 X56.09661 Y-12.98550
G01 X56.10032 Y-13.03238
G01 X56.10278 Y-31.62663
G01 X56.09747 Y-31.69509
G01 X56.08602 Y-31.75277
G01 X56.05214 Y-31.84461
G01 X56.03364 Y-31.87921
G01 X56.00098 Y-31.92810
G01 X55.95633 Y-31.98023
G01 X48.27999 Y-39.65656
G01 X48.27999 Y-39.96792
G01 X48.41890 Y-40.04379
G01 X48.57135 Y-40.16705
G01 X48.61293 Y-40.20863
G01 X48.73617 Y-40.36108
G01 X48.82985 Y-40.53329
G01 X48.85238 Y-40.58763
G01 X48.90074 Y-40.74709
G01 X48.91222 Y-40.80474
G01 X48.92855 Y-40.97058
G01 X48.92855 Y-41.02938
G01 X48.90788 Y-41.22435
G01 X48.85238 Y-41.41236
G01 X48.82985 Y-41.46669
G01 X48.73617 Y-41.63888
G01 X48.61293 Y-41.79136
G01 X48.57135 Y-41.83294
G01 X48.44255 Y-41.93865
G01 X48.39363 Y-41.97132
G01 X48.24669 Y-42.04985
G01 X48.19236 Y-42.07236
G01 X48.00435 Y-42.12788
G01 X47.80940 Y-42.14853
G01 X47.75058 Y-42.14853
G01 X47.58477 Y-42.13220
G01 X47.52708 Y-42.12074
G01 X47.36762 Y-42.07236
G01 X47.31329 Y-42.04985
G01 X47.16633 Y-41.97132
G01 X47.11743 Y-41.93865
G01 X46.98863 Y-41.83294
G01 X46.94705 Y-41.79136
G01 X46.82381 Y-41.63888
G01 X46.73011 Y-41.46669
G01 X46.70760 Y-41.41236
G01 X46.65924 Y-41.25290
G01 X46.64776 Y-41.19522
G01 X46.63143 Y-41.02938
G01 X46.63143 Y-40.97058
G01 X46.65208 Y-40.77564
G01 X46.70760 Y-40.58763
G01 X46.73011 Y-40.53329
G01 X46.82381 Y-40.36108
G01 X46.94705 Y-40.20863
G01 X46.98863 Y-40.16705
G01 X47.14108 Y-40.04379
G01 X47.27997 Y-39.96792
G01 X47.28141 Y-39.32047
G01 X47.28959 Y-39.25232
G01 X47.30811 Y-39.18626
G01 X47.33061 Y-39.13193
G01 X47.36424 Y-39.07208
G01 X47.40666 Y-39.01813
G01 X47.44824 Y-38.97655
G01 X47.50219 Y-38.93414
G01 X47.56203 Y-38.90051
G01 X47.65629 Y-38.86604
G01 X55.10276 Y-31.41957
G01 X55.10276 Y-13.27084
G01 X51.71135 Y-9.87946
G01 X44.66758 Y-9.87948
G01 X40.88343 Y-13.66363
G01 X40.91170 Y-13.75682
G01 X40.92316 Y-13.81450
G01 X40.93855 Y-13.97058
G01 X40.93855 Y-14.02939
G01 X40.92316 Y-14.18547
G01 X40.91170 Y-14.24315
G01 X40.86616 Y-14.39321
G01 X40.84366 Y-14.44755
G01 X40.76974 Y-14.58587
G01 X40.73708 Y-14.63477
G01 X40.61780 Y-14.77780
G01 X40.47477 Y-14.89707
G01 X40.42585 Y-14.92974
G01 X40.28755 Y-15.00368
G01 X40.23322 Y-15.02618
G01 X40.08316 Y-15.07170
G01 X40.02547 Y-15.08318
G01 X39.83998 Y-15.10000
G01 X39.65451 Y-15.08318
G01 X39.59682 Y-15.07170
G01 X39.44676 Y-15.02618
G01 X39.39243 Y-15.00368
G01 X39.25410 Y-14.92974
G01 X39.20520 Y-14.89707
G01 X39.06218 Y-14.77780
G01 X38.94290 Y-14.63477
G01 X38.91023 Y-14.58587
G01 X38.83630 Y-14.44755
G01 X38.81379 Y-14.39321
G01 X38.76827 Y-14.24315
G01 X38.75679 Y-14.18547
G01 X38.74143 Y-14.02939
G04 P0 ( dwell for no time -- G64 should not smooth over this point )
G00 Z5.00000 ( retract )

G00 X41.28143 Y-14.02939 ( rapid move to begin. )
G01 F30.00000
( Mill infeed pass 1/2 )
G01 Z-0.07500
G04 P0 ( dwell for no time -- G64 should not smooth over this point )
G01 F60.00000
G01 X41.28143 Y-14.02939
G01 X41.28143 Y-13.97058
G01 X41.29679 Y-13.81450
G01 X41.30827 Y-13.75682
G01 X41.36372 Y-13.57904
G01 X41.45023 Y-13.41412
G01 X41.48290 Y-13.36520
G01 X41.58239 Y-13.24399
G01 X41.62400 Y-13.20239
G01 X41.74520 Y-13.10289
G01 X41.79410 Y-13.07023
G01 X41.95905 Y-12.98372
G01 X42.13682 Y-12.92824
G01 X42.19451 Y-12.91681
G01 X42.30705 Y-12.90569
G01 X42.37998 Y-12.90000
G01 X42.40939 Y-12.90142
G01 X42.56547 Y-12.91681
G01 X42.62316 Y-12.92824
G01 X42.71630 Y-12.95654
G01 X45.64682 Y-10.02601
G01 X45.69894 Y-9.98136
G01 X45.74784 Y-9.94870
G01 X45.80903 Y-9.91763
G01 X45.87428 Y-9.89632
G01 X45.93196 Y-9.88487
G01 X46.00052 Y-9.87956
G01 X51.53571 Y-9.88202
G01 X51.58255 Y-9.88573
G01 X51.68778 Y-9.91606
G01 X51.73127 Y-9.93407
G01 X51.77140 Y-9.95865
G01 X51.85783 Y-10.02601
G01 X54.95623 Y-13.12441
G01 X55.01841 Y-13.20018
G01 X55.05204 Y-13.25999
G01 X55.07454 Y-13.31432
G01 X55.09306 Y-13.38042
G01 X55.10268 Y-13.47798
G01 X55.10268 Y-31.21249
G01 X55.09306 Y-31.31002
G01 X55.07454 Y-31.37609
G01 X55.05204 Y-31.43042
G01 X55.01841 Y-31.49026
G01 X54.95623 Y-31.56603
G01 X48.57321 Y-37.94699
G01 X48.51926 Y-37.98941
G01 X48.45942 Y-38.02304
G01 X48.36757 Y-38.05692
G01 X48.33902 Y-38.06406
G01 X48.27087 Y-38.07224
G01 X47.22327 Y-38.07369
G01 X45.73999 Y-39.55697
G01 X45.73996 Y-39.96792
G01 X45.87890 Y-40.04379
G01 X46.03135 Y-40.16705
G01 X46.07293 Y-40.20863
G01 X46.19617 Y-40.36108
G01 X46.28985 Y-40.53329
G01 X46.31238 Y-40.58763
G01 X46.36074 Y-40.74709
G01 X46.37222 Y-40.80474
G01 X46.38855 Y-40.97058
G01 X46.38855 Y-41.02938
G01 X46.37222 Y-41.19522
G01 X46.36074 Y-41.25290
G01 X46.31238 Y-41.41236
G01 X46.28985 Y-41.46669
G01 X46.19617 Y-41.63888
G01 X46.07293 Y-41.79136
G01 X46.03135 Y-41.83294
G01 X45.90255 Y-41.93865
G01 X45.85363 Y-41.97132
G01 X45.70669 Y-42.04985
G01 X45.65236 Y-42.07236
G01 X45.46435 Y-42.12788
G01 X45.26940 Y-42.14853
G01 X45.21058 Y-42.14853
G01 X45.01563 Y-42.12788
G01 X44.82762 Y-42.07236
G01 X44.77329 Y-42.04985
G01 X44.60108 Y-41.95618
G01 X44.44863 Y-41.83294
G01 X44.40705 Y-41.79136
G01 X44.28381 Y-41.63888
G01 X44.19011 Y-41.46669
G01 X44.16760 Y-41.41236
G01 X44.11208 Y-41.22435
G01 X44.09143 Y-41.02938
G01 X44.09143 Y-40.97058
G01 X44.10776 Y-40.80474
G01 X44.11924 Y-40.74709
G01 X44.16760 Y-40.58763
G01 X44.19011 Y-40.53329
G01 X44.28381 Y-40.36108
G01 X44.40705 Y-40.20863
G01 X44.44863 Y-40.16705
G01 X44.60108 Y-40.04379
G01 X44.73997 Y-39.96792
G01 X44.73997 Y-39.34986
G01 X44.74527 Y-39.28146
G01 X44.74959 Y-39.25232
G01 X44.76811 Y-39.18626
G01 X44.79061 Y-39.13193
G01 X44.82424 Y-39.07208
G01 X44.84177 Y-39.04844
G01 X44.88642 Y-38.99632
G01 X46.66262 Y-37.22012
G01 X46.73839 Y-37.15794
G01 X46.79823 Y-37.12431
G01 X46.85256 Y-37.10181
G01 X46.91863 Y-37.08329
G01 X46.98677 Y-37.07511
G01 X48.03437 Y-37.07366
G01 X54.10266 Y-31.00537
G01 X54.10266 Y-13.68506
G01 X51.29713 Y-10.87956
G01 X46.20748 Y-10.87956
G01 X43.42343 Y-13.66363
G01 X43.45170 Y-13.75682
G01 X43.46316 Y-13.81450
G01 X43.47855 Y-13.97058
G01 X43.47855 Y-14.02939
G01 X43.46316 Y-14.18547
G01 X43.45170 Y-14.24315
G01 X43.39626 Y-14.42095
G01 X43.30974 Y-14.58587
G01 X43.27708 Y-14.63477
G01 X43.17759 Y-14.75600
G01 X43.13598 Y-14.79758
G01 X43.01477 Y-14.89707
G01 X42.96585 Y-14.92974
G01 X42.82755 Y-15.00368
G01 X42.77322 Y-15.02618
G01 X42.62316 Y-15.07170
G01 X42.56547 Y-15.08318
G01 X42.40939 Y-15.09855
G01 X42.35059 Y-15.09855
G01 X42.19451 Y-15.08318
G01 X42.13682 Y-15.07170
G01 X41.98676 Y-15.02618
G01 X41.93243 Y-15.00368
G01 X41.79410 Y-14.92974
G01 X41.74520 Y-14.89707
G01 X41.60218 Y-14.77780
G01 X41.48290 Y-14.63477
G01 X41.45023 Y-14.58587
G01 X41.37630 Y-14.44755
G01 X41.35379 Y-14.39321
G01 X41.30827 Y-14.24315
G01 X41.29679 Y-14.18547
G01 X41.28143 Y-14.02939
( Mill infeed pass 2/2 )
G01 Z-0.15000
G04 P0 ( dwell for no time -- G64 should not smooth over this point )
G01 F60.00000
G01 X41.28143 Y-14.02939
G01 X41.28143 Y-13.97058
G01 X41.29679 Y-13.81450
G01 X41.30827 Y-13.75682
G01 X41.36372 Y-13.57904
G01 X41.45023 Y-13.41412
G01 X41.48290 Y-13.36520
G01 X41.58239 Y-13.24399
G01 X41.62400 Y-13.20239
G01 X41.74520 Y-13.10289
G01 X41.79410 Y-13.07023
G01 X41.95905 Y-12.98372
G01 X42.13682 Y-12.92824
G01 X42.19451 Y-12.91681
G01 X42.30705 Y-12.90569
G01 X42.37998 Y-12.90000
G01 X42.40939 Y-12.90142
G01 X42.56547 Y-12.91681
G01 X42.62316 Y-12.92824
G01 X42.71630 Y-12.95654
G01 X45.64682 Y-10.02601
G01 X45.69894 Y-9.98136
G01 X45.74784 Y-9.94870
G01 X45.80903 Y-9.91763
G01 X45.87428 Y-9.89632
G01 X45.93196 Y-9.88487
G01 X46.00052 Y-9.87956
G01 X51.53571 Y-9.88202
G01 X51.58255 Y-9.88573
G01 X51.68778 Y-9.91606
G01 X51.73127 Y-9.93407
G01 X51.77140 Y-9.95865
G01 X51.85783 Y-10.02601
G01 X54.95623 Y-13.12441
G01 X55.01841 Y-13.20018
G01 X55.05204 Y-13.25999
G01 X55.07454 Y-13.31432
G01 X55.09306 Y-13.38042
G01 X55.10268 Y-13.47798
G01 X55.10268 Y-31.21249
G01 X55.09306 Y-31.31002
G01 X55.07454 Y-31.37609
G01 X55.05204 Y-31.43042
G01 X55.01841 Y-31.49026
G01 X54.95623 Y-31.56603
G01 X48.57321 Y-37.94699
G01 X48.51926 Y-37.98941
G01 X48.45942 Y-38.02304
G01 X48.36757 Y-38.05692
G01 X48.33902 Y-38.06406
G01 X48.27087 Y-38.07224
G01 X47.22327 Y-38.07369
G01 X45.73999 Y-39.55697
G01 X45.73996 Y-39.96792
G01 X45.87890 Y-40.04379
G01 X46.03135 Y-40.16705
G01 X46.07293 Y-40.20863
G01 X46.19617 Y-40.36108
G01 X46.28985 Y-40.53329
G01 X46.31238 Y-40.58763
G01 X46.36074 Y-40.74709
G01 X46.37222 Y-40.80474
G01 X46.38855 Y-40.97058
G01 X46.38855 Y-41.02938
G01 X46.37222 Y-41.19522
G01 X46.36074 Y-41.25290
G01 X46.31238 Y-41.41236
G01 X46.28985 Y-41.46669
G01 X46.19617 Y-41.63888
G01 X46.07293 Y-41.79136
G01 X46.03135 Y-41.83294
G01 X45.90255 Y-41.93865
G01 X45.85363 Y-41.97132
G01 X45.70669 Y-42.04985
G01 X45.65236 Y-42.07236
G01 X45.46435 Y-42.12788
G01 X45.26940 Y-42.14853
G01 X45.21058 Y-42.14853
G01 X45.01563 Y-42.12788
G01 X44.82762 Y-42.07236
G01 X44.77329 Y-42.04985
G01 X44.60108 Y-41.95618
G01 X44.44863 Y-41.83294
G01 X44.40705 Y-41.79136
G01 X44.28381 Y-41.63888
G01 X44.19011 Y-41.46669
G01 X44.16760 Y-41.41236
G01 X44.11208 Y-41.22435
G01 X44.09143 Y-41.02938
G01 X44.09143 Y-40.97058
G01 X44.10776 Y-40.80474
G01 X44.11924 Y-40.74709
G01 X44.16760 Y-40.58763
G01 X44.19011 Y-40.53329
G01 X44.28381 Y-40.36108
G01 X44.40705 Y-40.20863
G01 X44.44863 Y-40.16705
G01 X44.60108 Y-40.04379
G01 X44.73997 Y-39.96792
G01 X44.73997 Y-39.34986
G01 X44.74527 Y-39.28146
G01 X44.74959 Y-39.25232
G01 X44.76811 Y-39.18626
G01 X44.79061 Y-39.13193
G01 X44.82424 Y-39.07208
G01 X44.84177 Y-39.04844
G01 X44.88642 Y-38.99632
G01 X46.66262 Y-37.22012
G01 X46.73839 Y-37.15794
G01 X46.79823 Y-37.12431
G01 X46.85256 Y-37.10181
G01 X46.91863 Y-37.08329
G01 X46.98677 Y-37.07511
G01 X48.03437 Y-37.07366
G01 X54.10266 Y-31.00537
G01 X54.10266 Y-13.68506
G01 X51.29713 Y-10.87956
G01 X46.20748 Y-10.87956
G01 X43.42343 Y-13.66363
G01 X43.45170 Y-13.75682
G01 X43.46316 Y-13.81450
G01 X43.47855 Y-13.97058
G01 X43.47855 Y-14.02939
G01 X43.46316 Y-14.18547
G01 X43.45170 Y-14.24315
G01 X43.39626 Y-14.42095
G01 X43.30974 Y-14.58587
G01 X43.27708 Y-14.63477
G01 X43.17759 Y-14.75600
G01 X43.13598 Y-14.79758
G01 X43.01477 Y-14.89707
G01 X42.96585 Y-14.92974
G01 X42.82755 Y-15.00368
G01 X42.77322 Y-15.02618
G01 X42.62316 Y-15.07170
G01 X42.56547 Y-15.08318
G01 X42.40939 Y-15.09855
G01 X42.35059 Y-15.09855
G01 X42.19451 Y-15.08318
G01 X42.13682 Y-15.07170
G01 X41.98676 Y-15.02618
G01 X41.93243 Y-15.00368
G01 X41.79410 Y-14.92974
G01 X41.74520 Y-14.89707
G01 X41.60218 Y-14.77780
G01 X41.48290 Y-14.63477
G01 X41.45023 Y-14.58587
G01 X41.37630 Y-14.44755
G01 X41.35379 Y-14.39321
G01 X41.30827 Y-14.24315
G01 X41.29679 Y-14.18547
G01 X41.28143 Y-14.02939
G04 P0 ( dwell for no time -- G64 should not smooth over this point )
G00 Z5.00000 ( retract )

G00 X26.04143 Y-29.26939 ( rapid move to begin. )
G01 F30.00000
( Mill infeed pass 1/2 )
G01 Z-0.07500
G04 P0 ( dwell for no time -- G64 should not smooth over this point )
G01 F60.00000
G01 X26.04143 Y-29.26939
G01 X26.04143 Y-29.21058
G01 X26.06109 Y-29.02539
G01 X26.11379 Y-28.84675
G01 X26.13630 Y-28.79242
G01 X26.21021 Y-28.65412
G01 X26.24290 Y-28.60520
G01 X26.36218 Y-28.46217
G01 X26.50520 Y-28.34292
G01 X26.55410 Y-28.31023
G01 X26.71905 Y-28.22372
G01 X26.89682 Y-28.16827
G01 X26.95451 Y-28.15681
G01 X27.11059 Y-28.14142
G01 X27.16939 Y-28.14142
G01 X27.35458 Y-28.16113
G01 X27.53322 Y-28.21381
G01 X27.58755 Y-28.23632
G01 X27.72585 Y-28.31023
G01 X27.77477 Y-28.34292
G01 X27.91780 Y-28.46217
G01 X28.03708 Y-28.60520
G01 X28.06974 Y-28.65412
G01 X28.15626 Y-28.81904
G01 X28.21170 Y-28.99682
G01 X28.22316 Y-29.05450
G01 X28.23855 Y-29.21058
G01 X28.23855 Y-29.26939
G01 X28.21884 Y-29.45458
G01 X28.16616 Y-29.63321
G01 X28.14366 Y-29.68755
G01 X28.06974 Y-29.82587
G01 X28.03708 Y-29.87477
G01 X27.91780 Y-30.01780
G01 X27.77477 Y-30.13707
G01 X27.72585 Y-30.16974
G01 X27.58755 Y-30.24368
G01 X27.53322 Y-30.26618
G01 X27.35458 Y-30.31886
G01 X27.16939 Y-30.33855
G01 X27.11059 Y-30.33855
G01 X26.92540 Y-30.31886
G01 X26.74676 Y-30.26618
G01 X26.69243 Y-30.24368
G01 X26.55410 Y-30.16974
G01 X26.50520 Y-30.13707
G01 X26.36218 Y-30.01780
G01 X26.24290 Y-29.87477
G01 X26.21021 Y-29.82587
G01 X26.13630 Y-29.68755
G01 X26.11379 Y-29.63321
G01 X26.06109 Y-29.45458
G01 X26.04143 Y-29.26939
( Mill infeed pass 2/2 )
G01 Z-0.15000
G04 P0 ( dwell for no time -- G64 should not smooth over this point )
G01 F60.00000
G01 X26.04143 Y-29.26939
G01 X26.04143 Y-29.21058
G01 X26.06109 Y-29.02539
G01 X26.11379 Y-28.84675
G01 X26.13630 Y-28.79242
G01 X26.21021 Y-28.65412
G01 X26.24290 Y-28.60520
G01 X26.36218 Y-28.46217
G01 X26.50520 Y-28.34292
G01 X26.55410 Y-28.31023
G01 X26.71905 Y-28.22372
G01 X26.89682 Y-28.16827
G01 X26.95451 Y-28.15681
G01 X27.11059 Y-28.14142
G01 X27.16939 Y-28.14142
G01 X27.35458 Y-28.16113
G01 X27.53322 Y-28.21381
G01 X27.58755 Y-28.23632
G01 X27.72585 Y-28.31023
G01 X27.77477 Y-28.34292
G01 X27.91780 Y-28.46217
G01 X28.03708 Y-28.60520
G01 X28.06974 Y-28.65412
G01 X28.15626 Y-28.81904
G01 X28.21170 Y-28.99682
G01 X28.22316 Y-29.05450
G01 X28.23855 Y-29.21058
G01 X28.23855 Y-29.26939
G01 X28.21884 Y-29.45458
G01 X28.16616 Y-29.63321
G01 X28.14366 Y-29.68755
G01 X28.06974 Y-29.82587
G01 X28.03708 Y-29.87477
G01 X27.91780 Y-30.01780
G01 X27.77477 Y-30.13707
G01 X27.72585 Y-30.16974
G01 X27.58755 Y-30.24368
G01 X27.53322 Y-30.26618
G01 X27.35458 Y-30.31886
G01 X27.16939 Y-30.33855
G01 X27.11059 Y-30.33855
G01 X26.92540 Y-30.31886
G01 X26.74676 Y-30.26618
G01 X26.69243 Y-30.24368
G01 X26.55410 Y-30.16974
G01 X26.50520 Y-30.13707
G01 X26.36218 Y-30.01780
G01 X26.24290 Y-29.87477
G01 X26.21021 Y-29.82587
G01 X26.13630 Y-29.68755
G01 X26.11379 Y-29.63321
G01 X26.06109 Y-29.45458
G01 X26.04143 Y-29.26939
G04 P0 ( dwell for no time -- G64 should not smooth over this point )
G00 Z5.00000 ( retract )

G00 X28.58143 Y-29.26939 ( rapid move to begin. )
G01 F30.00000
( Mill infeed pass 1/2 )
G01 Z-0.07500
G04 P0 ( dwell for no time -- G64 should not smooth over this point )
G01 F60.00000
G01 X28.58143 Y-29.26939
G01 X28.58143 Y-29.21058
G01 X28.60111 Y-29.02539
G01 X28.65379 Y-28.84675
G01 X28.67630 Y-28.79242
G01 X28.75023 Y-28.65412
G01 X28.78290 Y-28.60520
G01 X28.90218 Y-28.46217
G01 X29.04520 Y-28.34292
G01 X29.09410 Y-28.31023
G01 X29.25905 Y-28.22372
G01 X29.43682 Y-28.16827
G01 X29.49451 Y-28.15681
G01 X29.65059 Y-28.14142
G01 X29.70939 Y-28.14142
G01 X29.89458 Y-28.16113
G01 X30.07322 Y-28.21381
G01 X30.12755 Y-28.23632
G01 X30.26585 Y-28.31023
G01 X30.31477 Y-28.34292
G01 X30.45780 Y-28.46217
G01 X30.57708 Y-28.60520
G01 X30.60974 Y-28.65412
G01 X30.69626 Y-28.81904
G01 X30.75170 Y-28.99682
G01 X30.76316 Y-29.05450
G01 X30.77855 Y-29.21058
G01 X30.77855 Y-29.26939
G01 X30.75884 Y-29.45458
G01 X30.70616 Y-29.63321
G01 X30.68366 Y-29.68755
G01 X30.60974 Y-29.82587
G01 X30.57708 Y-29.87477
G01 X30.45780 Y-30.01780
G01 X30.31477 Y-30.13707
G01 X30.26585 Y-30.16974
G01 X30.12755 Y-30.24368
G01 X30.07322 Y-30.26618
G01 X29.89458 Y-30.31886
G01 X29.70939 Y-30.33855
G01 X29.65059 Y-30.33855
G01 X29.46540 Y-30.31886
G01 X29.28676 Y-30.26618
G01 X29.23243 Y-30.24368
G01 X29.09410 Y-30.16974
G01 X29.04520 Y-30.13707
G01 X28.90218 Y-30.01780
G01 X28.78290 Y-29.87477
G01 X28.75023 Y-29.82587
G01 X28.67630 Y-29.68755
G01 X28.65379 Y-29.63321
G01 X28.60111 Y-29.45458
G01 X28.58143 Y-29.26939
( Mill infeed pass 2/2 )
G01 Z-0.15000
G04 P0 ( dwell for no time -- G64 should not smooth over this point )
G01 F60.00000
G01 X28.58143 Y-29.26939
G01 X28.58143 Y-29.21058
G01 X28.60111 Y-29.02539
G01 X28.65379 Y-28.84675
G01 X28.67630 Y-28.79242
G01 X28.75023 Y-28.65412
G01 X28.78290 Y-28.60520
G01 X28.90218 Y-28.46217
G01 X29.04520 Y-28.34292
G01 X29.09410 Y-28.31023
G01 X29.25905 Y-28.22372
G01 X29.43682 Y-28.16827
G01 X29.49451 Y-28.15681
G01 X29.65059 Y-28.14142
G01 X29.70939 Y-28.14142
G01 X29.89458 Y-28.16113
G01 X30.07322 Y-28.21381
G01 X30.12755 Y-28.23632
G01 X30.26585 Y-28.31023
G01 X30.31477 Y-28.34292
G01 X30.45780 Y-28.46217
G01 X30.57708 Y-28.60520
G01 X30.60974 Y-28.65412
G01 X30.69626 Y-28.81904
G01 X30.75170 Y-28.99682
G01 X30.76316 Y-29.05450
G01 X30.77855 Y-29.21058
G01 X30.77855 Y-29.26939
G01 X30.75884 Y-29.45458
G01 X30.70616 Y-29.63321
G01 X30.68366 Y-29.68755
G01 X30.60974 Y-29.82587
G01 X30.57708 Y-29.87477
G01 X30.45780 Y-30.01780
G01 X30.31477 Y-30.13707
G01 X30.26585 Y-30.16974
G01 X30.12755 Y-30.24368
G01 X30.07322 Y-30.26618
G01 X29.89458 Y-30.31886
G01 X29.70939 Y-30.33855
G01 X29.65059 Y-30.33855
G01 X29.46540 Y-30.31886
G01 X29.28676 Y-30.26618
G01 X29.23243 Y-30.24368
G01 X29.09410 Y-30.16974
G01 X29.04520 Y-30.13707
G01 X28.90218 Y-30.01780
G01 X28.78290 Y-29.87477
G01 X28.75023 Y-29.82587
G01 X28.67630 Y-29.68755
G01 X28.65379 Y-29.63321
G01 X28.60111 Y-29.45458
G01 X28.58143 Y-29.26939
G04 P0 ( dwell for no time -- G64 should not smooth over this point )
G00 Z5.00000 ( retract )

G00 X31.12143 Y-29.26939 ( rapid move to begin. )
G01 F30.00000
( Mill infeed pass 1/2 )
G01 Z-0.07500
G04 P0 ( dwell for no time -- G64 should not smooth over this point )
G01 F60.00000
G01 X31.12143 Y-29.26939
G01 X31.12143 Y-29.21058
G01 X31.14111 Y-29.02539
G01 X31.19379 Y-28.84675
G01 X31.21630 Y-28.79242
G01 X31.29023 Y-28.65412
G01 X31.32290 Y-28.60520
G01 X31.44218 Y-28.46217
G01 X31.58520 Y-28.34292
G01 X31.63410 Y-28.31023
G01 X31.79905 Y-28.22372
G01 X31.97682 Y-28.16827
G01 X32.03451 Y-28.15681
G01 X32.19059 Y-28.14142
G01 X32.24939 Y-28.14142
G01 X32.43458 Y-28.16113
G01 X32.61322 Y-28.21381
G01 X32.66755 Y-28.23632
G01 X32.80585 Y-28.31023
G01 X32.85477 Y-28.34292
G01 X32.99780 Y-28.46217
G01 X33.11708 Y-28.60520
G01 X33.14974 Y-28.65412
G01 X33.23626 Y-28.81904
G01 X33.29170 Y-28.99682
G01 X33.30316 Y-29.05450
G01 X33.31855 Y-29.21058
G01 X33.31855 Y-29.26939
G01 X33.29884 Y-29.45458
G01 X33.24616 Y-29.63321
G01 X33.22366 Y-29.68755
G01 X33.14974 Y-29.82587
G01 X33.11708 Y-29.87477
G01 X32.99780 Y-30.01780
G01 X32.85477 Y-30.13707
G01 X32.80585 Y-30.16974
G01 X32.66755 Y-30.24368
G01 X32.61322 Y-30.26618
G01 X32.43458 Y-30.31886
G01 X32.24939 Y-30.33855
G01 X32.19059 Y-30.33855
G01 X32.00540 Y-30.31886
G01 X31.82676 Y-30.26618
G01 X31.77243 Y-30.24368
G01 X31.63410 Y-30.16974
G01 X31.58520 Y-30.13707
G01 X31.44218 Y-30.01780
G01 X31.32290 Y-29.87477
G01 X31.29023 Y-29.82587
G01 X31.21630 Y-29.68755
G01 X31.19379 Y-29.63321
G01 X31.14111 Y-29.45458
G01 X31.12143 Y-29.26939
( Mill infeed pass 2/2 )
G01 Z-0.15000
G04 P0 ( dwell for no time -- G64 should not smooth over this point )
G01 F60.00000
G01 X31.12143 Y-29.26939
G01 X31.12143 Y-29.21058
G01 X31.14111 Y-29.02539
G01 X31.19379 Y-28.84675
G01 X31.21630 Y-28.79242
G01 X31.29023 Y-28.65412
G01 X31.32290 Y-28.60520
G01 X31.44218 Y-28.46217
G01 X31.58520 Y-28.34292
G01 X31.63410 Y-28.31023
G01 X31.79905 Y-28.22372
G01 X31.97682 Y-28.16827
G01 X32.03451 Y-28.15681
G01 X32.19059 Y-28.14142
G01 X32.24939 Y-28.14142
G01 X32.43458 Y-28.16113
G01 X32.61322 Y-28.21381
G01 X32.66755 Y-28.23632
G01 X32.80585 Y-28.31023
G01 X32.85477 Y-28.34292
G01 X32.99780 Y-28.46217
G01 X33.11708 Y-28.60520
G01 X33.14974 Y-28.65412
G01 X33.23626 Y-28.81904
G01 X33.29170 Y-28.99682
G01 X33.30316 Y-29.05450
G01 X33.31855 Y-29.21058
G01 X33.31855 Y-29.26939
G01 X33.29884 Y-29.45458
G01 X33.24616 Y-29.63321
G01 X33.22366 Y-29.68755
G01 X33.14974 Y-29.82587
G01 X33.11708 Y-29.87477
G01 X32.99780 Y-30.01780
G01 X32.85477 Y-30.13707
G01 X32.80585 Y-30.16974
G01 X32.66755 Y-30.24368
G01 X32.61322 Y-30.26618
G01 X32.43458 Y-30.31886
G01 X32.24939 Y-30.33855
G01 X32.19059 Y-30.33855
G01 X32.00540 Y-30.31886
G01 X31.82676 Y-30.26618
G01 X31.77243 Y-30.24368
G01 X31.63410 Y-30.16974
G01 X31.58520 Y-30.13707
G01 X31.44218 Y-30.01780
G01 X31.32290 Y-29.87477
G01 X31.29023 Y-29.82587
G01 X31.21630 Y-29.68755
G01 X31.19379 Y-29.63321
G01 X31.14111 Y-29.45458
G01 X31.12143 Y-29.26939
G04 P0 ( dwell for no time -- G64 should not smooth over this point )
G00 Z5.00000 ( retract )

G00 X33.66143 Y-29.26939 ( rapid move to begin. )
G01 F30.00000
( Mill infeed pass 1/2 )
G01 Z-0.07500
G04 P0 ( dwell for no time -- G64 should not smooth over this point )
G01 F60.00000
G01 X33.66143 Y-29.26939
G01 X33.66143 Y-29.21058
G01 X33.68111 Y-29.02539
G01 X33.73379 Y-28.84675
G01 X33.75630 Y-28.79242
G01 X33.83023 Y-28.65412
G01 X33.86290 Y-28.60520
G01 X33.98218 Y-28.46217
G01 X34.12520 Y-28.34292
G01 X34.17410 Y-28.31023
G01 X34.33905 Y-28.22372
G01 X34.51682 Y-28.16827
G01 X34.57451 Y-28.15681
G01 X34.73059 Y-28.14142
G01 X34.78939 Y-28.14142
G01 X34.97458 Y-28.16113
G01 X35.15322 Y-28.21381
G01 X35.20755 Y-28.23632
G01 X35.34585 Y-28.31023
G01 X35.39477 Y-28.34292
G01 X35.53780 Y-28.46217
G01 X35.65708 Y-28.60520
G01 X35.68974 Y-28.65412
G01 X35.77626 Y-28.81904
G01 X35.83170 Y-28.99682
G01 X35.84316 Y-29.05450
G01 X35.85855 Y-29.21058
G01 X35.85855 Y-29.26939
G01 X35.83884 Y-29.45458
G01 X35.78616 Y-29.63321
G01 X35.76366 Y-29.68755
G01 X35.68974 Y-29.82587
G01 X35.65708 Y-29.87477
G01 X35.53780 Y-30.01780
G01 X35.39477 Y-30.13707
G01 X35.34585 Y-30.16974
G01 X35.20755 Y-30.24368
G01 X35.15322 Y-30.26618
G01 X34.97458 Y-30.31886
G01 X34.78939 Y-30.33855
G01 X34.73059 Y-30.33855
G01 X34.54540 Y-30.31886
G01 X34.36676 Y-30.26618
G01 X34.31243 Y-30.24368
G01 X34.17410 Y-30.16974
G01 X34.12520 Y-30.13707
G01 X33.98218 Y-30.01780
G01 X33.86290 Y-29.87477
G01 X33.83023 Y-29.82587
G01 X33.75630 Y-29.68755
G01 X33.73379 Y-29.63321
G01 X33.68111 Y-29.45458
G01 X33.66143 Y-29.26939
( Mill infeed pass 2/2 )
G01 Z-0.15000
G04 P0 ( dwell for no time -- G64 should not smooth over this point )
G01 F60.00000
G01 X33.66143 Y-29.26939
G01 X33.66143 Y-29.21058
G01 X33.68111 Y-29.02539
G01 X33.73379 Y-28.84675
G01 X33.75630 Y-28.79242
G01 X33.83023 Y-28.65412
G01 X33.86290 Y-28.60520
G01 X33.98218 Y-28.46217
G01 X34.12520 Y-28.34292
G01 X34.17410 Y-28.31023
G01 X34.33905 Y-28.22372
G01 X34.51682 Y-28.16827
G01 X34.57451 Y-28.15681
G01 X34.73059 Y-28.14142
G01 X34.78939 Y-28.14142
G01 X34.97458 Y-28.16113
G01 X35.15322 Y-28.21381
G01 X35.20755 Y-28.23632
G01 X35.34585 Y-28.31023
G01 X35.39477 Y-28.34292
G01 X35.53780 Y-28.46217
G01 X35.65708 Y-28.60520
G01 X35.68974 Y-28.65412
G01 X35.77626 Y-28.81904
G01 X35.83170 Y-28.99682
G01 X35.84316 Y-29.05450
G01 X35.85855 Y-29.21058
G01 X35.85855 Y-29.26939
G01 X35.83884 Y-29.45458
G01 X35.78616 Y-29.63321
G01 X35.76366 Y-29.68755
G01 X35.68974 Y-29.82587
G01 X35.65708 Y-29.87477
G01 X35.53780 Y-30.01780
G01 X35.39477 Y-30.13707
G01 X35.34585 Y-30.16974
G01 X35.20755 Y-30.24368
G01 X35.15322 Y-30.26618
G01 X34.97458 Y-30.31886
G01 X34.78939 Y-30.33855
G01 X34.73059 Y-30.33855
G01 X34.54540 Y-30.31886
G01 X34.36676 Y-30.26618
G01 X34.31243 Y-30.24368
G01 X34.17410 Y-30.16974
G01 X34.12520 Y-30.13707
G01 X33.98218 Y-30.01780
G01 X33.86290 Y-29.87477
G01 X33.83023 Y-29.82587
G01 X33.75630 Y-29.68755
G01 X33.73379 Y-29.63321
G01 X33.68111 Y-29.45458
G01 X33.66143 Y-29.26939
G04 P0 ( dwell for no time -- G64 should not smooth over this point )
G00 Z5.00000 ( retract )

G00 X36.20143 Y-29.26939 ( rapid move to begin. )
G01 F30.00000
( Mill infeed pass 1/2 )
G01 Z-0.07500
G04 P0 ( dwell for no time -- G64 should not smooth over this point )
G01 F60.00000
G01 X36.20143 Y-29.26939
G01 X36.20143 Y-29.21058
G01 X36.22111 Y-29.02539
G01 X36.27379 Y-28.84675
G01 X36.29630 Y-28.79242
G01 X36.37023 Y-28.65412
G01 X36.40290 Y-28.60520
G01 X36.52218 Y-28.46217
G01 X36.66520 Y-28.34292
G01 X36.71410 Y-28.31023
G01 X36.87905 Y-28.22372
G01 X37.05682 Y-28.16827
G01 X37.11451 Y-28.15681
G01 X37.27059 Y-28.14142
G01 X37.32939 Y-28.14142
G01 X37.51458 Y-28.16113
G01 X37.69322 Y-28.21381
G01 X37.74755 Y-28.23632
G01 X37.88585 Y-28.31023
G01 X37.93477 Y-28.34292
G01 X38.07780 Y-28.46217
G01 X38.19708 Y-28.60520
G01 X38.22974 Y-28.65412
G01 X38.31626 Y-28.81904
G01 X38.37170 Y-28.99682
G01 X38.38316 Y-29.05450
G01 X38.39855 Y-29.21058
G01 X38.39855 Y-29.26939
G01 X38.37884 Y-29.45458
G01 X38.32616 Y-29.63321
G01 X38.30366 Y-29.68755
G01 X38.22974 Y-29.82587
G01 X38.19708 Y-29.87477
G01 X38.07780 Y-30.01780
G01 X37.93477 Y-30.13707
G01 X37.88585 Y-30.16974
G01 X37.74755 Y-30.24368
G01 X37.69322 Y-30.26618
G01 X37.51458 Y-30.31886
G01 X37.32939 Y-30.33855
G01 X37.27059 Y-30.33855
G01 X37.08540 Y-30.31886
G01 X36.90676 Y-30.26618
G01 X36.85243 Y-30.24368
G01 X36.71410 Y-30.16974
G01 X36.66520 Y-30.13707
G01 X36.52218 Y-30.01780
G01 X36.40290 Y-29.87477
G01 X36.37023 Y-29.82587
G01 X36.29630 Y-29.68755
G01 X36.27379 Y-29.63321
G01 X36.22111 Y-29.45458
G01 X36.20143 Y-29.26939
( Mill infeed pass 2/2 )
G01 Z-0.15000
G04 P0 ( dwell for no time -- G64 should not smooth over this point )
G01 F60.00000
G01 X36.20143 Y-29.26939
G01 X36.20143 Y-29.21058
G01 X36.22111 Y-29.02539
G01 X36.27379 Y-28.84675
G01 X36.29630 Y-28.79242
G01 X36.37023 Y-28.65412
G01 X36.40290 Y-28.60520
G01 X36.52218 Y-28.46217
G01 X36.66520 Y-28.34292
G01 X36.71410 Y-28.31023
G01 X36.87905 Y-28.22372
G01 X37.05682 Y-28.16827
G01 X37.11451 Y-28.15681
G01 X37.27059 Y-28.14142
G01 X37.32939 Y-28.14142
G01 X37.51458 Y-28.16113
G01 X37.69322 Y-28.21381
G01 X37.74755 Y-28.23632
G01 X37.88585 Y-28.31023
G01 X37.93477 Y-28.34292
G01 X38.07780 Y-28.46217
G01 X38.19708 Y-28.60520
G01 X38.22974 Y-28.65412
G01 X38.31626 Y-28.81904
G01 X38.37170 Y-28.99682
G01 X38.38316 Y-29.05450
G01 X38.39855 Y-29.21058
G01 X38.39855 Y-29.26939
G01 X38.37884 Y-29.45458
G01 X38.32616 Y-29.63321
G01 X38.30366 Y-29.68755
G01 X38.22974 Y-29.82587
G01 X38.19708 Y-29.87477
G01 X38.07780 Y-30.01780
G01 X37.93477 Y-30.13707
G01 X37.88585 Y-30.16974
G01 X37.74755 Y-30.24368
G01 X37.69322 Y-30.26618
G01 X37.51458 Y-30.31886
G01 X37.32939 Y-30.33855
G01 X37.27059 Y-30.33855
G01 X37.08540 Y-30.31886
G01 X36.90676 Y-30.26618
G01 X36.85243 Y-30.24368
G01 X36.71410 Y-30.16974
G01 X36.66520 Y-30.13707
G01 X36.52218 Y-30.01780
G01 X36.40290 Y-29.87477
G01 X36.37023 Y-29.82587
G01 X36.29630 Y-29.68755
G01 X36.27379 Y-29.63321
G01 X36.22111 Y-29.45458
G01 X36.20143 Y-29.26939
G04 P0 ( dwell for no time -- G64 should not smooth over this point )
G00 Z5.00000 ( retract )

G00 X38.74143 Y-29.26939 ( rapid move to begin. )
G01 F30.00000
( Mill infeed pass 1/2 )
G01 Z-0.07500
G04 P0 ( dwell for no time -- G64 should not smooth over this point )
G01 F60.00000
G01 X38.74143 Y-29.26939
G01 X38.74143 Y-29.21058
G01 X38.76111 Y-29.02539
G01 X38.81379 Y-28.84675
G01 X38.83630 Y-28.79242
G01 X38.91023 Y-28.65412
G01 X38.94290 Y-28.60520
G01 X39.06218 Y-28.46217
G01 X39.20520 Y-28.34292
G01 X39.25410 Y-28.31023
G01 X39.41905 Y-28.22372
G01 X39.59682 Y-28.16827
G01 X39.65451 Y-28.15681
G01 X39.81059 Y-28.14142
G01 X39.86939 Y-28.14142
G01 X40.05458 Y-28.16113
G01 X40.23322 Y-28.21381
G01 X40.28755 Y-28.23632
G01 X40.42585 Y-28.31023
G01 X40.47477 Y-28.34292
G01 X40.61780 Y-28.46217
G01 X40.73708 Y-28.60520
G01 X40.76974 Y-28.65412
G01 X40.85626 Y-28.81904
G01 X40.91170 Y-28.99682
G01 X40.92316 Y-29.05450
G01 X40.93855 Y-29.21058
G01 X40.93855 Y-29.26939
G01 X40.91884 Y-29.45458
G01 X40.86616 Y-29.63321
G01 X40.84366 Y-29.68755
G01 X40.76974 Y-29.82587
G01 X40.73708 Y-29.87477
G01 X40.61780 Y-30.01780
G01 X40.47477 Y-30.13707
G01 X40.42585 Y-30.16974
G01 X40.28755 Y-30.24368
G01 X40.23322 Y-30.26618
G01 X40.05458 Y-30.31886
G01 X39.86939 Y-30.33855
G01 X39.81059 Y-30.33855
G01 X39.62540 Y-30.31886
G01 X39.44676 Y-30.26618
G01 X39.39243 Y-30.24368
G01 X39.25410 Y-30.16974
G01 X39.20520 Y-30.13707
G01 X39.06218 Y-30.01780
G01 X38.94290 Y-29.87477
G01 X38.91023 Y-29.82587
G01 X38.83630 Y-29.68755
G01 X38.81379 Y-29.63321
G01 X38.76111 Y-29.45458
G01 X38.74143 Y-29.26939
( Mill infeed pass 2/2 )
G01 Z-0.15000
G04 P0 ( dwell for no time -- G64 should not smooth over this point )
G01 F60.00000
G01 X38.74143 Y-29.26939
G01 X38.74143 Y-29.21058
G01 X38.76111 Y-29.02539
G01 X38.81379 Y-28.84675
G01 X38.83630 Y-28.79242
G01 X38.91023 Y-28.65412
G01 X38.94290 Y-28.60520
G01 X39.06218 Y-28.46217
G01 X39.20520 Y-28.34292
G01 X39.25410 Y-28.31023
G01 X39.41905 Y-28.22372
G01 X39.59682 Y-28.16827
G01 X39.65451 Y-28.15681
G01 X39.81059 Y-28.14142
G01 X39.86939 Y-28.14142
G01 X40.05458 Y-28.16113
G01 X40.23322 Y-28.21381
G01 X40.28755 Y-28.23632
G01 X40.42585 Y-28.31023
G01 X40.47477 Y-28.34292
G01 X40.61780 Y-28.46217
G01 X40.73708 Y-28.60520
G01 X40.76974 Y-28.65412
G01 X40.85626 Y-28.81904
G01 X40.91170 Y-28.99682
G01 X40.92316 Y-29.05450
G01 X40.93855 Y-29.21058
G01 X40.93855 Y-29.26939
G01 X40.91884 Y-29.45458
G01 X40.86616 Y-29.63321
G01 X40.84366 Y-29.68755
G01 X40.76974 Y-29.82587
G01 X40.73708 Y-29.87477
G01 X40.61780 Y-30.01780
G01 X40.47477 Y-30.13707
G01 X40.42585 Y-30.16974
G01 X40.28755 Y-30.24368
G01 X40.23322 Y-30.26618
G01 X40.05458 Y-30.31886
G01 X39.86939 Y-30.33855
G01 X39.81059 Y-30.33855
G01 X39.62540 Y-30.31886
G01 X39.44676 Y-30.26618
G01 X39.39243 Y-30.24368
G01 X39.25410 Y-30.16974
G01 X39.20520 Y-30.13707
G01 X39.06218 Y-30.01780
G01 X38.94290 Y-29.87477
G01 X38.91023 Y-29.82587
G01 X38.83630 Y-29.68755
G01 X38.81379 Y-29.63321
G01 X38.76111 Y-29.45458
G01 X38.74143 Y-29.26939
G04 P0 ( dwell for no time -- G64 should not smooth over this point )
G00 Z5.00000 ( retract )

G00 X48.90143 Y-29.26939 ( rapid move to begin. )
G01 F30.00000
( Mill infeed pass 1/2 )
G01 Z-0.07500
G04 P0 ( dwell for no time -- G64 should not smooth over this point )
G01 F60.00000
G01 X48.90143 Y-29.26939
G01 X48.90143 Y-29.21058
G01 X48.91679 Y-29.05450
G01 X48.92827 Y-28.99682
G01 X48.97379 Y-28.84675
G01 X48.99630 Y-28.79242
G01 X49.07023 Y-28.65412
G01 X49.10290 Y-28.60520
G01 X49.22218 Y-28.46217
G01 X49.36520 Y-28.34292
G01 X49.41410 Y-28.31023
G01 X49.49995 Y-28.26436
G01 X49.49995 Y-19.43750
G01 X49.47856 Y-19.38551
G01 X49.45012 Y-19.29171
G01 X49.43864 Y-19.23405
G01 X49.42903 Y-19.13649
G01 X49.42903 Y-19.07769
G01 X49.43864 Y-18.98012
G01 X49.45012 Y-18.92247
G01 X49.48847 Y-18.80095
G01 X49.54727 Y-18.68787
G01 X49.57996 Y-18.63898
G01 X49.66190 Y-18.54139
G01 X49.78314 Y-18.44192
G01 X49.89482 Y-18.38058
G01 X49.94915 Y-18.35805
G01 X50.07150 Y-18.32247
G01 X50.19817 Y-18.30852
G01 X50.25700 Y-18.30852
G01 X50.35453 Y-18.31815
G01 X50.41222 Y-18.32961
G01 X50.50602 Y-18.35805
G01 X50.56035 Y-18.38058
G01 X50.67203 Y-18.44192
G01 X50.77145 Y-18.52163
G01 X50.81306 Y-18.56321
G01 X50.87523 Y-18.63898
G01 X50.90790 Y-18.68787
G01 X50.96667 Y-18.80095
G01 X51.01222 Y-18.95102
G01 X51.02614 Y-19.07769
G01 X51.02614 Y-19.13649
G01 X51.01222 Y-19.26316
G01 X50.97661 Y-19.38551
G01 X50.95408 Y-19.43984
G01 X50.90790 Y-19.52630
G01 X50.87523 Y-19.57520
G01 X50.79327 Y-19.67278
G01 X50.69568 Y-19.75472
G01 X50.64679 Y-19.78739
G01 X50.56035 Y-19.83362
G01 X50.49998 Y-19.85795
G01 X50.49998 Y-28.26433
G01 X50.58585 Y-28.31023
G01 X50.63477 Y-28.34292
G01 X50.77780 Y-28.46217
G01 X50.89708 Y-28.60520
G01 X50.92974 Y-28.65412
G01 X51.00363 Y-28.79242
G01 X51.02614 Y-28.84675
G01 X51.07170 Y-28.99682
G01 X51.08316 Y-29.05450
G01 X51.09853 Y-29.21058
G01 X51.09853 Y-29.26939
G01 X51.08316 Y-29.42547
G01 X51.07170 Y-29.48315
G01 X51.02614 Y-29.63321
G01 X51.00363 Y-29.68755
G01 X50.91460 Y-29.85112
G01 X50.77780 Y-30.01780
G01 X50.63477 Y-30.13707
G01 X50.58585 Y-30.16974
G01 X50.44755 Y-30.24368
G01 X50.39322 Y-30.26618
G01 X50.21458 Y-30.31886
G01 X50.02939 Y-30.33855
G01 X49.97059 Y-30.33855
G01 X49.78540 Y-30.31886
G01 X49.60676 Y-30.26618
G01 X49.55243 Y-30.24368
G01 X49.41410 Y-30.16974
G01 X49.36520 Y-30.13707
G01 X49.22218 Y-30.01780
G01 X49.10290 Y-29.87477
G01 X49.07023 Y-29.82587
G01 X48.99630 Y-29.68755
G01 X48.97379 Y-29.63321
G01 X48.92111 Y-29.45458
G01 X48.90143 Y-29.26939
( Mill infeed pass 2/2 )
G01 Z-0.15000
G04 P0 ( dwell for no time -- G64 should not smooth over this point )
G01 F60.00000
G01 X48.90143 Y-29.26939
G01 X48.90143 Y-29.21058
G01 X48.91679 Y-29.05450
G01 X48.92827 Y-28.99682
G01 X48.97379 Y-28.84675
G01 X48.99630 Y-28.79242
G01 X49.07023 Y-28.65412
G01 X49.10290 Y-28.60520
G01 X49.22218 Y-28.46217
G01 X49.36520 Y-28.34292
G01 X49.41410 Y-28.31023
G01 X49.49995 Y-28.26436
G01 X49.49995 Y-19.43750
G01 X49.47856 Y-19.38551
G01 X49.45012 Y-19.29171
G01 X49.43864 Y-19.23405
G01 X49.42903 Y-19.13649
G01 X49.42903 Y-19.07769
G01 X49.43864 Y-18.98012
G01 X49.45012 Y-18.92247
G01 X49.48847 Y-18.80095
G01 X49.54727 Y-18.68787
G01 X49.57996 Y-18.63898
G01 X49.66190 Y-18.54139
G01 X49.78314 Y-18.44192
G01 X49.89482 Y-18.38058
G01 X49.94915 Y-18.35805
G01 X50.07150 Y-18.32247
G01 X50.19817 Y-18.30852
G01 X50.25700 Y-18.30852
G01 X50.35453 Y-18.31815
G01 X50.41222 Y-18.32961
G01 X50.50602 Y-18.35805
G01 X50.56035 Y-18.38058
G01 X50.67203 Y-18.44192
G01 X50.77145 Y-18.52163
G01 X50.81306 Y-18.56321
G01 X50.87523 Y-18.63898
G01 X50.90790 Y-18.68787
G01 X50.96667 Y-18.80095
G01 X51.01222 Y-18.95102
G01 X51.02614 Y-19.07769
G01 X51.02614 Y-19.13649
G01 X51.01222 Y-19.26316
G01 X50.97661 Y-19.38551
G01 X50.95408 Y-19.43984
G01 X50.90790 Y-19.52630
G01 X50.87523 Y-19.57520
G01 X50.79327 Y-19.67278
G01 X50.69568 Y-19.75472
G01 X50.64679 Y-19.78739
G01 X50.56035 Y-19.83362
G01 X50.49998 Y-19.85795
G01 X50.49998 Y-28.26433
G01 X50.58585 Y-28.31023
G01 X50.63477 Y-28.34292
G01 X50.77780 Y-28.46217
G01 X50.89708 Y-28.60520
G01 X50.92974 Y-28.65412
G01 X51.00363 Y-28.79242
G01 X51.02614 Y-28.84675
G01 X51.07170 Y-28.99682
G01 X51.08316 Y-29.05450
G01 X51.09853 Y-29.21058
G01 X51.09853 Y-29.26939
G01 X51.08316 Y-29.42547
G01 X51.07170 Y-29.48315
G01 X51.02614 Y-29.63321
G01 X51.00363 Y-29.68755
G01 X50.91460 Y-29.85112
G01 X50.77780 Y-30.01780
G01 X50.63477 Y-30.13707
G01 X50.58585 Y-30.16974
G01 X50.44755 Y-30.24368
G01 X50.39322 Y-30.26618
G01 X50.21458 Y-30.31886
G01 X50.02939 Y-30.33855
G01 X49.97059 Y-30.33855
G01 X49.78540 Y-30.31886
G01 X49.60676 Y-30.26618
G01 X49.55243 Y-30.24368
G01 X49.41410 Y-30.16974
G01 X49.36520 Y-30.13707
G01 X49.22218 Y-30.01780
G01 X49.10290 Y-29.87477
G01 X49.07023 Y-29.82587
G01 X48.99630 Y-29.68755
G01 X48.97379 Y-29.63321
G01 X48.92111 Y-29.45458
G01 X48.90143 Y-29.26939
G04 P0 ( dwell for no time -- G64 should not smooth over this point )
G00 Z5.00000 ( retract )

G00 X39.01143 Y-41.02938 ( rapid move to begin. )
G01 F30.00000
( Mill infeed pass 1/2 )
G01 Z-0.07500
G04 P0 ( dwell for no time -- G64 should not smooth over this point )
G01 F60.00000
G01 X39.01143 Y-41.02938
G01 X39.01143 Y-40.97058
G01 X39.03208 Y-40.77564
G01 X39.08760 Y-40.58763
G01 X39.11011 Y-40.53329
G01 X39.20381 Y-40.36108
G01 X39.32705 Y-40.20863
G01 X39.36863 Y-40.16705
G01 X39.52108 Y-40.04379
G01 X39.69329 Y-39.95011
G01 X39.74762 Y-39.92761
G01 X39.93563 Y-39.87208
G01 X40.13058 Y-39.85143
G01 X40.18940 Y-39.85143
G01 X40.38435 Y-39.87208
G01 X40.53619 Y-39.91663
G01 X45.23293 Y-35.21992
G01 X45.30870 Y-35.15774
G01 X45.36854 Y-35.12411
G01 X45.42287 Y-35.10161
G01 X45.48894 Y-35.08309
G01 X45.58650 Y-35.07346
G01 X47.20598 Y-35.07346
G01 X52.10246 Y-30.17695
G01 X52.10246 Y-14.51348
G01 X50.46878 Y-12.87978
G01 X49.28728 Y-12.87978
G01 X48.50343 Y-13.66363
G01 X48.53170 Y-13.75682
G01 X48.54316 Y-13.81450
G01 X48.55855 Y-13.97058
G01 X48.55855 Y-14.02939
G01 X48.54316 Y-14.18547
G01 X48.53170 Y-14.24315
G01 X48.47626 Y-14.42095
G01 X48.38974 Y-14.58587
G01 X48.35708 Y-14.63477
G01 X48.23780 Y-14.77780
G01 X48.09477 Y-14.89707
G01 X48.04585 Y-14.92974
G01 X47.90755 Y-15.00368
G01 X47.85322 Y-15.02618
G01 X47.70316 Y-15.07170
G01 X47.64547 Y-15.08318
G01 X47.45998 Y-15.10000
G01 X47.27451 Y-15.08318
G01 X47.21682 Y-15.07170
G01 X47.06676 Y-15.02618
G01 X47.01243 Y-15.00368
G01 X46.87410 Y-14.92974
G01 X46.82520 Y-14.89707
G01 X46.68218 Y-14.77780
G01 X46.56290 Y-14.63477
G01 X46.53023 Y-14.58587
G01 X46.45630 Y-14.44755
G01 X46.43379 Y-14.39321
G01 X46.38827 Y-14.24315
G01 X46.37679 Y-14.18547
G01 X46.36143 Y-14.02939
G01 X46.36143 Y-13.97058
G01 X46.37679 Y-13.81450
G01 X46.38827 Y-13.75682
G01 X46.44372 Y-13.57904
G01 X46.53023 Y-13.41412
G01 X46.56290 Y-13.36520
G01 X46.66239 Y-13.24399
G01 X46.70400 Y-13.20239
G01 X46.82520 Y-13.10289
G01 X46.87410 Y-13.07023
G01 X47.03905 Y-12.98372
G01 X47.21682 Y-12.92824
G01 X47.27451 Y-12.91681
G01 X47.38708 Y-12.90569
G01 X47.45998 Y-12.90000
G01 X47.48939 Y-12.90142
G01 X47.64547 Y-12.91681
G01 X47.70316 Y-12.92824
G01 X47.79630 Y-12.95654
G01 X48.72662 Y-12.02621
G01 X48.77874 Y-11.98156
G01 X48.82764 Y-11.94890
G01 X48.88883 Y-11.91783
G01 X48.95408 Y-11.89652
G01 X49.01176 Y-11.88507
G01 X49.08019 Y-11.87976
G01 X50.67590 Y-11.87976
G01 X50.78461 Y-11.89325
G01 X50.85248 Y-11.91240
G01 X50.91326 Y-11.93983
G01 X50.94303 Y-11.95885
G01 X51.02944 Y-12.02621
G01 X52.95603 Y-13.95283
G01 X53.00068 Y-14.00495
G01 X53.05184 Y-14.08844
G01 X53.08572 Y-14.18029
G01 X53.09718 Y-14.23797
G01 X53.10248 Y-14.30640
G01 X53.10248 Y-30.38409
G01 X53.09283 Y-30.48163
G01 X53.07434 Y-30.54769
G01 X53.05184 Y-30.60202
G01 X53.01818 Y-30.66186
G01 X52.95603 Y-30.73763
G01 X47.76663 Y-35.92703
G01 X47.71451 Y-35.97168
G01 X47.69086 Y-35.98921
G01 X47.63102 Y-36.02284
G01 X47.57669 Y-36.04534
G01 X47.51062 Y-36.06386
G01 X47.44248 Y-36.07204
G01 X45.79358 Y-36.07349
G01 X41.24333 Y-40.62374
G01 X41.28788 Y-40.77564
G01 X41.30855 Y-40.97058
G01 X41.30855 Y-41.02938
G01 X41.28788 Y-41.22435
G01 X41.23238 Y-41.41236
G01 X41.20985 Y-41.46669
G01 X41.13131 Y-41.61363
G01 X41.09865 Y-41.66253
G01 X40.99293 Y-41.79136
G01 X40.95135 Y-41.83294
G01 X40.82255 Y-41.93865
G01 X40.77363 Y-41.97132
G01 X40.62669 Y-42.04985
G01 X40.57236 Y-42.07236
G01 X40.38435 Y-42.12788
G01 X40.18940 Y-42.14853
G01 X40.13058 Y-42.14853
G01 X39.93563 Y-42.12788
G01 X39.74762 Y-42.07236
G01 X39.69329 Y-42.04985
G01 X39.52108 Y-41.95618
G01 X39.36863 Y-41.83294
G01 X39.32705 Y-41.79136
G01 X39.20381 Y-41.63888
G01 X39.11011 Y-41.46669
G01 X39.08760 Y-41.41236
G01 X39.03208 Y-41.22435
G01 X39.01143 Y-41.02938
( Mill infeed pass 2/2 )
G01 Z-0.15000
G04 P0 ( dwell for no time -- G64 should not smooth over this point )
G01 F60.00000
G01 X39.01143 Y-41.02938
G01 X39.01143 Y-40.97058
G01 X39.03208 Y-40.77564
G01 X39.08760 Y-40.58763
G01 X39.11011 Y-40.53329
G01 X39.20381 Y-40.36108
G01 X39.32705 Y-40.20863
G01 X39.36863 Y-40.16705
G01 X39.52108 Y-40.04379
G01 X39.69329 Y-39.95011
G01 X39.74762 Y-39.92761
G01 X39.93563 Y-39.87208
G01 X40.13058 Y-39.85143
G01 X40.18940 Y-39.85143
G01 X40.38435 Y-39.87208
G01 X40.53619 Y-39.91663
G01 X45.23293 Y-35.21992
G01 X45.30870 Y-35.15774
G01 X45.36854 Y-35.12411
G01 X45.42287 Y-35.10161
G01 X45.48894 Y-35.08309
G01 X45.58650 Y-35.07346
G01 X47.20598 Y-35.07346
G01 X52.10246 Y-30.17695
G01 X52.10246 Y-14.51348
G01 X50.46878 Y-12.87978
G01 X49.28728 Y-12.87978
G01 X48.50343 Y-13.66363
G01 X48.53170 Y-13.75682
G01 X48.54316 Y-13.81450
G01 X48.55855 Y-13.97058
G01 X48.55855 Y-14.02939
G01 X48.54316 Y-14.18547
G01 X48.53170 Y-14.24315
G01 X48.47626 Y-14.42095
G01 X48.38974 Y-14.58587
G01 X48.35708 Y-14.63477
G01 X48.23780 Y-14.77780
G01 X48.09477 Y-14.89707
G01 X48.04585 Y-14.92974
G01 X47.90755 Y-15.00368
G01 X47.85322 Y-15.02618
G01 X47.70316 Y-15.07170
G01 X47.64547 Y-15.08318
G01 X47.45998 Y-15.10000
G01 X47.27451 Y-15.08318
G01 X47.21682 Y-15.07170
G01 X47.06676 Y-15.02618
G01 X47.01243 Y-15.00368
G01 X46.87410 Y-14.92974
G01 X46.82520 Y-14.89707
G01 X46.68218 Y-14.77780
G01 X46.56290 Y-14.63477
G01 X46.53023 Y-14.58587
G01 X46.45630 Y-14.44755
G01 X46.43379 Y-14.39321
G01 X46.38827 Y-14.24315
G01 X46.37679 Y-14.18547
G01 X46.36143 Y-14.02939
G01 X46.36143 Y-13.97058
G01 X46.37679 Y-13.81450
G01 X46.38827 Y-13.75682
G01 X46.44372 Y-13.57904
G01 X46.53023 Y-13.41412
G01 X46.56290 Y-13.36520
G01 X46.66239 Y-13.24399
G01 X46.70400 Y-13.20239
G01 X46.82520 Y-13.10289
G01 X46.87410 Y-13.07023
G01 X47.03905 Y-12.98372
G01 X47.21682 Y-12.92824
G01 X47.27451 Y-12.91681
G01 X47.38708 Y-12.90569
G01 X47.45998 Y-12.90000
G01 X47.48939 Y-12.90142
G01 X47.64547 Y-12.91681
G01 X47.70316 Y-12.92824
G01 X47.79630 Y-12.95654
G01 X48.72662 Y-12.02621
G01 X48.77874 Y-11.98156
G01 X48.82764 Y-11.94890
G01 X48.88883 Y-11.91783
G01 X48.95408 Y-11.89652
G01 X49.01176 Y-11.88507
G01 X49.08019 Y-11.87976
G01 X50.67590 Y-11.87976
G01 X50.78461 Y-11.89325
G01 X50.85248 Y-11.91240
G01 X50.91326 Y-11.93983
G01 X50.94303 Y-11.95885
G01 X51.02944 Y-12.02621
G01 X52.95603 Y-13.95283
G01 X53.00068 Y-14.00495
G01 X53.05184 Y-14.08844
G01 X53.08572 Y-14.18029
G01 X53.09718 Y-14.23797
G01 X53.10248 Y-14.30640
G01 X53.10248 Y-30.38409
G01 X53.09283 Y-30.48163
G01 X53.07434 Y-30.54769
G01 X53.05184 Y-30.60202
G01 X53.01818 Y-30.66186
G01 X52.95603 Y-30.73763
G01 X47.76663 Y-35.92703
G01 X47.71451 Y-35.97168
G01 X47.69086 Y-35.98921
G01 X47.63102 Y-36.02284
G01 X47.57669 Y-36.04534
G01 X47.51062 Y-36.06386
G01 X47.44248 Y-36.07204
G01 X45.79358 Y-36.07349
G01 X41.24333 Y-40.62374
G01 X41.28788 Y-40.77564
G01 X41.30855 Y-40.97058
G01 X41.30855 Y-41.02938
G01 X41.28788 Y-41.22435
G01 X41.23238 Y-41.41236
G01 X41.20985 Y-41.46669
G01 X41.13131 Y-41.61363
G01 X41.09865 Y-41.66253
G01 X40.99293 Y-41.79136
G01 X40.95135 Y-41.83294
G01 X40.82255 Y-41.93865
G01 X40.77363 Y-41.97132
G01 X40.62669 Y-42.04985
G01 X40.57236 Y-42.07236
G01 X40.38435 Y-42.12788
G01 X40.18940 Y-42.14853
G01 X40.13058 Y-42.14853
G01 X39.93563 Y-42.12788
G01 X39.74762 Y-42.07236
G01 X39.69329 Y-42.04985
G01 X39.52108 Y-41.95618
G01 X39.36863 Y-41.83294
G01 X39.32705 Y-41.79136
G01 X39.20381 Y-41.63888
G01 X39.11011 Y-41.46669
G01 X39.08760 Y-41.41236
G01 X39.03208 Y-41.22435
G01 X39.01143 Y-41.02938
G04 P0 ( dwell for no time -- G64 should not smooth over this point )
G00 Z5.00000 ( retract )

G00 X41.55143 Y-41.02938 ( rapid move to begin. )
G01 F30.00000
( Mill infeed pass 1/2 )
G01 Z-0.07500
G04 P0 ( dwell for no time -- G64 should not smooth over this point )
G01 F60.00000
G01 X41.55143 Y-41.02938
G01 X41.55143 Y-40.97058
G01 X41.57208 Y-40.77564
G01 X41.62760 Y-40.58763
G01 X41.65011 Y-40.53329
G01 X41.74381 Y-40.36108
G01 X41.86705 Y-40.20863
G01 X41.90863 Y-40.16705
G01 X42.06108 Y-40.04379
G01 X42.23329 Y-39.95011
G01 X42.28762 Y-39.92761
G01 X42.47563 Y-39.87208
G01 X42.61104 Y-39.85730
G01 X46.27014 Y-36.20026
G01 X46.32409 Y-36.15784
G01 X46.38393 Y-36.12421
G01 X46.47578 Y-36.09033
G01 X46.50433 Y-36.08319
G01 X46.57247 Y-36.07501
G01 X47.62017 Y-36.07356
G01 X53.10256 Y-30.59118
G01 X53.10256 Y-14.09929
G01 X50.88298 Y-11.87968
G01 X47.74738 Y-11.87966
G01 X45.96343 Y-13.66363
G01 X45.99170 Y-13.75682
G01 X46.00316 Y-13.81450
G01 X46.01855 Y-13.97058
G01 X46.01855 Y-14.02939
G01 X46.00316 Y-14.18547
G01 X45.99170 Y-14.24315
G01 X45.94616 Y-14.39321
G01 X45.92366 Y-14.44755
G01 X45.84974 Y-14.58587
G01 X45.81708 Y-14.63477
G01 X45.69780 Y-14.77780
G01 X45.55477 Y-14.89707
G01 X45.50585 Y-14.92974
G01 X45.36755 Y-15.00368
G01 X45.31322 Y-15.02618
G01 X45.16316 Y-15.07170
G01 X45.10547 Y-15.08318
G01 X44.91998 Y-15.10000
G01 X44.73451 Y-15.08318
G01 X44.67682 Y-15.07170
G01 X44.52676 Y-15.02618
G01 X44.47243 Y-15.00368
G01 X44.33410 Y-14.92974
G01 X44.28520 Y-14.89707
G01 X44.14218 Y-14.77780
G01 X44.02290 Y-14.63477
G01 X43.99023 Y-14.58587
G01 X43.91630 Y-14.44755
G01 X43.89379 Y-14.39321
G01 X43.84827 Y-14.24315
G01 X43.83679 Y-14.18547
G01 X43.82143 Y-14.02939
G01 X43.82143 Y-13.97058
G01 X43.83679 Y-13.81450
G01 X43.84827 Y-13.75682
G01 X43.90372 Y-13.57904
G01 X43.99023 Y-13.41412
G01 X44.02290 Y-13.36520
G01 X44.12239 Y-13.24399
G01 X44.16400 Y-13.20239
G01 X44.28520 Y-13.10289
G01 X44.33410 Y-13.07023
G01 X44.49905 Y-12.98372
G01 X44.67682 Y-12.92824
G01 X44.73451 Y-12.91681
G01 X44.89059 Y-12.90142
G01 X44.94939 Y-12.90142
G01 X45.10547 Y-12.91681
G01 X45.16316 Y-12.92824
G01 X45.25630 Y-12.95654
G01 X47.18672 Y-11.02611
G01 X47.23884 Y-10.98146
G01 X47.28774 Y-10.94880
G01 X47.34893 Y-10.91773
G01 X47.41418 Y-10.89642
G01 X47.47186 Y-10.88497
G01 X47.54029 Y-10.87966
G01 X51.09009 Y-10.87966
G01 X51.19881 Y-10.89315
G01 X51.24460 Y-10.90414
G01 X51.28809 Y-10.92215
G01 X51.37432 Y-10.96843
G01 X51.44364 Y-11.02611
G01 X53.95613 Y-13.53863
G01 X54.00078 Y-13.59075
G01 X54.05194 Y-13.67424
G01 X54.08582 Y-13.76609
G01 X54.09728 Y-13.82377
G01 X54.10258 Y-13.89220
G01 X54.10258 Y-30.79829
G01 X54.09296 Y-30.89582
G01 X54.07444 Y-30.96189
G01 X54.05194 Y-31.01622
G01 X54.01831 Y-31.07606
G01 X53.95613 Y-31.15183
G01 X48.15901 Y-36.94689
G01 X48.10506 Y-36.98931
G01 X48.04522 Y-37.02294
G01 X47.95337 Y-37.05682
G01 X47.92482 Y-37.06396
G01 X47.85667 Y-37.07214
G01 X46.80897 Y-37.07359
G01 X43.59648 Y-40.28608
G01 X43.65617 Y-40.36108
G01 X43.74985 Y-40.53329
G01 X43.77238 Y-40.58763
G01 X43.82074 Y-40.74709
G01 X43.83222 Y-40.80474
G01 X43.84855 Y-40.97058
G01 X43.84855 Y-41.02938
G01 X43.83222 Y-41.19522
G01 X43.82074 Y-41.25290
G01 X43.77238 Y-41.41236
G01 X43.74985 Y-41.46669
G01 X43.65617 Y-41.63888
G01 X43.53293 Y-41.79136
G01 X43.49135 Y-41.83294
G01 X43.36255 Y-41.93865
G01 X43.31363 Y-41.97132
G01 X43.16669 Y-42.04985
G01 X43.11236 Y-42.07236
G01 X42.92435 Y-42.12788
G01 X42.72940 Y-42.14853
G01 X42.67058 Y-42.14853
G01 X42.47563 Y-42.12788
G01 X42.28762 Y-42.07236
G01 X42.23329 Y-42.04985
G01 X42.06108 Y-41.95618
G01 X41.90863 Y-41.83294
G01 X41.86705 Y-41.79136
G01 X41.74381 Y-41.63888
G01 X41.65011 Y-41.46669
G01 X41.62760 Y-41.41236
G01 X41.57208 Y-41.22435
G01 X41.55143 Y-41.02938
( Mill infeed pass 2/2 )
G01 Z-0.15000
G04 P0 ( dwell for no time -- G64 should not smooth over this point )
G01 F60.00000
G01 X41.55143 Y-41.02938
G01 X41.55143 Y-40.97058
G01 X41.57208 Y-40.77564
G01 X41.62760 Y-40.58763
G01 X41.65011 Y-40.53329
G01 X41.74381 Y-40.36108
G01 X41.86705 Y-40.20863
G01 X41.90863 Y-40.16705
G01 X42.06108 Y-40.04379
G01 X42.23329 Y-39.95011
G01 X42.28762 Y-39.92761
G01 X42.47563 Y-39.87208
G01 X42.61104 Y-39.85730
G01 X46.27014 Y-36.20026
G01 X46.32409 Y-36.15784
G01 X46.38393 Y-36.12421
G01 X46.47578 Y-36.09033
G01 X46.50433 Y-36.08319
G01 X46.57247 Y-36.07501
G01 X47.62017 Y-36.07356
G01 X53.10256 Y-30.59118
G01 X53.10256 Y-14.09929
G01 X50.88298 Y-11.87968
G01 X47.74738 Y-11.87966
G01 X45.96343 Y-13.66363
G01 X45.99170 Y-13.75682
G01 X46.00316 Y-13.81450
G01 X46.01855 Y-13.97058
G01 X46.01855 Y-14.02939
G01 X46.00316 Y-14.18547
G01 X45.99170 Y-14.24315
G01 X45.94616 Y-14.39321
G01 X45.92366 Y-14.44755
G01 X45.84974 Y-14.58587
G01 X45.81708 Y-14.63477
G01 X45.69780 Y-14.77780
G01 X45.55477 Y-14.89707
G01 X45.50585 Y-14.92974
G01 X45.36755 Y-15.00368
G01 X45.31322 Y-15.02618
G01 X45.16316 Y-15.07170
G01 X45.10547 Y-15.08318
G01 X44.91998 Y-15.10000
G01 X44.73451 Y-15.08318
G01 X44.67682 Y-15.07170
G01 X44.52676 Y-15.02618
G01 X44.47243 Y-15.00368
G01 X44.33410 Y-14.92974
G01 X44.28520 Y-14.89707
G01 X44.14218 Y-14.77780
G01 X44.02290 Y-14.63477
G01 X43.99023 Y-14.58587
G01 X43.91630 Y-14.44755
G01 X43.89379 Y-14.39321
G01 X43.84827 Y-14.24315
G01 X43.83679 Y-14.18547
G01 X43.82143 Y-14.02939
G01 X43.82143 Y-13.97058
G01 X43.83679 Y-13.81450
G01 X43.84827 Y-13.75682
G01 X43.90372 Y-13.57904
G01 X43.99023 Y-13.41412
G01 X44.02290 Y-13.36520
G01 X44.12239 Y-13.24399
G01 X44.16400 Y-13.20239
G01 X44.28520 Y-13.10289
G01 X44.33410 Y-13.07023
G01 X44.49905 Y-12.98372
G01 X44.67682 Y-12.92824
G01 X44.73451 Y-12.91681
G01 X44.89059 Y-12.90142
G01 X44.94939 Y-12.90142
G01 X45.10547 Y-12.91681
G01 X45.16316 Y-12.92824
G01 X45.25630 Y-12.95654
G01 X47.18672 Y-11.02611
G01 X47.23884 Y-10.98146
G01 X47.28774 Y-10.94880
G01 X47.34893 Y-10.91773
G01 X47.41418 Y-10.89642
G01 X47.47186 Y-10.88497
G01 X47.54029 Y-10.87966
G01 X51.09009 Y-10.87966
G01 X51.19881 Y-10.89315
G01 X51.24460 Y-10.90414
G01 X51.28809 Y-10.92215
G01 X51.37432 Y-10.96843
G01 X51.44364 Y-11.02611
G01 X53.95613 Y-13.53863
G01 X54.00078 Y-13.59075
G01 X54.05194 Y-13.67424
G01 X54.08582 Y-13.76609
G01 X54.09728 Y-13.82377
G01 X54.10258 Y-13.89220
G01 X54.10258 Y-30.79829
G01 X54.09296 Y-30.89582
G01 X54.07444 Y-30.96189
G01 X54.05194 Y-31.01622
G01 X54.01831 Y-31.07606
G01 X53.95613 Y-31.15183
G01 X48.15901 Y-36.94689
G01 X48.10506 Y-36.98931
G01 X48.04522 Y-37.02294
G01 X47.95337 Y-37.05682
G01 X47.92482 Y-37.06396
G01 X47.85667 Y-37.07214
G01 X46.80897 Y-37.07359
G01 X43.59648 Y-40.28608
G01 X43.65617 Y-40.36108
G01 X43.74985 Y-40.53329
G01 X43.77238 Y-40.58763
G01 X43.82074 Y-40.74709
G01 X43.83222 Y-40.80474
G01 X43.84855 Y-40.97058
G01 X43.84855 Y-41.02938
G01 X43.83222 Y-41.19522
G01 X43.82074 Y-41.25290
G01 X43.77238 Y-41.41236
G01 X43.74985 Y-41.46669
G01 X43.65617 Y-41.63888
G01 X43.53293 Y-41.79136
G01 X43.49135 Y-41.83294
G01 X43.36255 Y-41.93865
G01 X43.31363 Y-41.97132
G01 X43.16669 Y-42.04985
G01 X43.11236 Y-42.07236
G01 X42.92435 Y-42.12788
G01 X42.72940 Y-42.14853
G01 X42.67058 Y-42.14853
G01 X42.47563 Y-42.12788
G01 X42.28762 Y-42.07236
G01 X42.23329 Y-42.04985
G01 X42.06108 Y-41.95618
G01 X41.90863 Y-41.83294
G01 X41.86705 Y-41.79136
G01 X41.74381 Y-41.63888
G01 X41.65011 Y-41.46669
G01 X41.62760 Y-41.41236
G01 X41.57208 Y-41.22435
G01 X41.55143 Y-41.02938
G04 P0 ( dwell for no time -- G64 should not smooth over this point )
G00 Z5.00000 ( retract )

G00 X36.47143 Y-41.02938 ( rapid move to begin. )
G01 F30.00000
( Mill infeed pass 1/2 )
G01 Z-0.07500
G04 P0 ( dwell for no time -- G64 should not smooth over this point )
G01 F60.00000
G01 X36.47143 Y-41.02938
G01 X36.47143 Y-40.97058
G01 X36.49208 Y-40.77564
G01 X36.54760 Y-40.58763
G01 X36.57011 Y-40.53329
G01 X36.66381 Y-40.36108
G01 X36.78705 Y-40.20863
G01 X36.82863 Y-40.16705
G01 X36.98108 Y-40.04379
G01 X37.15329 Y-39.95011
G01 X37.20762 Y-39.92761
G01 X37.39563 Y-39.87208
G01 X37.59058 Y-39.85143
G01 X37.64940 Y-39.85143
G01 X37.84435 Y-39.87208
G01 X37.99622 Y-39.91663
G01 X47.42622 Y-30.48663
G01 X47.47834 Y-30.44198
G01 X47.50199 Y-30.42445
G01 X47.56183 Y-30.39082
G01 X47.61616 Y-30.36832
G01 X47.68223 Y-30.34980
G01 X47.77979 Y-30.34017
G01 X50.49017 Y-30.34020
G01 X51.10117 Y-29.72918
G01 X51.10117 Y-17.40819
G01 X49.62578 Y-15.92953
G01 X49.59535 Y-15.89385
G01 X49.54245 Y-15.79809
G01 X49.52444 Y-15.75460
G01 X49.50366 Y-15.64701
G01 X49.49995 Y-15.60010
G01 X49.49995 Y-14.97564
G01 X49.41410 Y-14.92974
G01 X49.36520 Y-14.89707
G01 X49.22218 Y-14.77780
G01 X49.10290 Y-14.63477
G01 X49.07023 Y-14.58587
G01 X48.99630 Y-14.44755
G01 X48.97379 Y-14.39321
G01 X48.92827 Y-14.24315
G01 X48.91679 Y-14.18547
G01 X48.90143 Y-14.02939
G01 X48.90143 Y-13.97058
G01 X48.91679 Y-13.81450
G01 X48.92827 Y-13.75682
G01 X48.97379 Y-13.60675
G01 X48.99630 Y-13.55242
G01 X49.07023 Y-13.41412
G01 X49.10290 Y-13.36520
G01 X49.22218 Y-13.22215
G01 X49.36520 Y-13.10289
G01 X49.41410 Y-13.07023
G01 X49.55243 Y-12.99629
G01 X49.60676 Y-12.97381
G01 X49.75682 Y-12.92824
G01 X49.81451 Y-12.91681
G01 X49.97059 Y-12.90142
G01 X50.02939 Y-12.90142
G01 X50.18547 Y-12.91681
G01 X50.24316 Y-12.92824
G01 X50.39322 Y-12.97381
G01 X50.44755 Y-12.99629
G01 X50.58585 Y-13.07023
G01 X50.63477 Y-13.10289
G01 X50.75598 Y-13.20239
G01 X50.79759 Y-13.24399
G01 X50.91460 Y-13.38885
G01 X51.00363 Y-13.55242
G01 X51.02614 Y-13.60675
G01 X51.07170 Y-13.75682
G01 X51.08316 Y-13.81450
G01 X51.09853 Y-13.97058
G01 X51.09853 Y-14.02939
G01 X51.08781 Y-14.13843
G01 X51.08316 Y-14.18547
G01 X51.07170 Y-14.24315
G01 X51.01626 Y-14.42095
G01 X50.92974 Y-14.58587
G01 X50.89708 Y-14.63477
G01 X50.77780 Y-14.77780
G01 X50.63477 Y-14.89707
G01 X50.58585 Y-14.92974
G01 X50.49998 Y-14.97566
G01 X50.49998 Y-15.39298
G01 X51.95473 Y-16.84772
G01 X52.02210 Y-16.93413
G01 X52.04666 Y-16.97429
G01 X52.06469 Y-17.01777
G01 X52.09499 Y-17.12303
G01 X52.09870 Y-17.16992
G01 X52.10119 Y-29.93621
G01 X52.09156 Y-30.03382
G01 X52.07305 Y-30.09989
G01 X52.05054 Y-30.15422
G01 X52.01691 Y-30.21406
G01 X51.95473 Y-30.28983
G01 X51.05082 Y-31.19374
G01 X50.98151 Y-31.25142
G01 X50.89525 Y-31.29770
G01 X50.85179 Y-31.31571
G01 X50.80599 Y-31.32671
G01 X50.69728 Y-31.34020
G01 X47.98687 Y-31.34020
G01 X38.70333 Y-40.62374
G01 X38.74788 Y-40.77564
G01 X38.76855 Y-40.97058
G01 X38.76855 Y-41.02938
G01 X38.74788 Y-41.22435
G01 X38.69238 Y-41.41236
G01 X38.66985 Y-41.46669
G01 X38.63998 Y-41.52260
G01 X38.59131 Y-41.61363
G01 X38.55865 Y-41.66253
G01 X38.45293 Y-41.79136
G01 X38.41135 Y-41.83294
G01 X38.25890 Y-41.95618
G01 X38.08669 Y-42.04985
G01 X38.03236 Y-42.07236
G01 X37.84435 Y-42.12788
G01 X37.64940 Y-42.14853
G01 X37.59058 Y-42.14853
G01 X37.39563 Y-42.12788
G01 X37.20762 Y-42.07236
G01 X37.15329 Y-42.04985
G01 X36.98108 Y-41.95618
G01 X36.82863 Y-41.83294
G01 X36.78705 Y-41.79136
G01 X36.66381 Y-41.63888
G01 X36.57011 Y-41.46669
G01 X36.54760 Y-41.41236
G01 X36.49208 Y-41.22435
G01 X36.47143 Y-41.02938
( Mill infeed pass 2/2 )
G01 Z-0.15000
G04 P0 ( dwell for no time -- G64 should not smooth over this point )
G01 F60.00000
G01 X36.47143 Y-41.02938
G01 X36.47143 Y-40.97058
G01 X36.49208 Y-40.77564
G01 X36.54760 Y-40.58763
G01 X36.57011 Y-40.53329
G01 X36.66381 Y-40.36108
G01 X36.78705 Y-40.20863
G01 X36.82863 Y-40.16705
G01 X36.98108 Y-40.04379
G01 X37.15329 Y-39.95011
G01 X37.20762 Y-39.92761
G01 X37.39563 Y-39.87208
G01 X37.59058 Y-39.85143
G01 X37.64940 Y-39.85143
G01 X37.84435 Y-39.87208
G01 X37.99622 Y-39.91663
G01 X47.42622 Y-30.48663
G01 X47.47834 Y-30.44198
G01 X47.50199 Y-30.42445
G01 X47.56183 Y-30.39082
G01 X47.61616 Y-30.36832
G01 X47.68223 Y-30.34980
G01 X47.77979 Y-30.34017
G01 X50.49017 Y-30.34020
G01 X51.10117 Y-29.72918
G01 X51.10117 Y-17.40819
G01 X49.62578 Y-15.92953
G01 X49.59535 Y-15.89385
G01 X49.54245 Y-15.79809
G01 X49.52444 Y-15.75460
G01 X49.50366 Y-15.64701
G01 X49.49995 Y-15.60010
G01 X49.49995 Y-14.97564
G01 X49.41410 Y-14.92974
G01 X49.36520 Y-14.89707
G01 X49.22218 Y-14.77780
G01 X49.10290 Y-14.63477
G01 X49.07023 Y-14.58587
G01 X48.99630 Y-14.44755
G01 X48.97379 Y-14.39321
G01 X48.92827 Y-14.24315
G01 X48.91679 Y-14.18547
G01 X48.90143 Y-14.02939
G01 X48.90143 Y-13.97058
G01 X48.91679 Y-13.81450
G01 X48.92827 Y-13.75682
G01 X48.97379 Y-13.60675
G01 X48.99630 Y-13.55242
G01 X49.07023 Y-13.41412
G01 X49.10290 Y-13.36520
G01 X49.22218 Y-13.22215
G01 X49.36520 Y-13.10289
G01 X49.41410 Y-13.07023
G01 X49.55243 Y-12.99629
G01 X49.60676 Y-12.97381
G01 X49.75682 Y-12.92824
G01 X49.81451 Y-12.91681
G01 X49.97059 Y-12.90142
G01 X50.02939 Y-12.90142
G01 X50.18547 Y-12.91681
G01 X50.24316 Y-12.92824
G01 X50.39322 Y-12.97381
G01 X50.44755 Y-12.99629
G01 X50.58585 Y-13.07023
G01 X50.63477 Y-13.10289
G01 X50.75598 Y-13.20239
G01 X50.79759 Y-13.24399
G01 X50.91460 Y-13.38885
G01 X51.00363 Y-13.55242
G01 X51.02614 Y-13.60675
G01 X51.07170 Y-13.75682
G01 X51.08316 Y-13.81450
G01 X51.09853 Y-13.97058
G01 X51.09853 Y-14.02939
G01 X51.08781 Y-14.13843
G01 X51.08316 Y-14.18547
G01 X51.07170 Y-14.24315
G01 X51.01626 Y-14.42095
G01 X50.92974 Y-14.58587
G01 X50.89708 Y-14.63477
G01 X50.77780 Y-14.77780
G01 X50.63477 Y-14.89707
G01 X50.58585 Y-14.92974
G01 X50.49998 Y-14.97566
G01 X50.49998 Y-15.39298
G01 X51.95473 Y-16.84772
G01 X52.02210 Y-16.93413
G01 X52.04666 Y-16.97429
G01 X52.06469 Y-17.01777
G01 X52.09499 Y-17.12303
G01 X52.09870 Y-17.16992
G01 X52.10119 Y-29.93621
G01 X52.09156 Y-30.03382
G01 X52.07305 Y-30.09989
G01 X52.05054 Y-30.15422
G01 X52.01691 Y-30.21406
G01 X51.95473 Y-30.28983
G01 X51.05082 Y-31.19374
G01 X50.98151 Y-31.25142
G01 X50.89525 Y-31.29770
G01 X50.85179 Y-31.31571
G01 X50.80599 Y-31.32671
G01 X50.69728 Y-31.34020
G01 X47.98687 Y-31.34020
G01 X38.70333 Y-40.62374
G01 X38.74788 Y-40.77564
G01 X38.76855 Y-40.97058
G01 X38.76855 Y-41.02938
G01 X38.74788 Y-41.22435
G01 X38.69238 Y-41.41236
G01 X38.66985 Y-41.46669
G01 X38.63998 Y-41.52260
G01 X38.59131 Y-41.61363
G01 X38.55865 Y-41.66253
G01 X38.45293 Y-41.79136
G01 X38.41135 Y-41.83294
G01 X38.25890 Y-41.95618
G01 X38.08669 Y-42.04985
G01 X38.03236 Y-42.07236
G01 X37.84435 Y-42.12788
G01 X37.64940 Y-42.14853
G01 X37.59058 Y-42.14853
G01 X37.39563 Y-42.12788
G01 X37.20762 Y-42.07236
G01 X37.15329 Y-42.04985
G01 X36.98108 Y-41.95618
G01 X36.82863 Y-41.83294
G01 X36.78705 Y-41.79136
G01 X36.66381 Y-41.63888
G01 X36.57011 Y-41.46669
G01 X36.54760 Y-41.41236
G01 X36.49208 Y-41.22435
G01 X36.47143 Y-41.02938
G04 P0 ( dwell for no time -- G64 should not smooth over this point )
G00 Z5.00000 ( retract )

G00 X33.93143 Y-41.02938 ( rapid move to begin. )
G01 F30.00000
( Mill infeed pass 1/2 )
G01 Z-0.07500
G04 P0 ( dwell for no time -- G64 should not smooth over this point )
G01 F60.00000
G01 X33.93143 Y-41.02938
G01 X33.93143 Y-40.97058
G01 X33.95208 Y-40.77564
G01 X34.00760 Y-40.58763
G01 X34.03011 Y-40.53329
G01 X34.12381 Y-40.36108
G01 X34.24705 Y-40.20863
G01 X34.28863 Y-40.16705
G01 X34.44108 Y-40.04379
G01 X34.61329 Y-39.95011
G01 X34.66762 Y-39.92761
G01 X34.82708 Y-39.87924
G01 X34.88477 Y-39.86776
G01 X35.05058 Y-39.85143
G01 X35.10940 Y-39.85143
G01 X35.30435 Y-39.87208
G01 X35.45622 Y-39.91663
G01 X36.57613 Y-38.79672
G01 X36.65190 Y-38.73454
G01 X36.71174 Y-38.70091
G01 X36.76607 Y-38.67841
G01 X36.83213 Y-38.65989
G01 X36.86127 Y-38.65557
G01 X36.92969 Y-38.65027
G01 X37.34257 Y-38.65027
G01 X46.41654 Y-29.57629
G01 X46.38111 Y-29.45458
G01 X46.36143 Y-29.26939
G01 X46.36143 Y-29.21058
G01 X46.37679 Y-29.05450
G01 X46.38827 Y-28.99682
G01 X46.43379 Y-28.84675
G01 X46.45630 Y-28.79242
G01 X46.53023 Y-28.65412
G01 X46.56290 Y-28.60520
G01 X46.66239 Y-28.48399
G01 X46.70400 Y-28.44239
G01 X46.82520 Y-28.34292
G01 X46.87410 Y-28.31023
G01 X47.03905 Y-28.22372
G01 X47.21682 Y-28.16827
G01 X47.27451 Y-28.15681
G01 X47.43059 Y-28.14142
G01 X47.48939 Y-28.14142
G01 X47.67458 Y-28.16113
G01 X47.85322 Y-28.21381
G01 X47.90755 Y-28.23632
G01 X48.04585 Y-28.31023
G01 X48.09477 Y-28.34292
G01 X48.21598 Y-28.44239
G01 X48.25759 Y-28.48399
G01 X48.35708 Y-28.60520
G01 X48.38974 Y-28.65412
G01 X48.47626 Y-28.81904
G01 X48.53170 Y-28.99682
G01 X48.54316 Y-29.05450
G01 X48.55855 Y-29.21058
G01 X48.55855 Y-29.26939
G01 X48.53884 Y-29.45458
G01 X48.48616 Y-29.63321
G01 X48.46366 Y-29.68755
G01 X48.38974 Y-29.82587
G01 X48.35708 Y-29.87477
G01 X48.23780 Y-30.01780
G01 X48.09477 Y-30.13707
G01 X48.04585 Y-30.16974
G01 X47.90755 Y-30.24368
G01 X47.85322 Y-30.26618
G01 X47.67458 Y-30.31886
G01 X47.48939 Y-30.33855
G01 X47.43059 Y-30.33855
G01 X47.24540 Y-30.31886
G01 X47.12363 Y-30.28343
G01 X37.90323 Y-39.50383
G01 X37.82746 Y-39.56601
G01 X37.76762 Y-39.59964
G01 X37.71328 Y-39.62215
G01 X37.64722 Y-39.64066
G01 X37.54968 Y-39.65029
G01 X37.13678 Y-39.65029
G01 X36.16333 Y-40.62374
G01 X36.20788 Y-40.77564
G01 X36.22855 Y-40.97058
G01 X36.22855 Y-41.02938
G01 X36.20788 Y-41.22435
G01 X36.15238 Y-41.41236
G01 X36.12985 Y-41.46669
G01 X36.05131 Y-41.61363
G01 X36.01865 Y-41.66253
G01 X35.91293 Y-41.79136
G01 X35.87135 Y-41.83294
G01 X35.71890 Y-41.95618
G01 X35.54669 Y-42.04985
G01 X35.49236 Y-42.07236
G01 X35.30435 Y-42.12788
G01 X35.10940 Y-42.14853
G01 X35.05058 Y-42.14853
G01 X34.88477 Y-42.13220
G01 X34.82708 Y-42.12074
G01 X34.66762 Y-42.07236
G01 X34.61329 Y-42.04985
G01 X34.44108 Y-41.95618
G01 X34.28863 Y-41.83294
G01 X34.24705 Y-41.79136
G01 X34.12381 Y-41.63888
G01 X34.03011 Y-41.46669
G01 X34.00760 Y-41.41236
G01 X33.95208 Y-41.22435
G01 X33.93143 Y-41.02938
( Mill infeed pass 2/2 )
G01 Z-0.15000
G04 P0 ( dwell for no time -- G64 should not smooth over this point )
G01 F60.00000
G01 X33.93143 Y-41.02938
G01 X33.93143 Y-40.97058
G01 X33.95208 Y-40.77564
G01 X34.00760 Y-40.58763
G01 X34.03011 Y-40.53329
G01 X34.12381 Y-40.36108
G01 X34.24705 Y-40.20863
G01 X34.28863 Y-40.16705
G01 X34.44108 Y-40.04379
G01 X34.61329 Y-39.95011
G01 X34.66762 Y-39.92761
G01 X34.82708 Y-39.87924
G01 X34.88477 Y-39.86776
G01 X35.05058 Y-39.85143
G01 X35.10940 Y-39.85143
G01 X35.30435 Y-39.87208
G01 X35.45622 Y-39.91663
G01 X36.57613 Y-38.79672
G01 X36.65190 Y-38.73454
G01 X36.71174 Y-38.70091
G01 X36.76607 Y-38.67841
G01 X36.83213 Y-38.65989
G01 X36.86127 Y-38.65557
G01 X36.92969 Y-38.65027
G01 X37.34257 Y-38.65027
G01 X46.41654 Y-29.57629
G01 X46.38111 Y-29.45458
G01 X46.36143 Y-29.26939
G01 X46.36143 Y-29.21058
G01 X46.37679 Y-29.05450
G01 X46.38827 Y-28.99682
G01 X46.43379 Y-28.84675
G01 X46.45630 Y-28.79242
G01 X46.53023 Y-28.65412
G01 X46.56290 Y-28.60520
G01 X46.66239 Y-28.48399
G01 X46.70400 Y-28.44239
G01 X46.82520 Y-28.34292
G01 X46.87410 Y-28.31023
G01 X47.03905 Y-28.22372
G01 X47.21682 Y-28.16827
G01 X47.27451 Y-28.15681
G01 X47.43059 Y-28.14142
G01 X47.48939 Y-28.14142
G01 X47.67458 Y-28.16113
G01 X47.85322 Y-28.21381
G01 X47.90755 Y-28.23632
G01 X48.04585 Y-28.31023
G01 X48.09477 Y-28.34292
G01 X48.21598 Y-28.44239
G01 X48.25759 Y-28.48399
G01 X48.35708 Y-28.60520
G01 X48.38974 Y-28.65412
G01 X48.47626 Y-28.81904
G01 X48.53170 Y-28.99682
G01 X48.54316 Y-29.05450
G01 X48.55855 Y-29.21058
G01 X48.55855 Y-29.26939
G01 X48.53884 Y-29.45458
G01 X48.48616 Y-29.63321
G01 X48.46366 Y-29.68755
G01 X48.38974 Y-29.82587
G01 X48.35708 Y-29.87477
G01 X48.23780 Y-30.01780
G01 X48.09477 Y-30.13707
G01 X48.04585 Y-30.16974
G01 X47.90755 Y-30.24368
G01 X47.85322 Y-30.26618
G01 X47.67458 Y-30.31886
G01 X47.48939 Y-30.33855
G01 X47.43059 Y-30.33855
G01 X47.24540 Y-30.31886
G01 X47.12363 Y-30.28343
G01 X37.90323 Y-39.50383
G01 X37.82746 Y-39.56601
G01 X37.76762 Y-39.59964
G01 X37.71328 Y-39.62215
G01 X37.64722 Y-39.64066
G01 X37.54968 Y-39.65029
G01 X37.13678 Y-39.65029
G01 X36.16333 Y-40.62374
G01 X36.20788 Y-40.77564
G01 X36.22855 Y-40.97058
G01 X36.22855 Y-41.02938
G01 X36.20788 Y-41.22435
G01 X36.15238 Y-41.41236
G01 X36.12985 Y-41.46669
G01 X36.05131 Y-41.61363
G01 X36.01865 Y-41.66253
G01 X35.91293 Y-41.79136
G01 X35.87135 Y-41.83294
G01 X35.71890 Y-41.95618
G01 X35.54669 Y-42.04985
G01 X35.49236 Y-42.07236
G01 X35.30435 Y-42.12788
G01 X35.10940 Y-42.14853
G01 X35.05058 Y-42.14853
G01 X34.88477 Y-42.13220
G01 X34.82708 Y-42.12074
G01 X34.66762 Y-42.07236
G01 X34.61329 Y-42.04985
G01 X34.44108 Y-41.95618
G01 X34.28863 Y-41.83294
G01 X34.24705 Y-41.79136
G01 X34.12381 Y-41.63888
G01 X34.03011 Y-41.46669
G01 X34.00760 Y-41.41236
G01 X33.95208 Y-41.22435
G01 X33.93143 Y-41.02938
G04 P0 ( dwell for no time -- G64 should not smooth over this point )
G00 Z5.00000 ( retract )

G00 X31.39143 Y-41.02938 ( rapid move to begin. )
G01 F30.00000
( Mill infeed pass 1/2 )
G01 Z-0.07500
G04 P0 ( dwell for no time -- G64 should not smooth over this point )
G01 F60.00000
G01 X31.39143 Y-41.02938
G01 X31.39143 Y-40.97058
G01 X31.41208 Y-40.77564
G01 X31.46760 Y-40.58763
G01 X31.49011 Y-40.53329
G01 X31.58381 Y-40.36108
G01 X31.70705 Y-40.20863
G01 X31.74863 Y-40.16705
G01 X31.90108 Y-40.04379
G01 X32.07329 Y-39.95011
G01 X32.12762 Y-39.92761
G01 X32.31563 Y-39.87208
G01 X32.51058 Y-39.85143
G01 X32.56940 Y-39.85143
G01 X32.76435 Y-39.87208
G01 X32.91619 Y-39.91663
G01 X37.94181 Y-34.89101
G01 X38.02822 Y-34.82365
G01 X38.06838 Y-34.79907
G01 X38.11186 Y-34.78106
G01 X38.21651 Y-34.75083
G01 X38.26279 Y-34.74705
G01 X38.70775 Y-34.74512
G01 X43.87654 Y-29.57629
G01 X43.84111 Y-29.45458
G01 X43.82143 Y-29.26939
G01 X43.82143 Y-29.21058
G01 X43.83679 Y-29.05450
G01 X43.84827 Y-28.99682
G01 X43.89379 Y-28.84675
G01 X43.91630 Y-28.79242
G01 X43.99023 Y-28.65412
G01 X44.02290 Y-28.60520
G01 X44.12239 Y-28.48399
G01 X44.16400 Y-28.44239
G01 X44.28520 Y-28.34292
G01 X44.33410 Y-28.31023
G01 X44.49905 Y-28.22372
G01 X44.67682 Y-28.16827
G01 X44.73451 Y-28.15681
G01 X44.89059 Y-28.14142
G01 X44.94939 Y-28.14142
G01 X45.13458 Y-28.16113
G01 X45.31322 Y-28.21381
G01 X45.36755 Y-28.23632
G01 X45.50585 Y-28.31023
G01 X45.55477 Y-28.34292
G01 X45.67598 Y-28.44239
G01 X45.71759 Y-28.48399
G01 X45.81708 Y-28.60520
G01 X45.84974 Y-28.65412
G01 X45.93626 Y-28.81904
G01 X45.99170 Y-28.99682
G01 X46.00316 Y-29.05450
G01 X46.01855 Y-29.21058
G01 X46.01855 Y-29.26939
G01 X45.99884 Y-29.45458
G01 X45.94616 Y-29.63321
G01 X45.92366 Y-29.68755
G01 X45.84974 Y-29.82587
G01 X45.81708 Y-29.87477
G01 X45.69780 Y-30.01780
G01 X45.55477 Y-30.13707
G01 X45.50585 Y-30.16974
G01 X45.36755 Y-30.24368
G01 X45.31322 Y-30.26618
G01 X45.13458 Y-30.31886
G01 X44.94939 Y-30.33855
G01 X44.89059 Y-30.33855
G01 X44.70540 Y-30.31886
G01 X44.58363 Y-30.28343
G01 X39.24711 Y-35.61789
G01 X39.19317 Y-35.66030
G01 X39.13332 Y-35.69393
G01 X39.07899 Y-35.71644
G01 X39.01293 Y-35.73496
G01 X38.91539 Y-35.74458
G01 X38.50246 Y-35.74458
G01 X33.62333 Y-40.62374
G01 X33.66788 Y-40.77564
G01 X33.68855 Y-40.97058
G01 X33.68855 Y-41.02938
G01 X33.66788 Y-41.22435
G01 X33.61238 Y-41.41236
G01 X33.58985 Y-41.46669
G01 X33.51131 Y-41.61363
G01 X33.47865 Y-41.66253
G01 X33.37293 Y-41.79136
G01 X33.33135 Y-41.83294
G01 X33.17890 Y-41.95618
G01 X33.00669 Y-42.04985
G01 X32.95236 Y-42.07236
G01 X32.76435 Y-42.12788
G01 X32.56940 Y-42.14853
G01 X32.51058 Y-42.14853
G01 X32.34477 Y-42.13220
G01 X32.28708 Y-42.12074
G01 X32.12762 Y-42.07236
G01 X32.07329 Y-42.04985
G01 X31.90108 Y-41.95618
G01 X31.74863 Y-41.83294
G01 X31.70705 Y-41.79136
G01 X31.58381 Y-41.63888
G01 X31.49011 Y-41.46669
G01 X31.46760 Y-41.41236
G01 X31.41208 Y-41.22435
G01 X31.39143 Y-41.02938
( Mill infeed pass 2/2 )
G01 Z-0.15000
G04 P0 ( dwell for no time -- G64 should not smooth over this point )
G01 F60.00000
G01 X31.39143 Y-41.02938
G01 X31.39143 Y-40.97058
G01 X31.41208 Y-40.77564
G01 X31.46760 Y-40.58763
G01 X31.49011 Y-40.53329
G01 X31.58381 Y-40.36108
G01 X31.70705 Y-40.20863
G01 X31.74863 Y-40.16705
G01 X31.90108 Y-40.04379
G01 X32.07329 Y-39.95011
G01 X32.12762 Y-39.92761
G01 X32.31563 Y-39.87208
G01 X32.51058 Y-39.85143
G01 X32.56940 Y-39.85143
G01 X32.76435 Y-39.87208
G01 X32.91619 Y-39.91663
G01 X37.94181 Y-34.89101
G01 X38.02822 Y-34.82365
G01 X38.06838 Y-34.79907
G01 X38.11186 Y-34.78106
G01 X38.21651 Y-34.75083
G01 X38.26279 Y-34.74705
G01 X38.70775 Y-34.74512
G01 X43.87654 Y-29.57629
G01 X43.84111 Y-29.45458
G01 X43.82143 Y-29.26939
G01 X43.82143 Y-29.21058
G01 X43.83679 Y-29.05450
G01 X43.84827 Y-28.99682
G01 X43.89379 Y-28.84675
G01 X43.91630 Y-28.79242
G01 X43.99023 Y-28.65412
G01 X44.02290 Y-28.60520
G01 X44.12239 Y-28.48399
G01 X44.16400 Y-28.44239
G01 X44.28520 Y-28.34292
G01 X44.33410 Y-28.31023
G01 X44.49905 Y-28.22372
G01 X44.67682 Y-28.16827
G01 X44.73451 Y-28.15681
G01 X44.89059 Y-28.14142
G01 X44.94939 Y-28.14142
G01 X45.13458 Y-28.16113
G01 X45.31322 Y-28.21381
G01 X45.36755 Y-28.23632
G01 X45.50585 Y-28.31023
G01 X45.55477 Y-28.34292
G01 X45.67598 Y-28.44239
G01 X45.71759 Y-28.48399
G01 X45.81708 Y-28.60520
G01 X45.84974 Y-28.65412
G01 X45.93626 Y-28.81904
G01 X45.99170 Y-28.99682
G01 X46.00316 Y-29.05450
G01 X46.01855 Y-29.21058
G01 X46.01855 Y-29.26939
G01 X45.99884 Y-29.45458
G01 X45.94616 Y-29.63321
G01 X45.92366 Y-29.68755
G01 X45.84974 Y-29.82587
G01 X45.81708 Y-29.87477
G01 X45.69780 Y-30.01780
G01 X45.55477 Y-30.13707
G01 X45.50585 Y-30.16974
G01 X45.36755 Y-30.24368
G01 X45.31322 Y-30.26618
G01 X45.13458 Y-30.31886
G01 X44.94939 Y-30.33855
G01 X44.89059 Y-30.33855
G01 X44.70540 Y-30.31886
G01 X44.58363 Y-30.28343
G01 X39.24711 Y-35.61789
G01 X39.19317 Y-35.66030
G01 X39.13332 Y-35.69393
G01 X39.07899 Y-35.71644
G01 X39.01293 Y-35.73496
G01 X38.91539 Y-35.74458
G01 X38.50246 Y-35.74458
G01 X33.62333 Y-40.62374
G01 X33.66788 Y-40.77564
G01 X33.68855 Y-40.97058
G01 X33.68855 Y-41.02938
G01 X33.66788 Y-41.22435
G01 X33.61238 Y-41.41236
G01 X33.58985 Y-41.46669
G01 X33.51131 Y-41.61363
G01 X33.47865 Y-41.66253
G01 X33.37293 Y-41.79136
G01 X33.33135 Y-41.83294
G01 X33.17890 Y-41.95618
G01 X33.00669 Y-42.04985
G01 X32.95236 Y-42.07236
G01 X32.76435 Y-42.12788
G01 X32.56940 Y-42.14853
G01 X32.51058 Y-42.14853
G01 X32.34477 Y-42.13220
G01 X32.28708 Y-42.12074
G01 X32.12762 Y-42.07236
G01 X32.07329 Y-42.04985
G01 X31.90108 Y-41.95618
G01 X31.74863 Y-41.83294
G01 X31.70705 Y-41.79136
G01 X31.58381 Y-41.63888
G01 X31.49011 Y-41.46669
G01 X31.46760 Y-41.41236
G01 X31.41208 Y-41.22435
G01 X31.39143 Y-41.02938
G04 P0 ( dwell for no time -- G64 should not smooth over this point )
G00 Z5.00000 ( retract )

G00 X28.84998 Y-41.84998 ( rapid move to begin. )
G01 F30.00000
( Mill infeed pass 1/2 )
G01 Z-0.07500
G04 P0 ( dwell for no time -- G64 should not smooth over this point )
G01 F60.00000
G01 X28.84998 Y-41.84998
G01 X28.84998 Y-40.14998
G01 X28.85575 Y-40.09146
G01 X28.87281 Y-40.03518
G01 X28.90055 Y-39.98331
G01 X28.93786 Y-39.93787
G01 X28.98331 Y-39.90056
G01 X29.03517 Y-39.87282
G01 X29.09146 Y-39.85575
G01 X29.14998 Y-39.84998
G01 X30.44287 Y-39.84998
G01 X35.40181 Y-34.89101
G01 X35.48822 Y-34.82365
G01 X35.52838 Y-34.79907
G01 X35.57186 Y-34.78106
G01 X35.67651 Y-34.75083
G01 X35.72279 Y-34.74705
G01 X36.16775 Y-34.74512
G01 X41.33654 Y-29.57629
G01 X41.30111 Y-29.45458
G01 X41.28143 Y-29.26939
G01 X41.28143 Y-29.21058
G01 X41.30111 Y-29.02539
G01 X41.35379 Y-28.84675
G01 X41.37630 Y-28.79242
G01 X41.45023 Y-28.65412
G01 X41.48290 Y-28.60520
G01 X41.60218 Y-28.46217
G01 X41.74520 Y-28.34292
G01 X41.79410 Y-28.31023
G01 X41.95905 Y-28.22372
G01 X42.13682 Y-28.16827
G01 X42.19451 Y-28.15681
G01 X42.35059 Y-28.14142
G01 X42.40939 Y-28.14142
G01 X42.59458 Y-28.16113
G01 X42.77322 Y-28.21381
G01 X42.82755 Y-28.23632
G01 X42.96585 Y-28.31023
G01 X43.01477 Y-28.34292
G01 X43.15780 Y-28.46217
G01 X43.27708 Y-28.60520
G01 X43.30974 Y-28.65412
G01 X43.39626 Y-28.81904
G01 X43.45170 Y-28.99682
G01 X43.46316 Y-29.05450
G01 X43.47855 Y-29.21058
G01 X43.47855 Y-29.26939
G01 X43.45884 Y-29.45458
G01 X43.40616 Y-29.63321
G01 X43.38366 Y-29.68755
G01 X43.30974 Y-29.82587
G01 X43.27708 Y-29.87477
G01 X43.17759 Y-29.99600
G01 X43.13598 Y-30.03758
G01 X43.01477 Y-30.13707
G01 X42.96585 Y-30.16974
G01 X42.82755 Y-30.24368
G01 X42.77322 Y-30.26618
G01 X42.62316 Y-30.31170
G01 X42.56547 Y-30.32318
G01 X42.40939 Y-30.33855
G01 X42.35059 Y-30.33855
G01 X42.16540 Y-30.31886
G01 X42.04363 Y-30.28343
G01 X36.70711 Y-35.61789
G01 X36.65317 Y-35.66030
G01 X36.59332 Y-35.69393
G01 X36.53899 Y-35.71644
G01 X36.47293 Y-35.73496
G01 X36.37539 Y-35.74458
G01 X35.96246 Y-35.74458
G01 X31.14998 Y-40.55707
G01 X31.14998 Y-41.84998
G01 X31.14424 Y-41.90853
G01 X31.12714 Y-41.96479
G01 X31.09943 Y-42.01665
G01 X31.06212 Y-42.06212
G01 X31.01665 Y-42.09943
