( pcb2gcode 2.5.0 )
( Software-independent Gcode )

G94 ( Millimeters per minute feed rate. )
G21 ( Units == Millimeters. )

G90 ( Absolute coordinates. )
G00 S8000 ( RPM spindle speed. )
G01 F600.00000 ( Feedrate. )


G53 G00 Z10.00000 (Retract to tool change height)
T1
M5      (Spindle stop.)
G04 P3.00000 (Wait for spindle to stop)
(MSG, Change tool bit to cutter diameter 3.12700mm)
M0      (Temporary machine stop.)
M3 ( Spindle on clockwise. )
G04 P1.00000 (Wait for spindle to get up to speed)
G04 P0 ( dwell for no time -- G64 should not smooth over this point )
G00 Z5.00000 ( retract )

G00 X1.61346 Y-44.99999 ( rapid move to begin. )
G01 Z-0.50000 F30.00000 ( plunge. )
G04 P0 ( dwell for no time -- G64 should not smooth over this point )
G01 F600.00000
G01 X1.58250 Y-45.31474
G01 X1.49068 Y-45.61743
G01 X1.34155 Y-45.89638
G01 X1.14089 Y-46.14088
G01 X0.89639 Y-46.34154
G01 X0.61745 Y-46.49066
G01 X0.31476 Y-46.58248
G01 X-0.00000 Y-46.61347
G01 X-45.68649 Y-46.61347
G01 X-49.31349 Y-46.61347
G01 X-94.99999 Y-46.61347
G01 X-95.31474 Y-46.58248
G01 X-95.61744 Y-46.49066
G01 X-95.89638 Y-46.34154
G01 X-96.14088 Y-46.14088
G01 X-96.34154 Y-45.89638
G01 X-96.49066 Y-45.61743
G01 X-96.58248 Y-45.31474
G01 X-96.61347 Y-44.99999
G01 X-96.61347 Y-24.31349
G01 X-96.61347 Y-20.68649
G01 X-96.61347 Y0.00000
G01 X-96.58248 Y0.31476
G01 X-96.49066 Y0.61745
G01 X-96.34154 Y0.89639
G01 X-96.14088 Y1.14089
G01 X-95.89638 Y1.34155
G01 X-95.61744 Y1.49068
G01 X-95.31474 Y1.58250
G01 X-94.99999 Y1.61346
G01 X-49.31349 Y1.61346
G01 X-45.68649 Y1.61346
G01 X-0.00000 Y1.61346
G01 X0.31476 Y1.58250
G01 X0.61745 Y1.49068
G01 X0.89639 Y1.34155
G01 X1.14089 Y1.14089
G01 X1.34155 Y0.89639
G01 X1.49068 Y0.61745
G01 X1.58250 Y0.31476
G01 X1.61346 Y0.00000
G01 X1.61346 Y-20.68649
G01 X1.61346 Y-24.31349
G01 X1.61346 Y-44.99999
G01 Z-1.00000 F30.00000 ( plunge. )
G04 P0 ( dwell for no time -- G64 should not smooth over this point )
G01 F600.00000
G01 X1.58250 Y-45.31474
G01 X1.49068 Y-45.61743
G01 X1.34155 Y-45.89638
G01 X1.14089 Y-46.14088
G01 X0.89639 Y-46.34154
G01 X0.61745 Y-46.49066
G01 X0.31476 Y-46.58248
G01 X-0.00000 Y-46.61347
G01 X-45.68649 Y-46.61347
G00 Z-0.60000
G01 X-49.31349 Y-46.61347
G01 Z-1.00000 F30.00000
G01 F600.00000
G01 X-94.99999 Y-46.61347
G01 X-95.31474 Y-46.58248
G01 X-95.61744 Y-46.49066
G01 X-95.89638 Y-46.34154
G01 X-96.14088 Y-46.14088
G01 X-96.34154 Y-45.89638
G01 X-96.49066 Y-45.61743
G01 X-96.58248 Y-45.31474
G01 X-96.61347 Y-44.99999
G01 X-96.61347 Y-24.31349
G00 Z-0.60000
G01 X-96.61347 Y-20.68649
G01 Z-1.00000 F30.00000
G01 F600.00000
G01 X-96.61347 Y0.00000
G01 X-96.58248 Y0.31476
G01 X-96.49066 Y0.61745
G01 X-96.34154 Y0.89639
G01 X-96.14088 Y1.14089
G01 X-95.89638 Y1.34155
G01 X-95.61744 Y1.49068
G01 X-95.31474 Y1.58250
G01 X-94.99999 Y1.61346
G01 X-49.31349 Y1.61346
G00 Z-0.60000
G01 X-45.68649 Y1.61346
G01 Z-1.00000 F30.00000
G01 F600.00000
G01 X-0.00000 Y1.61346
G01 X0.31476 Y1.58250
G01 X0.61745 Y1.49068
G01 X0.89639 Y1.34155
G01 X1.14089 Y1.14089
G01 X1.34155 Y0.89639
G01 X1.49068 Y0.61745
G01 X1.58250 Y0.31476
G01 X1.61346 Y0.00000
G01 X1.61346 Y-20.68649
G00 Z-0.60000
G01 X1.61346 Y-24.31349
G01 Z-1.00000 F30.00000
G01 F600.00000
G01 X1.61346 Y-44.99999
G01 Z-1.50000 F30.00000 ( plunge. )
G04 P0 ( dwell for no time -- G64 should not smooth over this point )
G01 F600.00000
G01 X1.58250 Y-45.31474
G01 X1.49068 Y-45.61743
G01 X1.34155 Y-45.89638
G01 X1.14089 Y-46.14088
G01 X0.89639 Y-46.34154
G01 X0.61745 Y-46.49066
G01 X0.31476 Y-46.58248
G01 X-0.00000 Y-46.61347
G01 X-45.68649 Y-46.61347
G00 Z-0.60000
G01 X-49.31349 Y-46.61347
G01 Z-1.50000 F30.00000
G01 F600.00000
G01 X-94.99999 Y-46.61347
G01 X-95.31474 Y-46.58248
G01 X-95.61744 Y-46.49066
G01 X-95.89638 Y-46.34154
G01 X-96.14088 Y-46.14088
G01 X-96.34154 Y-45.89638
G01 X-96.49066 Y-45.61743
G01 X-96.58248 Y-45.31474
G01 X-96.61347 Y-44.99999
G01 X-96.61347 Y-24.31349
G00 Z-0.60000
G01 X-96.61347 Y-20.68649
G01 Z-1.50000 F30.00000
G01 F600.00000
G01 X-96.61347 Y0.00000
G01 X-96.58248 Y0.31476
G01 X-96.49066 Y0.61745
G01 X-96.34154 Y0.89639
G01 X-96.14088 Y1.14089
G01 X-95.89638 Y1.34155
G01 X-95.61744 Y1.49068
G01 X-95.31474 Y1.58250
G01 X-94.99999 Y1.61346
G01 X-49.31349 Y1.61346
G00 Z-0.60000
G01 X-45.68649 Y1.61346
G01 Z-1.50000 F30.00000
G01 F600.00000
G01 X-0.00000 Y1.61346
G01 X0.31476 Y1.58250
G01 X0.61745 Y1.49068
G01 X0.89639 Y1.34155
G01 X1.14089 Y1.14089
G01 X1.34155 Y0.89639
G01 X1.49068 Y0.61745
G01 X1.58250 Y0.31476
G01 X1.61346 Y0.00000
G01 X1.61346 Y-20.68649
G00 Z-0.60000
G01 X1.61346 Y-24.31349
G01 Z-1.50000 F30.00000
G01 F600.00000
G01 X1.61346 Y-44.99999
G01 Z-2.00000 F30.00000 ( plunge. )
G04 P0 ( dwell for no time -- G64 should not smooth over this point )
G01 F600.00000
G01 X1.58250 Y-45.31474
G01 X1.49068 Y-45.61743
G01 X1.34155 Y-45.89638
G01 X1.14089 Y-46.14088
G01 X0.89639 Y-46.34154
G01 X0.61745 Y-46.49066
G01 X0.31476 Y-46.58248
G01 X-0.00000 Y-46.61347
G01 X-45.68649 Y-46.61347
G00 Z-0.60000
G01 X-49.31349 Y-46.61347
G01 Z-2.00000 F30.00000
G01 F600.00000
G01 X-94.99999 Y-46.61347
G01 X-95.31474 Y-46.58248
G01 X-95.61744 Y-46.49066
G01 X-95.89638 Y-46.34154
G01 X-96.14088 Y-46.14088
G01 X-96.34154 Y-45.89638
G01 X-96.49066 Y-45.61743
G01 X-96.58248 Y-45.31474
G01 X-96.61347 Y-44.99999
G01 X-96.61347 Y-24.31349
G00 Z-0.60000
G01 X-96.61347 Y-20.68649
G01 Z-2.00000 F30.00000
G01 F600.00000
G01 X-96.61347 Y0.00000
G01 X-96.58248 Y0.31476
G01 X-96.49066 Y0.61745
G01 X-96.34154 Y0.89639
G01 X-96.14088 Y1.14089
G01 X-95.89638 Y1.34155
G01 X-95.61744 Y1.49068
G01 X-95.31474 Y1.58250
G01 X-94.99999 Y1.61346
G01 X-49.31349 Y1.61346
G00 Z-0.60000
G01 X-45.68649 Y1.61346
G01 Z-2.00000 F30.00000
G01 F600.00000
G01 X-0.00000 Y1.61346
G01 X0.31476 Y1.58250
G01 X0.61745 Y1.49068
G01 X0.89639 Y1.34155
G01 X1.14089 Y1.14089
G01 X1.34155 Y0.89639
G01 X1.49068 Y0.61745
G01 X1.58250 Y0.31476
G01 X1.61346 Y0.00000
G01 X1.61346 Y-20.68649
G00 Z-0.60000
G01 X1.61346 Y-24.31349
G01 Z-2.00000 F30.00000
G01 F600.00000
G01 X1.61346 Y-44.99999

G04 P0 ( dwell for no time -- G64 should not smooth over this point )
G53 G00 Z10.000000 ( retract )

M5 ( Spindle off. )
G04 P3.000000
M9 ( Coolant off. )
M2 ( Program end. )

