(G-CODE GENERATED BY FLATCAM v8.994 - www.flatcam.org - Version Date: 2020/11/7)

(Name: FujiNet_Z80Bus_Reference-F_Cu.gbr_iso_combined_cnc)
(Type: G-code from Geometry)
(Units: MM)

(Created on Saturday, 13 May 2023 at 01:22)

(This preprocessor is the default preprocessor used by FlatCAM.)
(It is made to work with MACH3 compatible motion controllers.)

(TOOL DIAMETER: 0.1 mm)
(Feedrate_XY: 120.0 mm/min)
(Feedrate_Z: 60.0 mm/min)
(Feedrate rapids 1500.0 mm/min)

(Z_Cut: 0.0 mm)
(Z_Move: 2.0 mm)
(Z Start: None mm)
(Z End: 15.0 mm)
(X,Y End: None mm)
(Steps per circle: 64)
(Preprocessor Geometry: default)

(X range:   39.8700 ...  214.3100  mm)
(Y range: -153.3000 ...  -38.4627  mm)

(Spindle Speed: 0.0 RPM)
G21
G90
G94

G01 F120.00

M5
G00 Z15.0000
G00 X0.0000 Y0.0000
T1
M6    
(MSG, Change to Tool Dia = 0.1000)
M0
G00 Z15.0000

M03
G01 F120.00
G00 X39.9200 Y-45.3000
G01 F60.00
G01 Z0.0000
G01 F120.00
G01 X41.5200 Y-45.3000
G01 X41.5298 Y-45.2990
G01 X41.5391 Y-45.2962
G01 X41.5478 Y-45.2916
G01 X41.5517 Y-45.2887
G01 X41.5562 Y-45.2845
G01 X41.5616 Y-45.2778
G01 X41.5662 Y-45.2691
G01 X41.5690 Y-45.2598
G01 X41.5700 Y-45.2500
G01 X41.5700 Y-43.6500
G01 X41.5690 Y-43.6402
G01 X41.5662 Y-43.6309
G01 X41.5616 Y-43.6222
G01 X41.5587 Y-43.6183
G01 X41.5545 Y-43.6138
G01 X41.5478 Y-43.6084
G01 X41.5391 Y-43.6038
G01 X41.5298 Y-43.6010
G01 X41.5200 Y-43.6000
G01 X39.9200 Y-43.6000
G01 X39.9102 Y-43.6010
G01 X39.9009 Y-43.6038
G01 X39.8922 Y-43.6084
G01 X39.8873 Y-43.6121
G01 X39.8838 Y-43.6155
G01 X39.8784 Y-43.6222
G01 X39.8738 Y-43.6309
G01 X39.8710 Y-43.6402
G01 X39.8700 Y-43.6500
G01 X39.8700 Y-45.2512
G01 X39.8710 Y-45.2598
G01 X39.8738 Y-45.2691
G01 X39.8784 Y-45.2778
G01 X39.8846 Y-45.2854
G01 X39.8922 Y-45.2916
G01 X39.9009 Y-45.2962
G01 X39.9102 Y-45.2990
G01 X39.9200 Y-45.3000
G00 Z2.0000
G00 X46.5699 Y-44.4475
G01 F60.00
G01 Z0.0000
G01 F120.00
G01 X46.5659 Y-44.3667
G01 X46.5537 Y-44.2842
G01 X46.5334 Y-44.2033
G01 X46.5053 Y-44.1247
G01 X46.4696 Y-44.0493
G01 X46.4267 Y-43.9778
G01 X46.3771 Y-43.9108
G01 X46.3210 Y-43.8490
G01 X46.2592 Y-43.7929
G01 X46.1922 Y-43.7433
G01 X46.1207 Y-43.7004
G01 X46.0453 Y-43.6647
G01 X45.9667 Y-43.6366
G01 X45.8858 Y-43.6163
G01 X45.8033 Y-43.6041
G01 X45.7200 Y-43.6000
G01 X45.6367 Y-43.6041
G01 X45.5542 Y-43.6163
G01 X45.4733 Y-43.6366
G01 X45.3947 Y-43.6647
G01 X45.3193 Y-43.7004
G01 X45.2478 Y-43.7433
G01 X45.1808 Y-43.7929
G01 X45.1190 Y-43.8490
G01 X45.0629 Y-43.9108
G01 X45.0133 Y-43.9778
G01 X44.9704 Y-44.0493
G01 X44.9347 Y-44.1247
G01 X44.9066 Y-44.2033
G01 X44.8863 Y-44.2842
G01 X44.8741 Y-44.3667
G01 X44.8700 Y-44.4500
G01 X44.8741 Y-44.5333
G01 X44.8863 Y-44.6158
G01 X44.9066 Y-44.6967
G01 X44.9347 Y-44.7753
G01 X44.9704 Y-44.8507
G01 X45.0133 Y-44.9222
G01 X45.0629 Y-44.9892
G01 X45.1190 Y-45.0510
G01 X45.1808 Y-45.1071
G01 X45.2478 Y-45.1567
G01 X45.3193 Y-45.1996
G01 X45.3947 Y-45.2353
G01 X45.4733 Y-45.2634
G01 X45.5542 Y-45.2837
G01 X45.6367 Y-45.2959
G01 X45.7200 Y-45.3000
G01 X45.8033 Y-45.2959
G01 X45.8858 Y-45.2837
G01 X45.9667 Y-45.2634
G01 X46.0453 Y-45.2353
G01 X46.1207 Y-45.1996
G01 X46.1922 Y-45.1567
G01 X46.2592 Y-45.1071
G01 X46.3210 Y-45.0510
G01 X46.3771 Y-44.9892
G01 X46.4267 Y-44.9222
G01 X46.4696 Y-44.8507
G01 X46.5053 Y-44.7753
G01 X46.5334 Y-44.6967
G01 X46.5537 Y-44.6158
G01 X46.5659 Y-44.5333
G01 X46.5699 Y-44.4475
G00 Z2.0000
G00 X49.5275 Y-41.4899
G01 F60.00
G01 Z0.0000
G01 F120.00
G01 X49.6083 Y-41.4859
G01 X49.6908 Y-41.4737
G01 X49.7717 Y-41.4534
G01 X49.8503 Y-41.4253
G01 X49.9257 Y-41.3896
G01 X49.9972 Y-41.3467
G01 X50.0642 Y-41.2971
G01 X50.1260 Y-41.2410
G01 X50.1821 Y-41.1792
G01 X50.2317 Y-41.1122
G01 X50.2746 Y-41.0407
G01 X50.3103 Y-40.9653
G01 X50.3384 Y-40.8867
G01 X50.3587 Y-40.8058
G01 X50.3709 Y-40.7233
G01 X50.3750 Y-40.6400
G01 X50.3709 Y-40.5567
G01 X50.3587 Y-40.4742
G01 X50.3384 Y-40.3933
G01 X50.3103 Y-40.3147
G01 X50.2746 Y-40.2393
G01 X50.2317 Y-40.1678
G01 X50.1821 Y-40.1008
G01 X50.1260 Y-40.0390
G01 X50.0642 Y-39.9829
G01 X49.9972 Y-39.9333
G01 X49.9257 Y-39.8904
G01 X49.8503 Y-39.8547
G01 X49.7717 Y-39.8266
G01 X49.6908 Y-39.8063
G01 X49.6083 Y-39.7941
G01 X49.5250 Y-39.7900
G01 X49.4417 Y-39.7941
G01 X49.3592 Y-39.8063
G01 X49.2783 Y-39.8266
G01 X49.1997 Y-39.8547
G01 X49.1243 Y-39.8904
G01 X49.0528 Y-39.9333
G01 X48.9858 Y-39.9829
G01 X48.9240 Y-40.0390
G01 X48.8679 Y-40.1008
G01 X48.8183 Y-40.1678
G01 X48.7754 Y-40.2393
G01 X48.7397 Y-40.3147
G01 X48.7116 Y-40.3933
G01 X48.6913 Y-40.4742
G01 X48.6791 Y-40.5567
G01 X48.6750 Y-40.6400
G01 X48.6791 Y-40.7233
G01 X48.6913 Y-40.8058
G01 X48.7116 Y-40.8867
G01 X48.7397 Y-40.9653
G01 X48.7754 Y-41.0407
G01 X48.8183 Y-41.1122
G01 X48.8679 Y-41.1792
G01 X48.9240 Y-41.2410
G01 X48.9858 Y-41.2971
G01 X49.0528 Y-41.3467
G01 X49.1243 Y-41.3896
G01 X49.1997 Y-41.4253
G01 X49.2783 Y-41.4534
G01 X49.3592 Y-41.4737
G01 X49.4417 Y-41.4859
G01 X49.5275 Y-41.4899
G00 Z2.0000
G00 X52.0675 Y-41.4899
G01 F60.00
G01 Z0.0000
G01 F120.00
G01 X52.1483 Y-41.4859
G01 X52.2308 Y-41.4737
G01 X52.3117 Y-41.4534
G01 X52.3903 Y-41.4253
G01 X52.4657 Y-41.3896
G01 X52.5372 Y-41.3467
G01 X52.6042 Y-41.2971
G01 X52.6660 Y-41.2410
G01 X52.7221 Y-41.1792
G01 X52.7717 Y-41.1122
G01 X52.8146 Y-41.0407
G01 X52.8503 Y-40.9653
G01 X52.8784 Y-40.8867
G01 X52.8987 Y-40.8058
G01 X52.9109 Y-40.7233
G01 X52.9150 Y-40.6400
G01 X52.9109 Y-40.5567
G01 X52.8987 Y-40.4742
G01 X52.8784 Y-40.3933
G01 X52.8503 Y-40.3147
G01 X52.8146 Y-40.2393
G01 X52.7717 Y-40.1678
G01 X52.7221 Y-40.1008
G01 X52.6660 Y-40.0390
G01 X52.6042 Y-39.9829
G01 X52.5372 Y-39.9333
G01 X52.4657 Y-39.8904
G01 X52.3903 Y-39.8547
G01 X52.3117 Y-39.8266
G01 X52.2308 Y-39.8063
G01 X52.1483 Y-39.7941
G01 X52.0650 Y-39.7900
G01 X51.9817 Y-39.7941
G01 X51.8992 Y-39.8063
G01 X51.8183 Y-39.8266
G01 X51.7397 Y-39.8547
G01 X51.6643 Y-39.8904
G01 X51.5928 Y-39.9333
G01 X51.5258 Y-39.9829
G01 X51.4640 Y-40.0390
G01 X51.4079 Y-40.1008
G01 X51.3583 Y-40.1678
G01 X51.3154 Y-40.2393
G01 X51.2797 Y-40.3147
G01 X51.2516 Y-40.3933
G01 X51.2313 Y-40.4742
G01 X51.2191 Y-40.5567
G01 X51.2150 Y-40.6400
G01 X51.2191 Y-40.7233
G01 X51.2313 Y-40.8058
G01 X51.2516 Y-40.8867
G01 X51.2797 Y-40.9653
G01 X51.3154 Y-41.0407
G01 X51.3583 Y-41.1122
G01 X51.4079 Y-41.1792
G01 X51.4640 Y-41.2410
G01 X51.5258 Y-41.2971
G01 X51.5928 Y-41.3467
G01 X51.6643 Y-41.3896
G01 X51.7397 Y-41.4253
G01 X51.8183 Y-41.4534
G01 X51.8992 Y-41.4737
G01 X51.9817 Y-41.4859
G01 X52.0675 Y-41.4899
G00 Z2.0000
G00 X54.6075 Y-41.4899
G01 F60.00
G01 Z0.0000
G01 F120.00
G01 X54.6883 Y-41.4859
G01 X54.7708 Y-41.4737
G01 X54.8517 Y-41.4534
G01 X54.9303 Y-41.4253
G01 X55.0057 Y-41.3896
G01 X55.0772 Y-41.3467
G01 X55.1442 Y-41.2971
G01 X55.2060 Y-41.2410
G01 X55.2621 Y-41.1792
G01 X55.3117 Y-41.1122
G01 X55.3546 Y-41.0407
G01 X55.3903 Y-40.9653
G01 X55.4184 Y-40.8867
G01 X55.4387 Y-40.8058
G01 X55.4509 Y-40.7233
G01 X55.4550 Y-40.6400
G01 X55.4509 Y-40.5567
G01 X55.4387 Y-40.4742
G01 X55.4184 Y-40.3933
G01 X55.3903 Y-40.3147
G01 X55.3546 Y-40.2393
G01 X55.3117 Y-40.1678
G01 X55.2621 Y-40.1008
G01 X55.2060 Y-40.0390
G01 X55.1442 Y-39.9829
G01 X55.0772 Y-39.9333
G01 X55.0057 Y-39.8904
G01 X54.9303 Y-39.8547
G01 X54.8517 Y-39.8266
G01 X54.7708 Y-39.8063
G01 X54.6883 Y-39.7941
G01 X54.6050 Y-39.7900
G01 X54.5217 Y-39.7941
G01 X54.4392 Y-39.8063
G01 X54.3583 Y-39.8266
G01 X54.2797 Y-39.8547
G01 X54.2043 Y-39.8904
G01 X54.1328 Y-39.9333
G01 X54.0658 Y-39.9829
G01 X54.0040 Y-40.0390
G01 X53.9479 Y-40.1008
G01 X53.8983 Y-40.1678
G01 X53.8554 Y-40.2393
G01 X53.8197 Y-40.3147
G01 X53.7916 Y-40.3933
G01 X53.7713 Y-40.4742
G01 X53.7591 Y-40.5567
G01 X53.7550 Y-40.6400
G01 X53.7591 Y-40.7233
G01 X53.7713 Y-40.8058
G01 X53.7916 Y-40.8867
G01 X53.8197 Y-40.9653
G01 X53.8554 Y-41.0407
G01 X53.8983 Y-41.1122
G01 X53.9479 Y-41.1792
G01 X54.0040 Y-41.2410
G01 X54.0658 Y-41.2971
G01 X54.1328 Y-41.3467
G01 X54.2043 Y-41.3896
G01 X54.2797 Y-41.4253
G01 X54.3583 Y-41.4534
G01 X54.4392 Y-41.4737
G01 X54.5217 Y-41.4859
G01 X54.6075 Y-41.4899
G00 Z2.0000
G00 X57.1475 Y-41.4899
G01 F60.00
G01 Z0.0000
G01 F120.00
G01 X57.2283 Y-41.4859
G01 X57.3108 Y-41.4737
G01 X57.3917 Y-41.4534
G01 X57.4703 Y-41.4253
G01 X57.5457 Y-41.3896
G01 X57.6172 Y-41.3467
G01 X57.6842 Y-41.2971
G01 X57.7460 Y-41.2410
G01 X57.8021 Y-41.1792
G01 X57.8517 Y-41.1122
G01 X57.8946 Y-41.0407
G01 X57.9303 Y-40.9653
G01 X57.9584 Y-40.8867
G01 X57.9787 Y-40.8058
G01 X57.9909 Y-40.7233
G01 X57.9950 Y-40.6400
G01 X57.9909 Y-40.5567
G01 X57.9787 Y-40.4742
G01 X57.9584 Y-40.3933
G01 X57.9303 Y-40.3147
G01 X57.8946 Y-40.2393
G01 X57.8517 Y-40.1678
G01 X57.8021 Y-40.1008
G01 X57.7460 Y-40.0390
G01 X57.6842 Y-39.9829
G01 X57.6172 Y-39.9333
G01 X57.5457 Y-39.8904
G01 X57.4703 Y-39.8547
G01 X57.3917 Y-39.8266
G01 X57.3108 Y-39.8063
G01 X57.2283 Y-39.7941
G01 X57.1450 Y-39.7900
G01 X57.0617 Y-39.7941
G01 X56.9792 Y-39.8063
G01 X56.8983 Y-39.8266
G01 X56.8197 Y-39.8547
G01 X56.7443 Y-39.8904
G01 X56.6728 Y-39.9333
G01 X56.6058 Y-39.9829
G01 X56.5440 Y-40.0390
G01 X56.4879 Y-40.1008
G01 X56.4383 Y-40.1678
G01 X56.3954 Y-40.2393
G01 X56.3597 Y-40.3147
G01 X56.3316 Y-40.3933
G01 X56.3113 Y-40.4742
G01 X56.2991 Y-40.5567
G01 X56.2950 Y-40.6400
G01 X56.2991 Y-40.7233
G01 X56.3113 Y-40.8058
G01 X56.3316 Y-40.8867
G01 X56.3597 Y-40.9653
G01 X56.3954 Y-41.0407
G01 X56.4383 Y-41.1122
G01 X56.4879 Y-41.1792
G01 X56.5440 Y-41.2410
G01 X56.6058 Y-41.2971
G01 X56.6728 Y-41.3467
G01 X56.7443 Y-41.3896
G01 X56.8197 Y-41.4253
G01 X56.8983 Y-41.4534
G01 X56.9792 Y-41.4737
G01 X57.0617 Y-41.4859
G01 X57.1475 Y-41.4899
G00 Z2.0000
G00 X59.6875 Y-41.4899
G01 F60.00
G01 Z0.0000
G01 F120.00
G01 X59.7683 Y-41.4859
G01 X59.8508 Y-41.4737
G01 X59.9317 Y-41.4534
G01 X60.0103 Y-41.4253
G01 X60.0857 Y-41.3896
G01 X60.1572 Y-41.3467
G01 X60.2242 Y-41.2971
G01 X60.2860 Y-41.2410
G01 X60.3421 Y-41.1792
G01 X60.3917 Y-41.1122
G01 X60.4346 Y-41.0407
G01 X60.4703 Y-40.9653
G01 X60.4984 Y-40.8867
G01 X60.5187 Y-40.8058
G01 X60.5309 Y-40.7233
G01 X60.5350 Y-40.6400
G01 X60.5309 Y-40.5567
G01 X60.5187 Y-40.4742
G01 X60.4984 Y-40.3933
G01 X60.4703 Y-40.3147
G01 X60.4346 Y-40.2393
G01 X60.3917 Y-40.1678
G01 X60.3421 Y-40.1008
G01 X60.2860 Y-40.0390
G01 X60.2242 Y-39.9829
G01 X60.1572 Y-39.9333
G01 X60.0857 Y-39.8904
G01 X60.0103 Y-39.8547
G01 X59.9317 Y-39.8266
G01 X59.8508 Y-39.8063
G01 X59.7683 Y-39.7941
G01 X59.6850 Y-39.7900
G01 X59.6017 Y-39.7941
G01 X59.5192 Y-39.8063
G01 X59.4383 Y-39.8266
G01 X59.3597 Y-39.8547
G01 X59.2843 Y-39.8904
G01 X59.2128 Y-39.9333
G01 X59.1458 Y-39.9829
G01 X59.0840 Y-40.0390
G01 X59.0279 Y-40.1008
G01 X58.9783 Y-40.1678
G01 X58.9354 Y-40.2393
G01 X58.8997 Y-40.3147
G01 X58.8716 Y-40.3933
G01 X58.8513 Y-40.4742
G01 X58.8391 Y-40.5567
G01 X58.8350 Y-40.6400
G01 X58.8391 Y-40.7233
G01 X58.8513 Y-40.8058
G01 X58.8716 Y-40.8867
G01 X58.8997 Y-40.9653
G01 X58.9354 Y-41.0407
G01 X58.9783 Y-41.1122
G01 X59.0279 Y-41.1792
G01 X59.0840 Y-41.2410
G01 X59.1458 Y-41.2971
G01 X59.2128 Y-41.3467
G01 X59.2843 Y-41.3896
G01 X59.3597 Y-41.4253
G01 X59.4383 Y-41.4534
G01 X59.5192 Y-41.4737
G01 X59.6017 Y-41.4859
G01 X59.6875 Y-41.4899
G00 Z2.0000
G00 X62.2275 Y-41.4899
G01 F60.00
G01 Z0.0000
G01 F120.00
G01 X62.3083 Y-41.4859
G01 X62.3908 Y-41.4737
G01 X62.4717 Y-41.4534
G01 X62.5503 Y-41.4253
G01 X62.6257 Y-41.3896
G01 X62.6972 Y-41.3467
G01 X62.7642 Y-41.2971
G01 X62.8260 Y-41.2410
G01 X62.8821 Y-41.1792
G01 X62.9317 Y-41.1122
G01 X62.9746 Y-41.0407
G01 X63.0103 Y-40.9653
G01 X63.0384 Y-40.8867
G01 X63.0587 Y-40.8058
G01 X63.0709 Y-40.7233
G01 X63.0750 Y-40.6400
G01 X63.0709 Y-40.5567
G01 X63.0587 Y-40.4742
G01 X63.0384 Y-40.3933
G01 X63.0103 Y-40.3147
G01 X62.9746 Y-40.2393
G01 X62.9317 Y-40.1678
G01 X62.8821 Y-40.1008
G01 X62.8260 Y-40.0390
G01 X62.7642 Y-39.9829
G01 X62.6972 Y-39.9333
G01 X62.6257 Y-39.8904
G01 X62.5503 Y-39.8547
G01 X62.4717 Y-39.8266
G01 X62.3908 Y-39.8063
G01 X62.3083 Y-39.7941
G01 X62.2250 Y-39.7900
G01 X62.1417 Y-39.7941
G01 X62.0592 Y-39.8063
G01 X61.9783 Y-39.8266
G01 X61.8997 Y-39.8547
G01 X61.8243 Y-39.8904
G01 X61.7528 Y-39.9333
G01 X61.6858 Y-39.9829
G01 X61.6240 Y-40.0390
G01 X61.5679 Y-40.1008
G01 X61.5183 Y-40.1678
G01 X61.4754 Y-40.2393
G01 X61.4397 Y-40.3147
G01 X61.4116 Y-40.3933
G01 X61.3913 Y-40.4742
G01 X61.3791 Y-40.5567
G01 X61.3750 Y-40.6400
G01 X61.3791 Y-40.7233
G01 X61.3913 Y-40.8058
G01 X61.4116 Y-40.8867
G01 X61.4397 Y-40.9653
G01 X61.4754 Y-41.0407
G01 X61.5183 Y-41.1122
G01 X61.5679 Y-41.1792
G01 X61.6240 Y-41.2410
G01 X61.6858 Y-41.2971
G01 X61.7528 Y-41.3467
G01 X61.8243 Y-41.3896
G01 X61.8997 Y-41.4253
G01 X61.9783 Y-41.4534
G01 X62.0592 Y-41.4737
G01 X62.1417 Y-41.4859
G01 X62.2275 Y-41.4899
G00 Z2.0000
G00 X64.7675 Y-41.4899
G01 F60.00
G01 Z0.0000
G01 F120.00
G01 X64.8483 Y-41.4859
G01 X64.9308 Y-41.4737
G01 X65.0117 Y-41.4534
G01 X65.0903 Y-41.4253
G01 X65.1657 Y-41.3896
G01 X65.2372 Y-41.3467
G01 X65.3042 Y-41.2971
G01 X65.3660 Y-41.2410
G01 X65.4221 Y-41.1792
G01 X65.4717 Y-41.1122
G01 X65.5146 Y-41.0407
G01 X65.5503 Y-40.9653
G01 X65.5784 Y-40.8867
G01 X65.5987 Y-40.8058
G01 X65.6109 Y-40.7233
G01 X65.6150 Y-40.6400
G01 X65.6109 Y-40.5567
G01 X65.5987 Y-40.4742
G01 X65.5784 Y-40.3933
G01 X65.5503 Y-40.3147
G01 X65.5146 Y-40.2393
G01 X65.4717 Y-40.1678
G01 X65.4221 Y-40.1008
G01 X65.3660 Y-40.0390
G01 X65.3042 Y-39.9829
G01 X65.2372 Y-39.9333
G01 X65.1657 Y-39.8904
G01 X65.0903 Y-39.8547
G01 X65.0117 Y-39.8266
G01 X64.9308 Y-39.8063
G01 X64.8483 Y-39.7941
G01 X64.7650 Y-39.7900
G01 X64.6817 Y-39.7941
G01 X64.5992 Y-39.8063
G01 X64.5183 Y-39.8266
G01 X64.4397 Y-39.8547
G01 X64.3643 Y-39.8904
G01 X64.2928 Y-39.9333
G01 X64.2258 Y-39.9829
G01 X64.1640 Y-40.0390
G01 X64.1079 Y-40.1008
G01 X64.0583 Y-40.1678
G01 X64.0154 Y-40.2393
G01 X63.9797 Y-40.3147
G01 X63.9516 Y-40.3933
G01 X63.9313 Y-40.4742
G01 X63.9191 Y-40.5567
G01 X63.9150 Y-40.6400
G01 X63.9191 Y-40.7233
G01 X63.9313 Y-40.8058
G01 X63.9516 Y-40.8867
G01 X63.9797 Y-40.9653
G01 X64.0154 Y-41.0407
G01 X64.0583 Y-41.1122
G01 X64.1079 Y-41.1792
G01 X64.1640 Y-41.2410
G01 X64.2258 Y-41.2971
G01 X64.2928 Y-41.3467
G01 X64.3643 Y-41.3896
G01 X64.4397 Y-41.4253
G01 X64.5183 Y-41.4534
G01 X64.5992 Y-41.4737
G01 X64.6817 Y-41.4859
G01 X64.7675 Y-41.4899
G00 Z2.0000
G00 X71.1175 Y-41.4899
G01 F60.00
G01 Z0.0000
G01 F120.00
G01 X71.1983 Y-41.4859
G01 X71.2808 Y-41.4737
G01 X71.3617 Y-41.4534
G01 X71.4403 Y-41.4253
G01 X71.5157 Y-41.3896
G01 X71.5872 Y-41.3467
G01 X71.6542 Y-41.2971
G01 X71.7160 Y-41.2410
G01 X71.7721 Y-41.1792
G01 X71.8217 Y-41.1122
G01 X71.8646 Y-41.0407
G01 X71.9003 Y-40.9653
G01 X71.9284 Y-40.8867
G01 X71.9487 Y-40.8058
G01 X71.9609 Y-40.7233
G01 X71.9650 Y-40.6400
G01 X71.9609 Y-40.5567
G01 X71.9487 Y-40.4742
G01 X71.9284 Y-40.3933
G01 X71.9003 Y-40.3147
G01 X71.8646 Y-40.2393
G01 X71.8217 Y-40.1678
G01 X71.7721 Y-40.1008
G01 X71.7160 Y-40.0390
G01 X71.6542 Y-39.9829
G01 X71.5872 Y-39.9333
G01 X71.5157 Y-39.8904
G01 X71.4403 Y-39.8547
G01 X71.3617 Y-39.8266
G01 X71.2808 Y-39.8063
G01 X71.1983 Y-39.7941
G01 X71.1150 Y-39.7900
G01 X71.0317 Y-39.7941
G01 X70.9492 Y-39.8063
G01 X70.8683 Y-39.8266
G01 X70.7897 Y-39.8547
G01 X70.7143 Y-39.8904
G01 X70.6428 Y-39.9333
G01 X70.5758 Y-39.9829
G01 X70.5140 Y-40.0390
G01 X70.4579 Y-40.1008
G01 X70.4083 Y-40.1678
G01 X70.3654 Y-40.2393
G01 X70.3297 Y-40.3147
G01 X70.3016 Y-40.3933
G01 X70.2813 Y-40.4742
G01 X70.2691 Y-40.5567
G01 X70.2650 Y-40.6400
G01 X70.2691 Y-40.7233
G01 X70.2813 Y-40.8058
G01 X70.3016 Y-40.8867
G01 X70.3297 Y-40.9653
G01 X70.3654 Y-41.0407
G01 X70.4083 Y-41.1122
G01 X70.4579 Y-41.1792
G01 X70.5140 Y-41.2410
G01 X70.5758 Y-41.2971
G01 X70.6428 Y-41.3467
G01 X70.7143 Y-41.3896
G01 X70.7897 Y-41.4253
G01 X70.8683 Y-41.4534
G01 X70.9492 Y-41.4737
G01 X71.0317 Y-41.4859
G01 X71.1175 Y-41.4899
G00 Z2.0000
G00 X73.6575 Y-41.4899
G01 F60.00
G01 Z0.0000
G01 F120.00
G01 X73.7383 Y-41.4859
G01 X73.8208 Y-41.4737
G01 X73.9017 Y-41.4534
G01 X73.9803 Y-41.4253
G01 X74.0557 Y-41.3896
G01 X74.1272 Y-41.3467
G01 X74.1942 Y-41.2971
G01 X74.2560 Y-41.2410
G01 X74.3121 Y-41.1792
G01 X74.3617 Y-41.1122
G01 X74.4046 Y-41.0407
G01 X74.4403 Y-40.9653
G01 X74.4684 Y-40.8867
G01 X74.4887 Y-40.8058
G01 X74.5009 Y-40.7233
G01 X74.5050 Y-40.6400
G01 X74.5009 Y-40.5567
G01 X74.4887 Y-40.4742
G01 X74.4684 Y-40.3933
G01 X74.4403 Y-40.3147
G01 X74.4046 Y-40.2393
G01 X74.3617 Y-40.1678
G01 X74.3121 Y-40.1008
G01 X74.2560 Y-40.0390
G01 X74.1942 Y-39.9829
G01 X74.1272 Y-39.9333
G01 X74.0557 Y-39.8904
G01 X73.9803 Y-39.8547
G01 X73.9017 Y-39.8266
G01 X73.8208 Y-39.8063
G01 X73.7383 Y-39.7941
G01 X73.6550 Y-39.7900
G01 X73.5717 Y-39.7941
G01 X73.4892 Y-39.8063
G01 X73.4083 Y-39.8266
G01 X73.3297 Y-39.8547
G01 X73.2543 Y-39.8904
G01 X73.1828 Y-39.9333
G01 X73.1158 Y-39.9829
G01 X73.0540 Y-40.0390
G01 X72.9979 Y-40.1008
G01 X72.9483 Y-40.1678
G01 X72.9054 Y-40.2393
G01 X72.8697 Y-40.3147
G01 X72.8416 Y-40.3933
G01 X72.8213 Y-40.4742
G01 X72.8091 Y-40.5567
G01 X72.8050 Y-40.6400
G01 X72.8091 Y-40.7233
G01 X72.8213 Y-40.8058
G01 X72.8416 Y-40.8867
G01 X72.8697 Y-40.9653
G01 X72.9054 Y-41.0407
G01 X72.9483 Y-41.1122
G01 X72.9979 Y-41.1792
G01 X73.0540 Y-41.2410
G01 X73.1158 Y-41.2971
G01 X73.1828 Y-41.3467
G01 X73.2543 Y-41.3896
G01 X73.3297 Y-41.4253
G01 X73.4083 Y-41.4534
G01 X73.4892 Y-41.4737
G01 X73.5717 Y-41.4859
G01 X73.6575 Y-41.4899
G00 Z2.0000
G00 X76.1975 Y-41.4899
G01 F60.00
G01 Z0.0000
G01 F120.00
G01 X76.2783 Y-41.4859
G01 X76.3608 Y-41.4737
G01 X76.4417 Y-41.4534
G01 X76.5203 Y-41.4253
G01 X76.5957 Y-41.3896
G01 X76.6672 Y-41.3467
G01 X76.7342 Y-41.2971
G01 X76.7960 Y-41.2410
G01 X76.8521 Y-41.1792
G01 X76.9017 Y-41.1122
G01 X76.9446 Y-41.0407
G01 X76.9803 Y-40.9653
G01 X77.0084 Y-40.8867
G01 X77.0287 Y-40.8058
G01 X77.0409 Y-40.7233
G01 X77.0450 Y-40.6400
G01 X77.0409 Y-40.5567
G01 X77.0287 Y-40.4742
G01 X77.0084 Y-40.3933
G01 X76.9803 Y-40.3147
G01 X76.9446 Y-40.2393
G01 X76.9017 Y-40.1678
G01 X76.8521 Y-40.1008
G01 X76.7960 Y-40.0390
G01 X76.7342 Y-39.9829
G01 X76.6672 Y-39.9333
G01 X76.5957 Y-39.8904
G01 X76.5203 Y-39.8547
G01 X76.4417 Y-39.8266
G01 X76.3608 Y-39.8063
G01 X76.2783 Y-39.7941
G01 X76.1950 Y-39.7900
G01 X76.1117 Y-39.7941
G01 X76.0292 Y-39.8063
G01 X75.9483 Y-39.8266
G01 X75.8697 Y-39.8547
G01 X75.7943 Y-39.8904
G01 X75.7228 Y-39.9333
G01 X75.6558 Y-39.9829
G01 X75.5940 Y-40.0390
G01 X75.5379 Y-40.1008
G01 X75.4883 Y-40.1678
G01 X75.4454 Y-40.2393
G01 X75.4097 Y-40.3147
G01 X75.3816 Y-40.3933
G01 X75.3613 Y-40.4742
G01 X75.3491 Y-40.5567
G01 X75.3450 Y-40.6400
G01 X75.3491 Y-40.7233
G01 X75.3613 Y-40.8058
G01 X75.3816 Y-40.8867
G01 X75.4097 Y-40.9653
G01 X75.4454 Y-41.0407
G01 X75.4883 Y-41.1122
G01 X75.5379 Y-41.1792
G01 X75.5940 Y-41.2410
G01 X75.6558 Y-41.2971
G01 X75.7228 Y-41.3467
G01 X75.7943 Y-41.3896
G01 X75.8697 Y-41.4253
G01 X75.9483 Y-41.4534
G01 X76.0292 Y-41.4737
G01 X76.1117 Y-41.4859
G01 X76.1975 Y-41.4899
G00 Z2.0000
G00 X78.7375 Y-41.4899
G01 F60.00
G01 Z0.0000
G01 F120.00
G01 X78.8183 Y-41.4859
G01 X78.9008 Y-41.4737
G01 X78.9817 Y-41.4534
G01 X79.0603 Y-41.4253
G01 X79.1357 Y-41.3896
G01 X79.2072 Y-41.3467
G01 X79.2742 Y-41.2971
G01 X79.3360 Y-41.2410
G01 X79.3921 Y-41.1792
G01 X79.4417 Y-41.1122
G01 X79.4846 Y-41.0407
G01 X79.5203 Y-40.9653
G01 X79.5484 Y-40.8867
G01 X79.5687 Y-40.8058
G01 X79.5809 Y-40.7233
G01 X79.5850 Y-40.6400
G01 X79.5809 Y-40.5567
G01 X79.5687 Y-40.4742
G01 X79.5484 Y-40.3933
G01 X79.5203 Y-40.3147
G01 X79.4846 Y-40.2393
G01 X79.4417 Y-40.1678
G01 X79.3921 Y-40.1008
G01 X79.3360 Y-40.0390
G01 X79.2742 Y-39.9829
G01 X79.2072 Y-39.9333
G01 X79.1357 Y-39.8904
G01 X79.0603 Y-39.8547
G01 X78.9817 Y-39.8266
G01 X78.9008 Y-39.8063
G01 X78.8183 Y-39.7941
G01 X78.7350 Y-39.7900
G01 X78.6517 Y-39.7941
G01 X78.5692 Y-39.8063
G01 X78.4883 Y-39.8266
G01 X78.4097 Y-39.8547
G01 X78.3343 Y-39.8904
G01 X78.2628 Y-39.9333
G01 X78.1958 Y-39.9829
G01 X78.1340 Y-40.0390
G01 X78.0779 Y-40.1008
G01 X78.0283 Y-40.1678
G01 X77.9854 Y-40.2393
G01 X77.9497 Y-40.3147
G01 X77.9216 Y-40.3933
G01 X77.9013 Y-40.4742
G01 X77.8891 Y-40.5567
G01 X77.8850 Y-40.6400
G01 X77.8891 Y-40.7233
G01 X77.9013 Y-40.8058
G01 X77.9216 Y-40.8867
G01 X77.9497 Y-40.9653
G01 X77.9854 Y-41.0407
G01 X78.0283 Y-41.1122
G01 X78.0779 Y-41.1792
G01 X78.1340 Y-41.2410
G01 X78.1958 Y-41.2971
G01 X78.2628 Y-41.3467
G01 X78.3343 Y-41.3896
G01 X78.4097 Y-41.4253
G01 X78.4883 Y-41.4534
G01 X78.5692 Y-41.4737
G01 X78.6517 Y-41.4859
G01 X78.7375 Y-41.4899
G00 Z2.0000
G00 X81.2775 Y-41.4899
G01 F60.00
G01 Z0.0000
G01 F120.00
G01 X81.3583 Y-41.4859
G01 X81.4408 Y-41.4737
G01 X81.5217 Y-41.4534
G01 X81.6003 Y-41.4253
G01 X81.6757 Y-41.3896
G01 X81.7472 Y-41.3467
G01 X81.8142 Y-41.2971
G01 X81.8760 Y-41.2410
G01 X81.9321 Y-41.1792
G01 X81.9817 Y-41.1122
G01 X82.0246 Y-41.0407
G01 X82.0603 Y-40.9653
G01 X82.0884 Y-40.8867
G01 X82.1087 Y-40.8058
G01 X82.1209 Y-40.7233
G01 X82.1250 Y-40.6400
G01 X82.1209 Y-40.5567
G01 X82.1087 Y-40.4742
G01 X82.0884 Y-40.3933
G01 X82.0603 Y-40.3147
G01 X82.0246 Y-40.2393
G01 X81.9817 Y-40.1678
G01 X81.9321 Y-40.1008
G01 X81.8760 Y-40.0390
G01 X81.8142 Y-39.9829
G01 X81.7472 Y-39.9333
G01 X81.6757 Y-39.8904
G01 X81.6003 Y-39.8547
G01 X81.5217 Y-39.8266
G01 X81.4408 Y-39.8063
G01 X81.3583 Y-39.7941
G01 X81.2750 Y-39.7900
G01 X81.1917 Y-39.7941
G01 X81.1092 Y-39.8063
G01 X81.0283 Y-39.8266
G01 X80.9497 Y-39.8547
G01 X80.8743 Y-39.8904
G01 X80.8028 Y-39.9333
G01 X80.7358 Y-39.9829
G01 X80.6740 Y-40.0390
G01 X80.6179 Y-40.1008
G01 X80.5683 Y-40.1678
G01 X80.5254 Y-40.2393
G01 X80.4897 Y-40.3147
G01 X80.4616 Y-40.3933
G01 X80.4413 Y-40.4742
G01 X80.4291 Y-40.5567
G01 X80.4250 Y-40.6400
G01 X80.4291 Y-40.7233
G01 X80.4413 Y-40.8058
G01 X80.4616 Y-40.8867
G01 X80.4897 Y-40.9653
G01 X80.5254 Y-41.0407
G01 X80.5683 Y-41.1122
G01 X80.6179 Y-41.1792
G01 X80.6740 Y-41.2410
G01 X80.7358 Y-41.2971
G01 X80.8028 Y-41.3467
G01 X80.8743 Y-41.3896
G01 X80.9497 Y-41.4253
G01 X81.0283 Y-41.4534
G01 X81.1092 Y-41.4737
G01 X81.1917 Y-41.4859
G01 X81.2775 Y-41.4899
G00 Z2.0000
G00 X83.8175 Y-41.4899
G01 F60.00
G01 Z0.0000
G01 F120.00
G01 X83.8983 Y-41.4859
G01 X83.9808 Y-41.4737
G01 X84.0617 Y-41.4534
G01 X84.1403 Y-41.4253
G01 X84.2157 Y-41.3896
G01 X84.2872 Y-41.3467
G01 X84.3542 Y-41.2971
G01 X84.4160 Y-41.2410
G01 X84.4721 Y-41.1792
G01 X84.5217 Y-41.1122
G01 X84.5646 Y-41.0407
G01 X84.6003 Y-40.9653
G01 X84.6284 Y-40.8867
G01 X84.6487 Y-40.8058
G01 X84.6609 Y-40.7233
G01 X84.6650 Y-40.6400
G01 X84.6609 Y-40.5567
G01 X84.6487 Y-40.4742
G01 X84.6284 Y-40.3933
G01 X84.6003 Y-40.3147
G01 X84.5646 Y-40.2393
G01 X84.5217 Y-40.1678
G01 X84.4721 Y-40.1008
G01 X84.4160 Y-40.0390
G01 X84.3542 Y-39.9829
G01 X84.2872 Y-39.9333
G01 X84.2157 Y-39.8904
G01 X84.1403 Y-39.8547
G01 X84.0617 Y-39.8266
G01 X83.9808 Y-39.8063
G01 X83.8983 Y-39.7941
G01 X83.8150 Y-39.7900
G01 X83.7317 Y-39.7941
G01 X83.6492 Y-39.8063
G01 X83.5683 Y-39.8266
G01 X83.4897 Y-39.8547
G01 X83.4143 Y-39.8904
G01 X83.3428 Y-39.9333
G01 X83.2758 Y-39.9829
G01 X83.2140 Y-40.0390
G01 X83.1579 Y-40.1008
G01 X83.1083 Y-40.1678
G01 X83.0654 Y-40.2393
G01 X83.0297 Y-40.3147
G01 X83.0016 Y-40.3933
G01 X82.9813 Y-40.4742
G01 X82.9691 Y-40.5567
G01 X82.9650 Y-40.6400
G01 X82.9691 Y-40.7233
G01 X82.9813 Y-40.8058
G01 X83.0016 Y-40.8867
G01 X83.0297 Y-40.9653
G01 X83.0654 Y-41.0407
G01 X83.1083 Y-41.1122
G01 X83.1579 Y-41.1792
G01 X83.2140 Y-41.2410
G01 X83.2758 Y-41.2971
G01 X83.3428 Y-41.3467
G01 X83.4143 Y-41.3896
G01 X83.4897 Y-41.4253
G01 X83.5683 Y-41.4534
G01 X83.6492 Y-41.4737
G01 X83.7317 Y-41.4859
G01 X83.8175 Y-41.4899
G00 Z2.0000
G00 X86.3575 Y-41.4899
G01 F60.00
G01 Z0.0000
G01 F120.00
G01 X86.4383 Y-41.4859
G01 X86.5208 Y-41.4737
G01 X86.6017 Y-41.4534
G01 X86.6803 Y-41.4253
G01 X86.7557 Y-41.3896
G01 X86.8272 Y-41.3467
G01 X86.8942 Y-41.2971
G01 X86.9560 Y-41.2410
G01 X87.0121 Y-41.1792
G01 X87.0617 Y-41.1122
G01 X87.1046 Y-41.0407
G01 X87.1403 Y-40.9653
G01 X87.1684 Y-40.8867
G01 X87.1887 Y-40.8058
G01 X87.2009 Y-40.7233
G01 X87.2050 Y-40.6400
G01 X87.2009 Y-40.5567
G01 X87.1887 Y-40.4742
G01 X87.1684 Y-40.3933
G01 X87.1403 Y-40.3147
G01 X87.1046 Y-40.2393
G01 X87.0617 Y-40.1678
G01 X87.0121 Y-40.1008
G01 X86.9560 Y-40.0390
G01 X86.8942 Y-39.9829
G01 X86.8272 Y-39.9333
G01 X86.7557 Y-39.8904
G01 X86.6803 Y-39.8547
G01 X86.6017 Y-39.8266
G01 X86.5208 Y-39.8063
G01 X86.4383 Y-39.7941
G01 X86.3550 Y-39.7900
G01 X86.2717 Y-39.7941
G01 X86.1892 Y-39.8063
G01 X86.1083 Y-39.8266
G01 X86.0297 Y-39.8547
G01 X85.9543 Y-39.8904
G01 X85.8828 Y-39.9333
G01 X85.8158 Y-39.9829
G01 X85.7540 Y-40.0390
G01 X85.6979 Y-40.1008
G01 X85.6483 Y-40.1678
G01 X85.6054 Y-40.2393
G01 X85.5697 Y-40.3147
G01 X85.5416 Y-40.3933
G01 X85.5213 Y-40.4742
G01 X85.5091 Y-40.5567
G01 X85.5050 Y-40.6400
G01 X85.5091 Y-40.7233
G01 X85.5213 Y-40.8058
G01 X85.5416 Y-40.8867
G01 X85.5697 Y-40.9653
G01 X85.6054 Y-41.0407
G01 X85.6483 Y-41.1122
G01 X85.6979 Y-41.1792
G01 X85.7540 Y-41.2410
G01 X85.8158 Y-41.2971
G01 X85.8828 Y-41.3467
G01 X85.9543 Y-41.3896
G01 X86.0297 Y-41.4253
G01 X86.1083 Y-41.4534
G01 X86.1892 Y-41.4737
G01 X86.2717 Y-41.4859
G01 X86.3575 Y-41.4899
G00 Z2.0000
G00 X91.2750 Y-41.4900
G01 F60.00
G01 Z0.0000
G01 F120.00
G01 X92.8750 Y-41.4900
G01 X92.8848 Y-41.4890
G01 X92.8895 Y-41.4878
G01 X92.8953 Y-41.4857
G01 X92.9038 Y-41.4809
G01 X92.9112 Y-41.4745
G01 X92.9172 Y-41.4667
G01 X92.9216 Y-41.4580
G01 X92.9240 Y-41.4498
G01 X92.9250 Y-41.4400
G01 X92.9250 Y-39.8400
G01 X92.9240 Y-39.8302
G01 X92.9212 Y-39.8209
G01 X92.9166 Y-39.8122
G01 X92.9129 Y-39.8073
G01 X92.9095 Y-39.8038
G01 X92.9017 Y-39.7978
G01 X92.8941 Y-39.7938
G01 X92.8848 Y-39.7910
G01 X92.8750 Y-39.7900
G01 X91.2750 Y-39.7900
G01 X91.2652 Y-39.7910
G01 X91.2605 Y-39.7922
G01 X91.2547 Y-39.7943
G01 X91.2462 Y-39.7991
G01 X91.2388 Y-39.8055
G01 X91.2328 Y-39.8133
G01 X91.2284 Y-39.8220
G01 X91.2257 Y-39.8315
G01 X91.2250 Y-39.8400
G01 X91.2250 Y-41.4412
G01 X91.2262 Y-41.4510
G01 X91.2293 Y-41.4603
G01 X91.2334 Y-41.4678
G01 X91.2396 Y-41.4754
G01 X91.2472 Y-41.4816
G01 X91.2559 Y-41.4862
G01 X91.2652 Y-41.4890
G01 X91.2750 Y-41.4900
G00 Z2.0000
G00 X92.0775 Y-44.0299
G01 F60.00
G01 Z0.0000
G01 F120.00
G01 X92.1583 Y-44.0259
G01 X92.2408 Y-44.0137
G01 X92.3217 Y-43.9934
G01 X92.4003 Y-43.9653
G01 X92.4757 Y-43.9296
G01 X92.5472 Y-43.8867
G01 X92.6142 Y-43.8371
G01 X92.6760 Y-43.7810
G01 X92.7321 Y-43.7192
G01 X92.7817 Y-43.6522
G01 X92.8246 Y-43.5807
G01 X92.8603 Y-43.5053
G01 X92.8884 Y-43.4267
G01 X92.9087 Y-43.3458
G01 X92.9209 Y-43.2633
G01 X92.9250 Y-43.1800
G01 X92.9209 Y-43.0967
G01 X92.9087 Y-43.0142
G01 X92.8884 Y-42.9333
G01 X92.8603 Y-42.8547
G01 X92.8246 Y-42.7793
G01 X92.7817 Y-42.7078
G01 X92.7321 Y-42.6408
G01 X92.6760 Y-42.5790
G01 X92.6142 Y-42.5229
G01 X92.5472 Y-42.4733
G01 X92.4757 Y-42.4304
G01 X92.4003 Y-42.3947
G01 X92.3217 Y-42.3666
G01 X92.2408 Y-42.3463
G01 X92.1583 Y-42.3341
G01 X92.0750 Y-42.3300
G01 X91.9917 Y-42.3341
G01 X91.9092 Y-42.3463
G01 X91.8283 Y-42.3666
G01 X91.7497 Y-42.3947
G01 X91.6743 Y-42.4304
G01 X91.6028 Y-42.4733
G01 X91.5358 Y-42.5229
G01 X91.4740 Y-42.5790
G01 X91.4179 Y-42.6408
G01 X91.3683 Y-42.7078
G01 X91.3254 Y-42.7793
G01 X91.2897 Y-42.8547
G01 X91.2616 Y-42.9333
G01 X91.2413 Y-43.0142
G01 X91.2291 Y-43.0967
G01 X91.2250 Y-43.1800
G01 X91.2291 Y-43.2633
G01 X91.2413 Y-43.3458
G01 X91.2616 Y-43.4267
G01 X91.2897 Y-43.5053
G01 X91.3254 Y-43.5807
G01 X91.3683 Y-43.6522
G01 X91.4179 Y-43.7192
G01 X91.4740 Y-43.7810
G01 X91.5358 Y-43.8371
G01 X91.6028 Y-43.8867
G01 X91.6743 Y-43.9296
G01 X91.7497 Y-43.9653
G01 X91.8283 Y-43.9934
G01 X91.9092 Y-44.0137
G01 X91.9917 Y-44.0259
G01 X92.0775 Y-44.0299
G00 Z2.0000
G00 X92.0775 Y-46.5699
G01 F60.00
G01 Z0.0000
G01 F120.00
G01 X92.1583 Y-46.5659
G01 X92.2408 Y-46.5537
G01 X92.3217 Y-46.5334
G01 X92.4003 Y-46.5053
G01 X92.4757 Y-46.4696
G01 X92.5472 Y-46.4267
G01 X92.6142 Y-46.3771
G01 X92.6760 Y-46.3210
G01 X92.7321 Y-46.2592
G01 X92.7817 Y-46.1922
G01 X92.8246 Y-46.1207
G01 X92.8603 Y-46.0453
G01 X92.8884 Y-45.9667
G01 X92.9087 Y-45.8858
G01 X92.9209 Y-45.8033
G01 X92.9250 Y-45.7200
G01 X92.9209 Y-45.6367
G01 X92.9087 Y-45.5542
G01 X92.8884 Y-45.4733
G01 X92.8603 Y-45.3947
G01 X92.8246 Y-45.3193
G01 X92.7817 Y-45.2478
G01 X92.7321 Y-45.1808
G01 X92.6760 Y-45.1190
G01 X92.6142 Y-45.0629
G01 X92.5472 Y-45.0133
G01 X92.4757 Y-44.9704
G01 X92.4003 Y-44.9347
G01 X92.3217 Y-44.9066
G01 X92.2408 Y-44.8863
G01 X92.1583 Y-44.8741
G01 X92.0750 Y-44.8700
G01 X91.9917 Y-44.8741
G01 X91.9092 Y-44.8863
G01 X91.8283 Y-44.9066
G01 X91.7497 Y-44.9347
G01 X91.6743 Y-44.9704
G01 X91.6028 Y-45.0133
G01 X91.5358 Y-45.0629
G01 X91.4740 Y-45.1190
G01 X91.4179 Y-45.1808
G01 X91.3683 Y-45.2478
G01 X91.3254 Y-45.3193
G01 X91.2897 Y-45.3947
G01 X91.2616 Y-45.4733
G01 X91.2413 Y-45.5542
G01 X91.2291 Y-45.6367
G01 X91.2250 Y-45.7200
G01 X91.2291 Y-45.8033
G01 X91.2413 Y-45.8858
G01 X91.2616 Y-45.9667
G01 X91.2897 Y-46.0453
G01 X91.3254 Y-46.1207
G01 X91.3683 Y-46.1922
G01 X91.4179 Y-46.2592
G01 X91.4740 Y-46.3210
G01 X91.5358 Y-46.3771
G01 X91.6028 Y-46.4267
G01 X91.6743 Y-46.4696
G01 X91.7497 Y-46.5053
G01 X91.8283 Y-46.5334
G01 X91.9092 Y-46.5537
G01 X91.9917 Y-46.5659
G01 X92.0775 Y-46.5699
G00 Z2.0000
G00 X92.0775 Y-49.1099
G01 F60.00
G01 Z0.0000
G01 F120.00
G01 X92.1583 Y-49.1059
G01 X92.2408 Y-49.0937
G01 X92.3217 Y-49.0734
G01 X92.4003 Y-49.0453
G01 X92.4757 Y-49.0096
G01 X92.5472 Y-48.9667
G01 X92.6142 Y-48.9171
G01 X92.6760 Y-48.8610
G01 X92.7321 Y-48.7992
G01 X92.7817 Y-48.7322
G01 X92.8246 Y-48.6607
G01 X92.8603 Y-48.5853
G01 X92.8884 Y-48.5067
G01 X92.9087 Y-48.4258
G01 X92.9209 Y-48.3433
G01 X92.9250 Y-48.2600
G01 X92.9209 Y-48.1767
G01 X92.9087 Y-48.0942
G01 X92.8884 Y-48.0133
G01 X92.8603 Y-47.9347
G01 X92.8246 Y-47.8593
G01 X92.7817 Y-47.7878
G01 X92.7321 Y-47.7208
G01 X92.6760 Y-47.6590
G01 X92.6142 Y-47.6029
G01 X92.5472 Y-47.5533
G01 X92.4757 Y-47.5104
G01 X92.4003 Y-47.4747
G01 X92.3217 Y-47.4466
G01 X92.2408 Y-47.4263
G01 X92.1583 Y-47.4141
G01 X92.0750 Y-47.4100
G01 X91.9917 Y-47.4141
G01 X91.9092 Y-47.4263
G01 X91.8283 Y-47.4466
G01 X91.7497 Y-47.4747
G01 X91.6743 Y-47.5104
G01 X91.6028 Y-47.5533
G01 X91.5358 Y-47.6029
G01 X91.4740 Y-47.6590
G01 X91.4179 Y-47.7208
G01 X91.3683 Y-47.7878
G01 X91.3254 Y-47.8593
G01 X91.2897 Y-47.9347
G01 X91.2616 Y-48.0133
G01 X91.2413 Y-48.0942
G01 X91.2291 Y-48.1767
G01 X91.2250 Y-48.2600
G01 X91.2291 Y-48.3433
G01 X91.2413 Y-48.4258
G01 X91.2616 Y-48.5067
G01 X91.2897 Y-48.5853
G01 X91.3254 Y-48.6607
G01 X91.3683 Y-48.7322
G01 X91.4179 Y-48.7992
G01 X91.4740 Y-48.8610
G01 X91.5358 Y-48.9171
G01 X91.6028 Y-48.9667
G01 X91.6743 Y-49.0096
G01 X91.7497 Y-49.0453
G01 X91.8283 Y-49.0734
G01 X91.9092 Y-49.0937
G01 X91.9917 Y-49.1059
G01 X92.0775 Y-49.1099
G00 Z2.0000
G00 X92.0775 Y-51.6499
G01 F60.00
G01 Z0.0000
G01 F120.00
G01 X92.1583 Y-51.6459
G01 X92.2408 Y-51.6337
G01 X92.3217 Y-51.6134
G01 X92.4003 Y-51.5853
G01 X92.4757 Y-51.5496
G01 X92.5472 Y-51.5067
G01 X92.6142 Y-51.4571
G01 X92.6760 Y-51.4010
G01 X92.7321 Y-51.3392
G01 X92.7817 Y-51.2722
G01 X92.8246 Y-51.2007
G01 X92.8603 Y-51.1253
G01 X92.8884 Y-51.0467
G01 X92.9087 Y-50.9658
G01 X92.9209 Y-50.8833
G01 X92.9250 Y-50.8000
G01 X92.9209 Y-50.7167
G01 X92.9087 Y-50.6342
G01 X92.8884 Y-50.5533
G01 X92.8603 Y-50.4747
G01 X92.8246 Y-50.3993
G01 X92.7817 Y-50.3278
G01 X92.7321 Y-50.2608
G01 X92.6760 Y-50.1990
G01 X92.6142 Y-50.1429
G01 X92.5472 Y-50.0933
G01 X92.4757 Y-50.0504
G01 X92.4003 Y-50.0147
G01 X92.3217 Y-49.9866
G01 X92.2408 Y-49.9663
G01 X92.1583 Y-49.9541
G01 X92.0750 Y-49.9500
G01 X91.9917 Y-49.9541
G01 X91.9092 Y-49.9663
G01 X91.8283 Y-49.9866
G01 X91.7497 Y-50.0147
G01 X91.6743 Y-50.0504
G01 X91.6028 Y-50.0933
G01 X91.5358 Y-50.1429
G01 X91.4740 Y-50.1990
G01 X91.4179 Y-50.2608
G01 X91.3683 Y-50.3278
G01 X91.3254 Y-50.3993
G01 X91.2897 Y-50.4747
G01 X91.2616 Y-50.5533
G01 X91.2413 Y-50.6342
G01 X91.2291 Y-50.7167
G01 X91.2250 Y-50.8000
G01 X91.2291 Y-50.8833
G01 X91.2413 Y-50.9658
G01 X91.2616 Y-51.0467
G01 X91.2897 Y-51.1253
G01 X91.3254 Y-51.2007
G01 X91.3683 Y-51.2722
G01 X91.4179 Y-51.3392
G01 X91.4740 Y-51.4010
G01 X91.5358 Y-51.4571
G01 X91.6028 Y-51.5067
G01 X91.6743 Y-51.5496
G01 X91.7497 Y-51.5853
G01 X91.8283 Y-51.6134
G01 X91.9092 Y-51.6337
G01 X91.9917 Y-51.6459
G01 X92.0775 Y-51.6499
G00 Z2.0000
G00 X92.0775 Y-54.1899
G01 F60.00
G01 Z0.0000
G01 F120.00
G01 X92.1583 Y-54.1859
G01 X92.2408 Y-54.1737
G01 X92.3217 Y-54.1534
G01 X92.4003 Y-54.1253
G01 X92.4757 Y-54.0896
G01 X92.5472 Y-54.0467
G01 X92.6142 Y-53.9971
G01 X92.6760 Y-53.9410
G01 X92.7321 Y-53.8792
G01 X92.7817 Y-53.8122
G01 X92.8246 Y-53.7407
G01 X92.8603 Y-53.6653
G01 X92.8884 Y-53.5867
G01 X92.9087 Y-53.5058
G01 X92.9209 Y-53.4233
G01 X92.9250 Y-53.3400
G01 X92.9209 Y-53.2567
G01 X92.9087 Y-53.1742
G01 X92.8884 Y-53.0933
G01 X92.8603 Y-53.0147
G01 X92.8246 Y-52.9393
G01 X92.7817 Y-52.8678
G01 X92.7321 Y-52.8008
G01 X92.6760 Y-52.7390
G01 X92.6142 Y-52.6829
G01 X92.5472 Y-52.6333
G01 X92.4757 Y-52.5904
G01 X92.4003 Y-52.5547
G01 X92.3217 Y-52.5266
G01 X92.2408 Y-52.5063
G01 X92.1583 Y-52.4941
G01 X92.0750 Y-52.4900
G01 X91.9917 Y-52.4941
G01 X91.9092 Y-52.5063
G01 X91.8283 Y-52.5266
G01 X91.7497 Y-52.5547
G01 X91.6743 Y-52.5904
G01 X91.6028 Y-52.6333
G01 X91.5358 Y-52.6829
G01 X91.4740 Y-52.7390
G01 X91.4179 Y-52.8008
G01 X91.3683 Y-52.8678
G01 X91.3254 Y-52.9393
G01 X91.2897 Y-53.0147
G01 X91.2616 Y-53.0933
G01 X91.2413 Y-53.1742
G01 X91.2291 Y-53.2567
G01 X91.2250 Y-53.3400
G01 X91.2291 Y-53.4233
G01 X91.2413 Y-53.5058
G01 X91.2616 Y-53.5867
G01 X91.2897 Y-53.6653
G01 X91.3254 Y-53.7407
G01 X91.3683 Y-53.8122
G01 X91.4179 Y-53.8792
G01 X91.4740 Y-53.9410
G01 X91.5358 Y-53.9971
G01 X91.6028 Y-54.0467
G01 X91.6743 Y-54.0896
G01 X91.7497 Y-54.1253
G01 X91.8283 Y-54.1534
G01 X91.9092 Y-54.1737
G01 X91.9917 Y-54.1859
G01 X92.0775 Y-54.1899
G00 Z2.0000
G00 X92.0775 Y-56.7299
G01 F60.00
G01 Z0.0000
G01 F120.00
G01 X92.1583 Y-56.7259
G01 X92.2408 Y-56.7137
G01 X92.3217 Y-56.6934
G01 X92.4003 Y-56.6653
G01 X92.4757 Y-56.6296
G01 X92.5472 Y-56.5867
G01 X92.6142 Y-56.5371
G01 X92.6760 Y-56.4810
G01 X92.7321 Y-56.4192
G01 X92.7817 Y-56.3522
G01 X92.8246 Y-56.2807
G01 X92.8603 Y-56.2053
G01 X92.8884 Y-56.1267
G01 X92.9087 Y-56.0458
G01 X92.9209 Y-55.9633
G01 X92.9250 Y-55.8800
G01 X92.9209 Y-55.7967
G01 X92.9087 Y-55.7142
G01 X92.8884 Y-55.6333
G01 X92.8603 Y-55.5547
G01 X92.8246 Y-55.4793
G01 X92.7817 Y-55.4078
G01 X92.7321 Y-55.3408
G01 X92.6760 Y-55.2790
G01 X92.6142 Y-55.2229
G01 X92.5472 Y-55.1733
G01 X92.4757 Y-55.1304
G01 X92.4003 Y-55.0947
G01 X92.3217 Y-55.0666
G01 X92.2408 Y-55.0463
G01 X92.1583 Y-55.0341
G01 X92.0750 Y-55.0300
G01 X91.9917 Y-55.0341
G01 X91.9092 Y-55.0463
G01 X91.8283 Y-55.0666
G01 X91.7497 Y-55.0947
G01 X91.6743 Y-55.1304
G01 X91.6028 Y-55.1733
G01 X91.5358 Y-55.2229
G01 X91.4740 Y-55.2790
G01 X91.4179 Y-55.3408
G01 X91.3683 Y-55.4078
G01 X91.3254 Y-55.4793
G01 X91.2897 Y-55.5547
G01 X91.2616 Y-55.6333
G01 X91.2413 Y-55.7142
G01 X91.2291 Y-55.7967
G01 X91.2250 Y-55.8800
G01 X91.2291 Y-55.9633
G01 X91.2413 Y-56.0458
G01 X91.2616 Y-56.1267
G01 X91.2897 Y-56.2053
G01 X91.3254 Y-56.2807
G01 X91.3683 Y-56.3522
G01 X91.4179 Y-56.4192
G01 X91.4740 Y-56.4810
G01 X91.5358 Y-56.5371
G01 X91.6028 Y-56.5867
G01 X91.6743 Y-56.6296
G01 X91.7497 Y-56.6653
G01 X91.8283 Y-56.6934
G01 X91.9092 Y-56.7137
G01 X91.9917 Y-56.7259
G01 X92.0775 Y-56.7299
G00 Z2.0000
G00 X86.3625 Y-54.1899
G01 F60.00
G01 Z0.0000
G01 F120.00
G01 X86.4433 Y-54.1859
G01 X86.5258 Y-54.1737
G01 X86.6067 Y-54.1534
G01 X86.6853 Y-54.1253
G01 X86.7607 Y-54.0896
G01 X86.8322 Y-54.0467
G01 X86.8992 Y-53.9971
G01 X86.9610 Y-53.9410
G01 X87.0171 Y-53.8792
G01 X87.0667 Y-53.8122
G01 X87.1096 Y-53.7407
G01 X87.1453 Y-53.6653
G01 X87.1734 Y-53.5867
G01 X87.1937 Y-53.5058
G01 X87.2059 Y-53.4233
G01 X87.2100 Y-53.3400
G01 X87.2059 Y-53.2567
G01 X87.1937 Y-53.1742
G01 X87.1734 Y-53.0933
G01 X87.1453 Y-53.0147
G01 X87.1096 Y-52.9393
G01 X87.0667 Y-52.8678
G01 X87.0171 Y-52.8008
G01 X86.9610 Y-52.7390
G01 X86.8992 Y-52.6829
G01 X86.8322 Y-52.6333
G01 X86.7607 Y-52.5904
G01 X86.6853 Y-52.5547
G01 X86.6067 Y-52.5266
G01 X86.5258 Y-52.5063
G01 X86.4433 Y-52.4941
G01 X86.3600 Y-52.4900
G01 X86.2767 Y-52.4941
G01 X86.1942 Y-52.5063
G01 X86.1133 Y-52.5266
G01 X86.0347 Y-52.5547
G01 X85.9593 Y-52.5904
G01 X85.8878 Y-52.6333
G01 X85.8208 Y-52.6829
G01 X85.7590 Y-52.7390
G01 X85.7029 Y-52.8008
G01 X85.6533 Y-52.8678
G01 X85.6104 Y-52.9393
G01 X85.5747 Y-53.0147
G01 X85.5466 Y-53.0933
G01 X85.5263 Y-53.1742
G01 X85.5141 Y-53.2567
G01 X85.5100 Y-53.3400
G01 X85.5141 Y-53.4233
G01 X85.5263 Y-53.5058
G01 X85.5466 Y-53.5867
G01 X85.5747 Y-53.6653
G01 X85.6104 Y-53.7407
G01 X85.6533 Y-53.8122
G01 X85.7029 Y-53.8792
G01 X85.7590 Y-53.9410
G01 X85.8208 Y-53.9971
G01 X85.8878 Y-54.0467
G01 X85.9593 Y-54.0896
G01 X86.0347 Y-54.1253
G01 X86.1133 Y-54.1534
G01 X86.1942 Y-54.1737
G01 X86.2767 Y-54.1859
G01 X86.3625 Y-54.1899
G00 Z2.0000
G00 X83.8225 Y-54.1899
G01 F60.00
G01 Z0.0000
G01 F120.00
G01 X83.9033 Y-54.1859
G01 X83.9858 Y-54.1737
G01 X84.0667 Y-54.1534
G01 X84.1453 Y-54.1253
G01 X84.2207 Y-54.0896
G01 X84.2922 Y-54.0467
G01 X84.3592 Y-53.9971
G01 X84.4210 Y-53.9410
G01 X84.4771 Y-53.8792
G01 X84.5267 Y-53.8122
G01 X84.5696 Y-53.7407
G01 X84.6053 Y-53.6653
G01 X84.6334 Y-53.5867
G01 X84.6537 Y-53.5058
G01 X84.6659 Y-53.4233
G01 X84.6700 Y-53.3400
G01 X84.6659 Y-53.2567
G01 X84.6537 Y-53.1742
G01 X84.6334 Y-53.0933
G01 X84.6053 Y-53.0147
G01 X84.5696 Y-52.9393
G01 X84.5267 Y-52.8678
G01 X84.4771 Y-52.8008
G01 X84.4210 Y-52.7390
G01 X84.3592 Y-52.6829
G01 X84.2922 Y-52.6333
G01 X84.2207 Y-52.5904
G01 X84.1453 Y-52.5547
G01 X84.0667 Y-52.5266
G01 X83.9858 Y-52.5063
G01 X83.9033 Y-52.4941
G01 X83.8200 Y-52.4900
G01 X83.7367 Y-52.4941
G01 X83.6542 Y-52.5063
G01 X83.5733 Y-52.5266
G01 X83.4947 Y-52.5547
G01 X83.4193 Y-52.5904
G01 X83.3478 Y-52.6333
G01 X83.2808 Y-52.6829
G01 X83.2190 Y-52.7390
G01 X83.1629 Y-52.8008
G01 X83.1133 Y-52.8678
G01 X83.0704 Y-52.9393
G01 X83.0347 Y-53.0147
G01 X83.0066 Y-53.0933
G01 X82.9863 Y-53.1742
G01 X82.9741 Y-53.2567
G01 X82.9700 Y-53.3400
G01 X82.9741 Y-53.4233
G01 X82.9863 Y-53.5058
G01 X83.0066 Y-53.5867
G01 X83.0347 Y-53.6653
G01 X83.0704 Y-53.7407
G01 X83.1133 Y-53.8122
G01 X83.1629 Y-53.8792
G01 X83.2190 Y-53.9410
G01 X83.2808 Y-53.9971
G01 X83.3478 Y-54.0467
G01 X83.4193 Y-54.0896
G01 X83.4947 Y-54.1253
G01 X83.5733 Y-54.1534
G01 X83.6542 Y-54.1737
G01 X83.7367 Y-54.1859
G01 X83.8225 Y-54.1899
G00 Z2.0000
G00 X81.2825 Y-54.1899
G01 F60.00
G01 Z0.0000
G01 F120.00
G01 X81.3633 Y-54.1859
G01 X81.4458 Y-54.1737
G01 X81.5267 Y-54.1534
G01 X81.6053 Y-54.1253
G01 X81.6807 Y-54.0896
G01 X81.7522 Y-54.0467
G01 X81.8192 Y-53.9971
G01 X81.8810 Y-53.9410
G01 X81.9371 Y-53.8792
G01 X81.9867 Y-53.8122
G01 X82.0296 Y-53.7407
G01 X82.0653 Y-53.6653
G01 X82.0934 Y-53.5867
G01 X82.1137 Y-53.5058
G01 X82.1259 Y-53.4233
G01 X82.1300 Y-53.3400
G01 X82.1259 Y-53.2567
G01 X82.1137 Y-53.1742
G01 X82.0934 Y-53.0933
G01 X82.0653 Y-53.0147
G01 X82.0296 Y-52.9393
G01 X81.9867 Y-52.8678
G01 X81.9371 Y-52.8008
G01 X81.8810 Y-52.7390
G01 X81.8192 Y-52.6829
G01 X81.7522 Y-52.6333
G01 X81.6807 Y-52.5904
G01 X81.6053 Y-52.5547
G01 X81.5267 Y-52.5266
G01 X81.4458 Y-52.5063
G01 X81.3633 Y-52.4941
G01 X81.2800 Y-52.4900
G01 X81.1967 Y-52.4941
G01 X81.1142 Y-52.5063
G01 X81.0333 Y-52.5266
G01 X80.9547 Y-52.5547
G01 X80.8793 Y-52.5904
G01 X80.8078 Y-52.6333
G01 X80.7408 Y-52.6829
G01 X80.6790 Y-52.7390
G01 X80.6229 Y-52.8008
G01 X80.5733 Y-52.8678
G01 X80.5304 Y-52.9393
G01 X80.4947 Y-53.0147
G01 X80.4666 Y-53.0933
G01 X80.4463 Y-53.1742
G01 X80.4341 Y-53.2567
G01 X80.4300 Y-53.3400
G01 X80.4341 Y-53.4233
G01 X80.4463 Y-53.5058
G01 X80.4666 Y-53.5867
G01 X80.4947 Y-53.6653
G01 X80.5304 Y-53.7407
G01 X80.5733 Y-53.8122
G01 X80.6229 Y-53.8792
G01 X80.6790 Y-53.9410
G01 X80.7408 Y-53.9971
G01 X80.8078 Y-54.0467
G01 X80.8793 Y-54.0896
G01 X80.9547 Y-54.1253
G01 X81.0333 Y-54.1534
G01 X81.1142 Y-54.1737
G01 X81.1967 Y-54.1859
G01 X81.2825 Y-54.1899
G00 Z2.0000
G00 X78.7425 Y-54.1899
G01 F60.00
G01 Z0.0000
G01 F120.00
G01 X78.8233 Y-54.1859
G01 X78.9058 Y-54.1737
G01 X78.9867 Y-54.1534
G01 X79.0653 Y-54.1253
G01 X79.1407 Y-54.0896
G01 X79.2122 Y-54.0467
G01 X79.2792 Y-53.9971
G01 X79.3410 Y-53.9410
G01 X79.3971 Y-53.8792
G01 X79.4467 Y-53.8122
G01 X79.4896 Y-53.7407
G01 X79.5253 Y-53.6653
G01 X79.5534 Y-53.5867
G01 X79.5737 Y-53.5058
G01 X79.5859 Y-53.4233
G01 X79.5900 Y-53.3400
G01 X79.5859 Y-53.2567
G01 X79.5737 Y-53.1742
G01 X79.5534 Y-53.0933
G01 X79.5253 Y-53.0147
G01 X79.4896 Y-52.9393
G01 X79.4467 Y-52.8678
G01 X79.3971 Y-52.8008
G01 X79.3410 Y-52.7390
G01 X79.2792 Y-52.6829
G01 X79.2122 Y-52.6333
G01 X79.1407 Y-52.5904
G01 X79.0653 Y-52.5547
G01 X78.9867 Y-52.5266
G01 X78.9058 Y-52.5063
G01 X78.8233 Y-52.4941
G01 X78.7400 Y-52.4900
G01 X78.6567 Y-52.4941
G01 X78.5742 Y-52.5063
G01 X78.4933 Y-52.5266
G01 X78.4147 Y-52.5547
G01 X78.3393 Y-52.5904
G01 X78.2678 Y-52.6333
G01 X78.2008 Y-52.6829
G01 X78.1390 Y-52.7390
G01 X78.0829 Y-52.8008
G01 X78.0333 Y-52.8678
G01 X77.9904 Y-52.9393
G01 X77.9547 Y-53.0147
G01 X77.9266 Y-53.0933
G01 X77.9063 Y-53.1742
G01 X77.8941 Y-53.2567
G01 X77.8900 Y-53.3400
G01 X77.8941 Y-53.4233
G01 X77.9063 Y-53.5058
G01 X77.9266 Y-53.5867
G01 X77.9547 Y-53.6653
G01 X77.9904 Y-53.7407
G01 X78.0333 Y-53.8122
G01 X78.0829 Y-53.8792
G01 X78.1390 Y-53.9410
G01 X78.2008 Y-53.9971
G01 X78.2678 Y-54.0467
G01 X78.3393 Y-54.0896
G01 X78.4147 Y-54.1253
G01 X78.4933 Y-54.1534
G01 X78.5742 Y-54.1737
G01 X78.6567 Y-54.1859
G01 X78.7425 Y-54.1899
G00 Z2.0000
G00 X76.2025 Y-54.1899
G01 F60.00
G01 Z0.0000
G01 F120.00
G01 X76.2833 Y-54.1859
G01 X76.3658 Y-54.1737
G01 X76.4467 Y-54.1534
G01 X76.5253 Y-54.1253
G01 X76.6007 Y-54.0896
G01 X76.6722 Y-54.0467
G01 X76.7392 Y-53.9971
G01 X76.8010 Y-53.9410
G01 X76.8571 Y-53.8792
G01 X76.9067 Y-53.8122
G01 X76.9496 Y-53.7407
G01 X76.9853 Y-53.6653
G01 X77.0134 Y-53.5867
G01 X77.0337 Y-53.5058
G01 X77.0459 Y-53.4233
G01 X77.0500 Y-53.3400
G01 X77.0459 Y-53.2567
G01 X77.0337 Y-53.1742
G01 X77.0134 Y-53.0933
G01 X76.9853 Y-53.0147
G01 X76.9496 Y-52.9393
G01 X76.9067 Y-52.8678
G01 X76.8571 Y-52.8008
G01 X76.8010 Y-52.7390
G01 X76.7392 Y-52.6829
G01 X76.6722 Y-52.6333
G01 X76.6007 Y-52.5904
G01 X76.5253 Y-52.5547
G01 X76.4467 Y-52.5266
G01 X76.3658 Y-52.5063
G01 X76.2833 Y-52.4941
G01 X76.2000 Y-52.4900
G01 X76.1167 Y-52.4941
G01 X76.0342 Y-52.5063
G01 X75.9533 Y-52.5266
G01 X75.8747 Y-52.5547
G01 X75.7993 Y-52.5904
G01 X75.7278 Y-52.6333
G01 X75.6608 Y-52.6829
G01 X75.5990 Y-52.7390
G01 X75.5429 Y-52.8008
G01 X75.4933 Y-52.8678
G01 X75.4504 Y-52.9393
G01 X75.4147 Y-53.0147
G01 X75.3866 Y-53.0933
G01 X75.3663 Y-53.1742
G01 X75.3541 Y-53.2567
G01 X75.3500 Y-53.3400
G01 X75.3541 Y-53.4233
G01 X75.3663 Y-53.5058
G01 X75.3866 Y-53.5867
G01 X75.4147 Y-53.6653
G01 X75.4504 Y-53.7407
G01 X75.4933 Y-53.8122
G01 X75.5429 Y-53.8792
G01 X75.5990 Y-53.9410
G01 X75.6608 Y-53.9971
G01 X75.7278 Y-54.0467
G01 X75.7993 Y-54.0896
G01 X75.8747 Y-54.1253
G01 X75.9533 Y-54.1534
G01 X76.0342 Y-54.1737
G01 X76.1167 Y-54.1859
G01 X76.2025 Y-54.1899
G00 Z2.0000
G00 X73.6625 Y-54.1899
G01 F60.00
G01 Z0.0000
G01 F120.00
G01 X73.7433 Y-54.1859
G01 X73.8258 Y-54.1737
G01 X73.9067 Y-54.1534
G01 X73.9853 Y-54.1253
G01 X74.0607 Y-54.0896
G01 X74.1322 Y-54.0467
G01 X74.1992 Y-53.9971
G01 X74.2610 Y-53.9410
G01 X74.3171 Y-53.8792
G01 X74.3667 Y-53.8122
G01 X74.4096 Y-53.7407
G01 X74.4453 Y-53.6653
G01 X74.4734 Y-53.5867
G01 X74.4937 Y-53.5058
G01 X74.5059 Y-53.4233
G01 X74.5100 Y-53.3400
G01 X74.5059 Y-53.2567
G01 X74.4937 Y-53.1742
G01 X74.4734 Y-53.0933
G01 X74.4453 Y-53.0147
G01 X74.4096 Y-52.9393
G01 X74.3667 Y-52.8678
G01 X74.3171 Y-52.8008
G01 X74.2610 Y-52.7390
G01 X74.1992 Y-52.6829
G01 X74.1322 Y-52.6333
G01 X74.0607 Y-52.5904
G01 X73.9853 Y-52.5547
G01 X73.9067 Y-52.5266
G01 X73.8258 Y-52.5063
G01 X73.7433 Y-52.4941
G01 X73.6600 Y-52.4900
G01 X73.5767 Y-52.4941
G01 X73.4942 Y-52.5063
G01 X73.4133 Y-52.5266
G01 X73.3347 Y-52.5547
G01 X73.2593 Y-52.5904
G01 X73.1878 Y-52.6333
G01 X73.1208 Y-52.6829
G01 X73.0590 Y-52.7390
G01 X73.0029 Y-52.8008
G01 X72.9533 Y-52.8678
G01 X72.9104 Y-52.9393
G01 X72.8747 Y-53.0147
G01 X72.8466 Y-53.0933
G01 X72.8263 Y-53.1742
G01 X72.8141 Y-53.2567
G01 X72.8100 Y-53.3400
G01 X72.8141 Y-53.4233
G01 X72.8263 Y-53.5058
G01 X72.8466 Y-53.5867
G01 X72.8747 Y-53.6653
G01 X72.9104 Y-53.7407
G01 X72.9533 Y-53.8122
G01 X73.0029 Y-53.8792
G01 X73.0590 Y-53.9410
G01 X73.1208 Y-53.9971
G01 X73.1878 Y-54.0467
G01 X73.2593 Y-54.0896
G01 X73.3347 Y-54.1253
G01 X73.4133 Y-54.1534
G01 X73.4942 Y-54.1737
G01 X73.5767 Y-54.1859
G01 X73.6625 Y-54.1899
G00 Z2.0000
G00 X71.1225 Y-54.1899
G01 F60.00
G01 Z0.0000
G01 F120.00
G01 X71.2033 Y-54.1859
G01 X71.2858 Y-54.1737
G01 X71.3667 Y-54.1534
G01 X71.4453 Y-54.1253
G01 X71.5207 Y-54.0896
G01 X71.5922 Y-54.0467
G01 X71.6592 Y-53.9971
G01 X71.7210 Y-53.9410
G01 X71.7771 Y-53.8792
G01 X71.8267 Y-53.8122
G01 X71.8696 Y-53.7407
G01 X71.9053 Y-53.6653
G01 X71.9334 Y-53.5867
G01 X71.9537 Y-53.5058
G01 X71.9659 Y-53.4233
G01 X71.9700 Y-53.3400
G01 X71.9659 Y-53.2567
G01 X71.9537 Y-53.1742
G01 X71.9334 Y-53.0933
G01 X71.9053 Y-53.0147
G01 X71.8696 Y-52.9393
G01 X71.8267 Y-52.8678
G01 X71.7771 Y-52.8008
G01 X71.7210 Y-52.7390
G01 X71.6592 Y-52.6829
G01 X71.5922 Y-52.6333
G01 X71.5207 Y-52.5904
G01 X71.4453 Y-52.5547
G01 X71.3667 Y-52.5266
G01 X71.2858 Y-52.5063
G01 X71.2033 Y-52.4941
G01 X71.1200 Y-52.4900
G01 X71.0367 Y-52.4941
G01 X70.9542 Y-52.5063
G01 X70.8733 Y-52.5266
G01 X70.7947 Y-52.5547
G01 X70.7193 Y-52.5904
G01 X70.6478 Y-52.6333
G01 X70.5808 Y-52.6829
G01 X70.5190 Y-52.7390
G01 X70.4629 Y-52.8008
G01 X70.4133 Y-52.8678
G01 X70.3704 Y-52.9393
G01 X70.3347 Y-53.0147
G01 X70.3066 Y-53.0933
G01 X70.2863 Y-53.1742
G01 X70.2741 Y-53.2567
G01 X70.2700 Y-53.3400
G01 X70.2741 Y-53.4233
G01 X70.2863 Y-53.5058
G01 X70.3066 Y-53.5867
G01 X70.3347 Y-53.6653
G01 X70.3704 Y-53.7407
G01 X70.4133 Y-53.8122
G01 X70.4629 Y-53.8792
G01 X70.5190 Y-53.9410
G01 X70.5808 Y-53.9971
G01 X70.6478 Y-54.0467
G01 X70.7193 Y-54.0896
G01 X70.7947 Y-54.1253
G01 X70.8733 Y-54.1534
G01 X70.9542 Y-54.1737
G01 X71.0367 Y-54.1859
G01 X71.1225 Y-54.1899
G00 Z2.0000
G00 X68.5825 Y-54.1899
G01 F60.00
G01 Z0.0000
G01 F120.00
G01 X68.6633 Y-54.1859
G01 X68.7458 Y-54.1737
G01 X68.8267 Y-54.1534
G01 X68.9053 Y-54.1253
G01 X68.9807 Y-54.0896
G01 X69.0522 Y-54.0467
G01 X69.1192 Y-53.9971
G01 X69.1810 Y-53.9410
G01 X69.2371 Y-53.8792
G01 X69.2867 Y-53.8122
G01 X69.3296 Y-53.7407
G01 X69.3653 Y-53.6653
G01 X69.3934 Y-53.5867
G01 X69.4137 Y-53.5058
G01 X69.4259 Y-53.4233
G01 X69.4300 Y-53.3400
G01 X69.4259 Y-53.2567
G01 X69.4137 Y-53.1742
G01 X69.3934 Y-53.0933
G01 X69.3653 Y-53.0147
G01 X69.3296 Y-52.9393
G01 X69.2867 Y-52.8678
G01 X69.2371 Y-52.8008
G01 X69.1810 Y-52.7390
G01 X69.1192 Y-52.6829
G01 X69.0522 Y-52.6333
G01 X68.9807 Y-52.5904
G01 X68.9053 Y-52.5547
G01 X68.8267 Y-52.5266
G01 X68.7458 Y-52.5063
G01 X68.6633 Y-52.4941
G01 X68.5800 Y-52.4900
G01 X68.4967 Y-52.4941
G01 X68.4142 Y-52.5063
G01 X68.3333 Y-52.5266
G01 X68.2547 Y-52.5547
G01 X68.1793 Y-52.5904
G01 X68.1078 Y-52.6333
G01 X68.0408 Y-52.6829
G01 X67.9790 Y-52.7390
G01 X67.9229 Y-52.8008
G01 X67.8733 Y-52.8678
G01 X67.8304 Y-52.9393
G01 X67.7947 Y-53.0147
G01 X67.7666 Y-53.0933
G01 X67.7463 Y-53.1742
G01 X67.7341 Y-53.2567
G01 X67.7300 Y-53.3400
G01 X67.7341 Y-53.4233
G01 X67.7463 Y-53.5058
G01 X67.7666 Y-53.5867
G01 X67.7947 Y-53.6653
G01 X67.8304 Y-53.7407
G01 X67.8733 Y-53.8122
G01 X67.9229 Y-53.8792
G01 X67.9790 Y-53.9410
G01 X68.0408 Y-53.9971
G01 X68.1078 Y-54.0467
G01 X68.1793 Y-54.0896
G01 X68.2547 Y-54.1253
G01 X68.3333 Y-54.1534
G01 X68.4142 Y-54.1737
G01 X68.4967 Y-54.1859
G01 X68.5825 Y-54.1899
G00 Z2.0000
G00 X70.3150 Y-49.1100
G01 F60.00
G01 Z0.0000
G01 F120.00
G01 X71.9150 Y-49.1100
G01 X71.9248 Y-49.1090
G01 X71.9295 Y-49.1078
G01 X71.9353 Y-49.1057
G01 X71.9438 Y-49.1009
G01 X71.9512 Y-49.0945
G01 X71.9572 Y-49.0867
G01 X71.9616 Y-49.0780
G01 X71.9640 Y-49.0698
G01 X71.9650 Y-49.0600
G01 X71.9650 Y-47.4600
G01 X71.9640 Y-47.4502
G01 X71.9612 Y-47.4409
G01 X71.9566 Y-47.4322
G01 X71.9529 Y-47.4273
G01 X71.9495 Y-47.4238
G01 X71.9417 Y-47.4178
G01 X71.9341 Y-47.4138
G01 X71.9248 Y-47.4110
G01 X71.9150 Y-47.4100
G01 X70.3150 Y-47.4100
G01 X70.3052 Y-47.4110
G01 X70.3005 Y-47.4122
G01 X70.2947 Y-47.4143
G01 X70.2862 Y-47.4191
G01 X70.2788 Y-47.4255
G01 X70.2728 Y-47.4333
G01 X70.2684 Y-47.4420
G01 X70.2657 Y-47.4515
G01 X70.2650 Y-47.4600
G01 X70.2650 Y-49.0612
G01 X70.2662 Y-49.0710
G01 X70.2693 Y-49.0803
G01 X70.2734 Y-49.0878
G01 X70.2796 Y-49.0954
G01 X70.2872 Y-49.1016
G01 X70.2959 Y-49.1062
G01 X70.3052 Y-49.1090
G01 X70.3150 Y-49.1100
G00 Z2.0000
G00 X73.6575 Y-49.1099
G01 F60.00
G01 Z0.0000
G01 F120.00
G01 X73.7383 Y-49.1059
G01 X73.8208 Y-49.0937
G01 X73.9017 Y-49.0734
G01 X73.9803 Y-49.0453
G01 X74.0557 Y-49.0096
G01 X74.1272 Y-48.9667
G01 X74.1942 Y-48.9171
G01 X74.2560 Y-48.8610
G01 X74.3121 Y-48.7992
G01 X74.3617 Y-48.7322
G01 X74.4046 Y-48.6607
G01 X74.4403 Y-48.5853
G01 X74.4684 Y-48.5067
G01 X74.4887 Y-48.4258
G01 X74.5009 Y-48.3433
G01 X74.5050 Y-48.2600
G01 X74.5009 Y-48.1767
G01 X74.4887 Y-48.0942
G01 X74.4684 Y-48.0133
G01 X74.4403 Y-47.9347
G01 X74.4046 Y-47.8593
G01 X74.3617 Y-47.7878
G01 X74.3121 Y-47.7208
G01 X74.2560 Y-47.6590
G01 X74.1942 Y-47.6029
G01 X74.1272 Y-47.5533
G01 X74.0557 Y-47.5104
G01 X73.9803 Y-47.4747
G01 X73.9017 Y-47.4466
G01 X73.8208 Y-47.4263
G01 X73.7383 Y-47.4141
G01 X73.6550 Y-47.4100
G01 X73.5717 Y-47.4141
G01 X73.4892 Y-47.4263
G01 X73.4083 Y-47.4466
G01 X73.3297 Y-47.4747
G01 X73.2543 Y-47.5104
G01 X73.1828 Y-47.5533
G01 X73.1158 Y-47.6029
G01 X73.0540 Y-47.6590
G01 X72.9979 Y-47.7208
G01 X72.9483 Y-47.7878
G01 X72.9054 Y-47.8593
G01 X72.8697 Y-47.9347
G01 X72.8416 Y-48.0133
G01 X72.8213 Y-48.0942
G01 X72.8091 Y-48.1767
G01 X72.8050 Y-48.2600
G01 X72.8091 Y-48.3433
G01 X72.8213 Y-48.4258
G01 X72.8416 Y-48.5067
G01 X72.8697 Y-48.5853
G01 X72.9054 Y-48.6607
G01 X72.9483 Y-48.7322
G01 X72.9979 Y-48.7992
G01 X73.0540 Y-48.8610
G01 X73.1158 Y-48.9171
G01 X73.1828 Y-48.9667
G01 X73.2543 Y-49.0096
G01 X73.3297 Y-49.0453
G01 X73.4083 Y-49.0734
G01 X73.4892 Y-49.0937
G01 X73.5717 Y-49.1059
G01 X73.6575 Y-49.1099
G00 Z2.0000
G00 X76.1975 Y-49.1099
G01 F60.00
G01 Z0.0000
G01 F120.00
G01 X76.2783 Y-49.1059
G01 X76.3608 Y-49.0937
G01 X76.4417 Y-49.0734
G01 X76.5203 Y-49.0453
G01 X76.5957 Y-49.0096
G01 X76.6672 Y-48.9667
G01 X76.7342 Y-48.9171
G01 X76.7960 Y-48.8610
G01 X76.8521 Y-48.7992
G01 X76.9017 Y-48.7322
G01 X76.9446 Y-48.6607
G01 X76.9803 Y-48.5853
G01 X77.0084 Y-48.5067
G01 X77.0287 Y-48.4258
G01 X77.0409 Y-48.3433
G01 X77.0450 Y-48.2600
G01 X77.0409 Y-48.1767
G01 X77.0287 Y-48.0942
G01 X77.0084 Y-48.0133
G01 X76.9803 Y-47.9347
G01 X76.9446 Y-47.8593
G01 X76.9017 Y-47.7878
G01 X76.8521 Y-47.7208
G01 X76.7960 Y-47.6590
G01 X76.7342 Y-47.6029
G01 X76.6672 Y-47.5533
G01 X76.5957 Y-47.5104
G01 X76.5203 Y-47.4747
G01 X76.4417 Y-47.4466
G01 X76.3608 Y-47.4263
G01 X76.2783 Y-47.4141
G01 X76.1950 Y-47.4100
G01 X76.1117 Y-47.4141
G01 X76.0292 Y-47.4263
G01 X75.9483 Y-47.4466
G01 X75.8697 Y-47.4747
G01 X75.7943 Y-47.5104
G01 X75.7228 Y-47.5533
G01 X75.6558 Y-47.6029
G01 X75.5940 Y-47.6590
G01 X75.5379 Y-47.7208
G01 X75.4883 Y-47.7878
G01 X75.4454 Y-47.8593
G01 X75.4097 Y-47.9347
G01 X75.3816 Y-48.0133
G01 X75.3613 Y-48.0942
G01 X75.3491 Y-48.1767
G01 X75.3450 Y-48.2600
G01 X75.3491 Y-48.3433
G01 X75.3613 Y-48.4258
G01 X75.3816 Y-48.5067
G01 X75.4097 Y-48.5853
G01 X75.4454 Y-48.6607
G01 X75.4883 Y-48.7322
G01 X75.5379 Y-48.7992
G01 X75.5940 Y-48.8610
G01 X75.6558 Y-48.9171
G01 X75.7228 Y-48.9667
G01 X75.7943 Y-49.0096
G01 X75.8697 Y-49.0453
G01 X75.9483 Y-49.0734
G01 X76.0292 Y-49.0937
G01 X76.1117 Y-49.1059
G01 X76.1975 Y-49.1099
G00 Z2.0000
G00 X78.7375 Y-49.1099
G01 F60.00
G01 Z0.0000
G01 F120.00
G01 X78.8183 Y-49.1059
G01 X78.9008 Y-49.0937
G01 X78.9817 Y-49.0734
G01 X79.0603 Y-49.0453
G01 X79.1357 Y-49.0096
G01 X79.2072 Y-48.9667
G01 X79.2742 Y-48.9171
G01 X79.3360 Y-48.8610
G01 X79.3921 Y-48.7992
G01 X79.4417 Y-48.7322
G01 X79.4846 Y-48.6607
G01 X79.5203 Y-48.5853
G01 X79.5484 Y-48.5067
G01 X79.5687 Y-48.4258
G01 X79.5809 Y-48.3433
G01 X79.5850 Y-48.2600
G01 X79.5809 Y-48.1767
G01 X79.5687 Y-48.0942
G01 X79.5484 Y-48.0133
G01 X79.5203 Y-47.9347
G01 X79.4846 Y-47.8593
G01 X79.4417 Y-47.7878
G01 X79.3921 Y-47.7208
G01 X79.3360 Y-47.6590
G01 X79.2742 Y-47.6029
G01 X79.2072 Y-47.5533
G01 X79.1357 Y-47.5104
G01 X79.0603 Y-47.4747
G01 X78.9817 Y-47.4466
G01 X78.9008 Y-47.4263
G01 X78.8183 Y-47.4141
G01 X78.7350 Y-47.4100
G01 X78.6517 Y-47.4141
G01 X78.5692 Y-47.4263
G01 X78.4883 Y-47.4466
G01 X78.4097 Y-47.4747
G01 X78.3343 Y-47.5104
G01 X78.2628 Y-47.5533
G01 X78.1958 Y-47.6029
G01 X78.1340 Y-47.6590
G01 X78.0779 Y-47.7208
G01 X78.0283 Y-47.7878
G01 X77.9854 Y-47.8593
G01 X77.9497 Y-47.9347
G01 X77.9216 Y-48.0133
G01 X77.9013 Y-48.0942
G01 X77.8891 Y-48.1767
G01 X77.8850 Y-48.2600
G01 X77.8891 Y-48.3433
G01 X77.9013 Y-48.4258
G01 X77.9216 Y-48.5067
G01 X77.9497 Y-48.5853
G01 X77.9854 Y-48.6607
G01 X78.0283 Y-48.7322
G01 X78.0779 Y-48.7992
G01 X78.1340 Y-48.8610
G01 X78.1958 Y-48.9171
G01 X78.2628 Y-48.9667
G01 X78.3343 Y-49.0096
G01 X78.4097 Y-49.0453
G01 X78.4883 Y-49.0734
G01 X78.5692 Y-49.0937
G01 X78.6517 Y-49.1059
G01 X78.7375 Y-49.1099
G00 Z2.0000
G00 X81.2775 Y-49.1099
G01 F60.00
G01 Z0.0000
G01 F120.00
G01 X81.3583 Y-49.1059
G01 X81.4408 Y-49.0937
G01 X81.5217 Y-49.0734
G01 X81.6003 Y-49.0453
G01 X81.6757 Y-49.0096
G01 X81.7472 Y-48.9667
G01 X81.8142 Y-48.9171
G01 X81.8760 Y-48.8610
G01 X81.9321 Y-48.7992
G01 X81.9817 Y-48.7322
G01 X82.0246 Y-48.6607
G01 X82.0603 Y-48.5853
G01 X82.0884 Y-48.5067
G01 X82.1087 Y-48.4258
G01 X82.1209 Y-48.3433
G01 X82.1250 Y-48.2600
G01 X82.1209 Y-48.1767
G01 X82.1087 Y-48.0942
G01 X82.0884 Y-48.0133
G01 X82.0603 Y-47.9347
G01 X82.0246 Y-47.8593
G01 X81.9817 Y-47.7878
G01 X81.9321 Y-47.7208
G01 X81.8760 Y-47.6590
G01 X81.8142 Y-47.6029
G01 X81.7472 Y-47.5533
G01 X81.6757 Y-47.5104
G01 X81.6003 Y-47.4747
G01 X81.5217 Y-47.4466
G01 X81.4408 Y-47.4263
G01 X81.3583 Y-47.4141
G01 X81.2750 Y-47.4100
G01 X81.1917 Y-47.4141
G01 X81.1092 Y-47.4263
G01 X81.0283 Y-47.4466
G01 X80.9497 Y-47.4747
G01 X80.8743 Y-47.5104
G01 X80.8028 Y-47.5533
G01 X80.7358 Y-47.6029
G01 X80.6740 Y-47.6590
G01 X80.6179 Y-47.7208
G01 X80.5683 Y-47.7878
G01 X80.5254 Y-47.8593
G01 X80.4897 Y-47.9347
G01 X80.4616 Y-48.0133
G01 X80.4413 Y-48.0942
G01 X80.4291 Y-48.1767
G01 X80.4250 Y-48.2600
G01 X80.4291 Y-48.3433
G01 X80.4413 Y-48.4258
G01 X80.4616 Y-48.5067
G01 X80.4897 Y-48.5853
G01 X80.5254 Y-48.6607
G01 X80.5683 Y-48.7322
G01 X80.6179 Y-48.7992
G01 X80.6740 Y-48.8610
G01 X80.7358 Y-48.9171
G01 X80.8028 Y-48.9667
G01 X80.8743 Y-49.0096
G01 X80.9497 Y-49.0453
G01 X81.0283 Y-49.0734
G01 X81.1092 Y-49.0937
G01 X81.1917 Y-49.1059
G01 X81.2775 Y-49.1099
G00 Z2.0000
G00 X83.8175 Y-49.1099
G01 F60.00
G01 Z0.0000
G01 F120.00
G01 X83.8983 Y-49.1059
G01 X83.9808 Y-49.0937
G01 X84.0617 Y-49.0734
G01 X84.1403 Y-49.0453
G01 X84.2157 Y-49.0096
G01 X84.2872 Y-48.9667
G01 X84.3542 Y-48.9171
G01 X84.4160 Y-48.8610
G01 X84.4721 Y-48.7992
G01 X84.5217 Y-48.7322
G01 X84.5646 Y-48.6607
G01 X84.6003 Y-48.5853
G01 X84.6284 Y-48.5067
G01 X84.6487 Y-48.4258
G01 X84.6609 Y-48.3433
G01 X84.6650 Y-48.2600
G01 X84.6609 Y-48.1767
G01 X84.6487 Y-48.0942
G01 X84.6284 Y-48.0133
G01 X84.6003 Y-47.9347
G01 X84.5646 Y-47.8593
G01 X84.5217 Y-47.7878
G01 X84.4721 Y-47.7208
G01 X84.4160 Y-47.6590
G01 X84.3542 Y-47.6029
G01 X84.2872 Y-47.5533
G01 X84.2157 Y-47.5104
G01 X84.1403 Y-47.4747
G01 X84.0617 Y-47.4466
G01 X83.9808 Y-47.4263
G01 X83.8983 Y-47.4141
G01 X83.8150 Y-47.4100
G01 X83.7317 Y-47.4141
G01 X83.6492 Y-47.4263
G01 X83.5683 Y-47.4466
G01 X83.4897 Y-47.4747
G01 X83.4143 Y-47.5104
G01 X83.3428 Y-47.5533
G01 X83.2758 Y-47.6029
G01 X83.2140 Y-47.6590
G01 X83.1579 Y-47.7208
G01 X83.1083 Y-47.7878
G01 X83.0654 Y-47.8593
G01 X83.0297 Y-47.9347
G01 X83.0016 Y-48.0133
G01 X82.9813 Y-48.0942
G01 X82.9691 Y-48.1767
G01 X82.9650 Y-48.2600
G01 X82.9691 Y-48.3433
G01 X82.9813 Y-48.4258
G01 X83.0016 Y-48.5067
G01 X83.0297 Y-48.5853
G01 X83.0654 Y-48.6607
G01 X83.1083 Y-48.7322
G01 X83.1579 Y-48.7992
G01 X83.2140 Y-48.8610
G01 X83.2758 Y-48.9171
G01 X83.3428 Y-48.9667
G01 X83.4143 Y-49.0096
G01 X83.4897 Y-49.0453
G01 X83.5683 Y-49.0734
G01 X83.6492 Y-49.0937
G01 X83.7317 Y-49.1059
G01 X83.8175 Y-49.1099
G00 Z2.0000
G00 X86.3575 Y-49.1099
G01 F60.00
G01 Z0.0000
G01 F120.00
G01 X86.4383 Y-49.1059
G01 X86.5208 Y-49.0937
G01 X86.6017 Y-49.0734
G01 X86.6803 Y-49.0453
G01 X86.7557 Y-49.0096
G01 X86.8272 Y-48.9667
G01 X86.8942 Y-48.9171
G01 X86.9560 Y-48.8610
G01 X87.0121 Y-48.7992
G01 X87.0617 Y-48.7322
G01 X87.1046 Y-48.6607
G01 X87.1403 Y-48.5853
G01 X87.1684 Y-48.5067
G01 X87.1887 Y-48.4258
G01 X87.2009 Y-48.3433
G01 X87.2050 Y-48.2600
G01 X87.2009 Y-48.1767
G01 X87.1887 Y-48.0942
G01 X87.1684 Y-48.0133
G01 X87.1403 Y-47.9347
G01 X87.1046 Y-47.8593
G01 X87.0617 Y-47.7878
G01 X87.0121 Y-47.7208
G01 X86.9560 Y-47.6590
G01 X86.8942 Y-47.6029
G01 X86.8272 Y-47.5533
G01 X86.7557 Y-47.5104
G01 X86.6803 Y-47.4747
G01 X86.6017 Y-47.4466
G01 X86.5208 Y-47.4263
G01 X86.4383 Y-47.4141
G01 X86.3550 Y-47.4100
G01 X86.2717 Y-47.4141
G01 X86.1892 Y-47.4263
G01 X86.1083 Y-47.4466
G01 X86.0297 Y-47.4747
G01 X85.9543 Y-47.5104
G01 X85.8828 Y-47.5533
G01 X85.8158 Y-47.6029
G01 X85.7540 Y-47.6590
G01 X85.6979 Y-47.7208
G01 X85.6483 Y-47.7878
G01 X85.6054 Y-47.8593
G01 X85.5697 Y-47.9347
G01 X85.5416 Y-48.0133
G01 X85.5213 Y-48.0942
G01 X85.5091 Y-48.1767
G01 X85.5050 Y-48.2600
G01 X85.5091 Y-48.3433
G01 X85.5213 Y-48.4258
G01 X85.5416 Y-48.5067
G01 X85.5697 Y-48.5853
G01 X85.6054 Y-48.6607
G01 X85.6483 Y-48.7322
G01 X85.6979 Y-48.7992
G01 X85.7540 Y-48.8610
G01 X85.8158 Y-48.9171
G01 X85.8828 Y-48.9667
G01 X85.9543 Y-49.0096
G01 X86.0297 Y-49.0453
G01 X86.1083 Y-49.0734
G01 X86.1892 Y-49.0937
G01 X86.2717 Y-49.1059
G01 X86.3575 Y-49.1099
G00 Z2.0000
G00 X86.3625 Y-61.8099
G01 F60.00
G01 Z0.0000
G01 F120.00
G01 X86.4433 Y-61.8059
G01 X86.5258 Y-61.7937
G01 X86.6067 Y-61.7734
G01 X86.6853 Y-61.7453
G01 X86.7607 Y-61.7096
G01 X86.8322 Y-61.6667
G01 X86.8992 Y-61.6171
G01 X86.9610 Y-61.5610
G01 X87.0171 Y-61.4992
G01 X87.0667 Y-61.4322
G01 X87.1096 Y-61.3607
G01 X87.1453 Y-61.2853
G01 X87.1734 Y-61.2067
G01 X87.1937 Y-61.1258
G01 X87.2059 Y-61.0433
G01 X87.2100 Y-60.9600
G01 X87.2059 Y-60.8767
G01 X87.1937 Y-60.7942
G01 X87.1734 Y-60.7133
G01 X87.1453 Y-60.6347
G01 X87.1096 Y-60.5593
G01 X87.0667 Y-60.4878
G01 X87.0171 Y-60.4208
G01 X86.9610 Y-60.3590
G01 X86.8992 Y-60.3029
G01 X86.8322 Y-60.2533
G01 X86.7607 Y-60.2104
G01 X86.6853 Y-60.1747
G01 X86.6067 Y-60.1466
G01 X86.5258 Y-60.1263
G01 X86.4433 Y-60.1141
G01 X86.3600 Y-60.1100
G01 X86.2767 Y-60.1141
G01 X86.1942 Y-60.1263
G01 X86.1133 Y-60.1466
G01 X86.0347 Y-60.1747
G01 X85.9593 Y-60.2104
G01 X85.8878 Y-60.2533
G01 X85.8208 Y-60.3029
G01 X85.7590 Y-60.3590
G01 X85.7029 Y-60.4208
G01 X85.6533 Y-60.4878
G01 X85.6104 Y-60.5593
G01 X85.5747 Y-60.6347
G01 X85.5466 Y-60.7133
G01 X85.5263 Y-60.7942
G01 X85.5141 Y-60.8767
G01 X85.5100 Y-60.9600
G01 X85.5141 Y-61.0433
G01 X85.5263 Y-61.1258
G01 X85.5466 Y-61.2067
G01 X85.5747 Y-61.2853
G01 X85.6104 Y-61.3607
G01 X85.6533 Y-61.4322
G01 X85.7029 Y-61.4992
G01 X85.7590 Y-61.5610
G01 X85.8208 Y-61.6171
G01 X85.8878 Y-61.6667
G01 X85.9593 Y-61.7096
G01 X86.0347 Y-61.7453
G01 X86.1133 Y-61.7734
G01 X86.1942 Y-61.7937
G01 X86.2767 Y-61.8059
G01 X86.3625 Y-61.8099
G00 Z2.0000
G00 X83.8225 Y-61.8099
G01 F60.00
G01 Z0.0000
G01 F120.00
G01 X83.9033 Y-61.8059
G01 X83.9858 Y-61.7937
G01 X84.0667 Y-61.7734
G01 X84.1453 Y-61.7453
G01 X84.2207 Y-61.7096
G01 X84.2922 Y-61.6667
G01 X84.3592 Y-61.6171
G01 X84.4210 Y-61.5610
G01 X84.4771 Y-61.4992
G01 X84.5267 Y-61.4322
G01 X84.5696 Y-61.3607
G01 X84.6053 Y-61.2853
G01 X84.6334 Y-61.2067
G01 X84.6537 Y-61.1258
G01 X84.6659 Y-61.0433
G01 X84.6700 Y-60.9600
G01 X84.6659 Y-60.8767
G01 X84.6537 Y-60.7942
G01 X84.6334 Y-60.7133
G01 X84.6053 Y-60.6347
G01 X84.5696 Y-60.5593
G01 X84.5267 Y-60.4878
G01 X84.4771 Y-60.4208
G01 X84.4210 Y-60.3590
G01 X84.3592 Y-60.3029
G01 X84.2922 Y-60.2533
G01 X84.2207 Y-60.2104
G01 X84.1453 Y-60.1747
G01 X84.0667 Y-60.1466
G01 X83.9858 Y-60.1263
G01 X83.9033 Y-60.1141
G01 X83.8200 Y-60.1100
G01 X83.7367 Y-60.1141
G01 X83.6542 Y-60.1263
G01 X83.5733 Y-60.1466
G01 X83.4947 Y-60.1747
G01 X83.4193 Y-60.2104
G01 X83.3478 Y-60.2533
G01 X83.2808 Y-60.3029
G01 X83.2190 Y-60.3590
G01 X83.1629 Y-60.4208
G01 X83.1133 Y-60.4878
G01 X83.0704 Y-60.5593
G01 X83.0347 Y-60.6347
G01 X83.0066 Y-60.7133
G01 X82.9863 Y-60.7942
G01 X82.9741 Y-60.8767
G01 X82.9700 Y-60.9600
G01 X82.9741 Y-61.0433
G01 X82.9863 Y-61.1258
G01 X83.0066 Y-61.2067
G01 X83.0347 Y-61.2853
G01 X83.0704 Y-61.3607
G01 X83.1133 Y-61.4322
G01 X83.1629 Y-61.4992
G01 X83.2190 Y-61.5610
G01 X83.2808 Y-61.6171
G01 X83.3478 Y-61.6667
G01 X83.4193 Y-61.7096
G01 X83.4947 Y-61.7453
G01 X83.5733 Y-61.7734
G01 X83.6542 Y-61.7937
G01 X83.7367 Y-61.8059
G01 X83.8225 Y-61.8099
G00 Z2.0000
G00 X81.2825 Y-61.8099
G01 F60.00
G01 Z0.0000
G01 F120.00
G01 X81.3633 Y-61.8059
G01 X81.4458 Y-61.7937
G01 X81.5267 Y-61.7734
G01 X81.6053 Y-61.7453
G01 X81.6807 Y-61.7096
G01 X81.7522 Y-61.6667
G01 X81.8192 Y-61.6171
G01 X81.8810 Y-61.5610
G01 X81.9371 Y-61.4992
G01 X81.9867 Y-61.4322
G01 X82.0296 Y-61.3607
G01 X82.0653 Y-61.2853
G01 X82.0934 Y-61.2067
G01 X82.1137 Y-61.1258
G01 X82.1259 Y-61.0433
G01 X82.1300 Y-60.9600
G01 X82.1259 Y-60.8767
G01 X82.1137 Y-60.7942
G01 X82.0934 Y-60.7133
G01 X82.0653 Y-60.6347
G01 X82.0296 Y-60.5593
G01 X81.9867 Y-60.4878
G01 X81.9371 Y-60.4208
G01 X81.8810 Y-60.3590
G01 X81.8192 Y-60.3029
G01 X81.7522 Y-60.2533
G01 X81.6807 Y-60.2104
G01 X81.6053 Y-60.1747
G01 X81.5267 Y-60.1466
G01 X81.4458 Y-60.1263
G01 X81.3633 Y-60.1141
G01 X81.2800 Y-60.1100
G01 X81.1967 Y-60.1141
G01 X81.1142 Y-60.1263
G01 X81.0333 Y-60.1466
G01 X80.9547 Y-60.1747
G01 X80.8793 Y-60.2104
G01 X80.8078 Y-60.2533
G01 X80.7408 Y-60.3029
G01 X80.6790 Y-60.3590
G01 X80.6229 Y-60.4208
G01 X80.5733 Y-60.4878
G01 X80.5304 Y-60.5593
G01 X80.4947 Y-60.6347
G01 X80.4666 Y-60.7133
G01 X80.4463 Y-60.7942
G01 X80.4341 Y-60.8767
G01 X80.4300 Y-60.9600
G01 X80.4341 Y-61.0433
G01 X80.4463 Y-61.1258
G01 X80.4666 Y-61.2067
G01 X80.4947 Y-61.2853
G01 X80.5304 Y-61.3607
G01 X80.5733 Y-61.4322
G01 X80.6229 Y-61.4992
G01 X80.6790 Y-61.5610
G01 X80.7408 Y-61.6171
G01 X80.8078 Y-61.6667
G01 X80.8793 Y-61.7096
G01 X80.9547 Y-61.7453
G01 X81.0333 Y-61.7734
G01 X81.1142 Y-61.7937
G01 X81.1967 Y-61.8059
G01 X81.2825 Y-61.8099
G00 Z2.0000
G00 X78.7425 Y-61.8099
G01 F60.00
G01 Z0.0000
G01 F120.00
G01 X78.8233 Y-61.8059
G01 X78.9058 Y-61.7937
G01 X78.9867 Y-61.7734
G01 X79.0653 Y-61.7453
G01 X79.1407 Y-61.7096
G01 X79.2122 Y-61.6667
G01 X79.2792 Y-61.6171
G01 X79.3410 Y-61.5610
G01 X79.3971 Y-61.4992
G01 X79.4467 Y-61.4322
G01 X79.4896 Y-61.3607
G01 X79.5253 Y-61.2853
G01 X79.5534 Y-61.2067
G01 X79.5737 Y-61.1258
G01 X79.5859 Y-61.0433
G01 X79.5900 Y-60.9600
G01 X79.5859 Y-60.8767
G01 X79.5737 Y-60.7942
G01 X79.5534 Y-60.7133
G01 X79.5253 Y-60.6347
G01 X79.4896 Y-60.5593
G01 X79.4467 Y-60.4878
G01 X79.3971 Y-60.4208
G01 X79.3410 Y-60.3590
G01 X79.2792 Y-60.3029
G01 X79.2122 Y-60.2533
G01 X79.1407 Y-60.2104
G01 X79.0653 Y-60.1747
G01 X78.9867 Y-60.1466
G01 X78.9058 Y-60.1263
G01 X78.8233 Y-60.1141
G01 X78.7400 Y-60.1100
G01 X78.6567 Y-60.1141
G01 X78.5742 Y-60.1263
G01 X78.4933 Y-60.1466
G01 X78.4147 Y-60.1747
G01 X78.3393 Y-60.2104
G01 X78.2678 Y-60.2533
G01 X78.2008 Y-60.3029
G01 X78.1390 Y-60.3590
G01 X78.0829 Y-60.4208
G01 X78.0333 Y-60.4878
G01 X77.9904 Y-60.5593
G01 X77.9547 Y-60.6347
G01 X77.9266 Y-60.7133
G01 X77.9063 Y-60.7942
G01 X77.8941 Y-60.8767
G01 X77.8900 Y-60.9600
G01 X77.8941 Y-61.0433
G01 X77.9063 Y-61.1258
G01 X77.9266 Y-61.2067
G01 X77.9547 Y-61.2853
G01 X77.9904 Y-61.3607
G01 X78.0333 Y-61.4322
G01 X78.0829 Y-61.4992
G01 X78.1390 Y-61.5610
G01 X78.2008 Y-61.6171
G01 X78.2678 Y-61.6667
G01 X78.3393 Y-61.7096
G01 X78.4147 Y-61.7453
G01 X78.4933 Y-61.7734
G01 X78.5742 Y-61.7937
G01 X78.6567 Y-61.8059
G01 X78.7425 Y-61.8099
G00 Z2.0000
G00 X76.2025 Y-61.8099
G01 F60.00
G01 Z0.0000
G01 F120.00
G01 X76.2833 Y-61.8059
G01 X76.3658 Y-61.7937
G01 X76.4467 Y-61.7734
G01 X76.5253 Y-61.7453
G01 X76.6007 Y-61.7096
G01 X76.6722 Y-61.6667
G01 X76.7392 Y-61.6171
G01 X76.8010 Y-61.5610
G01 X76.8571 Y-61.4992
G01 X76.9067 Y-61.4322
G01 X76.9496 Y-61.3607
G01 X76.9853 Y-61.2853
G01 X77.0134 Y-61.2067
G01 X77.0337 Y-61.1258
G01 X77.0459 Y-61.0433
G01 X77.0500 Y-60.9600
G01 X77.0459 Y-60.8767
G01 X77.0337 Y-60.7942
G01 X77.0134 Y-60.7133
G01 X76.9853 Y-60.6347
G01 X76.9496 Y-60.5593
G01 X76.9067 Y-60.4878
G01 X76.8571 Y-60.4208
G01 X76.8010 Y-60.3590
G01 X76.7392 Y-60.3029
G01 X76.6722 Y-60.2533
G01 X76.6007 Y-60.2104
G01 X76.5253 Y-60.1747
G01 X76.4467 Y-60.1466
G01 X76.3658 Y-60.1263
G01 X76.2833 Y-60.1141
G01 X76.2000 Y-60.1100
G01 X76.1167 Y-60.1141
G01 X76.0342 Y-60.1263
G01 X75.9533 Y-60.1466
G01 X75.8747 Y-60.1747
G01 X75.7993 Y-60.2104
G01 X75.7278 Y-60.2533
G01 X75.6608 Y-60.3029
G01 X75.5990 Y-60.3590
G01 X75.5429 Y-60.4208
G01 X75.4933 Y-60.4878
G01 X75.4504 Y-60.5593
G01 X75.4147 Y-60.6347
G01 X75.3866 Y-60.7133
G01 X75.3663 Y-60.7942
G01 X75.3541 Y-60.8767
G01 X75.3500 Y-60.9600
G01 X75.3541 Y-61.0433
G01 X75.3663 Y-61.1258
G01 X75.3866 Y-61.2067
G01 X75.4147 Y-61.2853
G01 X75.4504 Y-61.3607
G01 X75.4933 Y-61.4322
G01 X75.5429 Y-61.4992
G01 X75.5990 Y-61.5610
G01 X75.6608 Y-61.6171
G01 X75.7278 Y-61.6667
G01 X75.7993 Y-61.7096
G01 X75.8747 Y-61.7453
G01 X75.9533 Y-61.7734
G01 X76.0342 Y-61.7937
G01 X76.1167 Y-61.8059
G01 X76.2025 Y-61.8099
G00 Z2.0000
G00 X73.6625 Y-61.8099
G01 F60.00
G01 Z0.0000
G01 F120.00
G01 X73.7433 Y-61.8059
G01 X73.8258 Y-61.7937
G01 X73.9067 Y-61.7734
G01 X73.9853 Y-61.7453
G01 X74.0607 Y-61.7096
G01 X74.1322 Y-61.6667
G01 X74.1992 Y-61.6171
G01 X74.2610 Y-61.5610
G01 X74.3171 Y-61.4992
G01 X74.3667 Y-61.4322
G01 X74.4096 Y-61.3607
G01 X74.4453 Y-61.2853
G01 X74.4734 Y-61.2067
G01 X74.4937 Y-61.1258
G01 X74.5059 Y-61.0433
G01 X74.5100 Y-60.9600
G01 X74.5059 Y-60.8767
G01 X74.4937 Y-60.7942
G01 X74.4734 Y-60.7133
G01 X74.4453 Y-60.6347
G01 X74.4096 Y-60.5593
G01 X74.3667 Y-60.4878
G01 X74.3171 Y-60.4208
G01 X74.2610 Y-60.3590
G01 X74.1992 Y-60.3029
G01 X74.1322 Y-60.2533
G01 X74.0607 Y-60.2104
G01 X73.9853 Y-60.1747
G01 X73.9067 Y-60.1466
G01 X73.8258 Y-60.1263
G01 X73.7433 Y-60.1141
G01 X73.6600 Y-60.1100
G01 X73.5767 Y-60.1141
G01 X73.4942 Y-60.1263
G01 X73.4133 Y-60.1466
G01 X73.3347 Y-60.1747
G01 X73.2593 Y-60.2104
G01 X73.1878 Y-60.2533
G01 X73.1208 Y-60.3029
G01 X73.0590 Y-60.3590
G01 X73.0029 Y-60.4208
G01 X72.9533 Y-60.4878
G01 X72.9104 Y-60.5593
G01 X72.8747 Y-60.6347
G01 X72.8466 Y-60.7133
G01 X72.8263 Y-60.7942
G01 X72.8141 Y-60.8767
G01 X72.8100 Y-60.9600
G01 X72.8141 Y-61.0433
G01 X72.8263 Y-61.1258
G01 X72.8466 Y-61.2067
G01 X72.8747 Y-61.2853
G01 X72.9104 Y-61.3607
G01 X72.9533 Y-61.4322
G01 X73.0029 Y-61.4992
G01 X73.0590 Y-61.5610
G01 X73.1208 Y-61.6171
G01 X73.1878 Y-61.6667
G01 X73.2593 Y-61.7096
G01 X73.3347 Y-61.7453
G01 X73.4133 Y-61.7734
G01 X73.4942 Y-61.7937
G01 X73.5767 Y-61.8059
G01 X73.6625 Y-61.8099
G00 Z2.0000
G00 X71.1225 Y-61.8099
G01 F60.00
G01 Z0.0000
G01 F120.00
G01 X71.2033 Y-61.8059
G01 X71.2858 Y-61.7937
G01 X71.3667 Y-61.7734
G01 X71.4453 Y-61.7453
G01 X71.5207 Y-61.7096
G01 X71.5922 Y-61.6667
G01 X71.6592 Y-61.6171
G01 X71.7210 Y-61.5610
G01 X71.7771 Y-61.4992
G01 X71.8267 Y-61.4322
G01 X71.8696 Y-61.3607
G01 X71.9053 Y-61.2853
G01 X71.9334 Y-61.2067
G01 X71.9537 Y-61.1258
G01 X71.9659 Y-61.0433
G01 X71.9700 Y-60.9600
G01 X71.9659 Y-60.8767
G01 X71.9537 Y-60.7942
G01 X71.9334 Y-60.7133
G01 X71.9053 Y-60.6347
G01 X71.8696 Y-60.5593
G01 X71.8267 Y-60.4878
G01 X71.7771 Y-60.4208
G01 X71.7210 Y-60.3590
G01 X71.6592 Y-60.3029
G01 X71.5922 Y-60.2533
G01 X71.5207 Y-60.2104
G01 X71.4453 Y-60.1747
G01 X71.3667 Y-60.1466
G01 X71.2858 Y-60.1263
G01 X71.2033 Y-60.1141
G01 X71.1200 Y-60.1100
G01 X71.0367 Y-60.1141
G01 X70.9542 Y-60.1263
G01 X70.8733 Y-60.1466
G01 X70.7947 Y-60.1747
G01 X70.7193 Y-60.2104
G01 X70.6478 Y-60.2533
G01 X70.5808 Y-60.3029
G01 X70.5190 Y-60.3590
G01 X70.4629 Y-60.4208
G01 X70.4133 Y-60.4878
G01 X70.3704 Y-60.5593
G01 X70.3347 Y-60.6347
G01 X70.3066 Y-60.7133
G01 X70.2863 Y-60.7942
G01 X70.2741 Y-60.8767
G01 X70.2700 Y-60.9600
G01 X70.2741 Y-61.0433
G01 X70.2863 Y-61.1258
G01 X70.3066 Y-61.2067
G01 X70.3347 Y-61.2853
G01 X70.3704 Y-61.3607
G01 X70.4133 Y-61.4322
G01 X70.4629 Y-61.4992
G01 X70.5190 Y-61.5610
G01 X70.5808 Y-61.6171
G01 X70.6478 Y-61.6667
G01 X70.7193 Y-61.7096
G01 X70.7947 Y-61.7453
G01 X70.8733 Y-61.7734
G01 X70.9542 Y-61.7937
G01 X71.0367 Y-61.8059
G01 X71.1225 Y-61.8099
G00 Z2.0000
G00 X67.7800 Y-61.8100
G01 F60.00
G01 Z0.0000
G01 F120.00
G01 X69.3800 Y-61.8100
G01 X69.3898 Y-61.8090
G01 X69.3945 Y-61.8078
G01 X69.4003 Y-61.8057
G01 X69.4088 Y-61.8009
G01 X69.4162 Y-61.7945
G01 X69.4222 Y-61.7867
G01 X69.4266 Y-61.7780
G01 X69.4290 Y-61.7698
G01 X69.4300 Y-61.7600
G01 X69.4300 Y-60.1600
G01 X69.4290 Y-60.1502
G01 X69.4262 Y-60.1409
G01 X69.4216 Y-60.1322
G01 X69.4179 Y-60.1273
G01 X69.4145 Y-60.1238
G01 X69.4067 Y-60.1178
G01 X69.3991 Y-60.1138
G01 X69.3898 Y-60.1110
G01 X69.3800 Y-60.1100
G01 X67.7800 Y-60.1100
G01 X67.7702 Y-60.1110
G01 X67.7655 Y-60.1122
G01 X67.7597 Y-60.1143
G01 X67.7512 Y-60.1191
G01 X67.7438 Y-60.1255
G01 X67.7378 Y-60.1333
G01 X67.7334 Y-60.1420
G01 X67.7307 Y-60.1515
G01 X67.7300 Y-60.1600
G01 X67.7300 Y-61.7612
G01 X67.7312 Y-61.7710
G01 X67.7343 Y-61.7803
G01 X67.7384 Y-61.7878
G01 X67.7446 Y-61.7954
G01 X67.7522 Y-61.8016
G01 X67.7609 Y-61.8062
G01 X67.7702 Y-61.8090
G01 X67.7800 Y-61.8100
G00 Z2.0000
G00 X60.9625 Y-61.8099
G01 F60.00
G01 Z0.0000
G01 F120.00
G01 X61.0433 Y-61.8059
G01 X61.1258 Y-61.7937
G01 X61.2067 Y-61.7734
G01 X61.2853 Y-61.7453
G01 X61.3607 Y-61.7096
G01 X61.4322 Y-61.6667
G01 X61.4992 Y-61.6171
G01 X61.5610 Y-61.5610
G01 X61.6171 Y-61.4992
G01 X61.6667 Y-61.4322
G01 X61.7096 Y-61.3607
G01 X61.7453 Y-61.2853
G01 X61.7734 Y-61.2067
G01 X61.7937 Y-61.1258
G01 X61.8059 Y-61.0433
G01 X61.8100 Y-60.9600
G01 X61.8059 Y-60.8767
G01 X61.7937 Y-60.7942
G01 X61.7734 Y-60.7133
G01 X61.7453 Y-60.6347
G01 X61.7096 Y-60.5593
G01 X61.6667 Y-60.4878
G01 X61.6171 Y-60.4208
G01 X61.5610 Y-60.3590
G01 X61.4992 Y-60.3029
G01 X61.4322 Y-60.2533
G01 X61.3607 Y-60.2104
G01 X61.2853 Y-60.1747
G01 X61.2067 Y-60.1466
G01 X61.1258 Y-60.1263
G01 X61.0433 Y-60.1141
G01 X60.9600 Y-60.1100
G01 X60.8767 Y-60.1141
G01 X60.7942 Y-60.1263
G01 X60.7133 Y-60.1466
G01 X60.6347 Y-60.1747
G01 X60.5593 Y-60.2104
G01 X60.4878 Y-60.2533
G01 X60.4208 Y-60.3029
G01 X60.3590 Y-60.3590
G01 X60.3029 Y-60.4208
G01 X60.2533 Y-60.4878
G01 X60.2104 Y-60.5593
G01 X60.1747 Y-60.6347
G01 X60.1466 Y-60.7133
G01 X60.1263 Y-60.7942
G01 X60.1141 Y-60.8767
G01 X60.1100 Y-60.9600
G01 X60.1141 Y-61.0433
G01 X60.1263 Y-61.1258
G01 X60.1466 Y-61.2067
G01 X60.1747 Y-61.2853
G01 X60.2104 Y-61.3607
G01 X60.2533 Y-61.4322
G01 X60.3029 Y-61.4992
G01 X60.3590 Y-61.5610
G01 X60.4208 Y-61.6171
G01 X60.4878 Y-61.6667
G01 X60.5593 Y-61.7096
G01 X60.6347 Y-61.7453
G01 X60.7133 Y-61.7734
G01 X60.7942 Y-61.7937
G01 X60.8767 Y-61.8059
G01 X60.9625 Y-61.8099
G00 Z2.0000
G00 X58.4225 Y-61.8099
G01 F60.00
G01 Z0.0000
G01 F120.00
G01 X58.5033 Y-61.8059
G01 X58.5858 Y-61.7937
G01 X58.6667 Y-61.7734
G01 X58.7453 Y-61.7453
G01 X58.8207 Y-61.7096
G01 X58.8922 Y-61.6667
G01 X58.9592 Y-61.6171
G01 X59.0210 Y-61.5610
G01 X59.0771 Y-61.4992
G01 X59.1267 Y-61.4322
G01 X59.1696 Y-61.3607
G01 X59.2053 Y-61.2853
G01 X59.2334 Y-61.2067
G01 X59.2537 Y-61.1258
G01 X59.2659 Y-61.0433
G01 X59.2700 Y-60.9600
G01 X59.2659 Y-60.8767
G01 X59.2537 Y-60.7942
G01 X59.2334 Y-60.7133
G01 X59.2053 Y-60.6347
G01 X59.1696 Y-60.5593
G01 X59.1267 Y-60.4878
G01 X59.0771 Y-60.4208
G01 X59.0210 Y-60.3590
G01 X58.9592 Y-60.3029
G01 X58.8922 Y-60.2533
G01 X58.8207 Y-60.2104
G01 X58.7453 Y-60.1747
G01 X58.6667 Y-60.1466
G01 X58.5858 Y-60.1263
G01 X58.5033 Y-60.1141
G01 X58.4200 Y-60.1100
G01 X58.3367 Y-60.1141
G01 X58.2542 Y-60.1263
G01 X58.1733 Y-60.1466
G01 X58.0947 Y-60.1747
G01 X58.0193 Y-60.2104
G01 X57.9478 Y-60.2533
G01 X57.8808 Y-60.3029
G01 X57.8190 Y-60.3590
G01 X57.7629 Y-60.4208
G01 X57.7133 Y-60.4878
G01 X57.6704 Y-60.5593
G01 X57.6347 Y-60.6347
G01 X57.6066 Y-60.7133
G01 X57.5863 Y-60.7942
G01 X57.5741 Y-60.8767
G01 X57.5700 Y-60.9600
G01 X57.5741 Y-61.0433
G01 X57.5863 Y-61.1258
G01 X57.6066 Y-61.2067
G01 X57.6347 Y-61.2853
G01 X57.6704 Y-61.3607
G01 X57.7133 Y-61.4322
G01 X57.7629 Y-61.4992
G01 X57.8190 Y-61.5610
G01 X57.8808 Y-61.6171
G01 X57.9478 Y-61.6667
G01 X58.0193 Y-61.7096
G01 X58.0947 Y-61.7453
G01 X58.1733 Y-61.7734
G01 X58.2542 Y-61.7937
G01 X58.3367 Y-61.8059
G01 X58.4225 Y-61.8099
G00 Z2.0000
G00 X55.8825 Y-61.8099
G01 F60.00
G01 Z0.0000
G01 F120.00
G01 X55.9633 Y-61.8059
G01 X56.0458 Y-61.7937
G01 X56.1267 Y-61.7734
G01 X56.2053 Y-61.7453
G01 X56.2807 Y-61.7096
G01 X56.3522 Y-61.6667
G01 X56.4192 Y-61.6171
G01 X56.4810 Y-61.5610
G01 X56.5371 Y-61.4992
G01 X56.5867 Y-61.4322
G01 X56.6296 Y-61.3607
G01 X56.6653 Y-61.2853
G01 X56.6934 Y-61.2067
G01 X56.7137 Y-61.1258
G01 X56.7259 Y-61.0433
G01 X56.7300 Y-60.9600
G01 X56.7259 Y-60.8767
G01 X56.7137 Y-60.7942
G01 X56.6934 Y-60.7133
G01 X56.6653 Y-60.6347
G01 X56.6296 Y-60.5593
G01 X56.5867 Y-60.4878
G01 X56.5371 Y-60.4208
G01 X56.4810 Y-60.3590
G01 X56.4192 Y-60.3029
G01 X56.3522 Y-60.2533
G01 X56.2807 Y-60.2104
G01 X56.2053 Y-60.1747
G01 X56.1267 Y-60.1466
G01 X56.0458 Y-60.1263
G01 X55.9633 Y-60.1141
G01 X55.8800 Y-60.1100
G01 X55.7967 Y-60.1141
G01 X55.7142 Y-60.1263
G01 X55.6333 Y-60.1466
G01 X55.5547 Y-60.1747
G01 X55.4793 Y-60.2104
G01 X55.4078 Y-60.2533
G01 X55.3408 Y-60.3029
G01 X55.2790 Y-60.3590
G01 X55.2229 Y-60.4208
G01 X55.1733 Y-60.4878
G01 X55.1304 Y-60.5593
G01 X55.0947 Y-60.6347
G01 X55.0666 Y-60.7133
G01 X55.0463 Y-60.7942
G01 X55.0341 Y-60.8767
G01 X55.0300 Y-60.9600
G01 X55.0341 Y-61.0433
G01 X55.0463 Y-61.1258
G01 X55.0666 Y-61.2067
G01 X55.0947 Y-61.2853
G01 X55.1304 Y-61.3607
G01 X55.1733 Y-61.4322
G01 X55.2229 Y-61.4992
G01 X55.2790 Y-61.5610
G01 X55.3408 Y-61.6171
G01 X55.4078 Y-61.6667
G01 X55.4793 Y-61.7096
G01 X55.5547 Y-61.7453
G01 X55.6333 Y-61.7734
G01 X55.7142 Y-61.7937
G01 X55.7967 Y-61.8059
G01 X55.8825 Y-61.8099
G00 Z2.0000
G00 X53.3425 Y-61.8099
G01 F60.00
G01 Z0.0000
G01 F120.00
G01 X53.4233 Y-61.8059
G01 X53.5058 Y-61.7937
G01 X53.5867 Y-61.7734
G01 X53.6653 Y-61.7453
G01 X53.7407 Y-61.7096
G01 X53.8122 Y-61.6667
G01 X53.8792 Y-61.6171
G01 X53.9410 Y-61.5610
G01 X53.9971 Y-61.4992
G01 X54.0467 Y-61.4322
G01 X54.0896 Y-61.3607
G01 X54.1253 Y-61.2853
G01 X54.1534 Y-61.2067
G01 X54.1737 Y-61.1258
G01 X54.1859 Y-61.0433
G01 X54.1900 Y-60.9600
G01 X54.1859 Y-60.8767
G01 X54.1737 Y-60.7942
G01 X54.1534 Y-60.7133
G01 X54.1253 Y-60.6347
G01 X54.0896 Y-60.5593
G01 X54.0467 Y-60.4878
G01 X53.9971 Y-60.4208
G01 X53.9410 Y-60.3590
G01 X53.8792 Y-60.3029
G01 X53.8122 Y-60.2533
G01 X53.7407 Y-60.2104
G01 X53.6653 Y-60.1747
G01 X53.5867 Y-60.1466
G01 X53.5058 Y-60.1263
G01 X53.4233 Y-60.1141
G01 X53.3400 Y-60.1100
G01 X53.2567 Y-60.1141
G01 X53.1742 Y-60.1263
G01 X53.0933 Y-60.1466
G01 X53.0147 Y-60.1747
G01 X52.9393 Y-60.2104
G01 X52.8678 Y-60.2533
G01 X52.8008 Y-60.3029
G01 X52.7390 Y-60.3590
G01 X52.6829 Y-60.4208
G01 X52.6333 Y-60.4878
G01 X52.5904 Y-60.5593
G01 X52.5547 Y-60.6347
G01 X52.5266 Y-60.7133
G01 X52.5063 Y-60.7942
G01 X52.4941 Y-60.8767
G01 X52.4900 Y-60.9600
G01 X52.4941 Y-61.0433
G01 X52.5063 Y-61.1258
G01 X52.5266 Y-61.2067
G01 X52.5547 Y-61.2853
G01 X52.5904 Y-61.3607
G01 X52.6333 Y-61.4322
G01 X52.6829 Y-61.4992
G01 X52.7390 Y-61.5610
G01 X52.8008 Y-61.6171
G01 X52.8678 Y-61.6667
G01 X52.9393 Y-61.7096
G01 X53.0147 Y-61.7453
G01 X53.0933 Y-61.7734
G01 X53.1742 Y-61.7937
G01 X53.2567 Y-61.8059
G01 X53.3425 Y-61.8099
G00 Z2.0000
G00 X50.8025 Y-61.8099
G01 F60.00
G01 Z0.0000
G01 F120.00
G01 X50.8833 Y-61.8059
G01 X50.9658 Y-61.7937
G01 X51.0467 Y-61.7734
G01 X51.1253 Y-61.7453
G01 X51.2007 Y-61.7096
G01 X51.2722 Y-61.6667
G01 X51.3392 Y-61.6171
G01 X51.4010 Y-61.5610
G01 X51.4571 Y-61.4992
G01 X51.5067 Y-61.4322
G01 X51.5496 Y-61.3607
G01 X51.5853 Y-61.2853
G01 X51.6134 Y-61.2067
G01 X51.6337 Y-61.1258
G01 X51.6459 Y-61.0433
G01 X51.6500 Y-60.9600
G01 X51.6459 Y-60.8767
G01 X51.6337 Y-60.7942
G01 X51.6134 Y-60.7133
G01 X51.5853 Y-60.6347
G01 X51.5496 Y-60.5593
G01 X51.5067 Y-60.4878
G01 X51.4571 Y-60.4208
G01 X51.4010 Y-60.3590
G01 X51.3392 Y-60.3029
G01 X51.2722 Y-60.2533
G01 X51.2007 Y-60.2104
G01 X51.1253 Y-60.1747
G01 X51.0467 Y-60.1466
G01 X50.9658 Y-60.1263
G01 X50.8833 Y-60.1141
G01 X50.8000 Y-60.1100
G01 X50.7167 Y-60.1141
G01 X50.6342 Y-60.1263
G01 X50.5533 Y-60.1466
G01 X50.4747 Y-60.1747
G01 X50.3993 Y-60.2104
G01 X50.3278 Y-60.2533
G01 X50.2608 Y-60.3029
G01 X50.1990 Y-60.3590
G01 X50.1429 Y-60.4208
G01 X50.0933 Y-60.4878
G01 X50.0504 Y-60.5593
G01 X50.0147 Y-60.6347
G01 X49.9866 Y-60.7133
G01 X49.9663 Y-60.7942
G01 X49.9541 Y-60.8767
G01 X49.9500 Y-60.9600
G01 X49.9541 Y-61.0433
G01 X49.9663 Y-61.1258
G01 X49.9866 Y-61.2067
G01 X50.0147 Y-61.2853
G01 X50.0504 Y-61.3607
G01 X50.0933 Y-61.4322
G01 X50.1429 Y-61.4992
G01 X50.1990 Y-61.5610
G01 X50.2608 Y-61.6171
G01 X50.3278 Y-61.6667
G01 X50.3993 Y-61.7096
G01 X50.4747 Y-61.7453
G01 X50.5533 Y-61.7734
G01 X50.6342 Y-61.7937
G01 X50.7167 Y-61.8059
G01 X50.8025 Y-61.8099
G00 Z2.0000
G00 X48.2625 Y-61.8099
G01 F60.00
G01 Z0.0000
G01 F120.00
G01 X48.3433 Y-61.8059
G01 X48.4258 Y-61.7937
G01 X48.5067 Y-61.7734
G01 X48.5853 Y-61.7453
G01 X48.6607 Y-61.7096
G01 X48.7322 Y-61.6667
G01 X48.7992 Y-61.6171
G01 X48.8610 Y-61.5610
G01 X48.9171 Y-61.4992
G01 X48.9667 Y-61.4322
G01 X49.0096 Y-61.3607
G01 X49.0453 Y-61.2853
G01 X49.0734 Y-61.2067
G01 X49.0937 Y-61.1258
G01 X49.1059 Y-61.0433
G01 X49.1100 Y-60.9600
G01 X49.1059 Y-60.8767
G01 X49.0937 Y-60.7942
G01 X49.0734 Y-60.7133
G01 X49.0453 Y-60.6347
G01 X49.0096 Y-60.5593
G01 X48.9667 Y-60.4878
G01 X48.9171 Y-60.4208
G01 X48.8610 Y-60.3590
G01 X48.7992 Y-60.3029
G01 X48.7322 Y-60.2533
G01 X48.6607 Y-60.2104
G01 X48.5853 Y-60.1747
G01 X48.5067 Y-60.1466
G01 X48.4258 Y-60.1263
G01 X48.3433 Y-60.1141
G01 X48.2600 Y-60.1100
G01 X48.1767 Y-60.1141
G01 X48.0942 Y-60.1263
G01 X48.0133 Y-60.1466
G01 X47.9347 Y-60.1747
G01 X47.8593 Y-60.2104
G01 X47.7878 Y-60.2533
G01 X47.7208 Y-60.3029
G01 X47.6590 Y-60.3590
G01 X47.6029 Y-60.4208
G01 X47.5533 Y-60.4878
G01 X47.5104 Y-60.5593
G01 X47.4747 Y-60.6347
G01 X47.4466 Y-60.7133
G01 X47.4263 Y-60.7942
G01 X47.4141 Y-60.8767
G01 X47.4100 Y-60.9600
G01 X47.4141 Y-61.0433
G01 X47.4263 Y-61.1258
G01 X47.4466 Y-61.2067
G01 X47.4747 Y-61.2853
G01 X47.5104 Y-61.3607
G01 X47.5533 Y-61.4322
G01 X47.6029 Y-61.4992
G01 X47.6590 Y-61.5610
G01 X47.7208 Y-61.6171
G01 X47.7878 Y-61.6667
G01 X47.8593 Y-61.7096
G01 X47.9347 Y-61.7453
G01 X48.0133 Y-61.7734
G01 X48.0942 Y-61.7937
G01 X48.1767 Y-61.8059
G01 X48.2625 Y-61.8099
G00 Z2.0000
G00 X45.7225 Y-61.8099
G01 F60.00
G01 Z0.0000
G01 F120.00
G01 X45.8033 Y-61.8059
G01 X45.8858 Y-61.7937
G01 X45.9667 Y-61.7734
G01 X46.0453 Y-61.7453
G01 X46.1207 Y-61.7096
G01 X46.1922 Y-61.6667
G01 X46.2592 Y-61.6171
G01 X46.3210 Y-61.5610
G01 X46.3771 Y-61.4992
G01 X46.4267 Y-61.4322
G01 X46.4696 Y-61.3607
G01 X46.5053 Y-61.2853
G01 X46.5334 Y-61.2067
G01 X46.5537 Y-61.1258
G01 X46.5659 Y-61.0433
G01 X46.5700 Y-60.9600
G01 X46.5659 Y-60.8767
G01 X46.5537 Y-60.7942
G01 X46.5334 Y-60.7133
G01 X46.5053 Y-60.6347
G01 X46.4696 Y-60.5593
G01 X46.4267 Y-60.4878
G01 X46.3771 Y-60.4208
G01 X46.3210 Y-60.3590
G01 X46.2592 Y-60.3029
G01 X46.1922 Y-60.2533
G01 X46.1207 Y-60.2104
G01 X46.0453 Y-60.1747
G01 X45.9667 Y-60.1466
G01 X45.8858 Y-60.1263
G01 X45.8033 Y-60.1141
G01 X45.7200 Y-60.1100
G01 X45.6367 Y-60.1141
G01 X45.5542 Y-60.1263
G01 X45.4733 Y-60.1466
G01 X45.3947 Y-60.1747
G01 X45.3193 Y-60.2104
G01 X45.2478 Y-60.2533
G01 X45.1808 Y-60.3029
G01 X45.1190 Y-60.3590
G01 X45.0629 Y-60.4208
G01 X45.0133 Y-60.4878
G01 X44.9704 Y-60.5593
G01 X44.9347 Y-60.6347
G01 X44.9066 Y-60.7133
G01 X44.8863 Y-60.7942
G01 X44.8741 Y-60.8767
G01 X44.8700 Y-60.9600
G01 X44.8741 Y-61.0433
G01 X44.8863 Y-61.1258
G01 X44.9066 Y-61.2067
G01 X44.9347 Y-61.2853
G01 X44.9704 Y-61.3607
G01 X45.0133 Y-61.4322
G01 X45.0629 Y-61.4992
G01 X45.1190 Y-61.5610
G01 X45.1808 Y-61.6171
G01 X45.2478 Y-61.6667
G01 X45.3193 Y-61.7096
G01 X45.3947 Y-61.7453
G01 X45.4733 Y-61.7734
G01 X45.5542 Y-61.7937
G01 X45.6367 Y-61.8059
G01 X45.7225 Y-61.8099
G00 Z2.0000
G00 X42.3800 Y-61.8100
G01 F60.00
G01 Z0.0000
G01 F120.00
G01 X43.9800 Y-61.8100
G01 X43.9898 Y-61.8090
G01 X43.9991 Y-61.8062
G01 X44.0078 Y-61.8016
G01 X44.0117 Y-61.7987
G01 X44.0162 Y-61.7945
G01 X44.0216 Y-61.7878
G01 X44.0262 Y-61.7791
G01 X44.0290 Y-61.7698
G01 X44.0300 Y-61.7600
G01 X44.0300 Y-60.1600
G01 X44.0290 Y-60.1502
G01 X44.0262 Y-60.1409
G01 X44.0216 Y-60.1322
G01 X44.0187 Y-60.1283
G01 X44.0145 Y-60.1238
G01 X44.0078 Y-60.1184
G01 X43.9991 Y-60.1138
G01 X43.9898 Y-60.1110
G01 X43.9800 Y-60.1100
G01 X42.3800 Y-60.1100
G01 X42.3702 Y-60.1110
G01 X42.3609 Y-60.1138
G01 X42.3522 Y-60.1184
G01 X42.3473 Y-60.1221
G01 X42.3438 Y-60.1255
G01 X42.3384 Y-60.1322
G01 X42.3338 Y-60.1409
G01 X42.3310 Y-60.1502
G01 X42.3300 Y-60.1600
G01 X42.3300 Y-61.7612
G01 X42.3310 Y-61.7698
G01 X42.3338 Y-61.7791
G01 X42.3384 Y-61.7878
G01 X42.3446 Y-61.7954
G01 X42.3522 Y-61.8016
G01 X42.3609 Y-61.8062
G01 X42.3702 Y-61.8090
G01 X42.3800 Y-61.8100
G00 Z2.0000
G00 X43.1825 Y-54.1899
G01 F60.00
G01 Z0.0000
G01 F120.00
G01 X43.2633 Y-54.1859
G01 X43.3458 Y-54.1737
G01 X43.4267 Y-54.1534
G01 X43.5053 Y-54.1253
G01 X43.5807 Y-54.0896
G01 X43.6522 Y-54.0467
G01 X43.7192 Y-53.9971
G01 X43.7810 Y-53.9410
G01 X43.8371 Y-53.8792
G01 X43.8867 Y-53.8122
G01 X43.9296 Y-53.7407
G01 X43.9653 Y-53.6653
G01 X43.9934 Y-53.5867
G01 X44.0137 Y-53.5058
G01 X44.0259 Y-53.4233
G01 X44.0300 Y-53.3400
G01 X44.0259 Y-53.2567
G01 X44.0137 Y-53.1742
G01 X43.9934 Y-53.0933
G01 X43.9653 Y-53.0147
G01 X43.9296 Y-52.9393
G01 X43.8867 Y-52.8678
G01 X43.8371 Y-52.8008
G01 X43.7810 Y-52.7390
G01 X43.7192 Y-52.6829
G01 X43.6522 Y-52.6333
G01 X43.5807 Y-52.5904
G01 X43.5053 Y-52.5547
G01 X43.4267 Y-52.5266
G01 X43.3458 Y-52.5063
G01 X43.2633 Y-52.4941
G01 X43.1800 Y-52.4900
G01 X43.0967 Y-52.4941
G01 X43.0142 Y-52.5063
G01 X42.9333 Y-52.5266
G01 X42.8547 Y-52.5547
G01 X42.7793 Y-52.5904
G01 X42.7078 Y-52.6333
G01 X42.6408 Y-52.6829
G01 X42.5790 Y-52.7390
G01 X42.5229 Y-52.8008
G01 X42.4733 Y-52.8678
G01 X42.4304 Y-52.9393
G01 X42.3947 Y-53.0147
G01 X42.3666 Y-53.0933
G01 X42.3463 Y-53.1742
G01 X42.3341 Y-53.2567
G01 X42.3300 Y-53.3400
G01 X42.3341 Y-53.4233
G01 X42.3463 Y-53.5058
G01 X42.3666 Y-53.5867
G01 X42.3947 Y-53.6653
G01 X42.4304 Y-53.7407
G01 X42.4733 Y-53.8122
G01 X42.5229 Y-53.8792
G01 X42.5790 Y-53.9410
G01 X42.6408 Y-53.9971
G01 X42.7078 Y-54.0467
G01 X42.7793 Y-54.0896
G01 X42.8547 Y-54.1253
G01 X42.9333 Y-54.1534
G01 X43.0142 Y-54.1737
G01 X43.0967 Y-54.1859
G01 X43.1825 Y-54.1899
G00 Z2.0000
G00 X45.7225 Y-54.1899
G01 F60.00
G01 Z0.0000
G01 F120.00
G01 X45.8033 Y-54.1859
G01 X45.8858 Y-54.1737
G01 X45.9667 Y-54.1534
G01 X46.0453 Y-54.1253
G01 X46.1207 Y-54.0896
G01 X46.1922 Y-54.0467
G01 X46.2592 Y-53.9971
G01 X46.3210 Y-53.9410
G01 X46.3771 Y-53.8792
G01 X46.4267 Y-53.8122
G01 X46.4696 Y-53.7407
G01 X46.5053 Y-53.6653
G01 X46.5334 Y-53.5867
G01 X46.5537 Y-53.5058
G01 X46.5659 Y-53.4233
G01 X46.5700 Y-53.3400
G01 X46.5659 Y-53.2567
G01 X46.5537 Y-53.1742
G01 X46.5334 Y-53.0933
G01 X46.5053 Y-53.0147
G01 X46.4696 Y-52.9393
G01 X46.4267 Y-52.8678
G01 X46.3771 Y-52.8008
G01 X46.3210 Y-52.7390
G01 X46.2592 Y-52.6829
G01 X46.1922 Y-52.6333
G01 X46.1207 Y-52.5904
G01 X46.0453 Y-52.5547
G01 X45.9667 Y-52.5266
G01 X45.8858 Y-52.5063
G01 X45.8033 Y-52.4941
G01 X45.7200 Y-52.4900
G01 X45.6367 Y-52.4941
G01 X45.5542 Y-52.5063
G01 X45.4733 Y-52.5266
G01 X45.3947 Y-52.5547
G01 X45.3193 Y-52.5904
G01 X45.2478 Y-52.6333
G01 X45.1808 Y-52.6829
G01 X45.1190 Y-52.7390
G01 X45.0629 Y-52.8008
G01 X45.0133 Y-52.8678
G01 X44.9704 Y-52.9393
G01 X44.9347 Y-53.0147
G01 X44.9066 Y-53.0933
G01 X44.8863 Y-53.1742
G01 X44.8741 Y-53.2567
G01 X44.8700 Y-53.3400
G01 X44.8741 Y-53.4233
G01 X44.8863 Y-53.5058
G01 X44.9066 Y-53.5867
G01 X44.9347 Y-53.6653
G01 X44.9704 Y-53.7407
G01 X45.0133 Y-53.8122
G01 X45.0629 Y-53.8792
G01 X45.1190 Y-53.9410
G01 X45.1808 Y-53.9971
G01 X45.2478 Y-54.0467
G01 X45.3193 Y-54.0896
G01 X45.3947 Y-54.1253
G01 X45.4733 Y-54.1534
G01 X45.5542 Y-54.1737
G01 X45.6367 Y-54.1859
G01 X45.7225 Y-54.1899
G00 Z2.0000
G00 X48.2625 Y-54.1899
G01 F60.00
G01 Z0.0000
G01 F120.00
G01 X48.3433 Y-54.1859
G01 X48.4258 Y-54.1737
G01 X48.5067 Y-54.1534
G01 X48.5853 Y-54.1253
G01 X48.6607 Y-54.0896
G01 X48.7322 Y-54.0467
G01 X48.7992 Y-53.9971
G01 X48.8610 Y-53.9410
G01 X48.9171 Y-53.8792
G01 X48.9667 Y-53.8122
G01 X49.0096 Y-53.7407
G01 X49.0453 Y-53.6653
G01 X49.0734 Y-53.5867
G01 X49.0937 Y-53.5058
G01 X49.1059 Y-53.4233
G01 X49.1100 Y-53.3400
G01 X49.1059 Y-53.2567
G01 X49.0937 Y-53.1742
G01 X49.0734 Y-53.0933
G01 X49.0453 Y-53.0147
G01 X49.0096 Y-52.9393
G01 X48.9667 Y-52.8678
G01 X48.9171 Y-52.8008
G01 X48.8610 Y-52.7390
G01 X48.7992 Y-52.6829
G01 X48.7322 Y-52.6333
G01 X48.6607 Y-52.5904
G01 X48.5853 Y-52.5547
G01 X48.5067 Y-52.5266
G01 X48.4258 Y-52.5063
G01 X48.3433 Y-52.4941
G01 X48.2600 Y-52.4900
G01 X48.1767 Y-52.4941
G01 X48.0942 Y-52.5063
G01 X48.0133 Y-52.5266
G01 X47.9347 Y-52.5547
G01 X47.8593 Y-52.5904
G01 X47.7878 Y-52.6333
G01 X47.7208 Y-52.6829
G01 X47.6590 Y-52.7390
G01 X47.6029 Y-52.8008
G01 X47.5533 Y-52.8678
G01 X47.5104 Y-52.9393
G01 X47.4747 Y-53.0147
G01 X47.4466 Y-53.0933
G01 X47.4263 Y-53.1742
G01 X47.4141 Y-53.2567
G01 X47.4100 Y-53.3400
G01 X47.4141 Y-53.4233
G01 X47.4263 Y-53.5058
G01 X47.4466 Y-53.5867
G01 X47.4747 Y-53.6653
G01 X47.5104 Y-53.7407
G01 X47.5533 Y-53.8122
G01 X47.6029 Y-53.8792
G01 X47.6590 Y-53.9410
G01 X47.7208 Y-53.9971
G01 X47.7878 Y-54.0467
G01 X47.8593 Y-54.0896
G01 X47.9347 Y-54.1253
G01 X48.0133 Y-54.1534
G01 X48.0942 Y-54.1737
G01 X48.1767 Y-54.1859
G01 X48.2625 Y-54.1899
G00 Z2.0000
G00 X50.8025 Y-54.1899
G01 F60.00
G01 Z0.0000
G01 F120.00
G01 X50.8833 Y-54.1859
G01 X50.9658 Y-54.1737
G01 X51.0467 Y-54.1534
G01 X51.1253 Y-54.1253
G01 X51.2007 Y-54.0896
G01 X51.2722 Y-54.0467
G01 X51.3392 Y-53.9971
G01 X51.4010 Y-53.9410
G01 X51.4571 Y-53.8792
G01 X51.5067 Y-53.8122
G01 X51.5496 Y-53.7407
G01 X51.5853 Y-53.6653
G01 X51.6134 Y-53.5867
G01 X51.6337 Y-53.5058
G01 X51.6459 Y-53.4233
G01 X51.6500 Y-53.3400
G01 X51.6459 Y-53.2567
G01 X51.6337 Y-53.1742
G01 X51.6134 Y-53.0933
G01 X51.5853 Y-53.0147
G01 X51.5496 Y-52.9393
G01 X51.5067 Y-52.8678
G01 X51.4571 Y-52.8008
G01 X51.4010 Y-52.7390
G01 X51.3392 Y-52.6829
G01 X51.2722 Y-52.6333
G01 X51.2007 Y-52.5904
G01 X51.1253 Y-52.5547
G01 X51.0467 Y-52.5266
G01 X50.9658 Y-52.5063
G01 X50.8833 Y-52.4941
G01 X50.8000 Y-52.4900
G01 X50.7167 Y-52.4941
G01 X50.6342 Y-52.5063
G01 X50.5533 Y-52.5266
G01 X50.4747 Y-52.5547
G01 X50.3993 Y-52.5904
G01 X50.3278 Y-52.6333
G01 X50.2608 Y-52.6829
G01 X50.1990 Y-52.7390
G01 X50.1429 Y-52.8008
G01 X50.0933 Y-52.8678
G01 X50.0504 Y-52.9393
G01 X50.0147 Y-53.0147
G01 X49.9866 Y-53.0933
G01 X49.9663 Y-53.1742
G01 X49.9541 Y-53.2567
G01 X49.9500 Y-53.3400
G01 X49.9541 Y-53.4233
G01 X49.9663 Y-53.5058
G01 X49.9866 Y-53.5867
G01 X50.0147 Y-53.6653
G01 X50.0504 Y-53.7407
G01 X50.0933 Y-53.8122
G01 X50.1429 Y-53.8792
G01 X50.1990 Y-53.9410
G01 X50.2608 Y-53.9971
G01 X50.3278 Y-54.0467
G01 X50.3993 Y-54.0896
G01 X50.4747 Y-54.1253
G01 X50.5533 Y-54.1534
G01 X50.6342 Y-54.1737
G01 X50.7167 Y-54.1859
G01 X50.8025 Y-54.1899
G00 Z2.0000
G00 X53.3425 Y-54.1899
G01 F60.00
G01 Z0.0000
G01 F120.00
G01 X53.4233 Y-54.1859
G01 X53.5058 Y-54.1737
G01 X53.5867 Y-54.1534
G01 X53.6653 Y-54.1253
G01 X53.7407 Y-54.0896
G01 X53.8122 Y-54.0467
G01 X53.8792 Y-53.9971
G01 X53.9410 Y-53.9410
G01 X53.9971 Y-53.8792
G01 X54.0467 Y-53.8122
G01 X54.0896 Y-53.7407
G01 X54.1253 Y-53.6653
G01 X54.1534 Y-53.5867
G01 X54.1737 Y-53.5058
G01 X54.1859 Y-53.4233
G01 X54.1900 Y-53.3400
G01 X54.1859 Y-53.2567
G01 X54.1737 Y-53.1742
G01 X54.1534 Y-53.0933
G01 X54.1253 Y-53.0147
G01 X54.0896 Y-52.9393
G01 X54.0467 Y-52.8678
G01 X53.9971 Y-52.8008
G01 X53.9410 Y-52.7390
G01 X53.8792 Y-52.6829
G01 X53.8122 Y-52.6333
G01 X53.7407 Y-52.5904
G01 X53.6653 Y-52.5547
G01 X53.5867 Y-52.5266
G01 X53.5058 Y-52.5063
G01 X53.4233 Y-52.4941
G01 X53.3400 Y-52.4900
G01 X53.2567 Y-52.4941
G01 X53.1742 Y-52.5063
G01 X53.0933 Y-52.5266
G01 X53.0147 Y-52.5547
G01 X52.9393 Y-52.5904
G01 X52.8678 Y-52.6333
G01 X52.8008 Y-52.6829
G01 X52.7390 Y-52.7390
G01 X52.6829 Y-52.8008
G01 X52.6333 Y-52.8678
G01 X52.5904 Y-52.9393
G01 X52.5547 Y-53.0147
G01 X52.5266 Y-53.0933
G01 X52.5063 Y-53.1742
G01 X52.4941 Y-53.2567
G01 X52.4900 Y-53.3400
G01 X52.4941 Y-53.4233
G01 X52.5063 Y-53.5058
G01 X52.5266 Y-53.5867
G01 X52.5547 Y-53.6653
G01 X52.5904 Y-53.7407
G01 X52.6333 Y-53.8122
G01 X52.6829 Y-53.8792
G01 X52.7390 Y-53.9410
G01 X52.8008 Y-53.9971
G01 X52.8678 Y-54.0467
G01 X52.9393 Y-54.0896
G01 X53.0147 Y-54.1253
G01 X53.0933 Y-54.1534
G01 X53.1742 Y-54.1737
G01 X53.2567 Y-54.1859
G01 X53.3425 Y-54.1899
G00 Z2.0000
G00 X55.8825 Y-54.1899
G01 F60.00
G01 Z0.0000
G01 F120.00
G01 X55.9633 Y-54.1859
G01 X56.0458 Y-54.1737
G01 X56.1267 Y-54.1534
G01 X56.2053 Y-54.1253
G01 X56.2807 Y-54.0896
G01 X56.3522 Y-54.0467
G01 X56.4192 Y-53.9971
G01 X56.4810 Y-53.9410
G01 X56.5371 Y-53.8792
G01 X56.5867 Y-53.8122
G01 X56.6296 Y-53.7407
G01 X56.6653 Y-53.6653
G01 X56.6934 Y-53.5867
G01 X56.7137 Y-53.5058
G01 X56.7259 Y-53.4233
G01 X56.7300 Y-53.3400
G01 X56.7259 Y-53.2567
G01 X56.7137 Y-53.1742
G01 X56.6934 Y-53.0933
G01 X56.6653 Y-53.0147
G01 X56.6296 Y-52.9393
G01 X56.5867 Y-52.8678
G01 X56.5371 Y-52.8008
G01 X56.4810 Y-52.7390
G01 X56.4192 Y-52.6829
G01 X56.3522 Y-52.6333
G01 X56.2807 Y-52.5904
G01 X56.2053 Y-52.5547
G01 X56.1267 Y-52.5266
G01 X56.0458 Y-52.5063
G01 X55.9633 Y-52.4941
G01 X55.8800 Y-52.4900
G01 X55.7967 Y-52.4941
G01 X55.7142 Y-52.5063
G01 X55.6333 Y-52.5266
G01 X55.5547 Y-52.5547
G01 X55.4793 Y-52.5904
G01 X55.4078 Y-52.6333
G01 X55.3408 Y-52.6829
G01 X55.2790 Y-52.7390
G01 X55.2229 Y-52.8008
G01 X55.1733 Y-52.8678
G01 X55.1304 Y-52.9393
G01 X55.0947 Y-53.0147
G01 X55.0666 Y-53.0933
G01 X55.0463 Y-53.1742
G01 X55.0341 Y-53.2567
G01 X55.0300 Y-53.3400
G01 X55.0341 Y-53.4233
G01 X55.0463 Y-53.5058
G01 X55.0666 Y-53.5867
G01 X55.0947 Y-53.6653
G01 X55.1304 Y-53.7407
G01 X55.1733 Y-53.8122
G01 X55.2229 Y-53.8792
G01 X55.2790 Y-53.9410
G01 X55.3408 Y-53.9971
G01 X55.4078 Y-54.0467
G01 X55.4793 Y-54.0896
G01 X55.5547 Y-54.1253
G01 X55.6333 Y-54.1534
G01 X55.7142 Y-54.1737
G01 X55.7967 Y-54.1859
G01 X55.8825 Y-54.1899
G00 Z2.0000
G00 X58.4225 Y-54.1899
G01 F60.00
G01 Z0.0000
G01 F120.00
G01 X58.5033 Y-54.1859
G01 X58.5858 Y-54.1737
G01 X58.6667 Y-54.1534
G01 X58.7453 Y-54.1253
G01 X58.8207 Y-54.0896
G01 X58.8922 Y-54.0467
G01 X58.9592 Y-53.9971
G01 X59.0210 Y-53.9410
G01 X59.0771 Y-53.8792
G01 X59.1267 Y-53.8122
G01 X59.1696 Y-53.7407
G01 X59.2053 Y-53.6653
G01 X59.2334 Y-53.5867
G01 X59.2537 Y-53.5058
G01 X59.2659 Y-53.4233
G01 X59.2700 Y-53.3400
G01 X59.2659 Y-53.2567
G01 X59.2537 Y-53.1742
G01 X59.2334 Y-53.0933
G01 X59.2053 Y-53.0147
G01 X59.1696 Y-52.9393
G01 X59.1267 Y-52.8678
G01 X59.0771 Y-52.8008
G01 X59.0210 Y-52.7390
G01 X58.9592 Y-52.6829
G01 X58.8922 Y-52.6333
G01 X58.8207 Y-52.5904
G01 X58.7453 Y-52.5547
G01 X58.6667 Y-52.5266
G01 X58.5858 Y-52.5063
G01 X58.5033 Y-52.4941
G01 X58.4200 Y-52.4900
G01 X58.3367 Y-52.4941
G01 X58.2542 Y-52.5063
G01 X58.1733 Y-52.5266
G01 X58.0947 Y-52.5547
G01 X58.0193 Y-52.5904
G01 X57.9478 Y-52.6333
G01 X57.8808 Y-52.6829
G01 X57.8190 Y-52.7390
G01 X57.7629 Y-52.8008
G01 X57.7133 Y-52.8678
G01 X57.6704 Y-52.9393
G01 X57.6347 Y-53.0147
G01 X57.6066 Y-53.0933
G01 X57.5863 Y-53.1742
G01 X57.5741 Y-53.2567
G01 X57.5700 Y-53.3400
G01 X57.5741 Y-53.4233
G01 X57.5863 Y-53.5058
G01 X57.6066 Y-53.5867
G01 X57.6347 Y-53.6653
G01 X57.6704 Y-53.7407
G01 X57.7133 Y-53.8122
G01 X57.7629 Y-53.8792
G01 X57.8190 Y-53.9410
G01 X57.8808 Y-53.9971
G01 X57.9478 Y-54.0467
G01 X58.0193 Y-54.0896
G01 X58.0947 Y-54.1253
G01 X58.1733 Y-54.1534
G01 X58.2542 Y-54.1737
G01 X58.3367 Y-54.1859
G01 X58.4225 Y-54.1899
G00 Z2.0000
G00 X60.9625 Y-54.1899
G01 F60.00
G01 Z0.0000
G01 F120.00
G01 X61.0433 Y-54.1859
G01 X61.1258 Y-54.1737
G01 X61.2067 Y-54.1534
G01 X61.2853 Y-54.1253
G01 X61.3607 Y-54.0896
G01 X61.4322 Y-54.0467
G01 X61.4992 Y-53.9971
G01 X61.5610 Y-53.9410
G01 X61.6171 Y-53.8792
G01 X61.6667 Y-53.8122
G01 X61.7096 Y-53.7407
G01 X61.7453 Y-53.6653
G01 X61.7734 Y-53.5867
G01 X61.7937 Y-53.5058
G01 X61.8059 Y-53.4233
G01 X61.8100 Y-53.3400
G01 X61.8059 Y-53.2567
G01 X61.7937 Y-53.1742
G01 X61.7734 Y-53.0933
G01 X61.7453 Y-53.0147
G01 X61.7096 Y-52.9393
G01 X61.6667 Y-52.8678
G01 X61.6171 Y-52.8008
G01 X61.5610 Y-52.7390
G01 X61.4992 Y-52.6829
G01 X61.4322 Y-52.6333
G01 X61.3607 Y-52.5904
G01 X61.2853 Y-52.5547
G01 X61.2067 Y-52.5266
G01 X61.1258 Y-52.5063
G01 X61.0433 Y-52.4941
G01 X60.9600 Y-52.4900
G01 X60.8767 Y-52.4941
G01 X60.7942 Y-52.5063
G01 X60.7133 Y-52.5266
G01 X60.6347 Y-52.5547
G01 X60.5593 Y-52.5904
G01 X60.4878 Y-52.6333
G01 X60.4208 Y-52.6829
G01 X60.3590 Y-52.7390
G01 X60.3029 Y-52.8008
G01 X60.2533 Y-52.8678
G01 X60.2104 Y-52.9393
G01 X60.1747 Y-53.0147
G01 X60.1466 Y-53.0933
G01 X60.1263 Y-53.1742
G01 X60.1141 Y-53.2567
G01 X60.1100 Y-53.3400
G01 X60.1141 Y-53.4233
G01 X60.1263 Y-53.5058
G01 X60.1466 Y-53.5867
G01 X60.1747 Y-53.6653
G01 X60.2104 Y-53.7407
G01 X60.2533 Y-53.8122
G01 X60.3029 Y-53.8792
G01 X60.3590 Y-53.9410
G01 X60.4208 Y-53.9971
G01 X60.4878 Y-54.0467
G01 X60.5593 Y-54.0896
G01 X60.6347 Y-54.1253
G01 X60.7133 Y-54.1534
G01 X60.7942 Y-54.1737
G01 X60.8767 Y-54.1859
G01 X60.9625 Y-54.1899
G00 Z2.0000
G00 X62.2275 Y-49.1099
G01 F60.00
G01 Z0.0000
G01 F120.00
G01 X62.3083 Y-49.1059
G01 X62.3908 Y-49.0937
G01 X62.4717 Y-49.0734
G01 X62.5503 Y-49.0453
G01 X62.6257 Y-49.0096
G01 X62.6972 Y-48.9667
G01 X62.7642 Y-48.9171
G01 X62.8260 Y-48.8610
G01 X62.8821 Y-48.7992
G01 X62.9317 Y-48.7322
G01 X62.9746 Y-48.6607
G01 X63.0103 Y-48.5853
G01 X63.0384 Y-48.5067
G01 X63.0587 Y-48.4258
G01 X63.0709 Y-48.3433
G01 X63.0750 Y-48.2600
G01 X63.0709 Y-48.1767
G01 X63.0587 Y-48.0942
G01 X63.0384 Y-48.0133
G01 X63.0103 Y-47.9347
G01 X62.9746 Y-47.8593
G01 X62.9317 Y-47.7878
G01 X62.8821 Y-47.7208
G01 X62.8260 Y-47.6590
G01 X62.7642 Y-47.6029
G01 X62.6972 Y-47.5533
G01 X62.6257 Y-47.5104
G01 X62.5503 Y-47.4747
G01 X62.4717 Y-47.4466
G01 X62.3908 Y-47.4263
G01 X62.3083 Y-47.4141
G01 X62.2250 Y-47.4100
G01 X62.1417 Y-47.4141
G01 X62.0592 Y-47.4263
G01 X61.9783 Y-47.4466
G01 X61.8997 Y-47.4747
G01 X61.8243 Y-47.5104
G01 X61.7528 Y-47.5533
G01 X61.6858 Y-47.6029
G01 X61.6240 Y-47.6590
G01 X61.5679 Y-47.7208
G01 X61.5183 Y-47.7878
G01 X61.4754 Y-47.8593
G01 X61.4397 Y-47.9347
G01 X61.4116 Y-48.0133
G01 X61.3913 Y-48.0942
G01 X61.3791 Y-48.1767
G01 X61.3750 Y-48.2600
G01 X61.3791 Y-48.3433
G01 X61.3913 Y-48.4258
G01 X61.4116 Y-48.5067
G01 X61.4397 Y-48.5853
G01 X61.4754 Y-48.6607
G01 X61.5183 Y-48.7322
G01 X61.5679 Y-48.7992
G01 X61.6240 Y-48.8610
G01 X61.6858 Y-48.9171
G01 X61.7528 Y-48.9667
G01 X61.8243 Y-49.0096
G01 X61.8997 Y-49.0453
G01 X61.9783 Y-49.0734
G01 X62.0592 Y-49.0937
G01 X62.1417 Y-49.1059
G01 X62.2275 Y-49.1099
G00 Z2.0000
G00 X59.6875 Y-49.1099
G01 F60.00
G01 Z0.0000
G01 F120.00
G01 X59.7683 Y-49.1059
G01 X59.8508 Y-49.0937
G01 X59.9317 Y-49.0734
G01 X60.0103 Y-49.0453
G01 X60.0857 Y-49.0096
G01 X60.1572 Y-48.9667
G01 X60.2242 Y-48.9171
G01 X60.2860 Y-48.8610
G01 X60.3421 Y-48.7992
G01 X60.3917 Y-48.7322
G01 X60.4346 Y-48.6607
G01 X60.4703 Y-48.5853
G01 X60.4984 Y-48.5067
G01 X60.5187 Y-48.4258
G01 X60.5309 Y-48.3433
G01 X60.5350 Y-48.2600
G01 X60.5309 Y-48.1767
G01 X60.5187 Y-48.0942
G01 X60.4984 Y-48.0133
G01 X60.4703 Y-47.9347
G01 X60.4346 Y-47.8593
G01 X60.3917 Y-47.7878
G01 X60.3421 Y-47.7208
G01 X60.2860 Y-47.6590
G01 X60.2242 Y-47.6029
G01 X60.1572 Y-47.5533
G01 X60.0857 Y-47.5104
G01 X60.0103 Y-47.4747
G01 X59.9317 Y-47.4466
G01 X59.8508 Y-47.4263
G01 X59.7683 Y-47.4141
G01 X59.6850 Y-47.4100
G01 X59.6017 Y-47.4141
G01 X59.5192 Y-47.4263
G01 X59.4383 Y-47.4466
G01 X59.3597 Y-47.4747
G01 X59.2843 Y-47.5104
G01 X59.2128 Y-47.5533
G01 X59.1458 Y-47.6029
G01 X59.0840 Y-47.6590
G01 X59.0279 Y-47.7208
G01 X58.9783 Y-47.7878
G01 X58.9354 Y-47.8593
G01 X58.8997 Y-47.9347
G01 X58.8716 Y-48.0133
G01 X58.8513 Y-48.0942
G01 X58.8391 Y-48.1767
G01 X58.8350 Y-48.2600
G01 X58.8391 Y-48.3433
G01 X58.8513 Y-48.4258
G01 X58.8716 Y-48.5067
G01 X58.8997 Y-48.5853
G01 X58.9354 Y-48.6607
G01 X58.9783 Y-48.7322
G01 X59.0279 Y-48.7992
G01 X59.0840 Y-48.8610
G01 X59.1458 Y-48.9171
G01 X59.2128 Y-48.9667
G01 X59.2843 Y-49.0096
G01 X59.3597 Y-49.0453
G01 X59.4383 Y-49.0734
G01 X59.5192 Y-49.0937
G01 X59.6017 Y-49.1059
G01 X59.6875 Y-49.1099
G00 Z2.0000
G00 X57.1475 Y-49.1099
G01 F60.00
G01 Z0.0000
G01 F120.00
G01 X57.2283 Y-49.1059
G01 X57.3108 Y-49.0937
G01 X57.3917 Y-49.0734
G01 X57.4703 Y-49.0453
G01 X57.5457 Y-49.0096
G01 X57.6172 Y-48.9667
G01 X57.6842 Y-48.9171
G01 X57.7460 Y-48.8610
G01 X57.8021 Y-48.7992
G01 X57.8517 Y-48.7322
G01 X57.8946 Y-48.6607
G01 X57.9303 Y-48.5853
G01 X57.9584 Y-48.5067
G01 X57.9787 Y-48.4258
G01 X57.9909 Y-48.3433
G01 X57.9950 Y-48.2600
G01 X57.9909 Y-48.1767
G01 X57.9787 Y-48.0942
G01 X57.9584 Y-48.0133
G01 X57.9303 Y-47.9347
G01 X57.8946 Y-47.8593
G01 X57.8517 Y-47.7878
G01 X57.8021 Y-47.7208
G01 X57.7460 Y-47.6590
G01 X57.6842 Y-47.6029
G01 X57.6172 Y-47.5533
G01 X57.5457 Y-47.5104
G01 X57.4703 Y-47.4747
G01 X57.3917 Y-47.4466
G01 X57.3108 Y-47.4263
G01 X57.2283 Y-47.4141
G01 X57.1450 Y-47.4100
G01 X57.0617 Y-47.4141
G01 X56.9792 Y-47.4263
G01 X56.8983 Y-47.4466
G01 X56.8197 Y-47.4747
G01 X56.7443 Y-47.5104
G01 X56.6728 Y-47.5533
G01 X56.6058 Y-47.6029
G01 X56.5440 Y-47.6590
G01 X56.4879 Y-47.7208
G01 X56.4383 Y-47.7878
G01 X56.3954 Y-47.8593
G01 X56.3597 Y-47.9347
G01 X56.3316 Y-48.0133
G01 X56.3113 Y-48.0942
G01 X56.2991 Y-48.1767
G01 X56.2950 Y-48.2600
G01 X56.2991 Y-48.3433
G01 X56.3113 Y-48.4258
G01 X56.3316 Y-48.5067
G01 X56.3597 Y-48.5853
G01 X56.3954 Y-48.6607
G01 X56.4383 Y-48.7322
G01 X56.4879 Y-48.7992
G01 X56.5440 Y-48.8610
G01 X56.6058 Y-48.9171
G01 X56.6728 Y-48.9667
G01 X56.7443 Y-49.0096
G01 X56.8197 Y-49.0453
G01 X56.8983 Y-49.0734
G01 X56.9792 Y-49.0937
G01 X57.0617 Y-49.1059
G01 X57.1475 Y-49.1099
G00 Z2.0000
G00 X54.6075 Y-49.1099
G01 F60.00
G01 Z0.0000
G01 F120.00
G01 X54.6883 Y-49.1059
G01 X54.7708 Y-49.0937
G01 X54.8517 Y-49.0734
G01 X54.9303 Y-49.0453
G01 X55.0057 Y-49.0096
G01 X55.0772 Y-48.9667
G01 X55.1442 Y-48.9171
G01 X55.2060 Y-48.8610
G01 X55.2621 Y-48.7992
G01 X55.3117 Y-48.7322
G01 X55.3546 Y-48.6607
G01 X55.3903 Y-48.5853
G01 X55.4184 Y-48.5067
G01 X55.4387 Y-48.4258
G01 X55.4509 Y-48.3433
G01 X55.4550 Y-48.2600
G01 X55.4509 Y-48.1767
G01 X55.4387 Y-48.0942
G01 X55.4184 Y-48.0133
G01 X55.3903 Y-47.9347
G01 X55.3546 Y-47.8593
G01 X55.3117 Y-47.7878
G01 X55.2621 Y-47.7208
G01 X55.2060 Y-47.6590
G01 X55.1442 Y-47.6029
G01 X55.0772 Y-47.5533
G01 X55.0057 Y-47.5104
G01 X54.9303 Y-47.4747
G01 X54.8517 Y-47.4466
G01 X54.7708 Y-47.4263
G01 X54.6883 Y-47.4141
G01 X54.6050 Y-47.4100
G01 X54.5217 Y-47.4141
G01 X54.4392 Y-47.4263
G01 X54.3583 Y-47.4466
G01 X54.2797 Y-47.4747
G01 X54.2043 Y-47.5104
G01 X54.1328 Y-47.5533
G01 X54.0658 Y-47.6029
G01 X54.0040 Y-47.6590
G01 X53.9479 Y-47.7208
G01 X53.8983 Y-47.7878
G01 X53.8554 Y-47.8593
G01 X53.8197 Y-47.9347
G01 X53.7916 Y-48.0133
G01 X53.7713 Y-48.0942
G01 X53.7591 Y-48.1767
G01 X53.7550 Y-48.2600
G01 X53.7591 Y-48.3433
G01 X53.7713 Y-48.4258
G01 X53.7916 Y-48.5067
G01 X53.8197 Y-48.5853
G01 X53.8554 Y-48.6607
G01 X53.8983 Y-48.7322
G01 X53.9479 Y-48.7992
G01 X54.0040 Y-48.8610
G01 X54.0658 Y-48.9171
G01 X54.1328 Y-48.9667
G01 X54.2043 Y-49.0096
G01 X54.2797 Y-49.0453
G01 X54.3583 Y-49.0734
G01 X54.4392 Y-49.0937
G01 X54.5217 Y-49.1059
G01 X54.6075 Y-49.1099
G00 Z2.0000
G00 X52.0675 Y-49.1099
G01 F60.00
G01 Z0.0000
G01 F120.00
G01 X52.1483 Y-49.1059
G01 X52.2308 Y-49.0937
G01 X52.3117 Y-49.0734
G01 X52.3903 Y-49.0453
G01 X52.4657 Y-49.0096
G01 X52.5372 Y-48.9667
G01 X52.6042 Y-48.9171
G01 X52.6660 Y-48.8610
