( pcb2gcode 2.5.0 )
( Software-independent Gcode )

( This file uses 3 drill bit sizes. )
( Bit sizes: [0.5mm] [0.8mm] [1mm] )

G94       (Millimeters per minute feed rate.)
G21       (Units == Millimeters.)
G90       (Absolute coordinates.)
G00 S600     (RPM spindle speed.)

G53 G00 Z0.00000 (Retract)
T1
M5      (Spindle stop.)
G04 P1.00000
(MSG, Change tool bit to drill size 0.5mm)
M0      (Temporary machine stop.)
M3      (Spindle on clockwise.)
G0 Z2.00000
G04 P1.00000

G1 F30.00000
G0 X7.68500 Y-25.37000
G1 Z-2.50000
G1 Z2.00000
G0 X7.75600 Y-34.74500
G1 Z-2.50000
G1 Z2.00000
G0 X21.32000 Y-35.34700
G1 Z-2.50000
G1 Z2.00000
G0 X26.08000 Y-35.73500
G1 Z-2.50000
G1 Z2.00000
G0 X33.99100 Y-36.83100
G1 Z-2.50000
G1 Z2.00000
G0 X28.86800 Y-25.25500
G1 Z-2.50000
G1 Z2.00000
G0 X34.85500 Y-22.21400
G1 Z-2.50000
G1 Z2.00000
G0 X37.57800 Y-21.23100
G1 Z-2.50000
G1 Z2.00000
G0 X55.69000 Y-33.32200
G1 Z-2.50000
G1 Z2.00000
G0 X56.96800 Y-27.59200
G1 Z-2.50000
G1 Z2.00000
G0 X57.92600 Y-26.12500
G1 Z-2.50000
G1 Z2.00000
G0 X60.59300 Y-25.99900
G1 Z-2.50000
G1 Z2.00000
G0 X68.93800 Y-11.15000
G1 Z-2.50000
G1 Z2.00000
G0 X77.84100 Y-33.10300
G1 Z-2.50000
G1 Z2.00000

G53 G00 Z0.00000 (Retract)
T2
M5      (Spindle stop.)
G04 P1.00000
(MSG, Change tool bit to drill size 0.8mm)
M0      (Temporary machine stop.)
M3      (Spindle on clockwise.)
G0 Z2.00000
G04 P1.00000

G1 F30.00000
G0 X10.92000 Y-10.00000
G1 Z-2.50000
G1 Z2.00000
G0 X11.90000 Y-14.00000
G1 Z-2.50000
G1 Z2.00000
G0 X14.44000 Y-14.00000
G1 Z-2.50000
G1 Z2.00000
G0 X16.98000 Y-14.00000
G1 Z-2.50000
G1 Z2.00000
G0 X19.52000 Y-14.00000
G1 Z-2.50000
G1 Z2.00000
G0 X22.06000 Y-14.00000
G1 Z-2.50000
G1 Z2.00000
G0 X24.60000 Y-14.00000
G1 Z-2.50000
G1 Z2.00000
G0 X27.14000 Y-14.00000
G1 Z-2.50000
G1 Z2.00000
G0 X29.68000 Y-14.00000
G1 Z-2.50000
G1 Z2.00000
G0 X32.22000 Y-14.00000
G1 Z-2.50000
G1 Z2.00000
G0 X34.76000 Y-14.00000
G1 Z-2.50000
G1 Z2.00000
G0 X37.30000 Y-14.00000
G1 Z-2.50000
G1 Z2.00000
G0 X39.84000 Y-14.00000
G1 Z-2.50000
G1 Z2.00000
G0 X42.38000 Y-14.00000
G1 Z-2.50000
G1 Z2.00000
G0 X44.92000 Y-14.00000
G1 Z-2.50000
G1 Z2.00000
G0 X47.46000 Y-14.00000
G1 Z-2.50000
G1 Z2.00000
G0 X50.00000 Y-14.00000
G1 Z-2.50000
G1 Z2.00000
G0 X64.38000 Y-10.00000
G1 Z-2.50000
G1 Z2.00000
G0 X64.38000 Y-12.54000
G1 Z-2.50000
G1 Z2.00000
G0 X64.38000 Y-15.08000
G1 Z-2.50000
G1 Z2.00000
G0 X64.38000 Y-17.62000
G1 Z-2.50000
G1 Z2.00000
G0 X64.38000 Y-20.16000
G1 Z-2.50000
G1 Z2.00000
G0 X64.38000 Y-22.70000
G1 Z-2.50000
G1 Z2.00000
G0 X64.38000 Y-25.24000
G1 Z-2.50000
G1 Z2.00000
G0 X64.38000 Y-27.78000
G1 Z-2.50000
G1 Z2.00000
G0 X72.00000 Y-20.16000
G1 Z-2.50000
G1 Z2.00000
G0 X72.00000 Y-22.70000
G1 Z-2.50000
G1 Z2.00000
G0 X72.00000 Y-25.24000
G1 Z-2.50000
G1 Z2.00000
G0 X72.00000 Y-27.78000
G1 Z-2.50000
G1 Z2.00000
G0 X81.38000 Y-20.16000
G1 Z-2.50000
G1 Z2.00000
G0 X81.38000 Y-22.70000
G1 Z-2.50000
G1 Z2.00000
G0 X81.38000 Y-25.24000
G1 Z-2.50000
G1 Z2.00000
G0 X81.38000 Y-27.78000
G1 Z-2.50000
G1 Z2.00000
G0 X89.00000 Y-22.70000
G1 Z-2.50000
G1 Z2.00000
G0 X89.00000 Y-20.16000
G1 Z-2.50000
G1 Z2.00000
G0 X89.00000 Y-17.62000
G1 Z-2.50000
G1 Z2.00000
G0 X89.00000 Y-15.08000
G1 Z-2.50000
G1 Z2.00000
G0 X89.00000 Y-12.54000
G1 Z-2.50000
G1 Z2.00000
G0 X89.00000 Y-10.00000
G1 Z-2.50000
G1 Z2.00000
G0 X81.38000 Y-10.00000
G1 Z-2.50000
G1 Z2.00000
G0 X81.38000 Y-12.54000
G1 Z-2.50000
G1 Z2.00000
G0 X81.38000 Y-15.08000
G1 Z-2.50000
G1 Z2.00000
G0 X81.38000 Y-17.62000
G1 Z-2.50000
G1 Z2.00000
G0 X89.00000 Y-25.24000
G1 Z-2.50000
G1 Z2.00000
G0 X89.00000 Y-27.78000
G1 Z-2.50000
G1 Z2.00000
G0 X72.00000 Y-12.54000
G1 Z-2.50000
G1 Z2.00000
G0 X72.00000 Y-10.00000
G1 Z-2.50000
G1 Z2.00000
G0 X72.00000 Y-15.08000
G1 Z-2.50000
G1 Z2.00000
G0 X72.00000 Y-17.62000
G1 Z-2.50000
G1 Z2.00000
G0 X50.00000 Y-29.24000
G1 Z-2.50000
G1 Z2.00000
G0 X47.46000 Y-29.24000
G1 Z-2.50000
G1 Z2.00000
G0 X44.92000 Y-29.24000
G1 Z-2.50000
G1 Z2.00000
G0 X42.38000 Y-29.24000
G1 Z-2.50000
G1 Z2.00000
G0 X39.84000 Y-29.24000
G1 Z-2.50000
G1 Z2.00000
G0 X37.30000 Y-29.24000
G1 Z-2.50000
G1 Z2.00000
G0 X34.76000 Y-29.24000
G1 Z-2.50000
G1 Z2.00000
G0 X32.22000 Y-29.24000
G1 Z-2.50000
G1 Z2.00000
G0 X29.68000 Y-29.24000
G1 Z-2.50000
G1 Z2.00000
G0 X27.14000 Y-29.24000
G1 Z-2.50000
G1 Z2.00000
G0 X24.60000 Y-29.24000
G1 Z-2.50000
G1 Z2.00000
G0 X22.06000 Y-29.24000
G1 Z-2.50000
G1 Z2.00000
G0 X19.52000 Y-29.24000
G1 Z-2.50000
G1 Z2.00000
G0 X16.98000 Y-29.24000
G1 Z-2.50000
G1 Z2.00000
G0 X14.44000 Y-29.24000
G1 Z-2.50000
G1 Z2.00000
G0 X11.90000 Y-29.24000
G1 Z-2.50000
G1 Z2.00000
G0 X21.08000 Y-10.00000
G1 Z-2.50000
G1 Z2.00000

G53 G00 Z0.00000 (Retract)
T3
M5      (Spindle stop.)
G04 P1.00000
(MSG, Change tool bit to drill size 1mm)
M0      (Temporary machine stop.)
M3      (Spindle on clockwise.)
G0 Z2.00000
G04 P1.00000

G1 F30.00000
G0 X4.00000 Y-8.00000
G1 Z-2.50000
G1 Z2.00000
G0 X4.00000 Y-10.54000
G1 Z-2.50000
G1 Z2.00000
G0 X4.00000 Y-13.08000
G1 Z-2.50000
G1 Z2.00000
G0 X4.00000 Y-15.62000
G1 Z-2.50000
G1 Z2.00000
G0 X4.00000 Y-18.16000
G1 Z-2.50000
G1 Z2.00000
G0 X4.00000 Y-20.70000
G1 Z-2.50000
G1 Z2.00000
G0 X4.00000 Y-23.24000
G1 Z-2.50000
G1 Z2.00000
G0 X4.00000 Y-25.78000
G1 Z-2.50000
G1 Z2.00000
G0 X4.00000 Y-28.32000
G1 Z-2.50000
G1 Z2.00000
G0 X4.00000 Y-30.86000
G1 Z-2.50000
G1 Z2.00000
G0 X4.00000 Y-33.40000
G1 Z-2.50000
G1 Z2.00000
G0 X4.00000 Y-35.94000
G1 Z-2.50000
G1 Z2.00000
G0 X4.00000 Y-38.48000
G1 Z-2.50000
G1 Z2.00000
G0 X4.00000 Y-41.02000
G1 Z-2.50000
G1 Z2.00000
G0 X30.00000 Y-41.00000
G1 Z-2.50000
G1 Z2.00000
G0 X32.54000 Y-41.00000
G1 Z-2.50000
G1 Z2.00000
G0 X35.08000 Y-41.00000
G1 Z-2.50000
G1 Z2.00000
G0 X37.62000 Y-41.00000
G1 Z-2.50000
G1 Z2.00000
G0 X40.16000 Y-41.00000
G1 Z-2.50000
G1 Z2.00000
G0 X42.70000 Y-41.00000
G1 Z-2.50000
G1 Z2.00000
G0 X45.24000 Y-41.00000
G1 Z-2.50000
G1 Z2.00000
G0 X47.78000 Y-41.00000
G1 Z-2.50000
G1 Z2.00000
G0 X50.32000 Y-41.00000
G1 Z-2.50000
G1 Z2.00000
G0 X52.86000 Y-41.00000
G1 Z-2.50000
G1 Z2.00000
G0 X55.40000 Y-41.00000
G1 Z-2.50000
G1 Z2.00000
G0 X57.94000 Y-41.00000
G1 Z-2.50000
G1 Z2.00000
G0 X60.48000 Y-41.00000
G1 Z-2.50000
G1 Z2.00000
G0 X63.02000 Y-41.00000
G1 Z-2.50000
G1 Z2.00000
G0 X65.56000 Y-41.00000
G1 Z-2.50000
G1 Z2.00000
G0 X68.10000 Y-41.00000
G1 Z-2.50000
G1 Z2.00000
G0 X70.64000 Y-41.00000
G1 Z-2.50000
G1 Z2.00000
G0 X73.18000 Y-41.00000
G1 Z-2.50000
G1 Z2.00000
G0 X75.72000 Y-41.00000
G1 Z-2.50000
G1 Z2.00000
G0 X78.26000 Y-41.00000
G1 Z-2.50000
G1 Z2.00000
G0 X80.80000 Y-41.00000
G1 Z-2.50000
G1 Z2.00000
G0 X83.34000 Y-41.00000
G1 Z-2.50000
G1 Z2.00000
G0 X85.88000 Y-41.00000
G1 Z-2.50000
G1 Z2.00000
G0 X88.42000 Y-41.00000
G1 Z-2.50000
G1 Z2.00000

G53 G00 Z0.000 ( All done -- retract )

M5      (Spindle off.)
G04 P1.000000
M9      (Coolant off.)
M2      (Program end.)

