( pcb2gcode 2.5.0 )
( Software-independent Gcode )

G94 
G21 ( Units == Millimeters. )

G90 ( Absolute coordinates. )
G00 S600 ( RPM spindle speed. )
G01 F40.00000 ( Feedrate. )


G53 G00 Z0.00000 (Retract to tool change height)
T1
M5      (Spindle stop.)
G04 P1.00000 (Wait for spindle to stop)
(MSG, Change tool bit to mill diameter 0.50000mm)
M0      (Temporary machine stop.)
M3 ( Spindle on clockwise. )
G04 P1.00000 (Wait for spindle to get up to speed)
G04 P0 
G00 Z2.00000 M3 ; restart from line 21

G00 X2.84998 Y-8.84999 
G01 F30.00000

G01 Z-0.07500
G04 P0 
G01 F40.00000
G01 X2.84998 Y-8.84999
G01 X2.84998 Y-7.15000
G01 X2.85575 Y-7.09145
G01 X2.87282 Y-7.03519
G01 X2.90055 Y-6.98332
G01 X2.93787 Y-6.93786
G01 X2.98331 Y-6.90054
G01 X3.03517 Y-6.87283
G01 X3.09146 Y-6.85574
G01 X3.14998 Y-6.85000
G01 X4.84998 Y-6.85000
G01 X4.90852 Y-6.85574
G01 X4.96479 Y-6.87283
G01 X5.01665 Y-6.90054
G01 X5.06212 Y-6.93786
G01 X5.09943 Y-6.98332
G01 X5.12714 Y-7.03519
G01 X5.14421 Y-7.09145
G01 X5.14998 Y-7.14997
G01 X5.15000 Y-7.49998
G01 X5.65008 Y-7.49996
G01 X5.71848 Y-7.50527
G01 X5.81368 Y-7.52810
G01 X5.86801 Y-7.55061
G01 X5.95150 Y-7.60176
G01 X6.00362 Y-7.64642
G01 X7.85719 Y-9.49998
G01 X9.94435 Y-9.49998
G01 X10.00536 Y-9.38886
G01 X10.12241 Y-9.24397
G01 X10.16399 Y-9.20239
G01 X10.30887 Y-9.08538
G01 X10.47242 Y-8.99630
G01 X10.52675 Y-8.97379
G01 X10.70539 Y-8.92112
G01 X10.89058 Y-8.90143
G01 X10.94938 Y-8.90143
G01 X11.10546 Y-8.91680
G01 X11.16315 Y-8.92828
G01 X11.34095 Y-8.98373
G01 X11.50587 Y-9.07024
G01 X11.55476 Y-9.10290
G01 X11.67600 Y-9.20239
G01 X11.71758 Y-9.24397
G01 X11.83460 Y-9.38886
G01 X11.89563 Y-9.49998
G01 X12.31298 Y-9.49998
G01 X18.78203 Y-3.03093
G01 X18.83415 Y-2.98628
G01 X18.91764 Y-2.93512
G01 X19.00949 Y-2.90124
G01 X19.10618 Y-2.88592
G01 X80.78440 Y-2.88447
G01 X80.87418 Y-2.89270
G01 X80.96788 Y-2.92097
G01 X81.01137 Y-2.93898
G01 X81.05153 Y-2.96357
G01 X81.13794 Y-3.03093
G01 X87.60696 Y-9.49998
G01 X88.02433 Y-9.49998
G01 X88.08537 Y-9.38886
G01 X88.20239 Y-9.24397
G01 X88.24399 Y-9.20239
G01 X88.36520 Y-9.10290
G01 X88.41412 Y-9.07024
G01 X88.57905 Y-8.98373
G01 X88.75682 Y-8.92828
G01 X88.81450 Y-8.91680
G01 X89.00000 Y-8.89998
G01 X89.18547 Y-8.91680
G01 X89.24315 Y-8.92828
G01 X89.39322 Y-8.97379
G01 X89.44755 Y-8.99630
G01 X89.58585 Y-9.07024
G01 X89.63477 Y-9.10290
G01 X89.75598 Y-9.20239
G01 X89.79759 Y-9.24397
G01 X89.91460 Y-9.38886
G01 X90.01625 Y-9.57903
G01 X90.07170 Y-9.75683
G01 X90.08318 Y-9.81451
G01 X90.09855 Y-9.97059
G01 X90.09855 Y-10.02939
G01 X90.08318 Y-10.18548
G01 X90.07170 Y-10.24313
G01 X90.01625 Y-10.42093
G01 X89.91460 Y-10.61110
G01 X89.79759 Y-10.75599
G01 X89.75598 Y-10.79757
G01 X89.63477 Y-10.89706
G01 X89.58585 Y-10.92975
G01 X89.42093 Y-11.01626
G01 X89.24315 Y-11.07171
G01 X89.18547 Y-11.08316
G01 X89.00000 Y-11.09998
G01 X88.81450 Y-11.08316
G01 X88.75682 Y-11.07171
G01 X88.60676 Y-11.02617
G01 X88.55243 Y-11.00366
G01 X88.41412 Y-10.92975
G01 X88.36520 Y-10.89706
G01 X88.24399 Y-10.79757
G01 X88.20239 Y-10.75599
G01 X88.08537 Y-10.61110
G01 X88.02431 Y-10.49995
G01 X87.39988 Y-10.49998
G01 X87.35294 Y-10.49627
G01 X87.24534 Y-10.47549
G01 X87.20186 Y-10.45748
G01 X87.10600 Y-10.40450
G01 X87.07023 Y-10.37397
G01 X80.57733 Y-3.88450
G01 X19.34268 Y-3.88450
G01 X12.85182 Y-10.37328
G01 X12.82151 Y-10.39818
G01 X12.73800 Y-10.44933
G01 X12.64618 Y-10.48321
G01 X12.58849 Y-10.49467
G01 X12.52009 Y-10.49998
G01 X11.89566 Y-10.49998
G01 X11.83460 Y-10.61110
G01 X11.71758 Y-10.75599
G01 X11.67600 Y-10.79757
G01 X11.55476 Y-10.89706
G01 X11.50587 Y-10.92975
G01 X11.34095 Y-11.01626
G01 X11.16315 Y-11.07171
G01 X11.10546 Y-11.08316
G01 X10.94938 Y-11.09856
G01 X10.89058 Y-11.09856
G01 X10.70539 Y-11.07884
G01 X10.52675 Y-11.02617
G01 X10.47242 Y-11.00366
G01 X10.30887 Y-10.91461
G01 X10.16399 Y-10.79757
G01 X10.12241 Y-10.75599
G01 X10.00536 Y-10.61110
G01 X9.94433 Y-10.49998
G01 X7.65007 Y-10.49998
G01 X7.58167 Y-10.49467
G01 X7.52399 Y-10.48321
G01 X7.43214 Y-10.44933
G01 X7.34865 Y-10.39818
G01 X7.29653 Y-10.35352
G01 X5.44297 Y-8.49998
G01 X5.14998 Y-8.49998
G01 X5.14998 Y-8.84999
G01 X5.14421 Y-8.90852
G01 X5.12714 Y-8.96480
G01 X5.09943 Y-9.01667
G01 X5.06212 Y-9.06211
G01 X5.01665 Y-9.09942
G01 X4.96479 Y-9.12716
G01 X4.90852 Y-9.14423
G01 X4.84998 Y-9.14999
G01 X3.14998 Y-9.14999
G01 X3.09146 Y-9.14423
G01 X3.03517 Y-9.12716
G01 X2.98331 Y-9.09942
G01 X2.93787 Y-9.06211
G01 X2.90055 Y-9.01667
G01 X2.87282 Y-8.96480
G01 X2.85575 Y-8.90852
G01 X2.84998 Y-8.84999
G01 X2.85143 Y-10.56940
G01 X2.85143 Y-10.51057
G01 X2.87208 Y-10.31563
G01 X2.93754 Y-10.09990
G01 X3.02867 Y-9.92635
G01 X3.06133 Y-9.87743
G01 X3.16705 Y-9.74862
G01 X3.20858 Y-9.70704
G01 X3.36108 Y-9.58380
G01 X3.55991 Y-9.47753
G01 X3.74708 Y-9.41923
G01 X3.80477 Y-9.40775
G01 X3.97058 Y-9.39142
G01 X4.02938 Y-9.39142
G01 X4.22435 Y-9.41207
G01 X4.41236 Y-9.46760
G01 X4.46669 Y-9.49013
G01 X4.63890 Y-9.58380
G01 X4.79135 Y-9.70704
G01 X4.83293 Y-9.74862
G01 X4.95617 Y-9.90107
G01 X5.06245 Y-10.09990
G01 X5.12788 Y-10.31563
G01 X5.14855 Y-10.51057
G01 X5.14855 Y-10.56940
G01 X5.12788 Y-10.76434
G01 X5.07235 Y-10.95235
G01 X5.04985 Y-11.00668
G01 X4.95617 Y-11.17890
G01 X4.83293 Y-11.33135
G01 X4.79135 Y-11.37293
G01 X4.63890 Y-11.49617
G01 X4.46669 Y-11.58987
G01 X4.41236 Y-11.61237
G01 X4.22435 Y-11.66790
G01 X4.02938 Y-11.68855
G01 X3.97058 Y-11.68855
G01 X3.77563 Y-11.66790
G01 X3.58762 Y-11.61237
G01 X3.53329 Y-11.58987
G01 X3.36108 Y-11.49617
G01 X3.20858 Y-11.37293
G01 X3.16705 Y-11.33135
G01 X3.04381 Y-11.17890
G01 X2.95011 Y-11.00668
G01 X2.92760 Y-10.95235
G01 X2.87208 Y-10.76434
G01 X2.85143 Y-10.56940
G01 X2.84998 Y-13.07998
G01 X2.86776 Y-12.88476
G01 X2.87924 Y-12.82708
G01 X2.92760 Y-12.66761
G01 X2.95011 Y-12.61328
G01 X3.02867 Y-12.46635
G01 X3.06133 Y-12.41742
G01 X3.16705 Y-12.28862
G01 X3.20858 Y-12.24704
G01 X3.36108 Y-12.12380
G01 X3.55991 Y-12.01753
G01 X3.74708 Y-11.95923
G01 X3.80477 Y-11.94775
G01 X3.97058 Y-11.93142
G01 X4.02938 Y-11.93142
G01 X4.19522 Y-11.94775
G01 X4.25290 Y-11.95923
G01 X4.41236 Y-12.00760
G01 X4.46669 Y-12.03013
G01 X4.63890 Y-12.12380
G01 X4.79135 Y-12.24704
G01 X4.83293 Y-12.28862
G01 X4.95617 Y-12.44107
G01 X5.03204 Y-12.57996
G01 X5.65008 Y-12.57996
G01 X5.69699 Y-12.58367
G01 X5.79331 Y-12.60102
G01 X5.82668 Y-12.61260
G01 X5.88744 Y-12.64003
G01 X5.96783 Y-12.69583
G01 X6.00362 Y-12.72642
G01 X8.41868 Y-15.14147
G01 X17.67136 Y-15.14147
G01 X18.47654 Y-14.33629
G01 X18.44827 Y-14.24315
G01 X18.43679 Y-14.18547
G01 X18.42143 Y-14.02939
G01 X18.42143 Y-13.97058
G01 X18.43679 Y-13.81450
G01 X18.44827 Y-13.75682
G01 X18.50372 Y-13.57904
G01 X18.59023 Y-13.41412
G01 X18.62290 Y-13.36520
G01 X18.74218 Y-13.22215
G01 X18.88520 Y-13.10289
G01 X18.93410 Y-13.07023
G01 X19.07243 Y-12.99629
G01 X19.12676 Y-12.97381
G01 X19.27682 Y-12.92824
G01 X19.33451 Y-12.91681
G01 X19.49059 Y-12.90142
G01 X19.54939 Y-12.90142
G01 X19.70547 Y-12.91681
G01 X19.76316 Y-12.92824
G01 X19.94093 Y-12.98372
G01 X20.10585 Y-13.07023
G01 X20.15477 Y-13.10289
G01 X20.29780 Y-13.22215
G01 X20.41708 Y-13.36520
G01 X20.44974 Y-13.41412
G01 X20.53626 Y-13.57904
G01 X20.59170 Y-13.75682
G01 X20.60316 Y-13.81450
G01 X20.62000 Y-14.00000
G01 X20.60316 Y-14.18547
G01 X20.59170 Y-14.24315
G01 X20.54616 Y-14.39321
G01 X20.52366 Y-14.44755
G01 X20.44974 Y-14.58587
G01 X20.41708 Y-14.63477
G01 X20.29780 Y-14.77780
G01 X20.15477 Y-14.89707
G01 X20.10585 Y-14.92974
G01 X19.94093 Y-15.01625
G01 X19.76316 Y-15.07170
G01 X19.70547 Y-15.08318
G01 X19.54939 Y-15.09855
G01 X19.49059 Y-15.09855
G01 X19.33451 Y-15.08318
G01 X19.27682 Y-15.07170
G01 X19.18363 Y-15.04343
G01 X18.21020 Y-16.01480
G01 X18.13100 Y-16.07236
G01 X18.06981 Y-16.10342
G01 X18.00456 Y-16.12473
G01 X17.94688 Y-16.13619
G01 X17.87848 Y-16.14150
G01 X8.21159 Y-16.14150
G01 X8.10285 Y-16.12801
G01 X8.03496 Y-16.10886
G01 X7.97420 Y-16.08143
G01 X7.94443 Y-16.06240
G01 X7.85802 Y-15.99504
G01 X5.44297 Y-13.57998
G01 X5.03207 Y-13.57998
G01 X4.97131 Y-13.69365
G01 X4.93865 Y-13.74254
G01 X4.81315 Y-13.89316
G01 X4.66255 Y-14.01864
G01 X4.61363 Y-14.05131
G01 X4.46669 Y-14.12987
G01 X4.41236 Y-14.15237
G01 X4.22435 Y-14.20790
G01 X4.02938 Y-14.22855
G01 X3.97058 Y-14.22855
G01 X3.77563 Y-14.20790
G01 X3.58762 Y-14.15237
G01 X3.53329 Y-14.12987
G01 X3.38633 Y-14.05131
G01 X3.33743 Y-14.01864
G01 X3.18681 Y-13.89316
G01 X3.06133 Y-13.74254
G01 X3.02867 Y-13.69365
G01 X2.95011 Y-13.54668
G01 X2.92760 Y-13.49235
G01 X2.87924 Y-13.33289
G01 X2.86776 Y-13.27521
G01 X2.84998 Y-13.07998
G01 X2.84998 Y-15.61998
G01 X2.86776 Y-15.42476
G01 X2.87924 Y-15.36708
G01 X2.93754 Y-15.17990
G01 X3.02867 Y-15.00635
G01 X3.06133 Y-14.95743
G01 X3.18681 Y-14.80680
G01 X3.33743 Y-14.68133
G01 X3.38633 Y-14.64866
G01 X3.53329 Y-14.57013
G01 X3.58762 Y-14.54760
G01 X3.77563 Y-14.49207
G01 X3.99999 Y-14.47000
G01 X4.19522 Y-14.48775
G01 X4.25290 Y-14.49923
G01 X4.41236 Y-14.54760
G01 X4.46669 Y-14.57013
G01 X4.61363 Y-14.64866
G01 X4.66255 Y-14.68133
G01 X4.79135 Y-14.78704
G01 X4.83293 Y-14.82862
G01 X4.93865 Y-14.95743
G01 X4.97131 Y-15.00635
G01 X5.03204 Y-15.11996
G01 X5.65008 Y-15.11996
G01 X5.69699 Y-15.12367
G01 X5.79331 Y-15.14102
G01 X5.88744 Y-15.18003
G01 X5.96783 Y-15.23583
G01 X6.00362 Y-15.26642
G01 X6.87936 Y-16.14216
G01 X29.37068 Y-16.14216
G01 X31.17654 Y-14.33629
G01 X31.14827 Y-14.24315
G01 X31.13679 Y-14.18547
G01 X31.12143 Y-14.02939
G01 X31.12143 Y-13.97058
G01 X31.13679 Y-13.81450
G01 X31.14827 Y-13.75682
G01 X31.20372 Y-13.57904
G01 X31.29023 Y-13.41412
G01 X31.32290 Y-13.36520
G01 X31.42239 Y-13.24399
G01 X31.46400 Y-13.20239
G01 X31.58520 Y-13.10289
G01 X31.63410 Y-13.07023
G01 X31.79905 Y-12.98372
G01 X31.97682 Y-12.92824
G01 X32.03451 Y-12.91681
G01 X32.19059 Y-12.90142
G01 X32.24939 Y-12.90142
G01 X32.40547 Y-12.91681
G01 X32.46316 Y-12.92824
G01 X32.61322 Y-12.97381
G01 X32.66755 Y-12.99629
G01 X32.80585 Y-13.07023
G01 X32.85477 Y-13.10289
G01 X32.99780 Y-13.22215
G01 X33.11708 Y-13.36520
G01 X33.14974 Y-13.41412
G01 X33.22366 Y-13.55242
G01 X33.24616 Y-13.60675
G01 X33.29170 Y-13.75682
G01 X33.30316 Y-13.81450
G01 X33.31855 Y-13.97058
G01 X33.31855 Y-14.02939
G01 X33.30316 Y-14.18547
G01 X33.29170 Y-14.24315
G01 X33.23626 Y-14.42095
G01 X33.14974 Y-14.58587
G01 X33.11708 Y-14.63477
G01 X33.01759 Y-14.75600
G01 X32.97598 Y-14.79758
G01 X32.85477 Y-14.89707
G01 X32.80585 Y-14.92974
G01 X32.66755 Y-15.00368
G01 X32.61322 Y-15.02618
G01 X32.46316 Y-15.07170
G01 X32.40547 Y-15.08318
G01 X32.21998 Y-15.10000
G01 X32.03451 Y-15.08318
G01 X31.97682 Y-15.07170
G01 X31.88363 Y-15.04343
G01 X29.93133 Y-16.99572
G01 X29.85557 Y-17.05790
G01 X29.79572 Y-17.09153
G01 X29.76913 Y-17.10411
G01 X29.70388 Y-17.12542
G01 X29.64619 Y-17.13687
G01 X29.57779 Y-17.14218
G01 X6.64873 Y-17.14124
G01 X6.58246 Y-17.13395
G01 X6.48876 Y-17.10568
G01 X6.44528 Y-17.08767
G01 X6.35447 Y-17.02631
G01 X6.31871 Y-16.99572
G01 X5.44297 Y-16.11998
G01 X5.03207 Y-16.11998
G01 X4.97131 Y-16.23365
G01 X4.93865 Y-16.28254
G01 X4.81315 Y-16.43316
G01 X4.66255 Y-16.55864
G01 X4.61363 Y-16.59131
G01 X4.46669 Y-16.66987
G01 X4.41236 Y-16.69237
G01 X4.22435 Y-16.74790
G01 X3.99999 Y-16.76999
G01 X3.77563 Y-16.74790
G01 X3.58762 Y-16.69237
G01 X3.53329 Y-16.66987
G01 X3.47736 Y-16.63997
G01 X3.38633 Y-16.59131
G01 X3.33743 Y-16.55864
G01 X3.18681 Y-16.43316
G01 X3.06133 Y-16.28254
G01 X3.02867 Y-16.23365
G01 X2.95011 Y-16.08668
G01 X2.92760 Y-16.03235
G01 X2.87924 Y-15.87289
G01 X2.86776 Y-15.81521
G01 X2.84998 Y-15.61998
G01 X2.84998 Y-18.15998
G01 X2.86776 Y-17.96476
G01 X2.87924 Y-17.90708
G01 X2.93754 Y-17.71990
G01 X3.02867 Y-17.54635
G01 X3.06133 Y-17.49742
G01 X3.18681 Y-17.34680
G01 X3.33743 Y-17.22133
G01 X3.38633 Y-17.18866
G01 X3.53329 Y-17.11013
G01 X3.58762 Y-17.08760
G01 X3.77563 Y-17.03207
G01 X3.99999 Y-17.01000
G01 X4.19522 Y-17.02775
G01 X4.25290 Y-17.03923
G01 X4.41236 Y-17.08760
G01 X4.46669 Y-17.11013
G01 X4.61363 Y-17.18866
G01 X4.66255 Y-17.22133
G01 X4.79135 Y-17.32704
G01 X4.83293 Y-17.36862
G01 X4.93865 Y-17.49742
G01 X4.97131 Y-17.54635
G01 X5.03204 Y-17.65996
G01 X32.93288 Y-17.65996
G01 X36.25654 Y-14.33629
G01 X36.22827 Y-14.24315
G01 X36.21679 Y-14.18547
G01 X36.20143 Y-14.02939
G01 X36.20143 Y-13.97058
G01 X36.21679 Y-13.81450
G01 X36.22827 Y-13.75682
G01 X36.27379 Y-13.60675
G01 X36.29630 Y-13.55242
G01 X36.37023 Y-13.41412
G01 X36.40290 Y-13.36520
G01 X36.52218 Y-13.22215
G01 X36.66520 Y-13.10289
G01 X36.71410 Y-13.07023
G01 X36.85243 Y-12.99629
G01 X36.90676 Y-12.97381
G01 X37.05682 Y-12.92824
G01 X37.11451 Y-12.91681
G01 X37.22705 Y-12.90569
G01 X37.29998 Y-12.90000
G01 X37.48547 Y-12.91681
G01 X37.54316 Y-12.92824
G01 X37.69322 Y-12.97381
G01 X37.74755 Y-12.99629
G01 X37.88585 Y-13.07023
G01 X37.93477 Y-13.10289
G01 X38.07780 Y-13.22215
G01 X38.19708 Y-13.36520
G01 X38.22974 Y-13.41412
G01 X38.30366 Y-13.55242
G01 X38.32616 Y-13.60675
G01 X38.37170 Y-13.75682
G01 X38.38316 Y-13.81450
G01 X38.39855 Y-13.97058
G01 X38.39855 Y-14.02939
G01 X38.38316 Y-14.18547
G01 X38.37170 Y-14.24315
G01 X38.31626 Y-14.42095
G01 X38.22974 Y-14.58587
G01 X38.19708 Y-14.63477
G01 X38.09759 Y-14.75600
G01 X38.05598 Y-14.79758
G01 X37.93477 Y-14.89707
G01 X37.88585 Y-14.92974
G01 X37.74755 Y-15.00368
G01 X37.69322 Y-15.02618
G01 X37.54316 Y-15.07170
G01 X37.48547 Y-15.08318
G01 X37.29998 Y-15.10000
G01 X37.11451 Y-15.08318
G01 X37.05682 Y-15.07170
G01 X36.96363 Y-15.04343
G01 X33.49353 Y-18.51353
G01 X33.41776 Y-18.57571
G01 X33.35792 Y-18.60934
G01 X33.33133 Y-18.62191
G01 X33.26608 Y-18.64322
G01 X33.20839 Y-18.65467
G01 X33.13996 Y-18.65998
G01 X5.03207 Y-18.65996
G01 X4.97131 Y-18.77365
G01 X4.93865 Y-18.82254
G01 X4.83293 Y-18.95135
G01 X4.79135 Y-18.99293
G01 X4.66255 Y-19.09864
G01 X4.61363 Y-19.13131
G01 X4.46669 Y-19.20987
G01 X4.41236 Y-19.23237
G01 X4.25290 Y-19.28073
G01 X4.19522 Y-19.29221
G01 X3.99999 Y-19.30999
G01 X3.77563 Y-19.28790
G01 X3.58762 Y-19.23237
G01 X3.53329 Y-19.20987
G01 X3.38633 Y-19.13131
G01 X3.33743 Y-19.09864
G01 X3.18681 Y-18.97316
G01 X3.06133 Y-18.82254
G01 X3.02867 Y-18.77365
G01 X2.93754 Y-18.60006
G01 X2.87924 Y-18.41289
G01 X2.86776 Y-18.35521
G01 X2.84998 Y-18.15998
G01 X2.84998 Y-20.69998
G01 X2.86776 Y-20.50476
G01 X2.87924 Y-20.44708
G01 X2.93754 Y-20.25990
G01 X3.02867 Y-20.08635
G01 X3.06133 Y-20.03742
G01 X3.16705 Y-19.90862
G01 X3.20858 Y-19.86704
G01 X3.33743 Y-19.76133
G01 X3.38633 Y-19.72866
G01 X3.53329 Y-19.65013
G01 X3.58762 Y-19.62760
G01 X3.74708 Y-19.57923
G01 X3.80477 Y-19.56775
G01 X3.99999 Y-19.55000
G01 X4.19522 Y-19.56775
G01 X4.25290 Y-19.57923
G01 X4.41236 Y-19.62760
G01 X4.46669 Y-19.65013
G01 X4.61363 Y-19.72866
G01 X4.66255 Y-19.76133
G01 X4.79135 Y-19.86704
G01 X4.83293 Y-19.90862
G01 X4.93865 Y-20.03742
G01 X4.97131 Y-20.08635
G01 X5.03204 Y-20.19998
G01 X5.44297 Y-20.19996
G01 X6.46331 Y-19.17962
G01 X6.54972 Y-19.11226
G01 X6.58988 Y-19.08767
G01 X6.69287 Y-19.05030
G01 X6.72706 Y-19.04139
G01 X6.79333 Y-19.03410
G01 X35.31568 Y-19.03316
G01 X39.10221 Y-15.24663
G01 X39.15433 Y-15.20198
G01 X39.20322 Y-15.16931
G01 X39.26441 Y-15.13825
G01 X39.32966 Y-15.11694
G01 X39.38735 Y-15.10548
G01 X39.45578 Y-15.10017
G01 X52.67627 Y-15.10020
G01 X60.74512 Y-7.03133
G01 X60.83153 Y-6.96397
G01 X60.87168 Y-6.93938
G01 X60.97468 Y-6.90202
G01 X61.02045 Y-6.89105
G01 X61.06739 Y-6.88734
G01 X71.77027 Y-6.88734
G01 X71.81720 Y-6.89105
G01 X71.86298 Y-6.90202
G01 X71.96597 Y-6.93938
G01 X72.00613 Y-6.96397
G01 X72.09254 Y-7.03133
G01 X73.97123 Y-8.91002
G01 X74.03341 Y-8.98578
G01 X74.06703 Y-9.04563
G01 X74.08954 Y-9.09996
G01 X74.10806 Y-9.16602
G01 X74.11768 Y-9.26358
G01 X74.11768 Y-16.00228
G01 X74.10806 Y-16.09982
G01 X74.08954 Y-16.16588
G01 X74.06703 Y-16.22021
G01 X74.03341 Y-16.28005
G01 X73.99099 Y-16.33400
G01 X73.04341 Y-17.28361
G01 X73.07169 Y-17.37683
G01 X73.08317 Y-17.43451
G01 X73.09853 Y-17.59059
G01 X73.09853 Y-17.64939
G01 X73.08317 Y-17.80548
G01 X73.07169 Y-17.86313
G01 X73.01626 Y-18.04093
G01 X72.91461 Y-18.23110
G01 X72.77781 Y-18.39780
G01 X72.63475 Y-18.51706
G01 X72.58586 Y-18.54975
G01 X72.42094 Y-18.63626
G01 X72.24314 Y-18.69171
G01 X72.18545 Y-18.70316
G01 X72.02940 Y-18.71856
G01 X71.97057 Y-18.71856
G01 X71.81451 Y-18.70316
G01 X71.75683 Y-18.69171
G01 X71.60677 Y-18.64617
G01 X71.55241 Y-18.62366
G01 X71.41411 Y-18.54975
G01 X71.36521 Y-18.51706
G01 X71.24398 Y-18.41757
G01 X71.20240 Y-18.37599
G01 X71.08538 Y-18.23110
G01 X70.99630 Y-18.06755
G01 X70.97380 Y-18.01322
G01 X70.92828 Y-17.86313
G01 X70.91680 Y-17.80548
G01 X70.90143 Y-17.64939
G01 X70.90143 Y-17.59059
G01 X70.91680 Y-17.43451
G01 X70.92828 Y-17.37683
G01 X70.98373 Y-17.19903
G01 X71.08538 Y-17.00886
G01 X71.22216 Y-16.84218
G01 X71.36521 Y-16.72290
G01 X71.41411 Y-16.69024
G01 X71.57903 Y-16.60373
G01 X71.75683 Y-16.54828
G01 X71.81451 Y-16.53680
G01 X71.97057 Y-16.52143
G01 X72.02940 Y-16.52143
G01 X72.18545 Y-16.53680
G01 X72.24314 Y-16.54828
G01 X72.33630 Y-16.57652
G01 X73.11768 Y-15.79517
G01 X73.11768 Y-9.47067
G01 X71.53189 Y-7.88487
G01 X61.30580 Y-7.88490
G01 X53.23693 Y-15.95374
G01 X53.15052 Y-16.02110
G01 X53.11033 Y-16.04569
G01 X53.06685 Y-16.06370
G01 X52.97315 Y-16.09197
G01 X52.88338 Y-16.10020
G01 X39.66286 Y-16.10020
G01 X35.87633 Y-19.88673
G01 X35.82421 Y-19.93138
G01 X35.77532 Y-19.96404
G01 X35.71413 Y-19.99511
G01 X35.64887 Y-20.01642
G01 X35.59119 Y-20.02787
G01 X35.52279 Y-20.03318
G01 X7.02371 Y-20.03318
G01 X5.97944 Y-21.07423
G01 X5.94378 Y-21.10461
G01 X5.90382 Y-21.12907
G01 X5.80459 Y-21.17550
G01 X5.69699 Y-21.19627
G01 X5.65008 Y-21.19998
G01 X5.03207 Y-21.19998
G01 X4.97131 Y-21.31365
G01 X4.93865 Y-21.36254
G01 X4.83293 Y-21.49135
G01 X4.79135 Y-21.53293
G01 X4.66255 Y-21.63864
G01 X4.61363 Y-21.67131
G01 X4.46669 Y-21.74987
G01 X4.41236 Y-21.77237
G01 X4.25290 Y-21.82073
G01 X4.19522 Y-21.83221
G01 X3.99999 Y-21.84999
G01 X3.77563 Y-21.82790
G01 X3.58762 Y-21.77237
G01 X3.53329 Y-21.74987
G01 X3.38633 Y-21.67131
G01 X3.33743 Y-21.63864
G01 X3.18681 Y-21.51317
G01 X3.06133 Y-21.36254
G01 X3.02867 Y-21.31365
G01 X2.93754 Y-21.14006
G01 X2.87924 Y-20.95289
G01 X2.86776 Y-20.89521
G01 X2.84998 Y-20.69998
G01 X2.84998 Y-23.23998
G01 X2.86776 Y-23.04476
G01 X2.87924 Y-22.98708
G01 X2.92760 Y-22.82761
G01 X2.95011 Y-22.77328
G01 X3.02867 Y-22.62635
G01 X3.06133 Y-22.57742
G01 X3.18681 Y-22.42680
G01 X3.33743 Y-22.30133
G01 X3.38633 Y-22.26866
G01 X3.53329 Y-22.19013
G01 X3.58762 Y-22.16760
G01 X3.77563 Y-22.11207
G01 X3.97058 Y-22.09142
G01 X4.02938 Y-22.09142
G01 X4.19522 Y-22.10775
G01 X4.25290 Y-22.11923
G01 X4.41236 Y-22.16760
G01 X4.46669 Y-22.19013
G01 X4.61363 Y-22.26866
G01 X4.66255 Y-22.30133
G01 X4.81315 Y-22.42680
G01 X4.93865 Y-22.57742
G01 X4.97131 Y-22.62635
G01 X5.03204 Y-22.73996
G01 X5.44297 Y-22.73996
G01 X8.00321 Y-20.17972
G01 X8.08962 Y-20.11235
G01 X8.12978 Y-20.08777
G01 X8.23278 Y-20.05040
G01 X8.27855 Y-20.03943
G01 X8.32546 Y-20.03572
G01 X36.22965 Y-20.03328
G01 X37.10513 Y-19.15986
G01 X37.15908 Y-19.11744
G01 X37.24552 Y-19.07123
G01 X37.31077 Y-19.04992
G01 X37.40747 Y-19.03461
G01 X51.37775 Y-19.03316
G01 X62.37953 Y-8.03143
G01 X62.43165 Y-7.98678
G01 X62.51514 Y-7.93562
G01 X62.60699 Y-7.90174
G01 X62.66467 Y-7.89028
G01 X62.73310 Y-7.88497
G01 X66.17289 Y-7.88497
G01 X66.26268 Y-7.89320
G01 X66.35638 Y-7.92147
G01 X66.39987 Y-7.93948
G01 X66.44002 Y-7.96407
G01 X66.52644 Y-8.03143
G01 X68.85160 Y-10.35660
G01 X68.93748 Y-10.34959
G01 X69.06443 Y-10.36063
G01 X69.12211 Y-10.37212
G01 X69.21591 Y-10.40056
G01 X69.27024 Y-10.42307
G01 X69.35668 Y-10.46927
G01 X69.40560 Y-10.50196
G01 X69.50316 Y-10.58390
G01 X69.58513 Y-10.68149
G01 X69.61779 Y-10.73038
G01 X69.66400 Y-10.81682
G01 X69.68650 Y-10.87115
G01 X69.71497 Y-10.96495
G01 X69.72643 Y-11.02263
G01 X69.73748 Y-11.14958
G01 X69.72643 Y-11.27653
G01 X69.71497 Y-11.33422
G01 X69.68650 Y-11.42802
G01 X69.66400 Y-11.48235
G01 X69.61779 Y-11.56879
G01 X69.58513 Y-11.61768
G01 X69.52295 Y-11.69345
G01 X69.48137 Y-11.73505
G01 X69.40560 Y-11.79723
G01 X69.35668 Y-11.82990
G01 X69.27024 Y-11.87610
G01 X69.21591 Y-11.89860
G01 X69.12211 Y-11.92705
G01 X69.06443 Y-11.93853
G01 X68.93748 Y-11.94958
G01 X68.81053 Y-11.93853
G01 X68.75285 Y-11.92705
G01 X68.65907 Y-11.89860
G01 X68.60471 Y-11.87610
G01 X68.51828 Y-11.82990
G01 X68.46938 Y-11.79723
G01 X68.37180 Y-11.71527
G01 X68.28986 Y-11.61768
G01 X68.25717 Y-11.56879
G01 X68.21096 Y-11.48235
G01 X68.18846 Y-11.42802
G01 X68.16001 Y-11.33422
G01 X68.14853 Y-11.27653
G01 X68.13893 Y-11.17900
G01 X68.13748 Y-11.14958
G01 X68.14449 Y-11.06371
G01 X65.96576 Y-8.88500
G01 X62.94018 Y-8.88497
G01 X51.93843 Y-19.88673
G01 X51.88631 Y-19.93138
G01 X51.80279 Y-19.98254
G01 X51.74849 Y-20.00504
G01 X51.65329 Y-20.02787
G01 X51.58489 Y-20.03318
G01 X37.64397 Y-20.03318
G01 X36.76851 Y-20.90659
G01 X36.71456 Y-20.94901
G01 X36.62812 Y-20.99521
G01 X36.56287 Y-21.01652
G01 X36.50518 Y-21.02797
G01 X36.43678 Y-21.03328
G01 X8.56386 Y-21.03328
G01 X6.00362 Y-23.59353
G01 X5.96783 Y-23.62411
G01 X5.88744 Y-23.67991
G01 X5.82668 Y-23.70734
G01 X5.79331 Y-23.71893
G01 X5.69699 Y-23.73627
G01 X5.65008 Y-23.73998
G01 X5.03207 Y-23.73998
G01 X4.97131 Y-23.85365
G01 X4.93865 Y-23.90254
G01 X4.81315 Y-24.05316
G01 X4.66255 Y-24.17864
G01 X4.61363 Y-24.21131
G01 X4.46669 Y-24.28987
G01 X4.41236 Y-24.31237
G01 X4.25290 Y-24.36073
G01 X4.19522 Y-24.37221
G01 X3.99999 Y-24.38999
G01 X3.80477 Y-24.37221
G01 X3.74708 Y-24.36073
G01 X3.58762 Y-24.31237
G01 X3.53329 Y-24.28987
G01 X3.38633 Y-24.21131
G01 X3.33743 Y-24.17864
G01 X3.18681 Y-24.05316
G01 X3.06133 Y-23.90254
G01 X3.02867 Y-23.85365
G01 X2.95011 Y-23.70668
G01 X2.92760 Y-23.65235
G01 X2.87924 Y-23.49289
G01 X2.86776 Y-23.43521
G01 X2.84998 Y-23.23998
G01 X2.85143 Y-25.80940
G01 X2.85143 Y-25.75057
G01 X2.87208 Y-25.55563
G01 X2.92760 Y-25.36761
G01 X2.95011 Y-25.31328
G01 X3.02867 Y-25.16635
G01 X3.06133 Y-25.11742
G01 X3.18681 Y-24.96680
G01 X3.33743 Y-24.84133
G01 X3.38633 Y-24.80866
G01 X3.53329 Y-24.73013
G01 X3.58762 Y-24.70760
G01 X3.77563 Y-24.65207
G01 X3.99999 Y-24.63000
G01 X4.19522 Y-24.64775
G01 X4.25290 Y-24.65923
G01 X4.41236 Y-24.70760
G01 X4.46669 Y-24.73013
G01 X4.61363 Y-24.80866
G01 X4.66255 Y-24.84133
G01 X4.81315 Y-24.96680
G01 X4.93865 Y-25.11742
G01 X4.97131 Y-25.16635
G01 X5.03204 Y-25.27998
G01 X5.21442 Y-25.27998
G01 X5.25186 Y-25.22215
G01 X5.29651 Y-25.17003
G01 X6.75061 Y-23.71593
G01 X6.83702 Y-23.64857
G01 X6.87718 Y-23.62398
G01 X6.98017 Y-23.58662
G01 X7.02589 Y-23.57564
G01 X7.07278 Y-23.57194
G01 X14.34937 Y-23.56947
G01 X14.41788 Y-23.57478
G01 X14.47556 Y-23.58624
G01 X14.54081 Y-23.60755
G01 X14.60200 Y-23.63861
G01 X14.65090 Y-23.67128
G01 X14.70302 Y-23.71593
G01 X19.18363 Y-28.19654
G01 X19.27682 Y-28.16827
G01 X19.33451 Y-28.15681
G01 X19.49059 Y-28.14142
G01 X19.54939 Y-28.14142
G01 X19.70547 Y-28.15681
G01 X19.76316 Y-28.16827
G01 X19.94093 Y-28.22372
G01 X20.10585 Y-28.31023
G01 X20.15477 Y-28.34292
G01 X20.29780 Y-28.46217
G01 X20.41708 Y-28.60520
G01 X20.44974 Y-28.65412
G01 X20.53626 Y-28.81904
G01 X20.59170 Y-28.99682
G01 X20.60316 Y-29.05450
G01 X20.61855 Y-29.21058
G01 X20.61855 Y-29.26939
G01 X20.60316 Y-29.42547
G01 X20.59170 Y-29.48315
G01 X20.54616 Y-29.63321
G01 X20.52366 Y-29.68755
G01 X20.44974 Y-29.82587
G01 X20.41708 Y-29.87477
G01 X20.29780 Y-30.01780
G01 X20.15477 Y-30.13707
G01 X20.10585 Y-30.16974
G01 X19.96755 Y-30.24368
G01 X19.91322 Y-30.26618
G01 X19.76316 Y-30.31170
G01 X19.70547 Y-30.32318
G01 X19.54939 Y-30.33855
G01 X19.49059 Y-30.33855
G01 X19.33451 Y-30.32318
G01 X19.27682 Y-30.31170
G01 X19.09905 Y-30.25625
G01 X18.93410 Y-30.16974
G01 X18.88520 Y-30.13707
G01 X18.74218 Y-30.01780
G01 X18.62290 Y-29.87477
G01 X18.59023 Y-29.82587
G01 X18.51630 Y-29.68755
G01 X18.49379 Y-29.63321
G01 X18.44827 Y-29.48315
G01 X18.43679 Y-29.42547
G01 X18.41998 Y-29.24000
G01 X18.43679 Y-29.05450
G01 X18.44827 Y-28.99682
G01 X18.47654 Y-28.90368
G01 X14.14236 Y-24.56950
G01 X7.31126 Y-24.56950
G01 X6.15008 Y-25.73066
G01 X6.14477 Y-25.84836
G01 X6.13331 Y-25.90607
G01 X6.09943 Y-25.99789
G01 X6.04827 Y-26.08138
G01 X5.98180 Y-26.15329
G01 X5.95150 Y-26.17818
G01 X5.92785 Y-26.19571
G01 X5.86801 Y-26.22934
G01 X5.77616 Y-26.26319
G01 X5.71848 Y-26.27465
G01 X5.65008 Y-26.27998
G01 X5.03207 Y-26.27998
G01 X4.95617 Y-26.41890
G01 X4.83293 Y-26.57135
G01 X4.79135 Y-26.61290
G01 X4.66255 Y-26.71864
G01 X4.61363 Y-26.75131
G01 X4.46669 Y-26.82987
G01 X4.41236 Y-26.85237
G01 X4.25290 Y-26.90073
G01 X4.19522 Y-26.91221
G01 X4.02938 Y-26.92855
G01 X3.97058 Y-26.92855
G01 X3.77563 Y-26.90790
G01 X3.58762 Y-26.85237
G01 X3.53329 Y-26.82987
G01 X3.36108 Y-26.73617
G01 X3.20858 Y-26.61290
G01 X3.16705 Y-26.57135
G01 X3.04381 Y-26.41890
G01 X2.95011 Y-26.24668
G01 X2.92760 Y-26.19235
G01 X2.87208 Y-26.00434
G01 X2.85143 Y-25.80940
G01 X2.85143 Y-28.29057
G01 X2.87208 Y-28.09563
G01 X2.92760 Y-27.90761
G01 X2.95011 Y-27.85328
G01 X3.04381 Y-27.68107
G01 X3.16705 Y-27.52862
G01 X3.20858 Y-27.48704
G01 X3.36108 Y-27.36380
G01 X3.53329 Y-27.27013
G01 X3.58762 Y-27.24760
G01 X3.77563 Y-27.19207
G01 X3.97058 Y-27.17142
G01 X4.02938 Y-27.17142
G01 X4.22435 Y-27.19207
G01 X4.44007 Y-27.25753
G01 X4.63890 Y-27.36380
G01 X4.79135 Y-27.48704
G01 X4.83293 Y-27.52862
G01 X4.95617 Y-27.68107
G01 X5.04985 Y-27.85328
G01 X5.07235 Y-27.90761
G01 X5.12788 Y-28.09563
G01 X5.14855 Y-28.29057
G01 X5.14855 Y-28.34940
G01 X5.12788 Y-28.54434
G01 X5.07235 Y-28.73235
G01 X5.04985 Y-28.78668
G01 X4.95617 Y-28.95890
G01 X4.83293 Y-29.11135
G01 X4.79135 Y-29.15293
G01 X4.63890 Y-29.27617
G01 X4.46669 Y-29.36987
G01 X4.41236 Y-29.39237
G01 X4.22435 Y-29.44790
G01 X4.02938 Y-29.46855
G01 X3.97058 Y-29.46855
G01 X3.77563 Y-29.44790
G01 X3.58762 Y-29.39237
G01 X3.53329 Y-29.36987
G01 X3.36108 Y-29.27617
G01 X3.20858 Y-29.15293
G01 X3.16705 Y-29.11135
G01 X3.04381 Y-28.95890
G01 X2.95011 Y-28.78668
G01 X2.92760 Y-28.73235
G01 X2.87208 Y-28.54434
G01 X2.85143 Y-28.34940
G01 X2.85143 Y-28.29057
G01 X2.85143 Y-30.83057
G01 X2.87208 Y-30.63563
G01 X2.92760 Y-30.44761
G01 X2.95011 Y-30.39328
G01 X3.04381 Y-30.22107
G01 X3.16705 Y-30.06862
G01 X3.20858 Y-30.02704
G01 X3.36108 Y-29.90380
G01 X3.53329 Y-29.81013
G01 X3.58762 Y-29.78760
G01 X3.77563 Y-29.73207
G01 X3.97058 Y-29.71142
G01 X4.02938 Y-29.71142
G01 X4.19522 Y-29.72775
G01 X4.25290 Y-29.73923
G01 X4.44007 Y-29.79753
G01 X4.63890 Y-29.90380
G01 X4.79135 Y-30.02704
G01 X4.83293 Y-30.06862
G01 X4.95617 Y-30.22107
G01 X5.03204 Y-30.35996
G01 X16.47995 Y-30.35996
G01 X16.47995 Y-30.21564
G01 X16.39410 Y-30.16974
G01 X16.34520 Y-30.13707
G01 X16.20218 Y-30.01780
G01 X16.08290 Y-29.87477
G01 X16.05023 Y-29.82587
G01 X15.97630 Y-29.68755
G01 X15.95379 Y-29.63321
G01 X15.90827 Y-29.48315
G01 X15.89679 Y-29.42547
G01 X15.87998 Y-29.24000
G01 X15.89679 Y-29.05450
G01 X15.90827 Y-28.99682
G01 X15.95379 Y-28.84675
G01 X15.97630 Y-28.79242
G01 X16.06537 Y-28.62885
G01 X16.18239 Y-28.48399
G01 X16.22400 Y-28.44239
G01 X16.34520 Y-28.34292
G01 X16.39410 Y-28.31023
G01 X16.53243 Y-28.23632
G01 X16.58676 Y-28.21381
G01 X16.73682 Y-28.16827
G01 X16.79451 Y-28.15681
G01 X16.95059 Y-28.14142
G01 X17.00939 Y-28.14142
G01 X17.16547 Y-28.15681
G01 X17.22316 Y-28.16827
G01 X17.40093 Y-28.22372
G01 X17.56585 Y-28.31023
G01 X17.61477 Y-28.34292
G01 X17.73598 Y-28.44239
G01 X17.77759 Y-28.48399
G01 X17.87708 Y-28.60520
G01 X17.90974 Y-28.65412
G01 X17.99626 Y-28.81904
G01 X18.05170 Y-28.99682
G01 X18.06316 Y-29.05450
G01 X18.08000 Y-29.24000
G01 X18.06316 Y-29.42547
G01 X18.05170 Y-29.48315
G01 X18.00616 Y-29.63321
G01 X17.98366 Y-29.68755
G01 X17.90974 Y-29.82587
G01 X17.87708 Y-29.87477
G01 X17.75780 Y-30.01780
G01 X17.61477 Y-30.13707
G01 X17.56585 Y-30.16974
G01 X17.47998 Y-30.21566
G01 X17.47853 Y-30.86948
G01 X17.46321 Y-30.96618
G01 X17.44190 Y-31.03143
G01 X17.42933 Y-31.05803
G01 X17.39570 Y-31.11787
G01 X17.35328 Y-31.17182
G01 X17.32105 Y-31.20540
G01 X17.24294 Y-31.27223
G01 X17.17802 Y-31.30934
G01 X17.12369 Y-31.33184
G01 X17.05762 Y-31.35036
G01 X17.02849 Y-31.35467
G01 X16.96009 Y-31.35998
G01 X5.03207 Y-31.35998
G01 X4.95617 Y-31.49890
G01 X4.83293 Y-31.65135
G01 X4.79135 Y-31.69293
G01 X4.63890 Y-31.81617
G01 X4.46669 Y-31.90987
G01 X4.41236 Y-31.93237
G01 X4.25290 Y-31.98073
G01 X4.19522 Y-31.99221
G01 X4.02938 Y-32.00855
G01 X3.97058 Y-32.00855
G01 X3.77563 Y-31.98790
G01 X3.58762 Y-31.93237
G01 X3.53329 Y-31.90987
G01 X3.36108 Y-31.81617
G01 X3.20858 Y-31.69293
G01 X3.16705 Y-31.65135
G01 X3.04381 Y-31.49890
G01 X2.95011 Y-31.32668
G01 X2.92760 Y-31.27235
G01 X2.87208 Y-31.08434
G01 X2.85143 Y-30.88940
G01 X2.85143 Y-30.83057
G01 X2.85143 Y-33.37057
G01 X2.87208 Y-33.17563
G01 X2.92760 Y-32.98761
G01 X2.95011 Y-32.93328
G01 X3.04381 Y-32.76107
G01 X3.16705 Y-32.60862
G01 X3.20858 Y-32.56704
G01 X3.36108 Y-32.44380
G01 X3.53329 Y-32.35013
G01 X3.58762 Y-32.32760
G01 X3.77563 Y-32.27207
G01 X3.97058 Y-32.25142
G01 X4.02938 Y-32.25142
G01 X4.22435 Y-32.27207
G01 X4.44007 Y-32.33753
G01 X4.63890 Y-32.44380
G01 X4.79135 Y-32.56704
G01 X4.83293 Y-32.60862
G01 X4.95617 Y-32.76107
G01 X5.04985 Y-32.93328
G01 X5.07235 Y-32.98761
G01 X5.12788 Y-33.17563
G01 X5.14855 Y-33.37057
G01 X5.14855 Y-33.42940
G01 X5.12788 Y-33.62434
G01 X5.07235 Y-33.81235
G01 X5.04985 Y-33.86668
G01 X4.95617 Y-34.03890
G01 X4.83293 Y-34.19135
G01 X4.79135 Y-34.23293
G01 X4.63890 Y-34.35617
G01 X4.46669 Y-34.44987
G01 X4.41236 Y-34.47237
G01 X4.22435 Y-34.52790
G01 X4.02938 Y-34.54855
G01 X3.97058 Y-34.54855
G01 X3.77563 Y-34.52790
G01 X3.58762 Y-34.47237
G01 X3.53329 Y-34.44987
G01 X3.36108 Y-34.35617
G01 X3.20858 Y-34.23293
G01 X3.16705 Y-34.19135
G01 X3.04381 Y-34.03890
G01 X2.95011 Y-33.86668
G01 X2.92760 Y-33.81235
G01 X2.87208 Y-33.62434
G01 X2.85143 Y-33.42940
G01 X2.85143 Y-33.37057
G01 X2.85143 Y-35.91057
G01 X2.87208 Y-35.71563
G01 X2.92760 Y-35.52761
G01 X2.95011 Y-35.47328
G01 X3.04381 Y-35.30107
G01 X3.16705 Y-35.14862
G01 X3.20858 Y-35.10704
G01 X3.33743 Y-35.00133
G01 X3.38633 Y-34.96866
G01 X3.53329 Y-34.89013
G01 X3.58762 Y-34.86760
G01 X3.77563 Y-34.81207
G01 X3.97058 Y-34.79142
G01 X4.02938 Y-34.79142
G01 X4.19522 Y-34.80775
G01 X4.25290 Y-34.81923
G01 X4.44007 Y-34.87753
G01 X4.63890 Y-34.98380
G01 X4.79135 Y-35.10704
G01 X4.83293 Y-35.14862
G01 X4.95617 Y-35.30107
G01 X5.03204 Y-35.43996
G01 X5.15005 Y-35.43996
G01 X5.15005 Y-34.96770
G01 X5.15536 Y-34.89927
G01 X5.16682 Y-34.84159
G01 X5.20070 Y-34.74974
G01 X5.23433 Y-34.68990
G01 X5.27675 Y-34.63595
G01 X7.88662 Y-32.02402
G01 X7.95594 Y-31.96633
G01 X8.04217 Y-31.92005
G01 X8.08566 Y-31.90204
G01 X8.13145 Y-31.89105
G01 X8.24019 Y-31.87756
G01 X40.06558 Y-31.87756
G01 X40.13398 Y-31.88287
G01 X40.19166 Y-31.89432
G01 X40.28351 Y-31.92821
G01 X40.36700 Y-31.97936
G01 X40.41912 Y-32.02402
G01 X42.51688 Y-34.12175
G01 X61.11377 Y-34.12175
G01 X68.15986 Y-27.07566
G01 X68.15986 Y-21.89998
G01 X68.16517 Y-21.83155
G01 X68.17662 Y-21.77387
G01 X68.21051 Y-21.68202
G01 X68.22900 Y-21.64743
G01 X68.26166 Y-21.59853
G01 X68.30631 Y-21.54641
G01 X69.89986 Y-19.95287
G01 X69.89986 Y-16.68005
G01 X69.90949 Y-16.58252
G01 X69.92800 Y-16.51645
G01 X69.95051 Y-16.46212
G01 X69.98414 Y-16.40228
G01 X70.04632 Y-16.32651
G01 X70.95653 Y-15.41630
G01 X70.92828 Y-15.32313
G01 X70.91680 Y-15.26548
G01 X70.90143 Y-15.10939
G01 X70.90143 Y-15.05059
G01 X70.91680 Y-14.89451
G01 X70.92828 Y-14.83683
G01 X70.98373 Y-14.65903
G01 X71.07024 Y-14.49410
G01 X71.10291 Y-14.44521
G01 X71.22216 Y-14.30218
G01 X71.36521 Y-14.18290
G01 X71.41411 Y-14.15024
G01 X71.57903 Y-14.06373
G01 X71.75683 Y-14.00828
G01 X71.81451 Y-13.99680
G01 X71.99998 Y-13.97998
G01 X72.18545 Y-13.99680
G01 X72.24314 Y-14.00828
G01 X72.39323 Y-14.05379
G01 X72.44756 Y-14.07630
G01 X72.58586 Y-14.15024
G01 X72.63475 Y-14.18290
G01 X72.77781 Y-14.30218
G01 X72.91461 Y-14.46886
G01 X73.00366 Y-14.63243
G01 X73.02617 Y-14.68676
G01 X73.07169 Y-14.83683
G01 X73.08317 Y-14.89451
G01 X73.09853 Y-15.05059
G01 X73.09853 Y-15.10939
G01 X73.08317 Y-15.26548
G01 X73.07169 Y-15.32313
G01 X73.01626 Y-15.50093
G01 X72.91461 Y-15.69110
G01 X72.77781 Y-15.85780
G01 X72.63475 Y-15.97706
G01 X72.58586 Y-16.00975
G01 X72.42094 Y-16.09626
G01 X72.24314 Y-16.15171
G01 X72.18545 Y-16.16316
G01 X72.02940 Y-16.17856
G01 X71.97057 Y-16.17856
G01 X71.81451 Y-16.16316
G01 X71.75683 Y-16.15171
G01 X71.66364 Y-16.12344
G01 X70.89988 Y-16.88716
G01 X70.89988 Y-19.65996
G01 X71.02434 Y-19.65996
G01 X71.08538 Y-19.54886
G01 X71.22216 Y-19.38218
G01 X71.36521 Y-19.26290
G01 X71.41411 Y-19.23024
G01 X71.57903 Y-19.14373
G01 X71.75683 Y-19.08828
G01 X71.81451 Y-19.07680
G01 X71.99998 Y-19.05998
G01 X72.18545 Y-19.07680
G01 X72.24314 Y-19.08828
G01 X72.39323 Y-19.13379
G01 X72.44756 Y-19.15630
G01 X72.58586 Y-19.23024
G01 X72.63475 Y-19.26290
G01 X72.77781 Y-19.38218
G01 X72.89706 Y-19.52521
G01 X72.92975 Y-19.57410
G01 X73.01626 Y-19.73903
G01 X73.07169 Y-19.91683
G01 X73.08317 Y-19.97451
G01 X73.09853 Y-20.13059
G01 X73.09853 Y-20.18939
G01 X73.08317 Y-20.34548
G01 X73.07169 Y-20.40313
G01 X73.04344 Y-20.49633
G01 X80.13334 Y-27.58623
G01 X80.19552 Y-27.66200
G01 X80.22915 Y-27.72184
G01 X80.25166 Y-27.77617
G01 X80.27017 Y-27.84224
G01 X80.27980 Y-27.93980
G01 X80.27980 Y-28.24038
G01 X80.96738 Y-28.92796
G01 X81.79575 Y-28.92796
G01 X83.75066 Y-26.97305
G01 X83.75066 Y-24.90930
G01 X83.75597 Y-24.84087
G01 X83.76742 Y-24.78319
G01 X83.80131 Y-24.69134
G01 X83.81980 Y-24.65675
G01 X83.85246 Y-24.60785
G01 X83.89711 Y-24.55573
G01 X87.95654 Y-20.49630
G01 X87.92827 Y-20.40313
G01 X87.91679 Y-20.34548
G01 X87.90142 Y-20.18939
G01 X87.90142 Y-20.13059
G01 X87.91679 Y-19.97451
G01 X87.92827 Y-19.91683
G01 X87.98372 Y-19.73903
G01 X88.07023 Y-19.57410
G01 X88.10290 Y-19.52521
G01 X88.22218 Y-19.38218
G01 X88.36520 Y-19.26290
G01 X88.41412 Y-19.23024
G01 X88.55243 Y-19.15630
G01 X88.60676 Y-19.13379
G01 X88.75682 Y-19.08828
G01 X88.81450 Y-19.07680
G01 X89.00000 Y-19.05998
G01 X89.18547 Y-19.07680
G01 X89.24315 Y-19.08828
G01 X89.42093 Y-19.14373
G01 X89.58585 Y-19.23024
G01 X89.63477 Y-19.26290
G01 X89.77780 Y-19.38218
G01 X89.91460 Y-19.54886
G01 X90.00366 Y-19.71243
G01 X90.02619 Y-19.76676
G01 X90.07170 Y-19.91683
G01 X90.08318 Y-19.97451
G01 X90.09855 Y-20.13059
G01 X90.09855 Y-20.18939
G01 X90.08318 Y-20.34548
G01 X90.07170 Y-20.40313
G01 X90.01625 Y-20.58093
G01 X89.91460 Y-20.77110
G01 X89.77780 Y-20.93780
G01 X89.63477 Y-21.05706
G01 X89.58585 Y-21.08975
G01 X89.42093 Y-21.17626
G01 X89.24315 Y-21.23171
G01 X89.18547 Y-21.24316
G01 X89.02939 Y-21.25856
G01 X88.97059 Y-21.25856
G01 X88.81450 Y-21.24316
G01 X88.75682 Y-21.23171
G01 X88.66363 Y-21.20344
G01 X84.75068 Y-25.11641
G01 X84.75068 Y-27.18018
G01 X84.74537 Y-27.24859
G01 X84.73392 Y-27.30627
G01 X84.70003 Y-27.39812
G01 X84.68154 Y-27.43271
G01 X84.64888 Y-27.48161
G01 X84.60422 Y-27.53373
G01 X82.35643 Y-29.78153
G01 X82.27002 Y-29.84889
G01 X82.24025 Y-29.86791
G01 X82.17949 Y-29.89534
G01 X82.11160 Y-29.91449
G01 X82.00288 Y-29.92798
G01 X80.76029 Y-29.92798
G01 X80.65155 Y-29.91449
G01 X80.58366 Y-29.89534
G01 X80.52290 Y-29.86791
G01 X80.44251 Y-29.81211
G01 X80.40672 Y-29.78153
G01 X79.42623 Y-28.80103
G01 X79.36405 Y-28.72527
G01 X79.33042 Y-28.66542
G01 X79.30792 Y-28.61109
G01 X79.28940 Y-28.54503
G01 X79.28508 Y-28.51589
G01 X79.27978 Y-28.44747
G01 X79.27978 Y-28.14688
G01 X72.33633 Y-21.20344
G01 X72.24314 Y-21.23171
G01 X72.18545 Y-21.24316
G01 X71.99998 Y-21.25998
G01 X71.81451 Y-21.24316
G01 X71.75683 Y-21.23171
G01 X71.60677 Y-21.18617
G01 X71.55241 Y-21.16366
G01 X71.41411 Y-21.08975
G01 X71.36521 Y-21.05706
G01 X71.24398 Y-20.95757
G01 X71.20240 Y-20.91599
G01 X71.08538 Y-20.77110
G01 X71.02432 Y-20.65995
G01 X70.60697 Y-20.65998
G01 X69.15988 Y-22.10707
G01 X69.15988 Y-27.28275
G01 X69.15026 Y-27.38031
G01 X69.13174 Y-27.44638
G01 X69.10923 Y-27.50071
G01 X69.07560 Y-27.56055
G01 X69.01343 Y-27.63632
G01 X61.67443 Y-34.97532
G01 X61.58801 Y-35.04268
G01 X61.54786 Y-35.06727
G01 X61.44486 Y-35.10463
G01 X61.39912 Y-35.11560
G01 X61.35220 Y-35.11931
G01 X42.30982 Y-35.12177
G01 X42.24137 Y-35.11647
G01 X42.18368 Y-35.10501
G01 X42.09184 Y-35.07113
G01 X42.00835 Y-35.01997
G01 X41.95623 Y-34.97532
G01 X39.85847 Y-32.87758
G01 X8.44730 Y-32.87758
G01 X6.15008 Y-35.17481
G01 X6.15008 Y-35.93998
G01 X6.14477 Y-36.00839
G01 X6.13331 Y-36.06607
G01 X6.09943 Y-36.15792
G01 X6.04827 Y-36.24141
G01 X5.98180 Y-36.31329
G01 X5.92785 Y-36.35571
G01 X5.90260 Y-36.37084
G01 X5.81368 Y-36.41184
G01 X5.74761 Y-36.43036
G01 X5.67947 Y-36.43854
G01 X5.03207 Y-36.43998
G01 X4.95617 Y-36.57890
G01 X4.83293 Y-36.73135
G01 X4.79135 Y-36.77293
G01 X4.63890 Y-36.89617
G01 X4.46669 Y-36.98987
G01 X4.41236 Y-37.01237
G01 X4.25290 Y-37.06073
G01 X4.19522 Y-37.07221
G01 X4.02938 Y-37.08855
G01 X3.97058 Y-37.08855
G01 X3.77563 Y-37.06790
G01 X3.58762 Y-37.01237
G01 X3.53329 Y-36.98987
G01 X3.36108 Y-36.89617
G01 X3.20858 Y-36.77293
G01 X3.16705 Y-36.73135
G01 X3.06133 Y-36.60254
G01 X3.02867 Y-36.55365
G01 X2.95011 Y-36.40668
G01 X2.92760 Y-36.35235
G01 X2.87208 Y-36.16434
G01 X2.85143 Y-35.96940
G01 X2.85143 Y-35.91057
G01 X2.85143 Y-38.45057
G01 X2.87208 Y-38.25563
G01 X2.92760 Y-38.06762
G01 X2.95011 Y-38.01328
G01 X3.04381 Y-37.84107
G01 X3.16705 Y-37.68862
G01 X3.20858 Y-37.64704
G01 X3.36108 Y-37.52380
G01 X3.53329 Y-37.43013
G01 X3.58762 Y-37.40760
G01 X3.77563 Y-37.35207
G01 X3.97058 Y-37.33142
G01 X4.02938 Y-37.33142
G01 X4.22435 Y-37.35207
G01 X4.44007 Y-37.41753
G01 X4.63890 Y-37.52380
G01 X4.79135 Y-37.64704
G01 X4.83293 Y-37.68862
G01 X4.95617 Y-37.84107
G01 X5.04985 Y-38.01328
G01 X5.07235 Y-38.06762
G01 X5.12788 Y-38.25563
G01 X5.14855 Y-38.45057
G01 X5.14855 Y-38.50940
G01 X5.12788 Y-38.70434
G01 X5.07235 Y-38.89235
G01 X5.04985 Y-38.94668
G01 X4.95617 Y-39.11890
G01 X4.83293 Y-39.27135
G01 X4.79135 Y-39.31293
G01 X4.63890 Y-39.43617
G01 X4.46669 Y-39.52987
G01 X4.41236 Y-39.55237
G01 X4.22435 Y-39.60790
G01 X4.02938 Y-39.62855
G01 X3.97058 Y-39.62855
G01 X3.77563 Y-39.60790
G01 X3.58762 Y-39.55237
G01 X3.53329 Y-39.52987
G01 X3.36108 Y-39.43617
G01 X3.20858 Y-39.31293
G01 X3.16705 Y-39.27135
G01 X3.04381 Y-39.11890
G01 X2.95011 Y-38.94668
G01 X2.92760 Y-38.89235
G01 X2.87208 Y-38.70434
G01 X2.85143 Y-38.50940
G01 X2.85143 Y-38.45057
G01 X2.85143 Y-40.99057
G01 X2.87208 Y-40.79563
G01 X2.92760 Y-40.60761
G01 X2.95011 Y-40.55328
G01 X3.04381 Y-40.38107
G01 X3.16705 Y-40.22862
G01 X3.20858 Y-40.18704
G01 X3.36108 Y-40.06380
G01 X3.53329 Y-39.97013
G01 X3.58762 Y-39.94760
G01 X3.77563 Y-39.89207
G01 X3.97058 Y-39.87142
G01 X4.02938 Y-39.87142
G01 X4.22435 Y-39.89207
G01 X4.44007 Y-39.95753
G01 X4.63890 Y-40.06380
G01 X4.79135 Y-40.18704
G01 X4.83293 Y-40.22862
G01 X4.95617 Y-40.38107
G01 X5.04985 Y-40.55328
G01 X5.07235 Y-40.60761
G01 X5.12788 Y-40.79563
G01 X5.14855 Y-40.99057
G01 X5.14855 Y-41.04940
G01 X5.12788 Y-41.24434
G01 X5.07235 Y-41.43235
G01 X5.04985 Y-41.48668
G01 X4.95617 Y-41.65890
G01 X4.83293 Y-41.81135
G01 X4.79135 Y-41.85293
G01 X4.63890 Y-41.97617
G01 X4.46669 Y-42.06987
G01 X4.41236 Y-42.09237
G01 X4.22435 Y-42.14790
G01 X4.02938 Y-42.16855
G01 X3.97058 Y-42.16855
G01 X3.77563 Y-42.14790
G01 X3.58762 Y-42.09237
G01 X3.53329 Y-42.06987
G01 X3.36108 Y-41.97617
G01 X3.20858 Y-41.85293
G01 X3.16705 Y-41.81135
G01 X3.04381 Y-41.65890
G01 X2.95011 Y-41.48668
G01 X2.92760 Y-41.43235
G01 X2.87208 Y-41.24434
G01 X2.85143 Y-41.04940
G01 X2.85143 Y-40.99057
G04 P0 
G00 Z2.00000 M3 ; restart from line 1617

G00 X6.95734 Y-34.77420 
G01 F30.00000

G01 Z-0.07500
G04 P0 
G01 F40.00000
G01 X6.95734 Y-34.77420
G01 X6.95734 Y-34.71537
G01 X6.97126 Y-34.58870
G01 X7.00687 Y-34.46635
G01 X7.02937 Y-34.41202
G01 X7.09071 Y-34.30034
G01 X7.17042 Y-34.20092
G01 X7.21203 Y-34.15934
G01 X7.28779 Y-34.09714
G01 X7.33669 Y-34.06447
G01 X7.42312 Y-34.01827
G01 X7.47746 Y-33.99577
G01 X7.57126 Y-33.96732
G01 X7.62894 Y-33.95584
G01 X7.72648 Y-33.94624
G01 X7.78530 Y-33.94624
G01 X7.84174 Y-33.95180
G01 X8.71301 Y-33.08053
G01 X8.75419 Y-33.04416
G01 X8.81281 Y-33.00499
G01 X8.91205 Y-32.95856
G01 X8.95784 Y-32.94756
G01 X9.06658 Y-32.93407
G01 X39.45019 Y-32.93407
G01 X39.54772 Y-32.94370
G01 X39.61379 Y-32.96222
G01 X39.66812 Y-32.98472
G01 X39.72796 Y-33.01835
G01 X39.80373 Y-33.08053
G01 X41.84508 Y-35.12188
G01 X83.04190 Y-35.12188
G01 X83.15061 Y-35.13536
G01 X83.21850 Y-35.15451
G01 X83.27926 Y-35.18195
G01 X83.30903 Y-35.20097
G01 X83.39544 Y-35.26833
G01 X88.04374 Y-39.91666
G01 X88.19563 Y-39.87208
G01 X88.39058 Y-39.85143
G01 X88.44940 Y-39.85143
G01 X88.64435 Y-39.87208
G01 X88.83236 Y-39.92761
G01 X88.88669 Y-39.95011
G01 X89.03363 Y-40.02867
G01 X89.08255 Y-40.06134
G01 X89.21135 Y-40.16705
G01 X89.25293 Y-40.20863
G01 X89.35865 Y-40.33744
G01 X89.39131 Y-40.38633
G01 X89.46985 Y-40.53329
G01 X89.49238 Y-40.58763
G01 X89.54788 Y-40.77564
G01 X89.56855 Y-40.97058
G01 X89.56855 Y-41.02938
G01 X89.55222 Y-41.19522
G01 X89.54074 Y-41.25290
G01 X89.49238 Y-41.41236
G01 X89.46985 Y-41.46669
G01 X89.39131 Y-41.61363
G01 X89.35865 Y-41.66253
G01 X89.23317 Y-41.81315
G01 X89.08255 Y-41.93865
G01 X89.03363 Y-41.97132
G01 X88.88669 Y-42.04985
G01 X88.83236 Y-42.07236
G01 X88.64435 Y-42.12788
G01 X88.44940 Y-42.14853
G01 X88.39058 Y-42.14853
G01 X88.19563 Y-42.12788
G01 X88.00762 Y-42.07236
G01 X87.95329 Y-42.04985
G01 X87.80633 Y-41.97132
G01 X87.75743 Y-41.93865
G01 X87.60681 Y-41.81315
G01 X87.48133 Y-41.66253
G01 X87.44867 Y-41.61363
G01 X87.37011 Y-41.46669
G01 X87.34760 Y-41.41236
G01 X87.29924 Y-41.25290
G01 X87.28776 Y-41.19522
G01 X87.27143 Y-41.02938
G01 X87.27143 Y-40.97058
G01 X87.28776 Y-40.80474
G01 X87.29924 Y-40.74709
G01 X87.33666 Y-40.62377
G01 X82.83478 Y-36.12190
G01 X41.60858 Y-36.12045
G01 X41.54043 Y-36.11227
G01 X41.51188 Y-36.10513
G01 X41.42003 Y-36.07125
G01 X41.36019 Y-36.03762
G01 X41.28442 Y-35.97544
G01 X39.24308 Y-33.93410
G01 X9.27367 Y-33.93410
G01 X8.54888 Y-34.65888
G01 X8.55444 Y-34.71537
G01 X8.55444 Y-34.77420
G01 X8.54484 Y-34.87174
G01 X8.53336 Y-34.92942
G01 X8.50491 Y-35.02322
G01 X8.48241 Y-35.07755
G01 X8.42107 Y-35.18924
G01 X8.32157 Y-35.31047
G01 X8.22399 Y-35.39244
G01 X8.17509 Y-35.42510
G01 X8.06204 Y-35.48390
G01 X7.91195 Y-35.52942
G01 X7.78530 Y-35.54334
G01 X7.72648 Y-35.54334
G01 X7.59981 Y-35.52942
G01 X7.44974 Y-35.48390
G01 X7.33669 Y-35.42510
G01 X7.28779 Y-35.39244
G01 X7.19021 Y-35.31047
G01 X7.09071 Y-35.18924
G01 X7.02937 Y-35.07755
G01 X7.00687 Y-35.02322
G01 X6.97126 Y-34.90087
G01 X6.95734 Y-34.77420
G04 P0 
G00 Z2.00000 M3 ; restart from line 1745

G00 X10.79998 Y-30.04000 
G01 F30.00000

G01 Z-0.07500
G04 P0 
G01 F40.00000
G01 X10.79998 Y-30.04000
G01 X10.79998 Y-28.44000
G01 X10.80574 Y-28.38145
G01 X10.82281 Y-28.32519
G01 X10.85055 Y-28.27332
G01 X10.86261 Y-28.25862
G01 X11.09983 Y-28.14000
G01 X12.70000 Y-28.14000
G01 X12.93658 Y-28.25765
G01 X12.94943 Y-28.27332
G01 X12.97714 Y-28.32519
G01 X12.99423 Y-28.38145
G01 X13.00000 Y-28.44000
G01 X13.00000 Y-30.04000
G01 X12.99423 Y-30.09852
G01 X12.97714 Y-30.15480
G01 X12.94943 Y-30.20667
G01 X12.91913 Y-30.24355
G01 X12.72573 Y-30.33746
G01 X12.70000 Y-30.34000
G01 X11.09998 Y-30.34000
G01 X11.07511 Y-30.33753
G01 X10.87643 Y-30.23819
G01 X10.85055 Y-30.20667
G01 X10.82281 Y-30.15480
G01 X10.80574 Y-30.09852
G01 X10.79998 Y-30.04000
G04 P0 
G00 Z2.00000 M3 ; restart from line 1781

G00 X6.88518 Y-25.36960 
G01 F30.00000

G01 Z-0.07500
G04 P0 
G01 F40.00000
G01 X6.88518 Y-25.36960
G01 X6.89623 Y-25.24265
G01 X6.90771 Y-25.18496
G01 X6.93616 Y-25.09116
G01 X6.95866 Y-25.03683
G01 X7.00489 Y-24.95039
G01 X7.03755 Y-24.90147
G01 X7.09973 Y-24.82571
G01 X7.14131 Y-24.78413
G01 X7.21708 Y-24.72195
G01 X7.26597 Y-24.68928
G01 X7.35244 Y-24.64308
G01 X7.40677 Y-24.62058
G01 X7.50057 Y-24.59210
G01 X7.55823 Y-24.58065
G01 X7.67154 Y-24.57026
G01 X7.81213 Y-24.58065
G01 X7.86981 Y-24.59210
G01 X7.96361 Y-24.62058
G01 X8.01794 Y-24.64308
G01 X8.10440 Y-24.68928
G01 X8.15330 Y-24.72195
G01 X8.22907 Y-24.78413
G01 X8.27065 Y-24.82571
G01 X8.33283 Y-24.90147
G01 X8.36549 Y-24.95039
G01 X8.41169 Y-25.03683
G01 X8.43420 Y-25.09116
G01 X8.46267 Y-25.18496
G01 X8.47413 Y-25.24265
G01 X8.48517 Y-25.36960
G01 X8.47819 Y-25.45550
G01 X10.16257 Y-27.13987
G01 X14.43995 Y-27.13987
G01 X14.53751 Y-27.14950
G01 X14.60358 Y-27.16802
G01 X14.65791 Y-27.19052
G01 X14.74140 Y-27.24168
G01 X14.77170 Y-27.26657
G01 X14.83817 Y-27.33845
G01 X14.85570 Y-27.36210
G01 X14.88933 Y-27.42194
G01 X14.90190 Y-27.44854
G01 X14.92321 Y-27.51379
G01 X14.93467 Y-27.57147
G01 X14.93998 Y-27.63990
G01 X14.93998 Y-28.26433
G01 X15.02585 Y-28.31023
G01 X15.07477 Y-28.34292
G01 X15.19598 Y-28.44239
G01 X15.23759 Y-28.48399
G01 X15.33708 Y-28.60520
G01 X15.36974 Y-28.65412
G01 X15.44366 Y-28.79242
G01 X15.46616 Y-28.84675
G01 X15.51170 Y-28.99682
G01 X15.52316 Y-29.05450
G01 X15.54000 Y-29.24000
G01 X15.52316 Y-29.42547
G01 X15.51170 Y-29.48315
G01 X15.46616 Y-29.63321
G01 X15.44366 Y-29.68755
G01 X15.36974 Y-29.82587
G01 X15.33708 Y-29.87477
G01 X15.21780 Y-30.01780
G01 X15.07477 Y-30.13707
G01 X15.02585 Y-30.16974
G01 X14.86093 Y-30.25625
G01 X14.68316 Y-30.31170
G01 X14.62547 Y-30.32318
G01 X14.46939 Y-30.33855
G01 X14.41059 Y-30.33855
G01 X14.25451 Y-30.32318
G01 X14.19682 Y-30.31170
G01 X14.04676 Y-30.26618
G01 X13.99243 Y-30.24368
G01 X13.85410 Y-30.16974
G01 X13.80520 Y-30.13707
G01 X13.68400 Y-30.03758
G01 X13.64239 Y-29.99600
G01 X13.54290 Y-29.87477
G01 X13.51023 Y-29.82587
G01 X13.43630 Y-29.68755
G01 X13.41379 Y-29.63321
G01 X13.36827 Y-29.48315
G01 X13.35679 Y-29.42547
G01 X13.33998 Y-29.24000
G01 X13.35679 Y-29.05450
G01 X13.36827 Y-28.99682
G01 X13.41379 Y-28.84675
G01 X13.43630 Y-28.79242
G01 X13.51023 Y-28.65412
G01 X13.54290 Y-28.60520
G01 X13.66218 Y-28.46217
G01 X13.80520 Y-28.34292
G01 X13.85410 Y-28.31023
G01 X13.93995 Y-28.26436
G01 X13.93995 Y-28.13990
G01 X9.95548 Y-28.13990
G01 X9.84674 Y-28.12641
G01 X9.77885 Y-28.10726
G01 X9.71809 Y-28.07983
G01 X9.68832 Y-28.06080
G01 X9.60191 Y-27.99344
G01 X7.77105 Y-26.16256
G01 X7.71459 Y-26.16815
G01 X7.65579 Y-26.16815
G01 X7.55823 Y-26.15852
G01 X7.50057 Y-26.14706
G01 X7.40677 Y-26.11862
G01 X7.35244 Y-26.09611
G01 X7.26597 Y-26.04991
G01 X7.21708 Y-26.01722
G01 X7.11949 Y-25.93528
G01 X7.02000 Y-25.81402
G01 X6.95866 Y-25.70234
G01 X6.93616 Y-25.64801
G01 X6.90057 Y-25.52565
G01 X6.88518 Y-25.36960
G04 P0 
G00 Z2.00000 M3 ; restart from line 1909

G00 X10.79998 Y-14.00000 
G01 F30.00000

G01 Z-0.07500
G04 P0 
G01 F40.00000
G01 X10.79998 Y-14.00000
G01 X10.81679 Y-13.81450
G01 X10.82827 Y-13.75682
G01 X10.87379 Y-13.60675
G01 X10.89630 Y-13.55242
G01 X10.98537 Y-13.38885
G01 X11.12218 Y-13.22215
G01 X11.26520 Y-13.10289
G01 X11.31410 Y-13.07023
G01 X11.47905 Y-12.98372
G01 X11.65682 Y-12.92824
G01 X11.71451 Y-12.91681
G01 X11.89998 Y-12.90000
G01 X12.08547 Y-12.91681
G01 X12.14316 Y-12.92824
G01 X12.32093 Y-12.98372
G01 X12.48585 Y-13.07023
G01 X12.53477 Y-13.10289
G01 X12.67780 Y-13.22215
G01 X12.81458 Y-13.38885
G01 X12.90363 Y-13.55242
G01 X12.92616 Y-13.60675
G01 X12.97168 Y-13.75682
G01 X12.98316 Y-13.81450
G01 X13.00000 Y-14.00000
G01 X12.98316 Y-14.18547
G01 X12.97168 Y-14.24315
G01 X12.91996 Y-14.40820
G01 X12.90363 Y-14.44755
G01 X12.81458 Y-14.61112
G01 X12.67780 Y-14.77780
G01 X12.53477 Y-14.89707
G01 X12.48585 Y-14.92974
G01 X12.32093 Y-15.01625
G01 X12.14316 Y-15.07170
G01 X12.08547 Y-15.08318
G01 X11.89998 Y-15.10000
G01 X11.71451 Y-15.08318
G01 X11.65682 Y-15.07170
G01 X11.47905 Y-15.01625
G01 X11.31410 Y-14.92974
G01 X11.26520 Y-14.89707
G01 X11.12218 Y-14.77780
G01 X10.98537 Y-14.61112
G01 X10.89630 Y-14.44755
G01 X10.87379 Y-14.39321
G01 X10.82827 Y-14.24315
G01 X10.81679 Y-14.18547
G01 X10.79998 Y-14.00000
G04 P0 
G00 Z2.00000 M3 ; restart from line 1967

G00 X13.33998 Y-14.00000 
G01 F30.00000

G01 Z-0.07500
G04 P0 
G01 F40.00000
G01 X13.33998 Y-14.00000
G01 X13.35679 Y-13.81450
G01 X13.36827 Y-13.75682
G01 X13.42372 Y-13.57904
G01 X13.51023 Y-13.41412
G01 X13.54290 Y-13.36520
G01 X13.66218 Y-13.22215
G01 X13.80520 Y-13.10289
G01 X13.85410 Y-13.07023
G01 X14.01905 Y-12.98372
G01 X14.19682 Y-12.92824
G01 X14.25451 Y-12.91681
G01 X14.43998 Y-12.90000
G01 X14.62547 Y-12.91681
G01 X14.68316 Y-12.92824
G01 X14.86093 Y-12.98372
G01 X15.02585 Y-13.07023
G01 X15.07477 Y-13.10289
G01 X15.21780 Y-13.22215
G01 X15.33708 Y-13.36520
G01 X15.36974 Y-13.41412
G01 X15.45626 Y-13.57904
G01 X15.51170 Y-13.75682
G01 X15.52316 Y-13.81450
G01 X15.54000 Y-14.00000
G01 X15.52316 Y-14.18547
G01 X15.51170 Y-14.24315
G01 X15.45626 Y-14.42095
G01 X15.36974 Y-14.58587
G01 X15.33708 Y-14.63477
G01 X15.21780 Y-14.77780
G01 X15.07477 Y-14.89707
G01 X15.02585 Y-14.92974
G01 X14.86093 Y-15.01625
G01 X14.68316 Y-15.07170
G01 X14.62547 Y-15.08318
G01 X14.43998 Y-15.10000
G01 X14.25451 Y-15.08318
G01 X14.19682 Y-15.07170
G01 X14.01905 Y-15.01625
G01 X13.85410 Y-14.92974
G01 X13.80520 Y-14.89707
G01 X13.66218 Y-14.77780
G01 X13.54290 Y-14.63477
G01 X13.51023 Y-14.58587
G01 X13.42372 Y-14.42095
G01 X13.36827 Y-14.24315
G01 X13.35679 Y-14.18547
G01 X13.33998 Y-14.00000
G04 P0 
G00 Z2.00000 M3 ; restart from line 2025

G00 X15.87998 Y-14.00000 
G01 F30.00000

G01 Z-0.07500
G04 P0 
G01 F40.00000
G01 X15.87998 Y-14.00000
G01 X15.89679 Y-13.81450
G01 X15.90827 Y-13.75682
G01 X15.95379 Y-13.60675
G01 X15.97630 Y-13.55242
G01 X16.06537 Y-13.38885
G01 X16.18239 Y-13.24399
G01 X16.22400 Y-13.20239
G01 X16.34520 Y-13.10289
G01 X16.39410 Y-13.07023
G01 X16.55905 Y-12.98372
G01 X16.73682 Y-12.92824
G01 X16.79451 Y-12.91681
G01 X16.95059 Y-12.90142
G01 X17.00939 Y-12.90142
G01 X17.16547 Y-12.91681
G01 X17.22316 Y-12.92824
G01 X17.31630 Y-12.95654
G01 X20.01327 Y-10.25957
G01 X19.99681 Y-10.18548
G01 X19.98144 Y-10.02939
G01 X19.98144 Y-9.97059
G01 X19.99681 Y-9.81451
G01 X20.00827 Y-9.75683
G01 X20.05381 Y-9.60676
G01 X20.07631 Y-9.55243
G01 X20.15023 Y-9.41410
G01 X20.18292 Y-9.36521
G01 X20.28241 Y-9.24397
G01 X20.32399 Y-9.20239
G01 X20.44522 Y-9.10290
G01 X20.49412 Y-9.07024
G01 X20.63242 Y-8.99630
G01 X20.68675 Y-8.97379
G01 X20.83684 Y-8.92828
G01 X20.89452 Y-8.91680
G01 X21.07999 Y-8.89998
G01 X21.26546 Y-8.91680
G01 X21.32315 Y-8.92828
G01 X21.47321 Y-8.97379
G01 X21.52754 Y-8.99630
G01 X21.69112 Y-9.08538
G01 X21.85779 Y-9.22218
G01 X21.97707 Y-9.36521
G01 X22.00973 Y-9.41410
G01 X22.08367 Y-9.55243
G01 X22.10618 Y-9.60676
G01 X22.15170 Y-9.75683
G01 X22.16318 Y-9.81451
G01 X22.17999 Y-9.99998
G01 X22.16318 Y-10.18548
G01 X22.15170 Y-10.24313
G01 X22.10618 Y-10.39322
G01 X22.08367 Y-10.44755
G01 X22.00973 Y-10.58586
G01 X21.97707 Y-10.63475
G01 X21.85779 Y-10.77780
G01 X21.69112 Y-10.91461
G01 X21.52754 Y-11.00366
G01 X21.47321 Y-11.02617
G01 X21.32315 Y-11.07171
G01 X21.26546 Y-11.08316
G01 X21.10938 Y-11.09856
G01 X21.05058 Y-11.09856
G01 X20.89452 Y-11.08316
G01 X20.83684 Y-11.07171
G01 X20.66846 Y-11.01860
G01 X18.02343 Y-13.66363
G01 X18.05170 Y-13.75682
G01 X18.06316 Y-13.81450
G01 X18.08000 Y-14.00000
G01 X18.06316 Y-14.18547
G01 X18.05170 Y-14.24315
G01 X18.00616 Y-14.39321
G01 X17.98366 Y-14.44755
G01 X17.90974 Y-14.58587
G01 X17.87708 Y-14.63477
G01 X17.75780 Y-14.77780
G01 X17.61477 Y-14.89707
G01 X17.56585 Y-14.92974
G01 X17.40093 Y-15.01625
G01 X17.22316 Y-15.07170
G01 X17.16547 Y-15.08318
G01 X16.97998 Y-15.10000
G01 X16.79451 Y-15.08318
G01 X16.73682 Y-15.07170
G01 X16.58676 Y-15.02618
G01 X16.53243 Y-15.00368
G01 X16.39410 Y-14.92974
G01 X16.34520 Y-14.89707
G01 X16.22400 Y-14.79758
G01 X16.18239 Y-14.75600
G01 X16.08290 Y-14.63477
G01 X16.05023 Y-14.58587
G01 X15.96372 Y-14.42095
G01 X15.90827 Y-14.24315
G01 X15.89679 Y-14.18547
G01 X15.87998 Y-14.00000
G04 P0 
G00 Z2.00000 M3 ; restart from line 2132

G00 X20.95998 Y-14.00000 
G01 F30.00000

G01 Z-0.07500
G04 P0 
G01 F40.00000
G01 X20.95998 Y-14.00000
G01 X20.97679 Y-13.81450
G01 X20.98827 Y-13.75682
G01 X21.03379 Y-13.60675
G01 X21.05630 Y-13.55242
G01 X21.14537 Y-13.38885
G01 X21.26239 Y-13.24399
G01 X21.30400 Y-13.20239
G01 X21.42520 Y-13.10289
G01 X21.47410 Y-13.07023
G01 X21.63905 Y-12.98372
G01 X21.81682 Y-12.92824
G01 X21.87451 Y-12.91681
G01 X22.05998 Y-12.90000
G01 X22.24547 Y-12.91681
G01 X22.30316 Y-12.92824
G01 X22.48093 Y-12.98372
G01 X22.64585 Y-13.07023
G01 X22.69477 Y-13.10289
G01 X22.83780 Y-13.22215
G01 X22.95708 Y-13.36520
G01 X22.98974 Y-13.41412
G01 X23.07626 Y-13.57904
G01 X23.13170 Y-13.75682
G01 X23.14316 Y-13.81450
G01 X23.16000 Y-14.00000
G01 X23.14316 Y-14.18547
G01 X23.13170 Y-14.24315
G01 X23.07626 Y-14.42095
G01 X22.98974 Y-14.58587
G01 X22.95708 Y-14.63477
G01 X22.83780 Y-14.77780
G01 X22.69477 Y-14.89707
G01 X22.64585 Y-14.92974
G01 X22.48093 Y-15.01625
G01 X22.30316 Y-15.07170
G01 X22.24547 Y-15.08318
G01 X22.05998 Y-15.10000
G01 X21.87451 Y-15.08318
G01 X21.81682 Y-15.07170
G01 X21.63905 Y-15.01625
G01 X21.47410 Y-14.92974
G01 X21.42520 Y-14.89707
G01 X21.28218 Y-14.77780
G01 X21.16290 Y-14.63477
G01 X21.13023 Y-14.58587
G01 X21.04372 Y-14.42095
G01 X20.98827 Y-14.24315
G01 X20.97679 Y-14.18547
G01 X20.95998 Y-14.00000
G04 P0 
G00 Z2.00000 M3 ; restart from line 2191

G00 X23.49998 Y-14.00000 
G01 F30.00000

G01 Z-0.07500
G04 P0 
G01 F40.00000
G01 X23.49998 Y-14.00000
G01 X23.51679 Y-13.81450
G01 X23.52827 Y-13.75682
G01 X23.58372 Y-13.57904
G01 X23.67023 Y-13.41412
G01 X23.70290 Y-13.36520
G01 X23.82218 Y-13.22215
G01 X23.96520 Y-13.10289
G01 X24.01410 Y-13.07023
G01 X24.09995 Y-13.02433
G01 X24.09995 Y-12.39987
G01 X24.10818 Y-12.31008
G01 X24.13645 Y-12.21638
G01 X24.15446 Y-12.17290
G01 X24.17905 Y-12.13274
G01 X24.24641 Y-12.04633
G01 X32.26171 Y-4.03103
G01 X32.33748 Y-3.96885
G01 X32.39732 Y-3.93522
G01 X32.48917 Y-3.90134
G01 X32.54685 Y-3.88988
G01 X32.61528 Y-3.88457
G01 X79.27579 Y-3.88704
G01 X79.32270 Y-3.89075
G01 X79.36847 Y-3.90172
G01 X79.47147 Y-3.93908
G01 X79.51163 Y-3.96367
G01 X79.59804 Y-4.03103
G01 X87.60699 Y-12.03996
G01 X88.02433 Y-12.03996
G01 X88.08537 Y-11.92886
G01 X88.20239 Y-11.78397
G01 X88.24399 Y-11.74239
G01 X88.36520 Y-11.64290
G01 X88.41412 Y-11.61024
G01 X88.57905 Y-11.52373
G01 X88.75682 Y-11.46828
G01 X88.81450 Y-11.45680
G01 X89.00000 Y-11.43998
G01 X89.18547 Y-11.45680
G01 X89.24315 Y-11.46828
G01 X89.39322 Y-11.51379
G01 X89.44755 Y-11.53630
G01 X89.58585 Y-11.61024
G01 X89.63477 Y-11.64290
G01 X89.75598 Y-11.74239
G01 X89.79759 Y-11.78397
G01 X89.89708 Y-11.90521
G01 X89.92974 Y-11.95410
G01 X90.01625 Y-12.11903
G01 X90.07170 Y-12.29683
G01 X90.08318 Y-12.35451
G01 X90.09855 Y-12.51059
G01 X90.09855 Y-12.56939
G01 X90.08318 Y-12.72548
G01 X90.07170 Y-12.78311
G01 X90.04343 Y-12.87633
G01 X90.95562 Y-13.78852
G01 X91.00028 Y-13.84064
G01 X91.05143 Y-13.92413
G01 X91.08531 Y-14.01597
G01 X91.09677 Y-14.07366
G01 X91.10208 Y-14.14208
G01 X91.10208 Y-28.44119
G01 X91.09245 Y-28.53873
G01 X91.07394 Y-28.60479
G01 X91.05143 Y-28.65912
G01 X91.01780 Y-28.71897
G01 X90.95562 Y-28.79474
G01 X86.29332 Y-33.45703
G01 X86.20691 Y-33.52439
G01 X86.17715 Y-33.54342
G01 X86.11639 Y-33.57085
G01 X86.04849 Y-33.59000
G01 X85.93978 Y-33.60349
G01 X78.46235 Y-33.60349
G01 X78.40657 Y-33.66917
G01 X78.30899 Y-33.75111
G01 X78.26009 Y-33.78380
G01 X78.14704 Y-33.84258
G01 X77.99695 Y-33.88812
G01 X77.87030 Y-33.90204
G01 X77.81148 Y-33.90204
G01 X77.68481 Y-33.88812
G01 X77.56246 Y-33.85251
G01 X77.50813 Y-33.83001
G01 X77.42169 Y-33.78380
G01 X77.37279 Y-33.75111
G01 X77.29703 Y-33.68893
G01 X77.25542 Y-33.64735
G01 X77.17572 Y-33.54794
G01 X77.11437 Y-33.43626
G01 X77.09187 Y-33.38192
G01 X77.06342 Y-33.28812
G01 X77.05194 Y-33.23044
G01 X77.04234 Y-33.13290
G01 X77.04234 Y-33.07408
G01 X77.05194 Y-32.97654
G01 X77.06342 Y-32.91886
G01 X77.09187 Y-32.82505
G01 X77.11437 Y-32.77072
G01 X77.17572 Y-32.65904
G01 X77.27521 Y-32.53781
G01 X77.37279 Y-32.45584
G01 X77.42169 Y-32.42318
G01 X77.50813 Y-32.37697
G01 X77.56246 Y-32.35447
G01 X77.68481 Y-32.31886
G01 X77.81148 Y-32.30494
G01 X77.87030 Y-32.30494
G01 X77.99695 Y-32.31886
G01 X78.14704 Y-32.36438
G01 X78.26009 Y-32.42318
G01 X78.30899 Y-32.45584
G01 X78.40657 Y-32.53781
G01 X78.46233 Y-32.60347
G01 X85.73267 Y-32.60349
G01 X90.10205 Y-28.23408
G01 X90.10205 Y-14.34917
G01 X89.33632 Y-13.58344
G01 X89.21458 Y-13.61884
G01 X89.02939 Y-13.63856
G01 X88.97059 Y-13.63856
G01 X88.81450 Y-13.62316
G01 X88.75682 Y-13.61171
G01 X88.57905 Y-13.55626
G01 X88.41412 Y-13.46975
G01 X88.36520 Y-13.43706
G01 X88.24399 Y-13.33757
G01 X88.20239 Y-13.29599
G01 X88.08537 Y-13.15110
G01 X88.02433 Y-13.03998
G01 X87.39985 Y-13.03998
G01 X87.31006 Y-13.03175
G01 X87.21636 Y-13.00345
G01 X87.17288 Y-12.98547
G01 X87.13272 Y-12.96088
G01 X87.04631 Y-12.89352
G01 X79.03738 Y-4.88460
G01 X32.82236 Y-4.88460
G01 X25.09998 Y-12.60699
G01 X25.09995 Y-13.02431
G01 X25.18585 Y-13.07023
G01 X25.23477 Y-13.10289
G01 X25.35598 Y-13.20239
G01 X25.39759 Y-13.24399
G01 X25.49708 Y-13.36520
G01 X25.52972 Y-13.41412
G01 X25.61623 Y-13.57904
G01 X25.67170 Y-13.75682
G01 X25.68313 Y-13.81450
G01 X25.69855 Y-13.97058
G01 X25.69855 Y-14.02939
G01 X25.68313 Y-14.18547
G01 X25.67170 Y-14.24315
G01 X25.62616 Y-14.39321
G01 X25.60366 Y-14.44755
G01 X25.52972 Y-14.58587
G01 X25.49708 Y-14.63477
G01 X25.37780 Y-14.77780
G01 X25.23477 Y-14.89707
G01 X25.18585 Y-14.92974
G01 X25.04755 Y-15.00368
G01 X24.99322 Y-15.02618
G01 X24.84316 Y-15.07170
G01 X24.78547 Y-15.08318
G01 X24.59998 Y-15.10000
G01 X24.41451 Y-15.08318
G01 X24.35682 Y-15.07170
G01 X24.17905 Y-15.01625
G01 X24.01410 Y-14.92974
G01 X23.96520 Y-14.89707
G01 X23.82218 Y-14.77780
G01 X23.70290 Y-14.63477
G01 X23.67023 Y-14.58587
G01 X23.59630 Y-14.44755
G01 X23.57379 Y-14.39321
G01 X23.52827 Y-14.24315
G01 X23.51679 Y-14.18547
G01 X23.49998 Y-14.00000
G04 P0 
G00 Z2.00000 M3 ; restart from line 2380

G00 X26.04143 Y-14.02939 
G01 F30.00000

G01 Z-0.07500
G04 P0 
G01 F40.00000
G01 X26.04143 Y-14.02939
G01 X26.04143 Y-13.97058
G01 X26.05677 Y-13.81450
G01 X26.06827 Y-13.75682
G01 X26.12372 Y-13.57904
G01 X26.21021 Y-13.41412
G01 X26.24290 Y-13.36520
G01 X26.36218 Y-13.22215
G01 X26.50520 Y-13.10289
G01 X26.55410 Y-13.07023
G01 X26.71905 Y-12.98372
G01 X26.89682 Y-12.92824
G01 X26.95451 Y-12.91681
G01 X27.11059 Y-12.90142
G01 X27.16939 Y-12.90142
G01 X27.32547 Y-12.91681
G01 X27.38316 Y-12.92824
G01 X27.47630 Y-12.95654
G01 X35.40171 Y-5.03113
G01 X35.47748 Y-4.96895
G01 X35.53732 Y-4.93532
G01 X35.62916 Y-4.90144
G01 X35.72586 Y-4.88612
G01 X75.19589 Y-4.88714
G01 X75.24280 Y-4.89085
G01 X75.28857 Y-4.90182
G01 X75.39157 Y-4.93918
G01 X75.43173 Y-4.96377
G01 X75.51814 Y-5.03113
G01 X79.98696 Y-9.49996
G01 X80.28000 Y-9.49996
G01 X80.27998 Y-9.19998
G01 X80.28455 Y-9.14789
G01 X80.29809 Y-9.09739
G01 X80.32018 Y-9.04999
G01 X80.35018 Y-9.00714
G01 X80.38714 Y-8.97016
G01 X80.42999 Y-8.94019
G01 X80.47739 Y-8.91809
G01 X80.52788 Y-8.90455
G01 X80.57998 Y-8.89998
G01 X82.18000 Y-8.89998
G01 X82.23852 Y-8.90575
G01 X82.29478 Y-8.92282
G01 X82.34665 Y-8.95055
G01 X82.39211 Y-8.98787
G01 X82.42943 Y-9.03331
G01 X82.45716 Y-9.08517
G01 X82.47423 Y-9.14146
G01 X82.48000 Y-9.19998
G01 X82.48000 Y-10.79998
G01 X82.47423 Y-10.85853
G01 X82.45716 Y-10.91479
G01 X82.42943 Y-10.96665
G01 X82.39211 Y-11.01212
G01 X82.34665 Y-11.04943
G01 X82.29478 Y-11.07714
G01 X82.23852 Y-11.09421
G01 X82.18000 Y-11.09998
G01 X80.57998 Y-11.09998
G01 X80.52145 Y-11.09421
G01 X80.46519 Y-11.07714
G01 X80.41333 Y-11.04943
G01 X80.36786 Y-11.01212
G01 X80.33055 Y-10.96665
G01 X80.30281 Y-10.91479
G01 X80.28574 Y-10.85853
G01 X80.27998 Y-10.79998
G01 X80.27998 Y-10.49995
G01 X79.77988 Y-10.49998
G01 X79.73294 Y-10.49627
G01 X79.62534 Y-10.47549
G01 X79.58186 Y-10.45748
G01 X79.48602 Y-10.40450
G01 X79.45026 Y-10.37399
G01 X74.95753 Y-5.88470
G01 X35.96236 Y-5.88470
G01 X28.18343 Y-13.66363
G01 X28.21170 Y-13.75682
G01 X28.22316 Y-13.81450
G01 X28.23855 Y-13.97058
G01 X28.23855 Y-14.02939
G01 X28.22316 Y-14.18547
G01 X28.21170 Y-14.24315
G01 X28.15626 Y-14.42095
G01 X28.06974 Y-14.58587
G01 X28.03708 Y-14.63477
G01 X27.93759 Y-14.75600
G01 X27.89598 Y-14.79758
G01 X27.77477 Y-14.89707
G01 X27.72585 Y-14.92974
G01 X27.58755 Y-15.00368
G01 X27.53322 Y-15.02618
G01 X27.38316 Y-15.07170
G01 X27.32547 Y-15.08318
G01 X27.13998 Y-15.10000
G01 X26.95451 Y-15.08318
G01 X26.89682 Y-15.07170
G01 X26.74676 Y-15.02618
G01 X26.69243 Y-15.00368
G01 X26.55410 Y-14.92974
G01 X26.50520 Y-14.89707
G01 X26.38400 Y-14.79758
G01 X26.34239 Y-14.75600
G01 X26.24290 Y-14.63477
G01 X26.21021 Y-14.58587
G01 X26.12372 Y-14.42095
G01 X26.06827 Y-14.24315
G01 X26.05677 Y-14.18547
G01 X26.04143 Y-14.02939
G04 P0 
G00 Z2.00000 M3 ; restart from line 2499

G00 X28.58143 Y-14.02939 
G01 F30.00000

G01 Z-0.07500
G04 P0 
G01 F40.00000
G01 X28.58143 Y-14.02939
G01 X28.58143 Y-13.97058
G01 X28.59679 Y-13.81450
G01 X28.60827 Y-13.75682
G01 X28.66372 Y-13.57904
G01 X28.75023 Y-13.41412
G01 X28.78290 Y-13.36520
G01 X28.90218 Y-13.22215
G01 X29.04520 Y-13.10289
G01 X29.09410 Y-13.07023
G01 X29.25905 Y-12.98372
G01 X29.43682 Y-12.92824
G01 X29.49451 Y-12.91681
G01 X29.67998 Y-12.90000
G01 X29.86547 Y-12.91681
G01 X29.92316 Y-12.92824
G01 X30.07322 Y-12.97381
G01 X30.12755 Y-12.99629
G01 X30.26585 Y-13.07023
G01 X30.31477 Y-13.10289
G01 X30.45780 Y-13.22215
G01 X30.57708 Y-13.36520
G01 X30.60974 Y-13.41412
G01 X30.69626 Y-13.57904
G01 X30.75170 Y-13.75682
G01 X30.76316 Y-13.81450
G01 X30.77855 Y-13.97058
G01 X30.77855 Y-14.02939
G01 X30.76316 Y-14.18547
G01 X30.75170 Y-14.24315
G01 X30.69626 Y-14.42095
G01 X30.60974 Y-14.58587
G01 X30.57708 Y-14.63477
G01 X30.45780 Y-14.77780
G01 X30.31477 Y-14.89707
G01 X30.26585 Y-14.92974
G01 X30.12755 Y-15.00368
G01 X30.07322 Y-15.02618
G01 X29.92316 Y-15.07170
G01 X29.86547 Y-15.08318
G01 X29.67998 Y-15.10000
G01 X29.49451 Y-15.08318
G01 X29.43682 Y-15.07170
G01 X29.28676 Y-15.02618
G01 X29.23243 Y-15.00368
G01 X29.09410 Y-14.92974
G01 X29.04520 Y-14.89707
G01 X28.90218 Y-14.77780
G01 X28.78290 Y-14.63477
G01 X28.75023 Y-14.58587
G01 X28.66372 Y-14.42095
G01 X28.60827 Y-14.24315
G01 X28.59679 Y-14.18547
G01 X28.58143 Y-14.02939
G04 P0 
G00 Z2.00000 M3 ; restart from line 2562

G00 X33.66143 Y-14.02939 
G01 F30.00000

G01 Z-0.07500
G04 P0 
G01 F40.00000
G01 X33.66143 Y-14.02939
G01 X33.66143 Y-13.97058
G01 X33.67679 Y-13.81450
G01 X33.68827 Y-13.75682
G01 X33.74372 Y-13.57904
G01 X33.83023 Y-13.41412
G01 X33.86290 Y-13.36520
G01 X33.98218 Y-13.22215
G01 X34.12520 Y-13.10289
G01 X34.17410 Y-13.07023
G01 X34.33905 Y-12.98372
G01 X34.51682 Y-12.92824
G01 X34.57451 Y-12.91681
G01 X34.73059 Y-12.90142
G01 X34.78939 Y-12.90142
G01 X34.94547 Y-12.91681
G01 X35.00316 Y-12.92824
G01 X35.09630 Y-12.95654
G01 X42.02161 Y-6.03120
G01 X42.09092 Y-5.97352
G01 X42.17716 Y-5.92724
G01 X42.22064 Y-5.90923
G01 X42.26644 Y-5.89824
G01 X42.37518 Y-5.88475
G01 X73.43239 Y-5.88721
G01 X73.47930 Y-5.89092
G01 X73.52508 Y-5.90189
G01 X73.62807 Y-5.93926
G01 X73.66823 Y-5.96384
G01 X73.75464 Y-6.03120
G01 X79.76337 Y-12.03998
G01 X80.40434 Y-12.03998
G01 X80.46537 Y-11.92886
G01 X80.58239 Y-11.78397
G01 X80.62399 Y-11.74239
G01 X80.74520 Y-11.64290
G01 X80.79412 Y-11.61024
G01 X80.93243 Y-11.53630
G01 X80.98676 Y-11.51379
G01 X81.13682 Y-11.46828
G01 X81.19450 Y-11.45680
G01 X81.38000 Y-11.43998
G01 X81.56547 Y-11.45680
G01 X81.62315 Y-11.46828
G01 X81.77322 Y-11.51379
G01 X81.82755 Y-11.53630
G01 X81.96585 Y-11.61024
G01 X82.01477 Y-11.64290
G01 X82.13598 Y-11.74239
G01 X82.17759 Y-11.78397
G01 X82.29460 Y-11.92886
G01 X82.39625 Y-12.11903
G01 X82.45170 Y-12.29683
G01 X82.46318 Y-12.35451
G01 X82.47855 Y-12.51059
G01 X82.47855 Y-12.56939
G01 X82.46318 Y-12.72548
G01 X82.45170 Y-12.78311
G01 X82.39625 Y-12.96093
G01 X82.29460 Y-13.15110
G01 X82.17759 Y-13.29599
G01 X82.13598 Y-13.33757
G01 X82.01477 Y-13.43706
G01 X81.96585 Y-13.46975
G01 X81.80093 Y-13.55626
G01 X81.62315 Y-13.61171
G01 X81.56547 Y-13.62316
G01 X81.40939 Y-13.63856
G01 X81.35059 Y-13.63856
G01 X81.19450 Y-13.62316
G01 X81.13682 Y-13.61171
G01 X80.98676 Y-13.56617
G01 X80.93243 Y-13.54366
G01 X80.79412 Y-13.46975
G01 X80.74520 Y-13.43706
G01 X80.60218 Y-13.31780
G01 X80.46537 Y-13.15110
G01 X80.40434 Y-13.03998
G01 X79.55625 Y-13.03998
G01 X79.44754 Y-13.02649
G01 X79.40175 Y-13.01549
G01 X79.30251 Y-12.96904
G01 X79.26240 Y-12.94450
G01 X79.22664 Y-12.91397
G01 X73.19404 Y-6.88475
G01 X42.58226 Y-6.88475
G01 X35.80343 Y-13.66363
G01 X35.83170 Y-13.75682
G01 X35.84316 Y-13.81450
G01 X35.85855 Y-13.97058
G01 X35.85855 Y-14.02939
G01 X35.84316 Y-14.18547
G01 X35.83170 Y-14.24315
G01 X35.78616 Y-14.39321
G01 X35.76366 Y-14.44755
G01 X35.68974 Y-14.58587
G01 X35.65708 Y-14.63477
G01 X35.53780 Y-14.77780
G01 X35.39477 Y-14.89707
G01 X35.34585 Y-14.92974
G01 X35.20755 Y-15.00368
G01 X35.15322 Y-15.02618
G01 X35.00316 Y-15.07170
G01 X34.94547 Y-15.08318
G01 X34.75998 Y-15.10000
G01 X34.57451 Y-15.08318
G01 X34.51682 Y-15.07170
G01 X34.36676 Y-15.02618
G01 X34.31243 Y-15.00368
G01 X34.17410 Y-14.92974
G01 X34.12520 Y-14.89707
G01 X33.98218 Y-14.77780
G01 X33.86290 Y-14.63477
G01 X33.83023 Y-14.58587
G01 X33.75630 Y-14.44755
G01 X33.73379 Y-14.39321
G01 X33.68827 Y-14.24315
G01 X33.67679 Y-14.18547
G01 X33.66143 Y-14.02939
G04 P0 
G00 Z2.00000 M3 ; restart from line 2690

G00 X38.74143 Y-14.02939 
G01 F30.00000

G01 Z-0.07500
G04 P0 
G01 F40.00000
G01 X38.74143 Y-14.02939
G01 X38.74143 Y-13.97058
G01 X38.75679 Y-13.81450
G01 X38.76827 Y-13.75682
G01 X38.82372 Y-13.57904
G01 X38.91023 Y-13.41412
G01 X38.94290 Y-13.36520
G01 X39.06218 Y-13.22215
G01 X39.20520 Y-13.10289
G01 X39.25410 Y-13.07023
G01 X39.41905 Y-12.98372
G01 X39.59682 Y-12.92824
G01 X39.65451 Y-12.91681
G01 X39.83998 Y-12.90000
G01 X40.02547 Y-12.91681
G01 X40.08316 Y-12.92824
G01 X40.23322 Y-12.97381
G01 X40.28755 Y-12.99629
G01 X40.42585 Y-13.07023
G01 X40.47477 Y-13.10289
G01 X40.61780 Y-13.22215
G01 X40.73708 Y-13.36520
G01 X40.76974 Y-13.41412
G01 X40.85626 Y-13.57904
G01 X40.91170 Y-13.75682
G01 X40.92316 Y-13.81450
G01 X40.93855 Y-13.97058
G01 X40.93855 Y-14.02939
G01 X40.92316 Y-14.18547
G01 X40.91170 Y-14.24315
G01 X40.85626 Y-14.42095
G01 X40.76974 Y-14.58587
G01 X40.73708 Y-14.63477
G01 X40.61780 Y-14.77780
G01 X40.47477 Y-14.89707
G01 X40.42585 Y-14.92974
G01 X40.28755 Y-15.00368
G01 X40.23322 Y-15.02618
G01 X40.08316 Y-15.07170
G01 X40.02547 Y-15.08318
G01 X39.85306 Y-15.09933
G01 X39.81059 Y-15.09855
G01 X39.65451 Y-15.08318
G01 X39.59682 Y-15.07170
G01 X39.44676 Y-15.02618
G01 X39.39243 Y-15.00368
G01 X39.25410 Y-14.92974
G01 X39.20520 Y-14.89707
G01 X39.06218 Y-14.77780
G01 X38.94290 Y-14.63477
G01 X38.91023 Y-14.58587
G01 X38.82372 Y-14.42095
G01 X38.76827 Y-14.24315
G01 X38.75679 Y-14.18547
G01 X38.74143 Y-14.02939
G04 P0 
G00 Z2.00000 M3 ; restart from line 2754

G00 X41.28143 Y-14.02939 
G01 F30.00000

G01 Z-0.07500
G04 P0 
G01 F40.00000
G01 X41.28143 Y-14.02939
G01 X41.28143 Y-13.97058
G01 X41.29679 Y-13.81450
G01 X41.30827 Y-13.75682
G01 X41.36372 Y-13.57904
G01 X41.45023 Y-13.41412
G01 X41.48290 Y-13.36520
G01 X41.60218 Y-13.22215
G01 X41.74520 Y-13.10289
G01 X41.79410 Y-13.07023
G01 X41.95905 Y-12.98372
G01 X42.13682 Y-12.92824
G01 X42.19451 Y-12.91681
G01 X42.37998 Y-12.90000
G01 X42.56547 Y-12.91681
G01 X42.62316 Y-12.92824
G01 X42.77322 Y-12.97381
G01 X42.82755 Y-12.99629
G01 X42.96585 Y-13.07023
G01 X43.01477 Y-13.10289
G01 X43.15780 Y-13.22215
G01 X43.27708 Y-13.36520
G01 X43.30974 Y-13.41412
G01 X43.39626 Y-13.57904
G01 X43.45170 Y-13.75682
G01 X43.46316 Y-13.81450
G01 X43.47855 Y-13.97058
G01 X43.47855 Y-14.02939
G01 X43.46316 Y-14.18547
G01 X43.45170 Y-14.24315
G01 X43.39626 Y-14.42095
G01 X43.30974 Y-14.58587
G01 X43.27708 Y-14.63477
G01 X43.15780 Y-14.77780
G01 X43.01477 Y-14.89707
G01 X42.96585 Y-14.92974
G01 X42.82755 Y-15.00368
G01 X42.77322 Y-15.02618
G01 X42.62316 Y-15.07170
G01 X42.56547 Y-15.08318
G01 X42.39301 Y-15.09936
G01 X42.35059 Y-15.09855
G01 X42.19451 Y-15.08318
G01 X42.13682 Y-15.07170
G01 X41.98676 Y-15.02618
G01 X41.93243 Y-15.00368
G01 X41.79410 Y-14.92974
G01 X41.74520 Y-14.89707
G01 X41.60218 Y-14.77780
G01 X41.48290 Y-14.63477
G01 X41.45023 Y-14.58587
G01 X41.36372 Y-14.42095
G01 X41.30827 Y-14.24315
G01 X41.29679 Y-14.18547
G01 X41.28143 Y-14.02939
G04 P0 
G00 Z2.00000 M3 ; restart from line 2818

G00 X43.82143 Y-14.02939 
G01 F30.00000

G01 Z-0.07500
G04 P0 
G01 F40.00000
G01 X43.82143 Y-14.02939
G01 X43.82143 Y-13.97058
G01 X43.83679 Y-13.81450
G01 X43.84827 Y-13.75682
G01 X43.90372 Y-13.57904
G01 X43.99023 Y-13.41412
G01 X44.02290 Y-13.36520
G01 X44.14218 Y-13.22215
G01 X44.28520 Y-13.10289
G01 X44.33410 Y-13.07023
G01 X44.49905 Y-12.98372
G01 X44.67682 Y-12.92824
G01 X44.73451 Y-12.91681
G01 X44.91998 Y-12.90000
G01 X45.10547 Y-12.91681
G01 X45.16316 Y-12.92824
G01 X45.31322 Y-12.97381
G01 X45.36755 Y-12.99629
G01 X45.50585 Y-13.07023
G01 X45.55477 Y-13.10289
G01 X45.69780 Y-13.22215
G01 X45.81708 Y-13.36520
G01 X45.84974 Y-13.41412
G01 X45.93626 Y-13.57904
G01 X45.99170 Y-13.75682
G01 X46.00316 Y-13.81450
G01 X46.01855 Y-13.97058
G01 X46.01855 Y-14.02939
G01 X46.00316 Y-14.18547
G01 X45.99170 Y-14.24315
G01 X45.93626 Y-14.42095
G01 X45.84974 Y-14.58587
G01 X45.81708 Y-14.63477
G01 X45.69780 Y-14.77780
G01 X45.55477 Y-14.89707
G01 X45.50585 Y-14.92974
G01 X45.36755 Y-15.00368
G01 X45.31322 Y-15.02618
G01 X45.16316 Y-15.07170
G01 X45.10547 Y-15.08318
G01 X44.93296 Y-15.09936
G01 X44.89059 Y-15.09855
G01 X44.73451 Y-15.08318
G01 X44.67682 Y-15.07170
G01 X44.52676 Y-15.02618
G01 X44.47243 Y-15.00368
G01 X44.33410 Y-14.92974
G01 X44.28520 Y-14.89707
G01 X44.14218 Y-14.77780
G01 X44.02290 Y-14.63477
G01 X43.99023 Y-14.58587
G01 X43.90372 Y-14.42095
G01 X43.84827 Y-14.24315
G01 X43.83679 Y-14.18547
G01 X43.82143 Y-14.02939
G04 P0 
G00 Z2.00000 M3 ; restart from line 2882

G00 X46.36143 Y-14.02939 
G01 F30.00000

G01 Z-0.07500
G04 P0 
G01 F40.00000
G01 X46.36143 Y-14.02939
G01 X46.36143 Y-13.97058
G01 X46.37679 Y-13.81450
G01 X46.38827 Y-13.75682
G01 X46.44372 Y-13.57904
G01 X46.53023 Y-13.41412
G01 X46.56290 Y-13.36520
G01 X46.68218 Y-13.22215
G01 X46.82520 Y-13.10289
G01 X46.87410 Y-13.07023
G01 X47.03905 Y-12.98372
G01 X47.21682 Y-12.92824
G01 X47.27451 Y-12.91681
G01 X47.45998 Y-12.90000
G01 X47.64547 Y-12.91681
G01 X47.70316 Y-12.92824
G01 X47.85322 Y-12.97381
G01 X47.90755 Y-12.99629
G01 X48.04585 Y-13.07023
G01 X48.09477 Y-13.10289
G01 X48.23780 Y-13.22215
G01 X48.35708 Y-13.36520
G01 X48.38974 Y-13.41412
G01 X48.47626 Y-13.57904
G01 X48.53170 Y-13.75682
G01 X48.54316 Y-13.81450
G01 X48.55855 Y-13.97058
G01 X48.55855 Y-14.02939
G01 X48.54316 Y-14.18547
G01 X48.53170 Y-14.24315
G01 X48.47626 Y-14.42095
G01 X48.38974 Y-14.58587
G01 X48.35708 Y-14.63477
G01 X48.23780 Y-14.77780
G01 X48.09477 Y-14.89707
G01 X48.04585 Y-14.92974
G01 X47.90755 Y-15.00368
G01 X47.85322 Y-15.02618
G01 X47.70316 Y-15.07170
G01 X47.64547 Y-15.08318
G01 X47.47290 Y-15.09936
G01 X47.43059 Y-15.09855
G01 X47.27451 Y-15.08318
G01 X47.21682 Y-15.07170
G01 X47.06676 Y-15.02618
G01 X47.01243 Y-15.00368
G01 X46.87410 Y-14.92974
G01 X46.82520 Y-14.89707
G01 X46.68218 Y-14.77780
G01 X46.56290 Y-14.63477
G01 X46.53023 Y-14.58587
G01 X46.44372 Y-14.42095
G01 X46.38827 Y-14.24315
G01 X46.37679 Y-14.18547
G01 X46.36143 Y-14.02939
G04 P0 
G00 Z2.00000 M3 ; restart from line 2946

G00 X48.90143 Y-14.02939 
G01 F30.00000

G01 Z-0.07500
G04 P0 
G01 F40.00000
G01 X48.90143 Y-14.02939
G01 X48.90143 Y-13.97058
G01 X48.91679 Y-13.81450
G01 X48.92827 Y-13.75682
G01 X48.98372 Y-13.57904
G01 X49.07023 Y-13.41412
G01 X49.10290 Y-13.36520
G01 X49.22218 Y-13.22215
G01 X49.36520 Y-13.10289
G01 X49.41410 Y-13.07023
G01 X49.57905 Y-12.98372
G01 X49.75682 Y-12.92824
G01 X49.81451 Y-12.91681
G01 X49.99998 Y-12.90000
G01 X50.18547 Y-12.91681
G01 X50.24316 Y-12.92824
G01 X50.39322 Y-12.97381
G01 X50.44755 Y-12.99629
G01 X50.58585 Y-13.07023
G01 X50.63477 Y-13.10289
G01 X50.77780 Y-13.22215
G01 X50.91460 Y-13.38885
G01 X51.01626 Y-13.57904
G01 X51.07170 Y-13.75682
G01 X51.08316 Y-13.81450
G01 X51.09853 Y-13.97058
G01 X51.09853 Y-14.02939
G01 X51.08316 Y-14.18547
G01 X51.07170 Y-14.24315
G01 X51.01626 Y-14.42095
G01 X50.91460 Y-14.61112
G01 X50.77780 Y-14.77780
G01 X50.63477 Y-14.89707
G01 X50.58585 Y-14.92974
G01 X50.44755 Y-15.00368
G01 X50.39322 Y-15.02618
G01 X50.24316 Y-15.07170
G01 X50.18547 Y-15.08318
G01 X50.01285 Y-15.09936
G01 X49.97059 Y-15.09855
G01 X49.81451 Y-15.08318
G01 X49.75682 Y-15.07170
G01 X49.60676 Y-15.02618
G01 X49.55243 Y-15.00368
G01 X49.41410 Y-14.92974
G01 X49.36520 Y-14.89707
G01 X49.22218 Y-14.77780
G01 X49.10290 Y-14.63477
G01 X49.07023 Y-14.58587
G01 X48.98372 Y-14.42095
G01 X48.92827 Y-14.24315
G01 X48.91679 Y-14.18547
G01 X48.90143 Y-14.02939
G04 P0 
G00 Z2.00000 M3 ; restart from line 3008

G00 X36.77943 Y-21.26028 
G01 F30.00000

G01 Z-0.07500
G04 P0 
G01 F40.00000
G01 X36.77943 Y-21.26028
G01 X36.77943 Y-21.20148
G01 X36.79335 Y-21.07481
G01 X36.82896 Y-20.95246
G01 X36.85146 Y-20.89813
G01 X36.89767 Y-20.81169
G01 X36.93036 Y-20.76277
G01 X36.99253 Y-20.68700
G01 X37.03411 Y-20.64542
G01 X37.10988 Y-20.58325
G01 X37.15878 Y-20.55058
G01 X37.24524 Y-20.50438
G01 X37.29957 Y-20.48187
G01 X37.39335 Y-20.45340
G01 X37.45103 Y-20.44195
G01 X37.54859 Y-20.43234
G01 X37.60739 Y-20.43234
G01 X37.66525 Y-20.43803
G01 X37.72459 Y-20.39074
G01 X37.81102 Y-20.34454
G01 X37.87628 Y-20.32323
G01 X37.97297 Y-20.30791
G01 X51.76627 Y-20.30646
G01 X62.42632 Y-9.64641
G01 X62.46211 Y-9.61583
G01 X62.55288 Y-9.55446
G01 X62.59637 Y-9.53646
G01 X62.69007 Y-9.50819
G01 X62.77986 Y-9.49996
G01 X63.27999 Y-9.49996
G01 X63.27999 Y-9.19998
G01 X63.28575 Y-9.14146
G01 X63.30282 Y-9.08517
G01 X63.33056 Y-9.03331
G01 X63.37427 Y-8.98258
G01 X63.55784 Y-8.90217
G01 X65.17998 Y-8.89998
G01 X65.19868 Y-8.90184
G01 X65.40701 Y-9.00600
G01 X65.42943 Y-9.03331
G01 X65.45715 Y-9.08517
G01 X65.47422 Y-9.14146
G01 X65.47998 Y-9.19998
G01 X65.47998 Y-10.79998
G01 X65.47422 Y-10.85853
G01 X65.45715 Y-10.91479
G01 X65.42943 Y-10.96665
G01 X65.39212 Y-11.01212
G01 X65.34666 Y-11.04943
G01 X65.29479 Y-11.07714
G01 X65.23850 Y-11.09421
G01 X65.17998 Y-11.09998
G01 X63.57998 Y-11.09998
G01 X63.52789 Y-11.09543
G01 X63.47737 Y-11.08189
G01 X63.43000 Y-11.05979
G01 X63.38715 Y-11.02980
G01 X63.35017 Y-10.99282
G01 X63.32017 Y-10.94999
G01 X63.29807 Y-10.90259
G01 X63.28456 Y-10.85207
G01 X63.27999 Y-10.79998
G01 X63.27999 Y-10.49998
G01 X62.98697 Y-10.49998
G01 X52.32692 Y-21.16003
G01 X52.29113 Y-21.19061
G01 X52.20035 Y-21.25198
G01 X52.15687 Y-21.26999
G01 X52.06317 Y-21.29826
G01 X51.97338 Y-21.30649
G01 X38.37198 Y-21.30649
G01 X38.36261 Y-21.38695
G01 X38.35547 Y-21.41553
G01 X38.32700 Y-21.50930
G01 X38.30450 Y-21.56366
G01 X38.25829 Y-21.65010
G01 X38.22563 Y-21.69899
G01 X38.13348 Y-21.80580
G01 X38.02245 Y-21.89607
G01 X37.91074 Y-21.95741
G01 X37.85641 Y-21.97992
G01 X37.73406 Y-22.01553
G01 X37.60739 Y-22.02945
G01 X37.54859 Y-22.02945
G01 X37.42192 Y-22.01553
G01 X37.29957 Y-21.97992
G01 X37.24524 Y-21.95741
G01 X37.13353 Y-21.89607
G01 X37.01230 Y-21.79658
G01 X36.93036 Y-21.69899
G01 X36.89767 Y-21.65010
G01 X36.83889 Y-21.53704
G01 X36.79335 Y-21.38695
G01 X36.77943 Y-21.26028
G04 P0 
G00 Z2.00000 M3 ; restart from line 3111

G00 X34.05624 Y-22.24359 
G01 F30.00000

G01 Z-0.07500
G04 P0 
G01 F40.00000
G01 X34.05624 Y-22.24359
G01 X34.05624 Y-22.18479
G01 X34.07016 Y-22.05812
G01 X34.11568 Y-21.90803
G01 X34.17448 Y-21.79498
G01 X34.20715 Y-21.74608
G01 X34.28911 Y-21.64850
G01 X34.41032 Y-21.54900
G01 X34.52203 Y-21.48766
G01 X34.57636 Y-21.46516
G01 X34.69871 Y-21.42955
G01 X34.82538 Y-21.41563
G01 X34.88418 Y-21.41563
G01 X35.01085 Y-21.42955
G01 X35.13320 Y-21.46516
G01 X35.18756 Y-21.48766
G01 X35.27400 Y-21.53387
G01 X35.32289 Y-21.56656
G01 X35.42048 Y-21.64850
G01 X35.50242 Y-21.74608
G01 X35.53511 Y-21.79498
G01 X35.59388 Y-21.90803
G01 X35.63262 Y-22.03097
G01 X37.90945 Y-22.03097
G01 X38.47831 Y-21.46211
G01 X38.51410 Y-21.43155
G01 X38.59446 Y-21.37573
G01 X38.65524 Y-21.34829
G01 X38.72314 Y-21.32914
G01 X38.83188 Y-21.31565
G01 X58.37715 Y-21.31565
G01 X62.45027 Y-17.24594
G01 X62.48603 Y-17.21543
G01 X62.52611 Y-17.19087
G01 X62.62535 Y-17.14444
G01 X62.73295 Y-17.12366
G01 X62.77986 Y-17.11996
G01 X63.40434 Y-17.11996
G01 X63.46538 Y-17.00886
G01 X63.60216 Y-16.84218
G01 X63.74521 Y-16.72290
G01 X63.79411 Y-16.69024
G01 X63.95903 Y-16.60373
G01 X64.13683 Y-16.54828
G01 X64.19451 Y-16.53680
G01 X64.35057 Y-16.52143
G01 X64.40940 Y-16.52143
G01 X64.56545 Y-16.53680
G01 X64.62314 Y-16.54828
G01 X64.80094 Y-16.60373
G01 X64.96586 Y-16.69024
G01 X65.01475 Y-16.72290
G01 X65.13599 Y-16.82239
G01 X65.17757 Y-16.86397
G01 X65.27706 Y-16.98521
G01 X65.30975 Y-17.03410
G01 X65.39626 Y-17.19903
G01 X65.45169 Y-17.37683
G01 X65.46317 Y-17.43451
G01 X65.47853 Y-17.59059
G01 X65.47853 Y-17.64939
G01 X65.46317 Y-17.80548
G01 X65.45169 Y-17.86313
G01 X65.39626 Y-18.04093
G01 X65.29461 Y-18.23110
G01 X65.15781 Y-18.39780
G01 X65.01475 Y-18.51706
G01 X64.96586 Y-18.54975
G01 X64.80094 Y-18.63626
G01 X64.62314 Y-18.69171
G01 X64.56545 Y-18.70316
G01 X64.40940 Y-18.71856
G01 X64.35057 Y-18.71856
G01 X64.19451 Y-18.70316
G01 X64.13683 Y-18.69171
G01 X63.98677 Y-18.64617
G01 X63.93241 Y-18.62366
G01 X63.79411 Y-18.54975
G01 X63.74521 Y-18.51706
G01 X63.62398 Y-18.41757
G01 X63.58240 Y-18.37599
G01 X63.46538 Y-18.23110
G01 X63.40432 Y-18.11998
G01 X62.98697 Y-18.11998
G01 X58.93773 Y-22.16922
G01 X58.85132 Y-22.23658
G01 X58.81116 Y-22.26117
G01 X58.70816 Y-22.29853
G01 X58.66242 Y-22.30951
G01 X58.61550 Y-22.31321
G01 X39.03899 Y-22.31565
G01 X38.47013 Y-22.88454
G01 X38.43434 Y-22.91509
G01 X38.35397 Y-22.97092
G01 X38.29319 Y-22.99835
G01 X38.22530 Y-23.01751
G01 X38.11659 Y-23.03099
G01 X35.17158 Y-23.03099
G01 X35.06282 Y-23.01751
G01 X34.99889 Y-22.99973
G01 X34.88418 Y-23.01273
G01 X34.82538 Y-23.01273
G01 X34.69871 Y-22.99881
G01 X34.57636 Y-22.96320
G01 X34.52203 Y-22.94070
G01 X34.41032 Y-22.87935
G01 X34.28911 Y-22.77986
G01 X34.20715 Y-22.68230
G01 X34.17448 Y-22.63338
G01 X34.11568 Y-22.52033
G01 X34.07730 Y-22.39881
G01 X34.06584 Y-22.34113
G01 X34.05624 Y-22.24359
G04 P0 
G00 Z2.00000 M3 ; restart from line 3233

G00 X28.06913 Y-25.28448 
G01 F30.00000

G01 Z-0.07500
G04 P0 
G01 F40.00000
G01 X28.06913 Y-25.28448
G01 X28.06913 Y-25.22568
G01 X28.08305 Y-25.09901
G01 X28.12860 Y-24.94895
G01 X28.18737 Y-24.83589
G01 X28.22006 Y-24.78700
G01 X28.28224 Y-24.71123
G01 X28.32382 Y-24.66962
G01 X28.42323 Y-24.58992
G01 X28.53492 Y-24.52858
G01 X28.58925 Y-24.50607
G01 X28.68305 Y-24.47762
G01 X28.74073 Y-24.46614
G01 X28.83827 Y-24.45654
G01 X28.89710 Y-24.45654
G01 X28.95356 Y-24.46210
G01 X29.23802 Y-24.17762
G01 X29.29014 Y-24.13297
G01 X29.33903 Y-24.10031
G01 X29.40022 Y-24.06924
G01 X29.46547 Y-24.04793
G01 X29.52316 Y-24.03648
G01 X29.59158 Y-24.03117
G01 X38.73787 Y-24.03119
G01 X39.30673 Y-23.46231
G01 X39.35885 Y-23.41766
G01 X39.38250 Y-23.40013
G01 X39.44234 Y-23.36650
G01 X39.49667 Y-23.34400
G01 X39.59187 Y-23.32116
G01 X39.66030 Y-23.31585
G01 X61.37930 Y-23.31679
G01 X61.44557 Y-23.32408
G01 X61.47976 Y-23.33300
G01 X61.58276 Y-23.37036
G01 X61.62291 Y-23.39495
G01 X61.70933 Y-23.46231
G01 X62.98697 Y-24.73996
G01 X63.40434 Y-24.73998
G01 X63.46538 Y-24.62886
G01 X63.60216 Y-24.46218
G01 X63.74521 Y-24.34290
G01 X63.79411 Y-24.31024
G01 X63.95903 Y-24.22373
G01 X64.13683 Y-24.16828
G01 X64.19451 Y-24.15680
G01 X64.37998 Y-24.13998
G01 X64.56545 Y-24.15680
G01 X64.62314 Y-24.16828
G01 X64.77323 Y-24.21379
G01 X64.82756 Y-24.23630
G01 X64.96586 Y-24.31024
G01 X65.01475 Y-24.34290
G01 X65.13599 Y-24.44239
G01 X65.17757 Y-24.48397
G01 X65.29461 Y-24.62886
G01 X65.39626 Y-24.81903
G01 X65.45169 Y-24.99683
G01 X65.46317 Y-25.05451
G01 X65.47853 Y-25.21059
G01 X65.47853 Y-25.26939
G01 X65.45885 Y-25.45458
G01 X65.39626 Y-25.66093
G01 X65.29461 Y-25.85110
G01 X65.15781 Y-26.01780
G01 X65.01475 Y-26.13706
G01 X64.96586 Y-26.16975
G01 X64.80094 Y-26.25626
G01 X64.59459 Y-26.31884
G01 X64.40940 Y-26.33856
G01 X64.35057 Y-26.33856
G01 X64.19451 Y-26.32316
G01 X64.13683 Y-26.31171
G01 X63.95903 Y-26.25626
G01 X63.79411 Y-26.16975
G01 X63.74521 Y-26.13706
G01 X63.60216 Y-26.01780
G01 X63.46538 Y-25.85110
G01 X63.40432 Y-25.73995
G01 X62.77988 Y-25.73998
G01 X62.73295 Y-25.73627
G01 X62.62535 Y-25.71549
G01 X62.58187 Y-25.69748
G01 X62.48613 Y-25.64458
G01 X62.45045 Y-25.61417
G01 X61.14887 Y-24.31588
G01 X39.86738 Y-24.31588
G01 X39.29852 Y-24.88474
G01 X39.24640 Y-24.92939
G01 X39.19751 Y-24.96205
G01 X39.13632 Y-24.99312
G01 X39.07107 Y-25.01443
G01 X38.97437 Y-25.02974
G01 X29.79867 Y-25.03119
G01 X29.66067 Y-25.16919
G01 X29.66623 Y-25.22568
G01 X29.66623 Y-25.28448
G01 X29.65663 Y-25.38204
G01 X29.64515 Y-25.43970
G01 X29.61670 Y-25.53348
G01 X29.59420 Y-25.58786
G01 X29.54800 Y-25.67429
G01 X29.51533 Y-25.72319
G01 X29.45315 Y-25.79893
G01 X29.41155 Y-25.84054
G01 X29.33578 Y-25.90272
G01 X29.28689 Y-25.93541
G01 X29.17383 Y-25.99418
G01 X29.02377 Y-26.03970
G01 X28.89710 Y-26.05362
G01 X28.83827 Y-26.05362
G01 X28.71163 Y-26.03970
G01 X28.56154 Y-25.99418
G01 X28.44848 Y-25.93541
G01 X28.39959 Y-25.90272
G01 X28.30200 Y-25.82078
G01 X28.22006 Y-25.72319
G01 X28.18737 Y-25.67429
G01 X28.12860 Y-25.56124
G01 X28.08305 Y-25.41115
G01 X28.06913 Y-25.28448
G04 P0 
G00 Z2.00000 M3 ; restart from line 3363

G00 X26.04143 Y-29.26939 
G01 F30.00000

G01 Z-0.07500
G04 P0 
G01 F40.00000
G01 X26.04143 Y-29.26939
G01 X26.04143 Y-29.21058
G01 X26.06109 Y-29.02539
G01 X26.11379 Y-28.84675
G01 X26.13630 Y-28.79242
G01 X26.21021 Y-28.65412
G01 X26.24290 Y-28.60520
G01 X26.34239 Y-28.48399
G01 X26.38400 Y-28.44239
G01 X26.50520 Y-28.34292
G01 X26.55410 Y-28.31023
G01 X26.71905 Y-28.22372
G01 X26.89682 Y-28.16827
G01 X26.95451 Y-28.15681
G01 X27.11059 Y-28.14142
G01 X27.16939 Y-28.14142
G01 X27.35458 Y-28.16113
G01 X27.47630 Y-28.19654
G01 X30.49511 Y-25.17772
G01 X30.57088 Y-25.11555
G01 X30.65732 Y-25.06934
G01 X30.72257 Y-25.04803
G01 X30.81927 Y-25.03272
G01 X39.15207 Y-25.03129
G01 X39.72093 Y-24.46241
G01 X39.77305 Y-24.41776
G01 X39.79669 Y-24.40023
G01 X39.85654 Y-24.36660
G01 X39.91087 Y-24.34410
G01 X40.00607 Y-24.32126
G01 X40.07449 Y-24.31595
G01 X59.40958 Y-24.31595
G01 X59.47799 Y-24.32126
G01 X59.57319 Y-24.34410
G01 X59.62752 Y-24.36660
G01 X59.71101 Y-24.41776
G01 X59.76313 Y-24.46241
G01 X60.50722 Y-25.20650
G01 X60.56368 Y-25.20094
G01 X60.62248 Y-25.20094
G01 X60.72005 Y-25.21054
G01 X60.77773 Y-25.22202
G01 X60.87151 Y-25.25047
G01 X60.92584 Y-25.27297
G01 X61.01230 Y-25.31918
G01 X61.06119 Y-25.35184
G01 X61.13696 Y-25.41402
G01 X61.17854 Y-25.45560
G01 X61.25827 Y-25.55504
G01 X61.31961 Y-25.66673
G01 X61.34212 Y-25.72106
G01 X61.37057 Y-25.81483
G01 X61.38205 Y-25.87254
G01 X61.39165 Y-25.97005
G01 X61.39165 Y-26.02888
G01 X61.38205 Y-26.12644
G01 X61.37057 Y-26.18412
G01 X61.34212 Y-26.27793
G01 X61.31961 Y-26.33223
G01 X61.25827 Y-26.44391
G01 X61.15878 Y-26.56517
G01 X61.06119 Y-26.64711
G01 X61.01230 Y-26.67980
G01 X60.89924 Y-26.73858
G01 X60.74915 Y-26.78412
G01 X60.62248 Y-26.79804
G01 X60.56368 Y-26.79804
G01 X60.43701 Y-26.78412
G01 X60.28695 Y-26.73858
G01 X60.17390 Y-26.67980
G01 X60.12497 Y-26.64711
G01 X60.02741 Y-26.56517
G01 X59.92792 Y-26.44391
G01 X59.86658 Y-26.33223
G01 X59.84408 Y-26.27793
G01 X59.81560 Y-26.18412
G01 X59.80415 Y-26.12644
G01 X59.79310 Y-25.99947
G01 X59.80008 Y-25.91356
G01 X59.20247 Y-25.31598
G01 X40.28158 Y-25.31598
G01 X39.71272 Y-25.88484
G01 X39.66060 Y-25.92946
G01 X39.61171 Y-25.96215
G01 X39.52278 Y-26.00315
G01 X39.45672 Y-26.02166
G01 X39.38857 Y-26.02984
G01 X31.05577 Y-26.03127
G01 X28.18343 Y-28.90363
G01 X28.21170 Y-28.99682
G01 X28.22316 Y-29.05450
G01 X28.23855 Y-29.21058
G01 X28.23855 Y-29.26939
G01 X28.21884 Y-29.45458
G01 X28.16616 Y-29.63321
G01 X28.14366 Y-29.68755
G01 X28.06974 Y-29.82587
G01 X28.03708 Y-29.87477
G01 X27.93759 Y-29.99600
G01 X27.89598 Y-30.03758
G01 X27.77477 Y-30.13707
G01 X27.72585 Y-30.16974
G01 X27.58755 Y-30.24368
G01 X27.53322 Y-30.26618
G01 X27.35458 Y-30.31886
G01 X27.16939 Y-30.33855
G01 X27.11059 Y-30.33855
G01 X26.92540 Y-30.31886
G01 X26.74676 Y-30.26618
G01 X26.69243 Y-30.24368
G01 X26.55410 Y-30.16974
G01 X26.50520 Y-30.13707
G01 X26.38400 Y-30.03758
G01 X26.34239 Y-29.99600
G01 X26.24290 Y-29.87477
G01 X26.21021 Y-29.82587
G01 X26.13630 Y-29.68755
G01 X26.11379 Y-29.63321
G01 X26.06827 Y-29.48315
G01 X26.05677 Y-29.42547
G01 X26.04143 Y-29.26939
G04 P0 
G00 Z2.00000 M3 ; restart from line 3493

G00 X28.58143 Y-29.26939 
G01 F30.00000

G01 Z-0.07500
G04 P0 
G01 F40.00000
G01 X28.58143 Y-29.26939
G01 X28.58143 Y-29.21058
G01 X28.60111 Y-29.02539
G01 X28.65379 Y-28.84675
G01 X28.67630 Y-28.79242
G01 X28.75023 Y-28.65412
G01 X28.78290 Y-28.60520
G01 X28.90218 Y-28.46217
G01 X29.04520 Y-28.34292
G01 X29.09410 Y-28.31023
G01 X29.25905 Y-28.22372
G01 X29.43682 Y-28.16827
G01 X29.49451 Y-28.15681
G01 X29.65059 Y-28.14142
G01 X29.70939 Y-28.14142
G01 X29.89458 Y-28.16113
G01 X30.07322 Y-28.21381
G01 X30.12755 Y-28.23632
G01 X30.26585 Y-28.31023
G01 X30.31477 Y-28.34292
G01 X30.45780 Y-28.46217
G01 X30.57708 Y-28.60520
G01 X30.60974 Y-28.65412
G01 X30.69626 Y-28.81904
G01 X30.75170 Y-28.99682
G01 X30.76316 Y-29.05450
G01 X30.77855 Y-29.21058
G01 X30.77855 Y-29.26939
G01 X30.75884 Y-29.45458
G01 X30.70616 Y-29.63321
G01 X30.68366 Y-29.68755
G01 X30.60974 Y-29.82587
G01 X30.57708 Y-29.87477
G01 X30.45780 Y-30.01780
G01 X30.31477 Y-30.13707
G01 X30.26585 Y-30.16974
G01 X30.12755 Y-30.24368
G01 X30.07322 Y-30.26618
G01 X29.89458 Y-30.31886
G01 X29.70939 Y-30.33855
G01 X29.65059 Y-30.33855
G01 X29.46540 Y-30.31886
G01 X29.28676 Y-30.26618
G01 X29.23243 Y-30.24368
G01 X29.09410 Y-30.16974
G01 X29.04520 Y-30.13707
G01 X28.90218 Y-30.01780
G01 X28.78290 Y-29.87477
G01 X28.75023 Y-29.82587
G01 X28.67630 Y-29.68755
G01 X28.65379 Y-29.63321
G01 X28.60111 Y-29.45458
G01 X28.58143 Y-29.26939
G04 P0 
G00 Z2.00000 M3 ; restart from line 3555

G00 X31.12143 Y-29.26939 
G01 F30.00000

G01 Z-0.07500
G04 P0 
G01 F40.00000
G01 X31.12143 Y-29.26939
G01 X31.12143 Y-29.21058
G01 X31.14111 Y-29.02539
G01 X31.19379 Y-28.84675
G01 X31.21630 Y-28.79242
G01 X31.29023 Y-28.65412
G01 X31.32290 Y-28.60520
G01 X31.42239 Y-28.48399
G01 X31.46400 Y-28.44239
G01 X31.58520 Y-28.34292
G01 X31.63410 Y-28.31023
G01 X31.79905 Y-28.22372
G01 X31.97682 Y-28.16827
G01 X32.03451 Y-28.15681
G01 X32.19059 Y-28.14142
G01 X32.24939 Y-28.14142
G01 X32.43458 Y-28.16113
G01 X32.55630 Y-28.19654
G01 X34.57501 Y-26.17782
G01 X34.65078 Y-26.11565
G01 X34.71062 Y-26.08202
G01 X34.80247 Y-26.04813
G01 X34.86015 Y-26.03668
G01 X34.92858 Y-26.03134
G01 X39.56627 Y-26.03139
G01 X39.82596 Y-25.77173
G01 X39.87808 Y-25.72708
G01 X39.92697 Y-25.69439
G01 X40.01587 Y-25.65339
G01 X40.05339 Y-25.64201
G01 X40.11107 Y-25.63056
G01 X40.17950 Y-25.62527
G01 X57.30423 Y-25.62527
G01 X57.36001 Y-25.55961
G01 X57.45759 Y-25.47765
G01 X57.50649 Y-25.44498
G01 X57.59293 Y-25.39878
G01 X57.64726 Y-25.37628
G01 X57.76961 Y-25.34067
G01 X57.89628 Y-25.32672
G01 X57.95510 Y-25.32672
G01 X58.08175 Y-25.34067
G01 X58.23184 Y-25.38618
G01 X58.34489 Y-25.44498
G01 X58.39379 Y-25.47765
G01 X58.46956 Y-25.53983
G01 X58.51114 Y-25.58141
G01 X58.59087 Y-25.68082
G01 X58.65221 Y-25.79253
G01 X58.67471 Y-25.84686
G01 X58.70316 Y-25.94064
G01 X58.71464 Y-25.99835
G01 X58.72569 Y-26.12530
G01 X58.71464 Y-26.25225
G01 X58.70316 Y-26.30993
G01 X58.67471 Y-26.40371
G01 X58.65221 Y-26.45804
G01 X58.59087 Y-26.56972
G01 X58.51114 Y-26.66916
G01 X58.46956 Y-26.71074
G01 X58.39379 Y-26.77292
G01 X58.34489 Y-26.80561
G01 X58.23184 Y-26.86439
G01 X58.08175 Y-26.90990
G01 X57.95510 Y-26.92385
G01 X57.89628 Y-26.92385
G01 X57.76961 Y-26.90990
G01 X57.61954 Y-26.86439
G01 X57.50649 Y-26.80561
G01 X57.45759 Y-26.77292
G01 X57.36001 Y-26.69098
G01 X57.30423 Y-26.62530
G01 X40.38658 Y-26.62530
G01 X40.12689 Y-26.88493
G01 X40.07477 Y-26.92959
G01 X39.99131 Y-26.98074
G01 X39.93698 Y-27.00325
G01 X39.89946 Y-27.01463
G01 X39.80277 Y-27.02994
G01 X35.13567 Y-27.03139
G01 X33.26343 Y-28.90363
G01 X33.29170 Y-28.99682
G01 X33.30316 Y-29.05450
G01 X33.31855 Y-29.21058
G01 X33.31855 Y-29.26939
G01 X33.29884 Y-29.45458
G01 X33.24616 Y-29.63321
G01 X33.22366 Y-29.68755
G01 X33.14974 Y-29.82587
G01 X33.11708 Y-29.87477
G01 X33.01759 Y-29.99600
G01 X32.97598 Y-30.03758
G01 X32.85477 Y-30.13707
G01 X32.80585 Y-30.16974
G01 X32.66755 Y-30.24368
G01 X32.61322 Y-30.26618
G01 X32.43458 Y-30.31886
G01 X32.24939 Y-30.33855
G01 X32.19059 Y-30.33855
G01 X32.00540 Y-30.31886
G01 X31.82676 Y-30.26618
G01 X31.77243 Y-30.24368
G01 X31.63410 Y-30.16974
G01 X31.58520 Y-30.13707
G01 X31.44218 Y-30.01780
G01 X31.32290 Y-29.87477
G01 X31.29023 Y-29.82587
G01 X31.21630 Y-29.68755
G01 X31.19379 Y-29.63321
G01 X31.14111 Y-29.45458
G01 X31.12143 Y-29.26939
G04 P0 
G00 Z2.00000 M3 ; restart from line 3675

G00 X33.66143 Y-29.26939 
G01 F30.00000

G01 Z-0.07500
G04 P0 
G01 F40.00000
G01 X33.66143 Y-29.26939
G01 X33.66143 Y-29.21058
G01 X33.68111 Y-29.02539
G01 X33.73379 Y-28.84675
G01 X33.75630 Y-28.79242
G01 X33.83023 Y-28.65412
G01 X33.86290 Y-28.60520
G01 X33.98218 Y-28.46217
G01 X34.12520 Y-28.34292
G01 X34.17410 Y-28.31023
G01 X34.33905 Y-28.22372
G01 X34.51682 Y-28.16827
G01 X34.57451 Y-28.15681
G01 X34.73059 Y-28.14142
G01 X34.78939 Y-28.14142
G01 X34.97458 Y-28.16113
G01 X35.09630 Y-28.19654
G01 X36.07613 Y-27.21877
G01 X36.13008 Y-27.17635
G01 X36.18992 Y-27.14272
G01 X36.28177 Y-27.10884
G01 X36.31032 Y-27.10170
G01 X36.37846 Y-27.09352
G01 X56.34624 Y-27.09207
G01 X56.40200 Y-27.02641
G01 X56.49958 Y-26.94445
G01 X56.54848 Y-26.91178
G01 X56.66153 Y-26.85298
G01 X56.81162 Y-26.80746
G01 X56.93829 Y-26.79352
G01 X56.99709 Y-26.79352
G01 X57.12376 Y-26.80746
G01 X57.27383 Y-26.85298
G01 X57.38688 Y-26.91178
G01 X57.43580 Y-26.94445
G01 X57.53336 Y-27.02641
G01 X57.63285 Y-27.14762
G01 X57.69419 Y-27.25933
G01 X57.71670 Y-27.31366
G01 X57.74517 Y-27.40746
G01 X57.75663 Y-27.46515
G01 X57.76625 Y-27.56268
G01 X57.76625 Y-27.62148
G01 X57.75663 Y-27.71905
G01 X57.74517 Y-27.77673
G01 X57.71670 Y-27.87051
G01 X57.69419 Y-27.92484
G01 X57.63285 Y-28.03655
G01 X57.53336 Y-28.15778
G01 X57.43580 Y-28.23972
G01 X57.38688 Y-28.27241
G01 X57.27383 Y-28.33119
G01 X57.12376 Y-28.37673
G01 X56.99709 Y-28.39065
G01 X56.93829 Y-28.39065
G01 X56.81162 Y-28.37673
G01 X56.66153 Y-28.33119
G01 X56.54848 Y-28.27241
G01 X56.49958 Y-28.23972
G01 X56.40200 Y-28.15778
G01 X56.34622 Y-28.09207
G01 X36.61496 Y-28.09210
G01 X35.80343 Y-28.90363
G01 X35.83170 Y-28.99682
G01 X35.84316 Y-29.05450
G01 X35.85855 Y-29.21058
G01 X35.85855 Y-29.26939
G01 X35.83884 Y-29.45458
G01 X35.78616 Y-29.63321
G01 X35.76366 Y-29.68755
G01 X35.68974 Y-29.82587
G01 X35.65708 Y-29.87477
G01 X35.53780 Y-30.01780
G01 X35.39477 Y-30.13707
G01 X35.34585 Y-30.16974
G01 X35.20755 Y-30.24368
G01 X35.15322 Y-30.26618
G01 X34.97458 Y-30.31886
G01 X34.78939 Y-30.33855
G01 X34.73059 Y-30.33855
G01 X34.54540 Y-30.31886
G01 X34.36676 Y-30.26618
G01 X34.31243 Y-30.24368
G01 X34.17410 Y-30.16974
G01 X34.12520 Y-30.13707
G01 X33.98218 Y-30.01780
G01 X33.86290 Y-29.87477
G01 X33.83023 Y-29.82587
G01 X33.75630 Y-29.68755
G01 X33.73379 Y-29.63321
G01 X33.68111 Y-29.45458
G01 X33.66143 Y-29.26939
G04 P0 
G00 Z2.00000 M3 ; restart from line 3776

G00 X36.20143 Y-29.26939 
G01 F30.00000

G01 Z-0.07500
G04 P0 
G01 F40.00000
G01 X36.20143 Y-29.26939
G01 X36.20143 Y-29.21058
G01 X36.22111 Y-29.02539
G01 X36.27379 Y-28.84675
G01 X36.29630 Y-28.79242
G01 X36.37023 Y-28.65412
G01 X36.40290 Y-28.60520
G01 X36.52218 Y-28.46217
G01 X36.66520 Y-28.34292
G01 X36.71410 Y-28.31023
G01 X36.87905 Y-28.22372
G01 X37.05682 Y-28.16827
G01 X37.11451 Y-28.15681
G01 X37.27059 Y-28.14142
G01 X37.32939 Y-28.14142
G01 X37.51458 Y-28.16113
G01 X37.69322 Y-28.21381
G01 X37.74755 Y-28.23632
G01 X37.88585 Y-28.31023
G01 X37.93477 Y-28.34292
G01 X38.07780 Y-28.46217
G01 X38.19708 Y-28.60520
G01 X38.22974 Y-28.65412
G01 X38.31626 Y-28.81904
G01 X38.37170 Y-28.99682
G01 X38.38316 Y-29.05450
G01 X38.39855 Y-29.21058
G01 X38.39855 Y-29.26939
G01 X38.37884 Y-29.45458
G01 X38.32616 Y-29.63321
G01 X38.30366 Y-29.68755
G01 X38.22974 Y-29.82587
G01 X38.19708 Y-29.87477
G01 X38.07780 Y-30.01780
G01 X37.93477 Y-30.13707
G01 X37.88585 Y-30.16974
G01 X37.74755 Y-30.24368
G01 X37.69322 Y-30.26618
G01 X37.51458 Y-30.31886
G01 X37.32939 Y-30.33855
G01 X37.27059 Y-30.33855
G01 X37.08540 Y-30.31886
G01 X36.90676 Y-30.26618
G01 X36.85243 Y-30.24368
G01 X36.71410 Y-30.16974
G01 X36.66520 Y-30.13707
G01 X36.52218 Y-30.01780
G01 X36.40290 Y-29.87477
G01 X36.37023 Y-29.82587
G01 X36.29630 Y-29.68755
G01 X36.27379 Y-29.63321
G01 X36.22111 Y-29.45458
G01 X36.20143 Y-29.26939
G04 P0 
G00 Z2.00000 M3 ; restart from line 3838

G00 X38.74143 Y-29.26939 
G01 F30.00000

G01 Z-0.07500
G04 P0 
G01 F40.00000
G01 X38.74143 Y-29.26939
G01 X38.74143 Y-29.21058
G01 X38.76111 Y-29.02539
G01 X38.81379 Y-28.84675
G01 X38.83630 Y-28.79242
G01 X38.91023 Y-28.65412
G01 X38.94290 Y-28.60520
G01 X39.04239 Y-28.48399
G01 X39.08400 Y-28.44239
G01 X39.20520 Y-28.34292
G01 X39.25410 Y-28.31023
G01 X39.41905 Y-28.22372
G01 X39.59682 Y-28.16827
G01 X39.65451 Y-28.15681
G01 X39.81059 Y-28.14142
G01 X39.86939 Y-28.14142
G01 X40.02547 Y-28.15681
G01 X40.08316 Y-28.16827
G01 X40.23322 Y-28.21381
G01 X40.28755 Y-28.23632
G01 X40.42585 Y-28.31023
G01 X40.47477 Y-28.34292
G01 X40.59598 Y-28.44239
G01 X40.63759 Y-28.48399
G01 X40.73708 Y-28.60520
G01 X40.76974 Y-28.65412
G01 X40.85626 Y-28.81904
G01 X40.91170 Y-28.99682
G01 X40.92316 Y-29.05450
G01 X40.93855 Y-29.21058
G01 X40.93855 Y-29.26939
G01 X40.91884 Y-29.45458
G01 X40.88343 Y-29.57634
G01 X44.12866 Y-32.82158
G01 X55.06862 Y-32.82158
G01 X55.12440 Y-32.75589
G01 X55.22199 Y-32.67395
G01 X55.27088 Y-32.64129
G01 X55.35732 Y-32.59508
G01 X55.41165 Y-32.57255
G01 X55.53403 Y-32.53697
G01 X55.66067 Y-32.52302
G01 X55.71950 Y-32.52302
G01 X55.84617 Y-32.53697
G01 X55.99623 Y-32.58248
G01 X56.10929 Y-32.64129
G01 X56.15818 Y-32.67395
G01 X56.25577 Y-32.75589
G01 X56.31155 Y-32.82158
G01 X60.95119 Y-32.82158
G01 X66.02125 Y-27.75148
G01 X66.02125 Y-18.01868
G01 X66.02656 Y-17.95026
G01 X66.03802 Y-17.89257
G01 X66.07190 Y-17.80073
G01 X66.09039 Y-17.76613
G01 X66.12306 Y-17.71724
G01 X66.16771 Y-17.66512
G01 X70.95653 Y-12.87630
G01 X70.92828 Y-12.78311
G01 X70.91680 Y-12.72548
G01 X70.90143 Y-12.56939
G01 X70.90143 Y-12.51059
G01 X70.91680 Y-12.35451
G01 X70.92828 Y-12.29683
G01 X70.98373 Y-12.11903
G01 X71.07024 Y-11.95410
G01 X71.10291 Y-11.90521
G01 X71.20240 Y-11.78397
G01 X71.24398 Y-11.74239
G01 X71.36521 Y-11.64290
G01 X71.41411 Y-11.61024
G01 X71.55241 Y-11.53630
G01 X71.60677 Y-11.51379
G01 X71.75683 Y-11.46828
G01 X71.81451 Y-11.45680
G01 X71.99998 Y-11.43998
G01 X72.18545 Y-11.45680
G01 X72.24314 Y-11.46828
G01 X72.42094 Y-11.52373
G01 X72.58586 Y-11.61024
G01 X72.63475 Y-11.64290
G01 X72.75599 Y-11.74239
G01 X72.79757 Y-11.78397
G01 X72.89706 Y-11.90521
G01 X72.92975 Y-11.95410
G01 X73.00366 Y-12.09243
G01 X73.02617 Y-12.14676
G01 X73.07169 Y-12.29683
G01 X73.08317 Y-12.35451
G01 X73.09853 Y-12.51059
G01 X73.09853 Y-12.56939
G01 X73.08317 Y-12.72548
G01 X73.07169 Y-12.78311
G01 X73.02617 Y-12.93322
G01 X73.00366 Y-12.98755
G01 X72.91461 Y-13.15110
G01 X72.77781 Y-13.31780
G01 X72.63475 Y-13.43706
G01 X72.58586 Y-13.46975
G01 X72.42094 Y-13.55626
G01 X72.21459 Y-13.61884
G01 X72.02940 Y-13.63856
G01 X71.97057 Y-13.63856
G01 X71.78538 Y-13.61884
G01 X71.66361 Y-13.58341
G01 X67.02125 Y-18.22577
G01 X67.02128 Y-27.95859
G01 X67.01597 Y-28.02699
G01 X66.99313 Y-28.12219
G01 X66.95214 Y-28.21112
G01 X66.91948 Y-28.26001
G01 X66.87482 Y-28.31214
G01 X61.51184 Y-33.67514
G01 X61.42543 Y-33.74250
G01 X61.38527 Y-33.76709
G01 X61.34179 Y-33.78510
G01 X61.24809 Y-33.81337
G01 X61.15827 Y-33.82160
G01 X56.31155 Y-33.82160
G01 X56.25577 Y-33.88728
G01 X56.15818 Y-33.96922
G01 X56.10929 Y-34.00189
G01 X56.02285 Y-34.04812
G01 X55.96852 Y-34.07062
G01 X55.84617 Y-34.10621
G01 X55.71950 Y-34.12015
G01 X55.66067 Y-34.12015
G01 X55.53403 Y-34.10621
G01 X55.38394 Y-34.06069
G01 X55.27088 Y-34.00189
G01 X55.22199 Y-33.96922
G01 X55.12440 Y-33.88728
G01 X55.06862 Y-33.82160
G01 X43.92158 Y-33.82160
G01 X43.82402 Y-33.81197
G01 X43.75795 Y-33.79346
G01 X43.70362 Y-33.77095
G01 X43.64378 Y-33.73732
G01 X43.56801 Y-33.67514
G01 X40.17632 Y-30.28343
G01 X40.05458 Y-30.31886
G01 X39.86939 Y-30.33855
G01 X39.81059 Y-30.33855
G01 X39.62540 Y-30.31886
G01 X39.44676 Y-30.26618
G01 X39.39243 Y-30.24368
G01 X39.25410 Y-30.16974
G01 X39.20520 Y-30.13707
G01 X39.08400 Y-30.03758
G01 X39.04239 Y-29.99600
G01 X38.94290 Y-29.87477
G01 X38.91023 Y-29.82587
G01 X38.83630 Y-29.68755
G01 X38.81379 Y-29.63321
G01 X38.76111 Y-29.45458
G01 X38.74143 Y-29.26939
G04 P0 
G00 Z2.00000 M3 ; restart from line 4004

G00 X41.28143 Y-29.26939 
G01 F30.00000

G01 Z-0.07500
G04 P0 
G01 F40.00000
G01 X41.28143 Y-29.26939
G01 X41.28143 Y-29.21058
G01 X41.30111 Y-29.02539
G01 X41.35379 Y-28.84675
G01 X41.37630 Y-28.79242
G01 X41.45023 Y-28.65412
G01 X41.48290 Y-28.60520
G01 X41.60218 Y-28.46217
G01 X41.74520 Y-28.34292
G01 X41.79410 Y-28.31023
G01 X41.95905 Y-28.22372
G01 X42.13682 Y-28.16827
G01 X42.19451 Y-28.15681
G01 X42.35059 Y-28.14142
G01 X42.40939 Y-28.14142
G01 X42.59458 Y-28.16113
G01 X42.77322 Y-28.21381
G01 X42.82755 Y-28.23632
G01 X42.96585 Y-28.31023
G01 X43.01477 Y-28.34292
G01 X43.15780 Y-28.46217
G01 X43.27708 Y-28.60520
G01 X43.30974 Y-28.65412
G01 X43.39626 Y-28.81904
G01 X43.45170 Y-28.99682
G01 X43.46316 Y-29.05450
G01 X43.47855 Y-29.21058
G01 X43.47855 Y-29.26939
G01 X43.45884 Y-29.45458
G01 X43.40616 Y-29.63321
G01 X43.38366 Y-29.68755
G01 X43.30974 Y-29.82587
G01 X43.27708 Y-29.87477
G01 X43.15780 Y-30.01780
G01 X43.01477 Y-30.13707
G01 X42.96585 Y-30.16974
G01 X42.82755 Y-30.24368
G01 X42.77322 Y-30.26618
G01 X42.59458 Y-30.31886
G01 X42.40939 Y-30.33855
G01 X42.35059 Y-30.33855
G01 X42.16540 Y-30.31886
G01 X41.98676 Y-30.26618
G01 X41.93243 Y-30.24368
G01 X41.79410 Y-30.16974
G01 X41.74520 Y-30.13707
G01 X41.60218 Y-30.01780
G01 X41.48290 Y-29.87477
G01 X41.45023 Y-29.82587
G01 X41.37630 Y-29.68755
G01 X41.35379 Y-29.63321
G01 X41.30111 Y-29.45458
G01 X41.28143 Y-29.26939
G04 P0 
G00 Z2.00000 M3 ; restart from line 4066

G00 X43.82143 Y-29.26939 
G01 F30.00000

G01 Z-0.07500
G04 P0 
G01 F40.00000
G01 X43.82143 Y-29.26939
G01 X43.82143 Y-29.21058
G01 X43.84111 Y-29.02539
G01 X43.89379 Y-28.84675
G01 X43.91630 Y-28.79242
G01 X43.99023 Y-28.65412
G01 X44.02290 Y-28.60520
G01 X44.14218 Y-28.46217
G01 X44.28520 Y-28.34292
G01 X44.33410 Y-28.31023
G01 X44.49905 Y-28.22372
G01 X44.67682 Y-28.16827
G01 X44.73451 Y-28.15681
G01 X44.89059 Y-28.14142
G01 X44.94939 Y-28.14142
G01 X45.13458 Y-28.16113
G01 X45.31322 Y-28.21381
G01 X45.36755 Y-28.23632
G01 X45.50585 Y-28.31023
G01 X45.55477 Y-28.34292
G01 X45.69780 Y-28.46217
G01 X45.81708 Y-28.60520
G01 X45.84974 Y-28.65412
G01 X45.93626 Y-28.81904
G01 X45.99170 Y-28.99682
G01 X46.00316 Y-29.05450
G01 X46.01855 Y-29.21058
G01 X46.01855 Y-29.26939
G01 X45.99884 Y-29.45458
G01 X45.94616 Y-29.63321
G01 X45.92366 Y-29.68755
G01 X45.84974 Y-29.82587
G01 X45.81708 Y-29.87477
G01 X45.69780 Y-30.01780
G01 X45.55477 Y-30.13707
G01 X45.50585 Y-30.16974
G01 X45.36755 Y-30.24368
G01 X45.31322 Y-30.26618
G01 X45.13458 Y-30.31886
G01 X44.94939 Y-30.33855
G01 X44.89059 Y-30.33855
G01 X44.70540 Y-30.31886
G01 X44.52676 Y-30.26618
G01 X44.47243 Y-30.24368
G01 X44.33410 Y-30.16974
G01 X44.28520 Y-30.13707
G01 X44.14218 Y-30.01780
G01 X44.02290 Y-29.87477
G01 X43.99023 Y-29.82587
G01 X43.91630 Y-29.68755
G01 X43.89379 Y-29.63321
G01 X43.84111 Y-29.45458
G01 X43.82143 Y-29.26939
G04 P0 
G00 Z2.00000 M3 ; restart from line 4128

G00 X46.36143 Y-29.26939 
G01 F30.00000

G01 Z-0.07500
G04 P0 
G01 F40.00000
G01 X46.36143 Y-29.26939
G01 X46.36143 Y-29.21058
G01 X46.38111 Y-29.02539
G01 X46.43379 Y-28.84675
G01 X46.45630 Y-28.79242
G01 X46.53023 Y-28.65412
G01 X46.56290 Y-28.60520
G01 X46.68218 Y-28.46217
G01 X46.82520 Y-28.34292
G01 X46.87410 Y-28.31023
G01 X47.03905 Y-28.22372
G01 X47.21682 Y-28.16827
G01 X47.27451 Y-28.15681
G01 X47.43059 Y-28.14142
G01 X47.48939 Y-28.14142
G01 X47.67458 Y-28.16113
G01 X47.85322 Y-28.21381
G01 X47.90755 Y-28.23632
G01 X48.04585 Y-28.31023
G01 X48.09477 Y-28.34292
G01 X48.23780 Y-28.46217
G01 X48.35708 Y-28.60520
G01 X48.38974 Y-28.65412
G01 X48.47626 Y-28.81904
G01 X48.53170 Y-28.99682
