( pcb2gcode 2.5.0 )
( Software-independent Gcode )

G94 ( Millimeters per minute feed rate. )
G21 ( Units == Millimeters. )

G90 ( Absolute coordinates. )
G00 S600 ( RPM spindle speed. )
G01 F40.00000 ( Feedrate. )


G53 G00 Z0.00000 (Retract to tool change height)
T1
M5      (Spindle stop.)
G04 P1.00000 (Wait for spindle to stop)
(MSG, Change tool bit to mill diameter 0.50000mm)
M0      (Temporary machine stop.)
M3 ( Spindle on clockwise. )
G04 P1.00000 (Wait for spindle to get up to speed)
G04 P0 ( dwell for no time -- G64 should not smooth over this point )
G00 Z2.00000 ( retract )

G00 X0.30000 Y-0.50000 ( rapid move to begin. )
G01 F30.00000
( Mill infeed pass 1/1 )
G01 Z-0.07500
G04 P0 ( dwell for no time -- G64 should not smooth over this point )
G01 F40.00000
G01 X0.30000 Y-0.50000
G01 X0.29484 Y-0.55529
G01 X0.27958 Y-0.60871
G01 X0.25474 Y-0.65842
G01 X0.22118 Y-0.70267
G01 X0.18001 Y-0.73998
G01 X0.13266 Y-0.76906
G01 X0.08080 Y-0.78890
G01 X0.02614 Y-0.79886
G01 X-0.02939 Y-0.79855
G01 X-0.12695 Y-0.78892
G01 X-0.18461 Y-0.77747
G01 X-0.30615 Y-0.73909
G01 X-0.44445 Y-0.66518
G01 X-0.54386 Y-0.58544
G01 X-0.58544 Y-0.54386
G01 X-0.64762 Y-0.46810
G01 X-0.68029 Y-0.41920
G01 X-0.72649 Y-0.33274
G01 X-0.74902 Y-0.27841
G01 X-0.77747 Y-0.18461
G01 X-0.78892 Y-0.12695
G01 X-0.79855 Y-0.02939
G01 X-0.79886 Y0.02614
G01 X-0.78890 Y0.08080
G01 X-0.76906 Y0.13266
G01 X-0.73998 Y0.18001
G01 X-0.70267 Y0.22118
G01 X-0.65842 Y0.25474
G01 X-0.60871 Y0.27958
G01 X-0.55529 Y0.29484
G01 X-0.50000 Y0.30000
G01 X-0.00000 Y0.30000
G01 X0.05852 Y0.29423
G01 X0.11478 Y0.27714
G01 X0.16665 Y0.24943
G01 X0.21212 Y0.21212
G01 X0.24943 Y0.16665
G01 X0.27714 Y0.11478
G01 X0.29423 Y0.05852
G01 X0.30000 Y0.00000
G01 X0.30000 Y-0.50000
G04 P0 ( dwell for no time -- G64 should not smooth over this point )
G00 Z2.00000 ( retract )

G00 X-9.82144 Y-10.02939 ( rapid move to begin. )
G01 F30.00000
( Mill infeed pass 1/1 )
G01 Z-0.07500
G04 P0 ( dwell for no time -- G64 should not smooth over this point )
G01 F40.00000
G01 X-9.82144 Y-10.02939
G01 X-9.84113 Y-10.21458
G01 X-9.90371 Y-10.42093
G01 X-10.00536 Y-10.61110
G01 X-10.12241 Y-10.75599
G01 X-10.16399 Y-10.79757
G01 X-10.28522 Y-10.89706
G01 X-10.33412 Y-10.92975
G01 X-10.47242 Y-11.00366
G01 X-10.52675 Y-11.02617
G01 X-10.67684 Y-11.07171
G01 X-10.73452 Y-11.08316
G01 X-10.89058 Y-11.09856
G01 X-10.94938 Y-11.09856
G01 X-11.10546 Y-11.08316
G01 X-11.16315 Y-11.07171
G01 X-11.31321 Y-11.02617
G01 X-11.36754 Y-11.00366
G01 X-11.53112 Y-10.91461
G01 X-11.67600 Y-10.79757
G01 X-11.71758 Y-10.75599
G01 X-11.83460 Y-10.61110
G01 X-11.89566 Y-10.49995
G01 X-12.54948 Y-10.49853
G01 X-12.61763 Y-10.49035
G01 X-12.68369 Y-10.47184
G01 X-12.71140 Y-10.46190
G01 X-12.77259 Y-10.43084
G01 X-12.82151 Y-10.39818
G01 X-12.87361 Y-10.35352
G01 X-18.38028 Y-4.84688
G01 X-81.53969 Y-4.84688
G01 X-87.07023 Y-10.37397
G01 X-87.10600 Y-10.40450
G01 X-87.14610 Y-10.42906
G01 X-87.24534 Y-10.47549
G01 X-87.35294 Y-10.49627
G01 X-87.39985 Y-10.49998
G01 X-88.02433 Y-10.49995
G01 X-88.08537 Y-10.61110
G01 X-88.20239 Y-10.75599
G01 X-88.24399 Y-10.79757
G01 X-88.36520 Y-10.89706
G01 X-88.41412 Y-10.92975
G01 X-88.55243 Y-11.00366
G01 X-88.60676 Y-11.02617
G01 X-88.75682 Y-11.07171
G01 X-88.81450 Y-11.08316
G01 X-89.00000 Y-11.09998
G01 X-89.18547 Y-11.08316
G01 X-89.24315 Y-11.07171
G01 X-89.42093 Y-11.01626
G01 X-89.58585 Y-10.92975
G01 X-89.63477 Y-10.89706
G01 X-89.75598 Y-10.79757
G01 X-89.79759 Y-10.75599
G01 X-89.91460 Y-10.61110
G01 X-90.01625 Y-10.42093
G01 X-90.07170 Y-10.24313
G01 X-90.08318 Y-10.18548
G01 X-90.09855 Y-10.02939
G01 X-90.09855 Y-9.97059
G01 X-90.08318 Y-9.81451
G01 X-90.07170 Y-9.75683
G01 X-90.01625 Y-9.57903
G01 X-89.91460 Y-9.38886
G01 X-89.79759 Y-9.24397
G01 X-89.75598 Y-9.20239
G01 X-89.63477 Y-9.10290
G01 X-89.58585 Y-9.07024
G01 X-89.44755 Y-8.99630
G01 X-89.39322 Y-8.97379
G01 X-89.24315 Y-8.92828
G01 X-89.18547 Y-8.91680
G01 X-89.00000 Y-8.89998
G01 X-88.81450 Y-8.91680
G01 X-88.75682 Y-8.92828
G01 X-88.57905 Y-8.98373
G01 X-88.41412 Y-9.07024
G01 X-88.36520 Y-9.10290
G01 X-88.24399 Y-9.20239
G01 X-88.20239 Y-9.24397
G01 X-88.08537 Y-9.38886
G01 X-88.02433 Y-9.49996
G01 X-87.60696 Y-9.49996
G01 X-82.10032 Y-3.99331
G01 X-82.01391 Y-3.92595
G01 X-81.97375 Y-3.90136
G01 X-81.87075 Y-3.86400
G01 X-81.82498 Y-3.85303
G01 X-81.77807 Y-3.84932
G01 X-18.17319 Y-3.84686
G01 X-18.10476 Y-3.85216
G01 X-18.04708 Y-3.86362
G01 X-17.98183 Y-3.88493
G01 X-17.92064 Y-3.91599
G01 X-17.87174 Y-3.94866
G01 X-17.81962 Y-3.99331
G01 X-12.31298 Y-9.49996
G01 X-11.89563 Y-9.49996
G01 X-11.83460 Y-9.38886
G01 X-11.71758 Y-9.24397
G01 X-11.67600 Y-9.20239
G01 X-11.53112 Y-9.08538
G01 X-11.34095 Y-8.98373
G01 X-11.16315 Y-8.92828
G01 X-11.10546 Y-8.91680
G01 X-10.94938 Y-8.90143
G01 X-10.89058 Y-8.90143
G01 X-10.70539 Y-8.92112
G01 X-10.52675 Y-8.97379
G01 X-10.47242 Y-8.99630
G01 X-10.30887 Y-9.08538
G01 X-10.16399 Y-9.20239
G01 X-10.12241 Y-9.24397
G01 X-10.02292 Y-9.36521
G01 X-9.99023 Y-9.41410
G01 X-9.90371 Y-9.57903
G01 X-9.84827 Y-9.75683
G01 X-9.83681 Y-9.81451
G01 X-9.82144 Y-9.97059
G01 X-9.82144 Y-10.02939
G04 P0 ( dwell for no time -- G64 should not smooth over this point )
G00 Z2.00000 ( retract )

G00 X-10.79998 Y-14.00000 ( rapid move to begin. )
G01 F30.00000
( Mill infeed pass 1/1 )
G01 Z-0.07500
G04 P0 ( dwell for no time -- G64 should not smooth over this point )
G01 F40.00000
G01 X-10.79998 Y-14.00000
G01 X-10.81679 Y-14.18547
G01 X-10.82827 Y-14.24315
G01 X-10.87379 Y-14.39321
G01 X-10.89630 Y-14.44755
G01 X-10.98537 Y-14.61112
G01 X-11.12218 Y-14.77780
G01 X-11.26520 Y-14.89707
G01 X-11.31410 Y-14.92974
G01 X-11.47905 Y-15.01625
G01 X-11.65682 Y-15.07170
G01 X-11.71451 Y-15.08318
G01 X-11.88580 Y-15.09928
G01 X-11.92939 Y-15.09855
G01 X-12.08547 Y-15.08318
G01 X-12.14316 Y-15.07170
G01 X-12.32093 Y-15.01625
G01 X-12.48585 Y-14.92974
G01 X-12.53477 Y-14.89707
G01 X-12.67780 Y-14.77780
G01 X-12.81458 Y-14.61112
G01 X-12.90363 Y-14.44755
G01 X-12.92616 Y-14.39321
G01 X-12.97168 Y-14.24315
G01 X-12.98316 Y-14.18547
G01 X-13.00000 Y-14.00000
G01 X-12.98316 Y-13.81450
G01 X-12.97168 Y-13.75682
G01 X-12.92616 Y-13.60675
G01 X-12.90363 Y-13.55242
G01 X-12.81458 Y-13.38885
G01 X-12.67780 Y-13.22215
G01 X-12.53477 Y-13.10289
G01 X-12.48585 Y-13.07023
G01 X-12.32093 Y-12.98372
G01 X-12.14316 Y-12.92824
G01 X-12.08547 Y-12.91681
G01 X-11.89998 Y-12.90000
G01 X-11.71451 Y-12.91681
G01 X-11.65682 Y-12.92824
G01 X-11.47905 Y-12.98372
G01 X-11.31410 Y-13.07023
G01 X-11.26520 Y-13.10289
G01 X-11.12218 Y-13.22215
G01 X-10.98537 Y-13.38885
G01 X-10.89630 Y-13.55242
G01 X-10.87379 Y-13.60675
G01 X-10.82827 Y-13.75682
G01 X-10.81679 Y-13.81450
G01 X-10.79998 Y-14.00000
G04 P0 ( dwell for no time -- G64 should not smooth over this point )
G00 Z2.00000 ( retract )

G00 X-15.87998 Y-14.00000 ( rapid move to begin. )
G01 F30.00000
( Mill infeed pass 1/1 )
G01 Z-0.07500
G04 P0 ( dwell for no time -- G64 should not smooth over this point )
G01 F40.00000
G01 X-15.87998 Y-14.00000
G01 X-15.89679 Y-14.18547
G01 X-15.90827 Y-14.24315
G01 X-15.96372 Y-14.42095
G01 X-16.05023 Y-14.58587
G01 X-16.08290 Y-14.63477
G01 X-16.18239 Y-14.75600
G01 X-16.22400 Y-14.79758
G01 X-16.34520 Y-14.89707
G01 X-16.39410 Y-14.92974
G01 X-16.53243 Y-15.00368
G01 X-16.58676 Y-15.02618
G01 X-16.73682 Y-15.07170
G01 X-16.79451 Y-15.08318
G01 X-16.97998 Y-15.10000
G01 X-17.16547 Y-15.08318
G01 X-17.22316 Y-15.07170
G01 X-17.40093 Y-15.01625
G01 X-17.56585 Y-14.92974
G01 X-17.61477 Y-14.89707
G01 X-17.75780 Y-14.77780
G01 X-17.87708 Y-14.63477
G01 X-17.90974 Y-14.58587
G01 X-17.98366 Y-14.44755
G01 X-18.00616 Y-14.39321
G01 X-18.05170 Y-14.24315
G01 X-18.06316 Y-14.18547
G01 X-18.08000 Y-14.00000
G01 X-18.06316 Y-13.81450
G01 X-18.05170 Y-13.75682
G01 X-18.02343 Y-13.66363
G01 X-20.66846 Y-11.01860
G01 X-20.83684 Y-11.07171
G01 X-20.89452 Y-11.08316
G01 X-21.05058 Y-11.09856
G01 X-21.10938 Y-11.09856
G01 X-21.26546 Y-11.08316
G01 X-21.32315 Y-11.07171
G01 X-21.47321 Y-11.02617
G01 X-21.52754 Y-11.00366
G01 X-21.69112 Y-10.91461
G01 X-21.85779 Y-10.77780
G01 X-21.97707 Y-10.63475
G01 X-22.00973 Y-10.58586
G01 X-22.08367 Y-10.44755
G01 X-22.10618 Y-10.39322
G01 X-22.15170 Y-10.24313
G01 X-22.16318 Y-10.18548
G01 X-22.17999 Y-9.99998
G01 X-22.16318 Y-9.81451
G01 X-22.15170 Y-9.75683
G01 X-22.10618 Y-9.60676
G01 X-22.08367 Y-9.55243
G01 X-22.00973 Y-9.41410
G01 X-21.97707 Y-9.36521
G01 X-21.85779 Y-9.22218
G01 X-21.69112 Y-9.08538
G01 X-21.52754 Y-8.99630
G01 X-21.47321 Y-8.97379
G01 X-21.32315 Y-8.92828
G01 X-21.26546 Y-8.91680
G01 X-21.07999 Y-8.89998
G01 X-20.89452 Y-8.91680
G01 X-20.83684 Y-8.92828
G01 X-20.68675 Y-8.97379
G01 X-20.63242 Y-8.99630
G01 X-20.49412 Y-9.07024
G01 X-20.44522 Y-9.10290
G01 X-20.32399 Y-9.20239
G01 X-20.28241 Y-9.24397
G01 X-20.18292 Y-9.36521
G01 X-20.15023 Y-9.41410
G01 X-20.07631 Y-9.55243
G01 X-20.05381 Y-9.60676
G01 X-20.00827 Y-9.75683
G01 X-19.99681 Y-9.81451
G01 X-19.98144 Y-9.97059
G01 X-19.98144 Y-10.02939
G01 X-19.99681 Y-10.18548
G01 X-20.01327 Y-10.25957
G01 X-17.31630 Y-12.95654
G01 X-17.22316 Y-12.92824
G01 X-17.16547 Y-12.91681
G01 X-17.00939 Y-12.90142
G01 X-16.95059 Y-12.90142
G01 X-16.79451 Y-12.91681
G01 X-16.73682 Y-12.92824
G01 X-16.55905 Y-12.98372
G01 X-16.39410 Y-13.07023
G01 X-16.34520 Y-13.10289
G01 X-16.22400 Y-13.20239
G01 X-16.18239 Y-13.24399
G01 X-16.06537 Y-13.38885
G01 X-15.97630 Y-13.55242
G01 X-15.95379 Y-13.60675
G01 X-15.90827 Y-13.75682
G01 X-15.89679 Y-13.81450
G01 X-15.87998 Y-14.00000
G04 P0 ( dwell for no time -- G64 should not smooth over this point )
G00 Z2.00000 ( retract )

G00 X-18.41998 Y-14.00000 ( rapid move to begin. )
G01 F30.00000
( Mill infeed pass 1/1 )
G01 Z-0.07500
G04 P0 ( dwell for no time -- G64 should not smooth over this point )
G01 F40.00000
G01 X-18.41998 Y-14.00000
G01 X-18.43679 Y-14.18547
G01 X-18.44827 Y-14.24315
G01 X-18.50372 Y-14.42095
G01 X-18.59023 Y-14.58587
G01 X-18.62290 Y-14.63477
G01 X-18.74218 Y-14.77780
G01 X-18.88520 Y-14.89707
G01 X-18.93410 Y-14.92974
G01 X-19.09905 Y-15.01625
G01 X-19.27682 Y-15.07170
G01 X-19.33451 Y-15.08318
G01 X-19.51998 Y-15.10000
G01 X-19.70547 Y-15.08318
G01 X-19.76316 Y-15.07170
G01 X-19.94093 Y-15.01625
G01 X-20.10585 Y-14.92974
G01 X-20.15477 Y-14.89707
G01 X-20.29780 Y-14.77780
G01 X-20.41708 Y-14.63477
G01 X-20.44974 Y-14.58587
G01 X-20.53626 Y-14.42095
G01 X-20.59170 Y-14.24315
G01 X-20.60316 Y-14.18547
G01 X-20.62000 Y-14.00000
G01 X-20.60316 Y-13.81450
G01 X-20.59170 Y-13.75682
G01 X-20.53626 Y-13.57904
G01 X-20.44974 Y-13.41412
G01 X-20.41708 Y-13.36520
G01 X-20.29780 Y-13.22215
G01 X-20.15477 Y-13.10289
G01 X-20.10585 Y-13.07023
G01 X-19.94093 Y-12.98372
G01 X-19.76316 Y-12.92824
G01 X-19.70547 Y-12.91681
G01 X-19.51998 Y-12.90000
G01 X-19.33451 Y-12.91681
G01 X-19.27682 Y-12.92824
G01 X-19.09905 Y-12.98372
G01 X-18.93410 Y-13.07023
G01 X-18.88520 Y-13.10289
G01 X-18.74218 Y-13.22215
G01 X-18.62290 Y-13.36520
G01 X-18.59023 Y-13.41412
G01 X-18.50372 Y-13.57904
G01 X-18.44827 Y-13.75682
G01 X-18.43679 Y-13.81450
G01 X-18.41998 Y-14.00000
G04 P0 ( dwell for no time -- G64 should not smooth over this point )
G00 Z2.00000 ( retract )

G00 X-23.49998 Y-14.00000 ( rapid move to begin. )
G01 F30.00000
( Mill infeed pass 1/1 )
G01 Z-0.07500
G04 P0 ( dwell for no time -- G64 should not smooth over this point )
G01 F40.00000
G01 X-23.49998 Y-14.00000
G01 X-23.51679 Y-14.18547
G01 X-23.52827 Y-14.24315
G01 X-23.58372 Y-14.42095
G01 X-23.67023 Y-14.58587
G01 X-23.70290 Y-14.63477
G01 X-23.80239 Y-14.75600
G01 X-23.84400 Y-14.79758
G01 X-23.96520 Y-14.89707
G01 X-24.01410 Y-14.92974
G01 X-24.15243 Y-15.00368
G01 X-24.20676 Y-15.02618
G01 X-24.35682 Y-15.07170
G01 X-24.41451 Y-15.08318
G01 X-24.59998 Y-15.10000
G01 X-24.78547 Y-15.08318
G01 X-24.84316 Y-15.07170
G01 X-25.02093 Y-15.01625
G01 X-25.18585 Y-14.92974
G01 X-25.23477 Y-14.89707
G01 X-25.37780 Y-14.77780
G01 X-25.49708 Y-14.63477
G01 X-25.52972 Y-14.58587
G01 X-25.60366 Y-14.44755
G01 X-25.62616 Y-14.39321
G01 X-25.67170 Y-14.24315
G01 X-25.68313 Y-14.18547
G01 X-25.70000 Y-14.00000
G01 X-25.68313 Y-13.81450
G01 X-25.67170 Y-13.75682
G01 X-25.64343 Y-13.66363
G01 X-33.45828 Y-5.84878
G01 X-80.00159 Y-5.84878
G01 X-87.07023 Y-12.91392
G01 X-87.10600 Y-12.94450
G01 X-87.20186 Y-12.99746
G01 X-87.24534 Y-13.01549
G01 X-87.35294 Y-13.03627
G01 X-87.39985 Y-13.03998
G01 X-88.02433 Y-13.03998
G01 X-88.08537 Y-13.15110
G01 X-88.22218 Y-13.31780
G01 X-88.36520 Y-13.43706
G01 X-88.41412 Y-13.46975
G01 X-88.55243 Y-13.54366
G01 X-88.60676 Y-13.56617
G01 X-88.75682 Y-13.61171
G01 X-88.81450 Y-13.62316
G01 X-88.97059 Y-13.63856
G01 X-89.02939 Y-13.63856
G01 X-89.18547 Y-13.62316
G01 X-89.24315 Y-13.61171
G01 X-89.42093 Y-13.55626
G01 X-89.58585 Y-13.46975
G01 X-89.63477 Y-13.43706
G01 X-89.75598 Y-13.33757
G01 X-89.79759 Y-13.29599
G01 X-89.91460 Y-13.15110
G01 X-90.01625 Y-12.96093
G01 X-90.07170 Y-12.78311
G01 X-90.08318 Y-12.72548
G01 X-90.09855 Y-12.56939
G01 X-90.09855 Y-12.51059
G01 X-90.08318 Y-12.35451
G01 X-90.07170 Y-12.29683
G01 X-90.01625 Y-12.11903
G01 X-89.91460 Y-11.92886
G01 X-89.79759 Y-11.78397
G01 X-89.75598 Y-11.74239
G01 X-89.63477 Y-11.64290
G01 X-89.58585 Y-11.61024
G01 X-89.44755 Y-11.53630
G01 X-89.39322 Y-11.51379
G01 X-89.24315 Y-11.46828
G01 X-89.18547 Y-11.45680
G01 X-89.00000 Y-11.43998
G01 X-88.81450 Y-11.45680
G01 X-88.75682 Y-11.46828
G01 X-88.57905 Y-11.52373
G01 X-88.41412 Y-11.61024
G01 X-88.36520 Y-11.64290
G01 X-88.24399 Y-11.74239
G01 X-88.20239 Y-11.78397
G01 X-88.08537 Y-11.92886
G01 X-88.02433 Y-12.03996
G01 X-87.60696 Y-12.03996
G01 X-80.56222 Y-4.99521
G01 X-80.47581 Y-4.92785
G01 X-80.43565 Y-4.90327
G01 X-80.33266 Y-4.86590
G01 X-80.28689 Y-4.85493
G01 X-80.23997 Y-4.85122
G01 X-33.25119 Y-4.84876
G01 X-33.18276 Y-4.85407
G01 X-33.12508 Y-4.86552
G01 X-33.03323 Y-4.89941
G01 X-32.97339 Y-4.93304
G01 X-32.89762 Y-4.99521
G01 X-24.93630 Y-12.95654
G01 X-24.84316 Y-12.92824
G01 X-24.78547 Y-12.91681
G01 X-24.62939 Y-12.90142
G01 X-24.57059 Y-12.90142
G01 X-24.41451 Y-12.91681
G01 X-24.35682 Y-12.92824
G01 X-24.17905 Y-12.98372
G01 X-24.01410 Y-13.07023
G01 X-23.96520 Y-13.10289
G01 X-23.82218 Y-13.22215
G01 X-23.70290 Y-13.36520
G01 X-23.67023 Y-13.41412
G01 X-23.58372 Y-13.57904
G01 X-23.52827 Y-13.75682
G01 X-23.51679 Y-13.81450
G01 X-23.49998 Y-14.00000
G04 P0 ( dwell for no time -- G64 should not smooth over this point )
G00 Z2.00000 ( retract )

G00 X-26.04143 Y-14.02939 ( rapid move to begin. )
G01 F30.00000
( Mill infeed pass 1/1 )
G01 Z-0.07500
G04 P0 ( dwell for no time -- G64 should not smooth over this point )
G01 F40.00000
G01 X-26.04143 Y-14.02939
G01 X-26.05677 Y-14.18547
G01 X-26.06827 Y-14.24315
G01 X-26.12372 Y-14.42095
G01 X-26.21021 Y-14.58587
G01 X-26.24290 Y-14.63477
G01 X-26.34239 Y-14.75600
G01 X-26.38400 Y-14.79758
G01 X-26.50520 Y-14.89707
G01 X-26.55410 Y-14.92974
G01 X-26.69243 Y-15.00368
G01 X-26.74676 Y-15.02618
G01 X-26.89682 Y-15.07170
G01 X-26.95451 Y-15.08318
G01 X-27.13998 Y-15.10000
G01 X-27.32547 Y-15.08318
G01 X-27.38316 Y-15.07170
G01 X-27.53322 Y-15.02618
G01 X-27.58755 Y-15.00368
G01 X-27.72585 Y-14.92974
G01 X-27.77477 Y-14.89707
G01 X-27.91780 Y-14.77780
G01 X-28.03708 Y-14.63477
G01 X-28.06974 Y-14.58587
G01 X-28.14366 Y-14.44755
G01 X-28.16616 Y-14.39321
G01 X-28.21170 Y-14.24315
G01 X-28.22316 Y-14.18547
G01 X-28.23855 Y-14.02939
G01 X-28.23855 Y-13.97058
G01 X-28.22316 Y-13.81450
G01 X-28.21170 Y-13.75682
G01 X-28.18343 Y-13.66363
G01 X-34.99239 Y-6.85470
G01 X-75.92756 Y-6.85470
G01 X-79.45029 Y-10.37399
G01 X-79.48602 Y-10.40453
G01 X-79.58186 Y-10.45748
G01 X-79.62534 Y-10.47549
G01 X-79.73294 Y-10.49627
G01 X-79.77988 Y-10.49998
G01 X-80.27998 Y-10.49995
G01 X-80.27998 Y-10.79998
G01 X-80.28574 Y-10.85853
G01 X-80.30281 Y-10.91479
G01 X-80.33055 Y-10.96665
G01 X-80.36786 Y-11.01212
G01 X-80.41333 Y-11.04943
G01 X-80.46519 Y-11.07714
G01 X-80.52145 Y-11.09421
G01 X-80.57998 Y-11.09998
G01 X-82.18000 Y-11.09998
G01 X-82.23852 Y-11.09421
G01 X-82.29478 Y-11.07714
G01 X-82.34665 Y-11.04943
G01 X-82.39211 Y-11.01212
G01 X-82.42943 Y-10.96665
G01 X-82.45716 Y-10.91479
G01 X-82.47423 Y-10.85853
G01 X-82.48000 Y-10.79998
G01 X-82.48000 Y-9.19998
G01 X-82.47423 Y-9.14146
G01 X-82.45716 Y-9.08517
G01 X-82.42943 Y-9.03331
G01 X-82.39211 Y-8.98787
G01 X-82.34665 Y-8.95055
G01 X-82.29478 Y-8.92282
G01 X-82.23852 Y-8.90575
G01 X-82.18000 Y-8.89998
G01 X-80.57998 Y-8.89998
G01 X-80.52145 Y-8.90575
G01 X-80.46519 Y-8.92282
G01 X-80.41333 Y-8.95055
G01 X-80.36786 Y-8.98787
G01 X-80.33055 Y-9.03331
G01 X-80.30281 Y-9.08517
G01 X-80.28574 Y-9.14146
G01 X-80.27998 Y-9.19998
G01 X-80.27998 Y-9.49996
G01 X-79.98696 Y-9.49996
G01 X-76.48814 Y-6.00113
G01 X-76.40173 Y-5.93377
G01 X-76.36157 Y-5.90918
G01 X-76.25857 Y-5.87182
G01 X-76.22438 Y-5.86290
G01 X-76.15812 Y-5.85561
G01 X-34.75589 Y-5.85612
G01 X-34.65919 Y-5.87144
G01 X-34.56734 Y-5.90532
G01 X-34.48385 Y-5.95648
G01 X-34.43173 Y-6.00113
G01 X-27.47630 Y-12.95654
G01 X-27.38316 Y-12.92824
G01 X-27.32547 Y-12.91681
G01 X-27.16939 Y-12.90142
G01 X-27.11059 Y-12.90142
G01 X-26.95451 Y-12.91681
G01 X-26.89682 Y-12.92824
G01 X-26.71905 Y-12.98372
G01 X-26.55410 Y-13.07023
G01 X-26.50520 Y-13.10289
G01 X-26.36218 Y-13.22215
G01 X-26.24290 Y-13.36520
G01 X-26.21021 Y-13.41412
G01 X-26.12372 Y-13.57904
G01 X-26.06827 Y-13.75682
G01 X-26.05677 Y-13.81450
G01 X-26.04143 Y-13.97058
G01 X-26.04143 Y-14.02939
G04 P0 ( dwell for no time -- G64 should not smooth over this point )
G00 Z2.00000 ( retract )

G00 X-28.58143 Y-14.02939 ( rapid move to begin. )
G01 F30.00000
( Mill infeed pass 1/1 )
G01 Z-0.07500
G04 P0 ( dwell for no time -- G64 should not smooth over this point )
G01 F40.00000
G01 X-28.58143 Y-14.02939
G01 X-28.59679 Y-14.18547
G01 X-28.60827 Y-14.24315
G01 X-28.65379 Y-14.39321
G01 X-28.67630 Y-14.44755
G01 X-28.75023 Y-14.58587
G01 X-28.78290 Y-14.63477
G01 X-28.90218 Y-14.77780
G01 X-29.04520 Y-14.89707
G01 X-29.09410 Y-14.92974
G01 X-29.23243 Y-15.00368
G01 X-29.28676 Y-15.02618
G01 X-29.43682 Y-15.07170
G01 X-29.49451 Y-15.08318
G01 X-29.67998 Y-15.10000
G01 X-29.86547 Y-15.08318
G01 X-29.92316 Y-15.07170
G01 X-30.07322 Y-15.02618
G01 X-30.12755 Y-15.00368
G01 X-30.26585 Y-14.92974
G01 X-30.31477 Y-14.89707
G01 X-30.45780 Y-14.77780
G01 X-30.57708 Y-14.63477
G01 X-30.60974 Y-14.58587
G01 X-30.68366 Y-14.44755
G01 X-30.70616 Y-14.39321
G01 X-30.75170 Y-14.24315
G01 X-30.76316 Y-14.18547
G01 X-30.77855 Y-14.02939
G01 X-30.77855 Y-13.97058
G01 X-30.76316 Y-13.81450
G01 X-30.75170 Y-13.75682
G01 X-30.72343 Y-13.66363
G01 X-36.51209 Y-7.87497
G01 X-72.92858 Y-7.87497
G01 X-79.27988 Y-14.22629
G01 X-79.27985 Y-15.07995
G01 X-79.28948 Y-15.17752
G01 X-79.31793 Y-15.27132
G01 X-79.34899 Y-15.33251
G01 X-79.40655 Y-15.41170
G01 X-79.42631 Y-15.43352
G01 X-79.47843 Y-15.47818
G01 X-79.52732 Y-15.51084
G01 X-79.58851 Y-15.54190
G01 X-79.65377 Y-15.56321
G01 X-79.71145 Y-15.57467
G01 X-79.77988 Y-15.57998
G01 X-80.40431 Y-15.57995
G01 X-80.46537 Y-15.69110
G01 X-80.60218 Y-15.85780
G01 X-80.74520 Y-15.97706
G01 X-80.79412 Y-16.00975
G01 X-80.93243 Y-16.08366
G01 X-80.98676 Y-16.10617
G01 X-81.13682 Y-16.15171
G01 X-81.19450 Y-16.16316
G01 X-81.38000 Y-16.17998
G01 X-81.56547 Y-16.16316
G01 X-81.62315 Y-16.15171
G01 X-81.80093 Y-16.09626
G01 X-81.96585 Y-16.00975
G01 X-82.01477 Y-15.97706
G01 X-82.13598 Y-15.87757
G01 X-82.17759 Y-15.83599
G01 X-82.29460 Y-15.69110
G01 X-82.39625 Y-15.50093
G01 X-82.45170 Y-15.32313
G01 X-82.46318 Y-15.26548
G01 X-82.47855 Y-15.10939
G01 X-82.47855 Y-15.05059
G01 X-82.46318 Y-14.89451
G01 X-82.45170 Y-14.83683
G01 X-82.40619 Y-14.68676
G01 X-82.38366 Y-14.63243
G01 X-82.30974 Y-14.49410
G01 X-82.27708 Y-14.44521
G01 X-82.15780 Y-14.30218
G01 X-82.01477 Y-14.18290
G01 X-81.96585 Y-14.15024
G01 X-81.80093 Y-14.06373
G01 X-81.62315 Y-14.00828
G01 X-81.56547 Y-13.99680
G01 X-81.40939 Y-13.98143
G01 X-81.35059 Y-13.98143
G01 X-81.19450 Y-13.99680
G01 X-81.13682 Y-14.00828
G01 X-80.95905 Y-14.06373
G01 X-80.79412 Y-14.15024
G01 X-80.74520 Y-14.18290
G01 X-80.60218 Y-14.30218
G01 X-80.46537 Y-14.46886
G01 X-80.40434 Y-14.57996
G01 X-80.27987 Y-14.57998
G01 X-80.27987 Y-14.01920
G01 X-80.27457 Y-13.95077
G01 X-80.26311 Y-13.89309
G01 X-80.22923 Y-13.80124
G01 X-80.17807 Y-13.71775
G01 X-80.13342 Y-13.66563
G01 X-73.48924 Y-7.02142
G01 X-73.41992 Y-6.96374
G01 X-73.33369 Y-6.91746
G01 X-73.29020 Y-6.89945
G01 X-73.24441 Y-6.88845
G01 X-73.13569 Y-6.87497
G01 X-36.30498 Y-6.87497
G01 X-36.23655 Y-6.88028
G01 X-36.17887 Y-6.89173
G01 X-36.11362 Y-6.91304
G01 X-36.08702 Y-6.92561
G01 X-36.00353 Y-6.97677
G01 X-35.95141 Y-7.02142
G01 X-30.01630 Y-12.95654
G01 X-29.92316 Y-12.92824
G01 X-29.86547 Y-12.91681
G01 X-29.70939 Y-12.90142
G01 X-29.67998 Y-12.90000
G01 X-29.60710 Y-12.90569
G01 X-29.49451 Y-12.91681
G01 X-29.43682 Y-12.92824
G01 X-29.25905 Y-12.98372
G01 X-29.09410 Y-13.07023
G01 X-29.04520 Y-13.10289
G01 X-28.90218 Y-13.22215
G01 X-28.78290 Y-13.36520
G01 X-28.75023 Y-13.41412
G01 X-28.66372 Y-13.57904
G01 X-28.60827 Y-13.75682
G01 X-28.59679 Y-13.81450
G01 X-28.58143 Y-13.97058
G01 X-28.58143 Y-14.02939
G04 P0 ( dwell for no time -- G64 should not smooth over this point )
G00 Z2.00000 ( retract )

G00 X-31.12143 Y-14.02939 ( rapid move to begin. )
G01 F30.00000
( Mill infeed pass 1/1 )
G01 Z-0.07500
G04 P0 ( dwell for no time -- G64 should not smooth over this point )
G01 F40.00000
G01 X-31.12143 Y-14.02939
G01 X-31.13679 Y-14.18547
G01 X-31.14827 Y-14.24315
G01 X-31.20372 Y-14.42095
G01 X-31.29023 Y-14.58587
G01 X-31.32290 Y-14.63477
G01 X-31.44218 Y-14.77780
G01 X-31.58520 Y-14.89707
G01 X-31.63410 Y-14.92974
G01 X-31.77243 Y-15.00368
G01 X-31.82676 Y-15.02618
G01 X-31.97682 Y-15.07170
G01 X-32.03451 Y-15.08318
G01 X-32.21998 Y-15.10000
G01 X-32.40547 Y-15.08318
G01 X-32.46316 Y-15.07170
G01 X-32.61322 Y-15.02618
G01 X-32.66755 Y-15.00368
G01 X-32.80585 Y-14.92974
G01 X-32.85477 Y-14.89707
G01 X-32.99780 Y-14.77780
G01 X-33.11708 Y-14.63477
G01 X-33.14974 Y-14.58587
G01 X-33.23626 Y-14.42095
G01 X-33.29170 Y-14.24315
G01 X-33.30316 Y-14.18547
G01 X-33.31855 Y-14.02939
G01 X-33.31855 Y-13.97058
G01 X-33.30316 Y-13.81450
G01 X-33.29170 Y-13.75682
G01 X-33.23626 Y-13.57904
G01 X-33.14974 Y-13.41412
G01 X-33.11708 Y-13.36520
G01 X-32.99780 Y-13.22215
G01 X-32.85477 Y-13.10289
G01 X-32.80585 Y-13.07023
G01 X-32.66755 Y-12.99629
G01 X-32.61322 Y-12.97381
G01 X-32.46316 Y-12.92824
G01 X-32.40547 Y-12.91681
G01 X-32.21998 Y-12.90000
G01 X-32.03451 Y-12.91681
G01 X-31.97682 Y-12.92824
G01 X-31.79905 Y-12.98372
G01 X-31.63410 Y-13.07023
G01 X-31.58520 Y-13.10289
G01 X-31.44218 Y-13.22215
G01 X-31.32290 Y-13.36520
G01 X-31.29023 Y-13.41412
G01 X-31.20372 Y-13.57904
G01 X-31.14827 Y-13.75682
G01 X-31.13679 Y-13.81450
G01 X-31.12143 Y-13.97058
G01 X-31.12143 Y-14.02939
G04 P0 ( dwell for no time -- G64 should not smooth over this point )
G00 Z2.00000 ( retract )

G00 X-33.66143 Y-14.02939 ( rapid move to begin. )
G01 F30.00000
( Mill infeed pass 1/1 )
G01 Z-0.07500
G04 P0 ( dwell for no time -- G64 should not smooth over this point )
G01 F40.00000
G01 X-33.66143 Y-14.02939
G01 X-33.67679 Y-14.18547
G01 X-33.68827 Y-14.24315
G01 X-33.74372 Y-14.42095
G01 X-33.83023 Y-14.58587
G01 X-33.86290 Y-14.63477
G01 X-33.98218 Y-14.77780
G01 X-34.12520 Y-14.89707
G01 X-34.17410 Y-14.92974
G01 X-34.31243 Y-15.00368
G01 X-34.36676 Y-15.02618
G01 X-34.51682 Y-15.07170
G01 X-34.57451 Y-15.08318
G01 X-34.75998 Y-15.10000
G01 X-34.94547 Y-15.08318
G01 X-35.00316 Y-15.07170
G01 X-35.15322 Y-15.02618
G01 X-35.20755 Y-15.00368
G01 X-35.34585 Y-14.92974
G01 X-35.39477 Y-14.89707
G01 X-35.53780 Y-14.77780
G01 X-35.65708 Y-14.63477
G01 X-35.68974 Y-14.58587
G01 X-35.77626 Y-14.42095
G01 X-35.83170 Y-14.24315
G01 X-35.84316 Y-14.18547
G01 X-35.85855 Y-14.02939
G01 X-35.85855 Y-13.97058
G01 X-35.84316 Y-13.81450
G01 X-35.83170 Y-13.75682
G01 X-35.77626 Y-13.57904
G01 X-35.68974 Y-13.41412
G01 X-35.65708 Y-13.36520
G01 X-35.53780 Y-13.22215
G01 X-35.39477 Y-13.10289
G01 X-35.34585 Y-13.07023
G01 X-35.20755 Y-12.99629
G01 X-35.15322 Y-12.97381
G01 X-35.00316 Y-12.92824
G01 X-34.94547 Y-12.91681
G01 X-34.75998 Y-12.90000
G01 X-34.57451 Y-12.91681
G01 X-34.51682 Y-12.92824
G01 X-34.33905 Y-12.98372
G01 X-34.17410 Y-13.07023
G01 X-34.12520 Y-13.10289
G01 X-33.98218 Y-13.22215
G01 X-33.86290 Y-13.36520
G01 X-33.83023 Y-13.41412
G01 X-33.74372 Y-13.57904
G01 X-33.68827 Y-13.75682
G01 X-33.67679 Y-13.81450
G01 X-33.66143 Y-13.97058
G01 X-33.66143 Y-14.02939
G04 P0 ( dwell for no time -- G64 should not smooth over this point )
G00 Z2.00000 ( retract )

G00 X-36.20143 Y-14.02939 ( rapid move to begin. )
G01 F30.00000
( Mill infeed pass 1/1 )
G01 Z-0.07500
G04 P0 ( dwell for no time -- G64 should not smooth over this point )
G01 F40.00000
G01 X-36.20143 Y-14.02939
G01 X-36.21679 Y-14.18547
G01 X-36.22827 Y-14.24315
G01 X-36.28372 Y-14.42095
G01 X-36.37023 Y-14.58587
G01 X-36.40290 Y-14.63477
G01 X-36.52218 Y-14.77780
G01 X-36.66520 Y-14.89707
G01 X-36.71410 Y-14.92974
G01 X-36.85243 Y-15.00368
G01 X-36.90676 Y-15.02618
G01 X-37.05682 Y-15.07170
G01 X-37.11451 Y-15.08318
G01 X-37.29998 Y-15.10000
G01 X-37.48547 Y-15.08318
G01 X-37.54316 Y-15.07170
G01 X-37.69322 Y-15.02618
G01 X-37.74755 Y-15.00368
G01 X-37.88585 Y-14.92974
G01 X-37.93477 Y-14.89707
G01 X-38.07780 Y-14.77780
G01 X-38.19708 Y-14.63477
G01 X-38.22974 Y-14.58587
G01 X-38.31626 Y-14.42095
G01 X-38.37170 Y-14.24315
G01 X-38.38316 Y-14.18547
G01 X-38.39855 Y-14.02939
G01 X-38.39855 Y-13.97058
G01 X-38.38316 Y-13.81450
G01 X-38.37170 Y-13.75682
G01 X-38.31626 Y-13.57904
G01 X-38.22974 Y-13.41412
G01 X-38.19708 Y-13.36520
G01 X-38.07780 Y-13.22215
G01 X-37.93477 Y-13.10289
G01 X-37.88585 Y-13.07023
G01 X-37.74755 Y-12.99629
G01 X-37.69322 Y-12.97381
G01 X-37.54316 Y-12.92824
G01 X-37.48547 Y-12.91681
G01 X-37.29998 Y-12.90000
G01 X-37.11451 Y-12.91681
G01 X-37.05682 Y-12.92824
G01 X-36.87905 Y-12.98372
G01 X-36.71410 Y-13.07023
G01 X-36.66520 Y-13.10289
G01 X-36.52218 Y-13.22215
G01 X-36.40290 Y-13.36520
G01 X-36.37023 Y-13.41412
G01 X-36.28372 Y-13.57904
G01 X-36.22827 Y-13.75682
G01 X-36.21679 Y-13.81450
G01 X-36.20143 Y-13.97058
G01 X-36.20143 Y-14.02939
G04 P0 ( dwell for no time -- G64 should not smooth over this point )
G00 Z2.00000 ( retract )

G00 X-38.74143 Y-14.02939 ( rapid move to begin. )
G01 F30.00000
( Mill infeed pass 1/1 )
G01 Z-0.07500
G04 P0 ( dwell for no time -- G64 should not smooth over this point )
G01 F40.00000
G01 X-38.74143 Y-14.02939
G01 X-38.75679 Y-14.18547
G01 X-38.76827 Y-14.24315
G01 X-38.82372 Y-14.42095
G01 X-38.91023 Y-14.58587
G01 X-38.94290 Y-14.63477
G01 X-39.06218 Y-14.77780
G01 X-39.20520 Y-14.89707
G01 X-39.25410 Y-14.92974
G01 X-39.39243 Y-15.00368
G01 X-39.44676 Y-15.02618
G01 X-39.59682 Y-15.07170
G01 X-39.65451 Y-15.08318
G01 X-39.83998 Y-15.10000
G01 X-40.02547 Y-15.08318
G01 X-40.08316 Y-15.07170
G01 X-40.23322 Y-15.02618
G01 X-40.28755 Y-15.00368
G01 X-40.42585 Y-14.92974
G01 X-40.47477 Y-14.89707
G01 X-40.61780 Y-14.77780
G01 X-40.73708 Y-14.63477
G01 X-40.76974 Y-14.58587
G01 X-40.85626 Y-14.42095
G01 X-40.91170 Y-14.24315
G01 X-40.92316 Y-14.18547
G01 X-40.93855 Y-14.02939
G01 X-40.93855 Y-13.97058
G01 X-40.92316 Y-13.81450
G01 X-40.91170 Y-13.75682
G01 X-40.85626 Y-13.57904
G01 X-40.76974 Y-13.41412
G01 X-40.73708 Y-13.36520
G01 X-40.61780 Y-13.22215
G01 X-40.47477 Y-13.10289
G01 X-40.42585 Y-13.07023
G01 X-40.28755 Y-12.99629
G01 X-40.23322 Y-12.97381
G01 X-40.08316 Y-12.92824
G01 X-40.02547 Y-12.91681
G01 X-39.83998 Y-12.90000
G01 X-39.65451 Y-12.91681
G01 X-39.59682 Y-12.92824
G01 X-39.41905 Y-12.98372
G01 X-39.25410 Y-13.07023
G01 X-39.20520 Y-13.10289
G01 X-39.06218 Y-13.22215
G01 X-38.94290 Y-13.36520
G01 X-38.91023 Y-13.41412
G01 X-38.82372 Y-13.57904
G01 X-38.76827 Y-13.75682
G01 X-38.75679 Y-13.81450
G01 X-38.74143 Y-13.97058
G01 X-38.74143 Y-14.02939
G04 P0 ( dwell for no time -- G64 should not smooth over this point )
G00 Z2.00000 ( retract )

G00 X-41.28143 Y-14.02939 ( rapid move to begin. )
G01 F30.00000
( Mill infeed pass 1/1 )
G01 Z-0.07500
G04 P0 ( dwell for no time -- G64 should not smooth over this point )
G01 F40.00000
G01 X-41.28143 Y-14.02939
G01 X-41.29679 Y-14.18547
G01 X-41.30827 Y-14.24315
G01 X-41.36372 Y-14.42095
G01 X-41.45023 Y-14.58587
G01 X-41.48290 Y-14.63477
G01 X-41.60218 Y-14.77780
G01 X-41.74520 Y-14.89707
G01 X-41.79410 Y-14.92974
G01 X-41.93243 Y-15.00368
G01 X-41.98676 Y-15.02618
G01 X-42.13682 Y-15.07170
G01 X-42.19451 Y-15.08318
G01 X-42.37998 Y-15.10000
G01 X-42.56547 Y-15.08318
G01 X-42.62316 Y-15.07170
G01 X-42.77322 Y-15.02618
G01 X-42.82755 Y-15.00368
G01 X-42.96585 Y-14.92974
G01 X-43.01477 Y-14.89707
G01 X-43.15780 Y-14.77780
G01 X-43.27708 Y-14.63477
G01 X-43.30974 Y-14.58587
G01 X-43.39626 Y-14.42095
G01 X-43.45170 Y-14.24315
G01 X-43.46316 Y-14.18547
G01 X-43.47855 Y-14.02939
G01 X-43.47855 Y-13.97058
G01 X-43.46316 Y-13.81450
G01 X-43.45170 Y-13.75682
G01 X-43.39626 Y-13.57904
G01 X-43.30974 Y-13.41412
G01 X-43.27708 Y-13.36520
G01 X-43.15780 Y-13.22215
G01 X-43.01477 Y-13.10289
G01 X-42.96585 Y-13.07023
G01 X-42.82755 Y-12.99629
G01 X-42.77322 Y-12.97381
G01 X-42.62316 Y-12.92824
G01 X-42.56547 Y-12.91681
G01 X-42.37998 Y-12.90000
G01 X-42.19451 Y-12.91681
G01 X-42.13682 Y-12.92824
G01 X-41.95905 Y-12.98372
G01 X-41.79410 Y-13.07023
G01 X-41.74520 Y-13.10289
G01 X-41.60218 Y-13.22215
G01 X-41.48290 Y-13.36520
G01 X-41.45023 Y-13.41412
G01 X-41.36372 Y-13.57904
G01 X-41.30827 Y-13.75682
G01 X-41.29679 Y-13.81450
G01 X-41.28143 Y-13.97058
G01 X-41.28143 Y-14.02939
G04 P0 ( dwell for no time -- G64 should not smooth over this point )
G00 Z2.00000 ( retract )

G00 X-43.82143 Y-14.02939 ( rapid move to begin. )
G01 F30.00000
( Mill infeed pass 1/1 )
G01 Z-0.07500
G04 P0 ( dwell for no time -- G64 should not smooth over this point )
G01 F40.00000
G01 X-43.82143 Y-14.02939
G01 X-43.83679 Y-14.18547
G01 X-43.84827 Y-14.24315
G01 X-43.90372 Y-14.42095
G01 X-43.99023 Y-14.58587
G01 X-44.02290 Y-14.63477
G01 X-44.14218 Y-14.77780
G01 X-44.28520 Y-14.89707
G01 X-44.33410 Y-14.92974
G01 X-44.47243 Y-15.00368
G01 X-44.52676 Y-15.02618
G01 X-44.67682 Y-15.07170
G01 X-44.73451 Y-15.08318
G01 X-44.91998 Y-15.10000
G01 X-45.10547 Y-15.08318
G01 X-45.16316 Y-15.07170
G01 X-45.31322 Y-15.02618
G01 X-45.36755 Y-15.00368
G01 X-45.50585 Y-14.92974
G01 X-45.55477 Y-14.89707
G01 X-45.69780 Y-14.77780
G01 X-45.81708 Y-14.63477
G01 X-45.84974 Y-14.58587
G01 X-45.93626 Y-14.42095
G01 X-45.99170 Y-14.24315
G01 X-46.00316 Y-14.18547
G01 X-46.01855 Y-14.02939
G01 X-46.01855 Y-13.97058
G01 X-46.00316 Y-13.81450
G01 X-45.99170 Y-13.75682
G01 X-45.93626 Y-13.57904
G01 X-45.84974 Y-13.41412
G01 X-45.81708 Y-13.36520
G01 X-45.69780 Y-13.22215
G01 X-45.55477 Y-13.10289
G01 X-45.50585 Y-13.07023
G01 X-45.36755 Y-12.99629
G01 X-45.31322 Y-12.97381
G01 X-45.16316 Y-12.92824
G01 X-45.10547 Y-12.91681
G01 X-44.91998 Y-12.90000
G01 X-44.73451 Y-12.91681
G01 X-44.67682 Y-12.92824
G01 X-44.49905 Y-12.98372
G01 X-44.33410 Y-13.07023
G01 X-44.28520 Y-13.10289
G01 X-44.14218 Y-13.22215
G01 X-44.02290 Y-13.36520
G01 X-43.99023 Y-13.41412
G01 X-43.90372 Y-13.57904
G01 X-43.84827 Y-13.75682
G01 X-43.83679 Y-13.81450
G01 X-43.82143 Y-13.97058
G01 X-43.82143 Y-14.02939
G04 P0 ( dwell for no time -- G64 should not smooth over this point )
G00 Z2.00000 ( retract )

G00 X-46.36143 Y-14.02939 ( rapid move to begin. )
G01 F30.00000
( Mill infeed pass 1/1 )
G01 Z-0.07500
G04 P0 ( dwell for no time -- G64 should not smooth over this point )
G01 F40.00000
G01 X-46.36143 Y-14.02939
G01 X-46.37679 Y-14.18547
G01 X-46.38827 Y-14.24315
G01 X-46.44372 Y-14.42095
G01 X-46.53023 Y-14.58587
G01 X-46.56290 Y-14.63477
G01 X-46.68218 Y-14.77780
G01 X-46.82520 Y-14.89707
G01 X-46.87410 Y-14.92974
G01 X-47.01243 Y-15.00368
G01 X-47.06676 Y-15.02618
G01 X-47.21682 Y-15.07170
G01 X-47.27451 Y-15.08318
G01 X-47.45998 Y-15.10000
G01 X-47.64547 Y-15.08318
G01 X-47.70316 Y-15.07170
G01 X-47.85322 Y-15.02618
G01 X-47.90755 Y-15.00368
G01 X-48.04585 Y-14.92974
G01 X-48.09477 Y-14.89707
G01 X-48.23780 Y-14.77780
G01 X-48.35708 Y-14.63477
G01 X-48.38974 Y-14.58587
G01 X-48.47626 Y-14.42095
G01 X-48.53170 Y-14.24315
G01 X-48.54316 Y-14.18547
G01 X-48.55855 Y-14.02939
G01 X-48.55855 Y-13.97058
G01 X-48.54316 Y-13.81450
G01 X-48.53170 Y-13.75682
G01 X-48.47626 Y-13.57904
G01 X-48.38974 Y-13.41412
G01 X-48.35708 Y-13.36520
G01 X-48.23780 Y-13.22215
G01 X-48.09477 Y-13.10289
G01 X-48.04585 Y-13.07023
G01 X-47.90755 Y-12.99629
G01 X-47.85322 Y-12.97381
G01 X-47.70316 Y-12.92824
G01 X-47.64547 Y-12.91681
G01 X-47.45998 Y-12.90000
G01 X-47.27451 Y-12.91681
G01 X-47.21682 Y-12.92824
G01 X-47.03905 Y-12.98372
G01 X-46.87410 Y-13.07023
G01 X-46.82520 Y-13.10289
G01 X-46.68218 Y-13.22215
G01 X-46.56290 Y-13.36520
G01 X-46.53023 Y-13.41412
G01 X-46.44372 Y-13.57904
G01 X-46.38827 Y-13.75682
G01 X-46.37679 Y-13.81450
G01 X-46.36143 Y-13.97058
G01 X-46.36143 Y-14.02939
G04 P0 ( dwell for no time -- G64 should not smooth over this point )
G00 Z2.00000 ( retract )

G00 X-48.90143 Y-14.02939 ( rapid move to begin. )
G01 F30.00000
( Mill infeed pass 1/1 )
G01 Z-0.07500
G04 P0 ( dwell for no time -- G64 should not smooth over this point )
G01 F40.00000
G01 X-48.90143 Y-14.02939
G01 X-48.91679 Y-14.18547
G01 X-48.92827 Y-14.24315
G01 X-48.98372 Y-14.42095
G01 X-49.07023 Y-14.58587
G01 X-49.10290 Y-14.63477
G01 X-49.22218 Y-14.77780
G01 X-49.36520 Y-14.89707
G01 X-49.41410 Y-14.92974
G01 X-49.55243 Y-15.00368
G01 X-49.60676 Y-15.02618
G01 X-49.75682 Y-15.07170
G01 X-49.81451 Y-15.08318
G01 X-49.99998 Y-15.10000
G01 X-50.18547 Y-15.08318
G01 X-50.24316 Y-15.07170
G01 X-50.39322 Y-15.02618
G01 X-50.44755 Y-15.00368
G01 X-50.58585 Y-14.92974
G01 X-50.63477 Y-14.89707
G01 X-50.77780 Y-14.77780
G01 X-50.91460 Y-14.61112
G01 X-51.01626 Y-14.42095
G01 X-51.07170 Y-14.24315
G01 X-51.08316 Y-14.18547
G01 X-51.09853 Y-14.02939
G01 X-51.09853 Y-13.97058
G01 X-51.08316 Y-13.81450
G01 X-51.07170 Y-13.75682
G01 X-51.01626 Y-13.57904
G01 X-50.91460 Y-13.38885
G01 X-50.77780 Y-13.22215
G01 X-50.63477 Y-13.10289
G01 X-50.58585 Y-13.07023
G01 X-50.44755 Y-12.99629
G01 X-50.39322 Y-12.97381
G01 X-50.24316 Y-12.92824
G01 X-50.18547 Y-12.91681
G01 X-49.99998 Y-12.90000
G01 X-49.81451 Y-12.91681
G01 X-49.75682 Y-12.92824
G01 X-49.57905 Y-12.98372
G01 X-49.41410 Y-13.07023
G01 X-49.36520 Y-13.10289
G01 X-49.22218 Y-13.22215
G01 X-49.10290 Y-13.36520
G01 X-49.07023 Y-13.41412
G01 X-48.98372 Y-13.57904
G01 X-48.92827 Y-13.75682
G01 X-48.91679 Y-13.81450
G01 X-48.90143 Y-13.97058
G01 X-48.90143 Y-14.02939
G04 P0 ( dwell for no time -- G64 should not smooth over this point )
G00 Z2.00000 ( retract )

G00 X-49.42903 Y-19.13649 ( rapid move to begin. )
G01 F30.00000
( Mill infeed pass 1/1 )
G01 Z-0.07500
G04 P0 ( dwell for no time -- G64 should not smooth over this point )
G01 F40.00000
G01 X-49.42903 Y-19.13649
G01 X-49.44295 Y-19.26316
G01 X-49.48847 Y-19.41325
G01 X-49.54727 Y-19.52630
G01 X-49.57996 Y-19.57520
G01 X-49.64214 Y-19.65096
G01 X-49.68372 Y-19.69254
G01 X-49.78314 Y-19.77227
G01 X-49.89482 Y-19.83362
G01 X-49.94915 Y-19.85612
G01 X-50.04295 Y-19.88457
G01 X-50.10064 Y-19.89602
G01 X-50.19817 Y-19.90565
G01 X-50.25700 Y-19.90565
G01 X-50.38367 Y-19.89171
G01 X-50.50602 Y-19.85612
G01 X-50.56035 Y-19.83362
G01 X-50.67203 Y-19.77227
G01 X-50.79327 Y-19.67278
G01 X-50.84905 Y-19.60707
G01 X-53.89987 Y-19.60707
G01 X-62.44814 Y-28.15328
G01 X-62.47844 Y-28.17818
G01 X-62.56193 Y-28.22933
G01 X-62.65377 Y-28.26321
G01 X-62.71146 Y-28.27467
G01 X-62.77988 Y-28.27998
G01 X-63.40432 Y-28.27995
G01 X-63.46538 Y-28.39110
G01 X-63.58240 Y-28.53599
G01 X-63.62398 Y-28.57757
G01 X-63.74521 Y-28.67706
G01 X-63.79411 Y-28.70975
G01 X-63.95903 Y-28.79626
G01 X-64.13683 Y-28.85171
G01 X-64.19451 Y-28.86316
G01 X-64.35057 Y-28.87856
G01 X-64.40940 Y-28.87856
G01 X-64.59459 Y-28.85884
G01 X-64.80094 Y-28.79626
G01 X-64.96586 Y-28.70975
G01 X-65.01475 Y-28.67706
G01 X-65.15781 Y-28.55780
G01 X-65.29461 Y-28.39110
G01 X-65.38366 Y-28.22755
G01 X-65.40617 Y-28.17322
G01 X-65.45885 Y-27.99458
G01 X-65.47853 Y-27.80939
G01 X-65.47853 Y-27.75059
G01 X-65.46317 Y-27.59451
G01 X-65.45169 Y-27.53683
G01 X-65.42341 Y-27.44363
G01 X-66.38478 Y-26.48019
G01 X-66.42720 Y-26.42626
G01 X-66.46083 Y-26.36642
G01 X-66.49471 Y-26.27457
G01 X-66.50617 Y-26.21689
G01 X-66.51147 Y-26.14849
G01 X-66.51147 Y-12.46777
G01 X-69.02199 Y-9.95728
G01 X-69.21462 Y-9.95728
G01 X-69.27040 Y-10.02297
G01 X-69.29222 Y-10.04275
G01 X-69.36798 Y-10.10493
G01 X-69.41688 Y-10.13760
G01 X-69.52993 Y-10.19640
G01 X-69.65145 Y-10.23475
G01 X-69.70913 Y-10.24623
G01 X-69.80669 Y-10.25583
G01 X-69.86549 Y-10.25583
G01 X-69.96303 Y-10.24623
G01 X-70.02071 Y-10.23475
G01 X-70.11452 Y-10.20630
G01 X-70.16885 Y-10.18380
G01 X-70.25528 Y-10.13760
G01 X-70.30420 Y-10.10493
G01 X-70.40176 Y-10.02297
G01 X-70.48373 Y-9.92538
G01 X-70.51639 Y-9.87649
G01 X-70.56260 Y-9.79005
G01 X-70.58510 Y-9.73572
G01 X-70.61355 Y-9.64192
G01 X-70.62503 Y-9.58423
G01 X-70.63463 Y-9.48670
G01 X-70.63608 Y-9.45728
G01 X-70.62907 Y-9.37138
G01 X-71.10517 Y-8.89526
G01 X-72.51017 Y-8.89528
G01 X-74.94999 Y-11.33508
G01 X-74.94996 Y-21.84999
G01 X-74.95819 Y-21.93978
G01 X-74.98646 Y-22.03348
G01 X-75.00447 Y-22.07697
G01 X-75.02906 Y-22.11713
G01 X-75.09642 Y-22.20354
G01 X-80.33654 Y-27.44363
G01 X-80.30113 Y-27.56538
G01 X-80.28142 Y-27.75059
G01 X-80.28142 Y-27.80939
G01 X-80.30113 Y-27.99458
G01 X-80.35379 Y-28.17322
G01 X-80.37632 Y-28.22755
G01 X-80.45023 Y-28.36586
G01 X-80.48290 Y-28.41475
G01 X-80.60218 Y-28.55780
G01 X-80.74520 Y-28.67706
G01 X-80.79412 Y-28.70975
G01 X-80.95905 Y-28.79626
G01 X-81.13682 Y-28.85171
G01 X-81.19450 Y-28.86316
G01 X-81.35059 Y-28.87856
G01 X-81.40939 Y-28.87856
G01 X-81.56547 Y-28.86316
G01 X-81.62315 Y-28.85171
G01 X-81.80093 Y-28.79626
G01 X-81.96585 Y-28.70975
G01 X-82.01477 Y-28.67706
G01 X-82.13598 Y-28.57757
G01 X-82.17759 Y-28.53599
G01 X-82.27708 Y-28.41475
G01 X-82.30974 Y-28.36586
G01 X-82.38366 Y-28.22755
G01 X-82.40619 Y-28.17322
G01 X-82.45170 Y-28.02313
G01 X-82.46318 Y-27.96548
G01 X-82.47855 Y-27.80939
G01 X-82.47855 Y-27.75059
G01 X-82.46318 Y-27.59451
G01 X-82.45170 Y-27.53683
G01 X-82.39625 Y-27.35903
G01 X-82.30974 Y-27.19410
G01 X-82.27708 Y-27.14521
G01 X-82.15780 Y-27.00218
G01 X-82.01477 Y-26.88290
G01 X-81.96585 Y-26.85024
G01 X-81.82755 Y-26.77630
G01 X-81.77322 Y-26.75379
G01 X-81.59458 Y-26.70112
G01 X-81.40939 Y-26.68143
G01 X-81.35059 Y-26.68143
G01 X-81.16540 Y-26.70112
G01 X-81.04365 Y-26.73655
G01 X-75.94999 Y-21.64288
G01 X-75.94999 Y-11.12797
G01 X-75.94036 Y-11.03043
G01 X-75.92184 Y-10.96437
G01 X-75.89934 Y-10.91004
G01 X-75.86571 Y-10.85019
G01 X-75.80353 Y-10.77443
G01 X-73.07082 Y-8.04172
G01 X-72.98441 Y-7.97436
G01 X-72.94425 Y-7.94977
G01 X-72.84126 Y-7.91240
G01 X-72.80707 Y-7.90349
G01 X-72.71728 Y-7.89526
G01 X-70.89808 Y-7.89526
G01 X-70.85114 Y-7.89897
G01 X-70.75482 Y-7.91632
G01 X-70.66069 Y-7.95533
G01 X-70.58030 Y-8.01113
G01 X-70.54451 Y-8.04172
G01 X-69.92193 Y-8.66430
G01 X-69.83608 Y-8.65729
G01 X-69.70913 Y-8.66833
G01 X-69.65145 Y-8.67981
G01 X-69.52993 Y-8.71819
G01 X-69.41688 Y-8.77697
G01 X-69.36798 Y-8.80966
G01 X-69.27040 Y-8.89160
G01 X-69.21464 Y-8.95728
G01 X-68.81490 Y-8.95726
G01 X-68.74647 Y-8.96257
G01 X-68.65127 Y-8.98540
G01 X-68.56235 Y-9.02640
G01 X-68.51345 Y-9.05906
G01 X-68.46133 Y-9.10372
G01 X-65.65791 Y-11.90711
G01 X-65.59055 Y-11.99352
G01 X-65.55610 Y-12.05507
G01 X-65.53251 Y-12.11743
G01 X-65.52494 Y-12.15194
G01 X-65.51145 Y-12.26068
G01 X-65.51145 Y-25.94138
G01 X-64.71630 Y-26.73652
G01 X-64.59459 Y-26.70112
G01 X-64.40940 Y-26.68143
G01 X-64.35057 Y-26.68143
G01 X-64.16538 Y-26.70112
G01 X-63.98677 Y-26.75379
G01 X-63.93241 Y-26.77630
G01 X-63.79411 Y-26.85024
G01 X-63.74521 Y-26.88290
G01 X-63.62398 Y-26.98239
G01 X-63.58240 Y-27.02397
G01 X-63.46538 Y-27.16886
G01 X-63.40434 Y-27.27996
G01 X-62.98697 Y-27.27998
G01 X-54.46052 Y-18.75353
G01 X-54.40840 Y-18.70888
G01 X-54.32491 Y-18.65772
G01 X-54.23306 Y-18.62384
G01 X-54.17538 Y-18.61238
G01 X-54.10695 Y-18.60707
G01 X-50.84905 Y-18.60710
G01 X-50.79327 Y-18.54139
G01 X-50.69568 Y-18.45945
G01 X-50.64679 Y-18.42679
G01 X-50.56035 Y-18.38058
G01 X-50.50602 Y-18.35805
G01 X-50.38367 Y-18.32247
G01 X-50.25700 Y-18.30852
G01 X-50.19817 Y-18.30852
G01 X-50.07150 Y-18.32247
G01 X-49.94915 Y-18.35805
G01 X-49.89482 Y-18.38058
G01 X-49.78314 Y-18.44192
G01 X-49.66190 Y-18.54139
G01 X-49.57996 Y-18.63898
G01 X-49.54727 Y-18.68787
G01 X-49.48847 Y-18.80095
G01 X-49.44295 Y-18.95102
G01 X-49.42903 Y-19.07769
G01 X-49.42903 Y-19.13649
G04 P0 ( dwell for no time -- G64 should not smooth over this point )
G00 Z2.00000 ( retract )

G00 X-41.28143 Y-29.26939 ( rapid move to begin. )
G01 F30.00000
( Mill infeed pass 1/1 )
G01 Z-0.07500
G04 P0 ( dwell for no time -- G64 should not smooth over this point )
G01 F40.00000
G01 X-41.28143 Y-29.26939
G01 X-41.30111 Y-29.45458
G01 X-41.35379 Y-29.63321
G01 X-41.37630 Y-29.68755
G01 X-41.45023 Y-29.82587
G01 X-41.48290 Y-29.87477
G01 X-41.60218 Y-30.01780
G01 X-41.74520 Y-30.13707
G01 X-41.79410 Y-30.16974
G01 X-41.93243 Y-30.24368
G01 X-41.98676 Y-30.26618
G01 X-42.16540 Y-30.31886
G01 X-42.35059 Y-30.33855
G01 X-42.40939 Y-30.33855
G01 X-42.59458 Y-30.31886
G01 X-42.77322 Y-30.26618
G01 X-42.82755 Y-30.24368
G01 X-42.96585 Y-30.16974
G01 X-43.01477 Y-30.13707
G01 X-43.15780 Y-30.01780
G01 X-43.27708 Y-29.87477
G01 X-43.30974 Y-29.82587
G01 X-43.38366 Y-29.68755
G01 X-43.40616 Y-29.63321
G01 X-43.45884 Y-29.45458
G01 X-43.47855 Y-29.26939
G01 X-43.47855 Y-29.21058
G01 X-43.46316 Y-29.05450
G01 X-43.45170 Y-28.99682
G01 X-43.39626 Y-28.81904
G01 X-43.30974 Y-28.65412
G01 X-43.27708 Y-28.60520
G01 X-43.15780 Y-28.46217
G01 X-43.01477 Y-28.34292
G01 X-42.96585 Y-28.31023
G01 X-42.82755 Y-28.23632
G01 X-42.77322 Y-28.21381
G01 X-42.59458 Y-28.16113
G01 X-42.40939 Y-28.14142
G01 X-42.35059 Y-28.14142
G01 X-42.19451 Y-28.15681
G01 X-42.13682 Y-28.16827
G01 X-41.95905 Y-28.22372
G01 X-41.79410 Y-28.31023
G01 X-41.74520 Y-28.34292
G01 X-41.60218 Y-28.46217
G01 X-41.48290 Y-28.60520
G01 X-41.45023 Y-28.65412
G01 X-41.37630 Y-28.79242
G01 X-41.35379 Y-28.84675
G01 X-41.30111 Y-29.02539
G01 X-41.28143 Y-29.21058
G01 X-41.28143 Y-29.26939
G04 P0 ( dwell for no time -- G64 should not smooth over this point )
G00 Z2.00000 ( retract )

G00 X-43.82143 Y-29.26939 ( rapid move to begin. )
G01 F30.00000
( Mill infeed pass 1/1 )
G01 Z-0.07500
G04 P0 ( dwell for no time -- G64 should not smooth over this point )
G01 F40.00000
G01 X-43.82143 Y-29.26939
G01 X-43.84111 Y-29.45458
G01 X-43.89379 Y-29.63321
G01 X-43.91630 Y-29.68755
G01 X-43.99023 Y-29.82587
G01 X-44.02290 Y-29.87477
G01 X-44.14218 Y-30.01780
G01 X-44.28520 Y-30.13707
G01 X-44.33410 Y-30.16974
G01 X-44.47243 Y-30.24368
G01 X-44.52676 Y-30.26618
G01 X-44.70540 Y-30.31886
G01 X-44.89059 Y-30.33855
G01 X-44.94939 Y-30.33855
G01 X-45.13458 Y-30.31886
G01 X-45.31322 Y-30.26618
G01 X-45.36755 Y-30.24368
G01 X-45.50585 Y-30.16974
G01 X-45.55477 Y-30.13707
G01 X-45.69780 Y-30.01780
G01 X-45.81708 Y-29.87477
G01 X-45.84974 Y-29.82587
G01 X-45.92366 Y-29.68755
G01 X-45.94616 Y-29.63321
G01 X-45.99884 Y-29.45458
G01 X-46.01855 Y-29.26939
G01 X-46.01855 Y-29.21058
G01 X-46.00316 Y-29.05450
G01 X-45.99170 Y-28.99682
G01 X-45.93626 Y-28.81904
G01 X-45.84974 Y-28.65412
G01 X-45.81708 Y-28.60520
G01 X-45.69780 Y-28.46217
G01 X-45.55477 Y-28.34292
G01 X-45.50585 Y-28.31023
G01 X-45.36755 Y-28.23632
G01 X-45.31322 Y-28.21381
G01 X-45.13458 Y-28.16113
G01 X-44.94939 Y-28.14142
G01 X-44.89059 Y-28.14142
G01 X-44.73451 Y-28.15681
G01 X-44.67682 Y-28.16827
G01 X-44.49905 Y-28.22372
G01 X-44.33410 Y-28.31023
G01 X-44.28520 Y-28.34292
G01 X-44.14218 Y-28.46217
G01 X-44.02290 Y-28.60520
G01 X-43.99023 Y-28.65412
G01 X-43.91630 Y-28.79242
G01 X-43.89379 Y-28.84675
G01 X-43.84111 Y-29.02539
G01 X-43.82143 Y-29.21058
G01 X-43.82143 Y-29.26939
G04 P0 ( dwell for no time -- G64 should not smooth over this point )
G00 Z2.00000 ( retract )

G00 X-46.36143 Y-29.26939 ( rapid move to begin. )
G01 F30.00000
( Mill infeed pass 1/1 )
G01 Z-0.07500
G04 P0 ( dwell for no time -- G64 should not smooth over this point )
G01 F40.00000
G01 X-46.36143 Y-29.26939
G01 X-46.38111 Y-29.45458
G01 X-46.43379 Y-29.63321
G01 X-46.45630 Y-29.68755
G01 X-46.53023 Y-29.82587
G01 X-46.56290 Y-29.87477
G01 X-46.68218 Y-30.01780
G01 X-46.82520 Y-30.13707
G01 X-46.87410 Y-30.16974
G01 X-47.01243 Y-30.24368
G01 X-47.06676 Y-30.26618
G01 X-47.24540 Y-30.31886
G01 X-47.43059 Y-30.33855
G01 X-47.48939 Y-30.33855
G01 X-47.67458 Y-30.31886
G01 X-47.85322 Y-30.26618
G01 X-47.90755 Y-30.24368
G01 X-48.04585 Y-30.16974
G01 X-48.09477 Y-30.13707
G01 X-48.23780 Y-30.01780
G01 X-48.35708 Y-29.87477
G01 X-48.38974 Y-29.82587
G01 X-48.46366 Y-29.68755
G01 X-48.48616 Y-29.63321
G01 X-48.53884 Y-29.45458
G01 X-48.55855 Y-29.26939
G01 X-48.55855 Y-29.21058
G01 X-48.54316 Y-29.05450
G01 X-48.53170 Y-28.99682
G01 X-48.47626 Y-28.81904
G01 X-48.38974 Y-28.65412
G01 X-48.35708 Y-28.60520
G01 X-48.23780 Y-28.46217
G01 X-48.09477 Y-28.34292
G01 X-48.04585 Y-28.31023
G01 X-47.90755 Y-28.23632
G01 X-47.85322 Y-28.21381
G01 X-47.67458 Y-28.16113
G01 X-47.48939 Y-28.14142
G01 X-47.43059 Y-28.14142
G01 X-47.27451 Y-28.15681
G01 X-47.21682 Y-28.16827
G01 X-47.03905 Y-28.22372
G01 X-46.87410 Y-28.31023
G01 X-46.82520 Y-28.34292
G01 X-46.68218 Y-28.46217
G01 X-46.56290 Y-28.60520
G01 X-46.53023 Y-28.65412
G01 X-46.45630 Y-28.79242
G01 X-46.43379 Y-28.84675
G01 X-46.38111 Y-29.02539
G01 X-46.36143 Y-29.21058
G01 X-46.36143 Y-29.26939
G04 P0 ( dwell for no time -- G64 should not smooth over this point )
G00 Z2.00000 ( retract )

G00 X-48.90143 Y-29.26939 ( rapid move to begin. )
G01 F30.00000
( Mill infeed pass 1/1 )
G01 Z-0.07500
G04 P0 ( dwell for no time -- G64 should not smooth over this point )
G01 F40.00000
G01 X-48.90143 Y-29.26939
G01 X-48.92111 Y-29.45458
G01 X-48.97379 Y-29.63321
G01 X-48.99630 Y-29.68755
G01 X-49.07023 Y-29.82587
G01 X-49.10290 Y-29.87477
G01 X-49.22218 Y-30.01780
G01 X-49.36520 Y-30.13707
G01 X-49.41410 Y-30.16974
G01 X-49.55243 Y-30.24368
G01 X-49.60676 Y-30.26618
G01 X-49.78540 Y-30.31886
G01 X-49.97059 Y-30.33855
G01 X-50.02939 Y-30.33855
G01 X-50.21458 Y-30.31886
G01 X-50.39322 Y-30.26618
G01 X-50.44755 Y-30.24368
G01 X-50.58585 Y-30.16974
G01 X-50.63477 Y-30.13707
G01 X-50.77780 Y-30.01780
G01 X-50.91460 Y-29.85112
G01 X-51.00363 Y-29.68755
G01 X-51.02614 Y-29.63321
G01 X-51.07884 Y-29.45458
G01 X-51.09853 Y-29.26939
G01 X-51.09853 Y-29.21058
G01 X-51.08316 Y-29.05450
G01 X-51.07170 Y-28.99682
G01 X-51.01626 Y-28.81904
G01 X-50.92974 Y-28.65412
G01 X-50.89708 Y-28.60520
G01 X-50.77780 Y-28.46217
G01 X-50.63477 Y-28.34292
G01 X-50.58585 Y-28.31023
G01 X-50.44755 Y-28.23632
G01 X-50.39322 Y-28.21381
G01 X-50.21458 Y-28.16113
G01 X-50.02939 Y-28.14142
G01 X-49.97059 Y-28.14142
G01 X-49.81451 Y-28.15681
G01 X-49.75682 Y-28.16827
G01 X-49.57905 Y-28.22372
G01 X-49.41410 Y-28.31023
G01 X-49.36520 Y-28.34292
G01 X-49.22218 Y-28.46217
G01 X-49.10290 Y-28.60520
G01 X-49.07023 Y-28.65412
G01 X-48.99630 Y-28.79242
G01 X-48.97379 Y-28.84675
G01 X-48.92111 Y-29.02539
G01 X-48.90143 Y-29.21058
G01 X-48.90143 Y-29.26939
G04 P0 ( dwell for no time -- G64 should not smooth over this point )
G00 Z2.00000 ( retract )

G00 X-38.74143 Y-29.26939 ( rapid move to begin. )
G01 F30.00000
( Mill infeed pass 1/1 )
G01 Z-0.07500
G04 P0 ( dwell for no time -- G64 should not smooth over this point )
G01 F40.00000
G01 X-38.74143 Y-29.26939
G01 X-38.76111 Y-29.45458
G01 X-38.81379 Y-29.63321
G01 X-38.83630 Y-29.68755
G01 X-38.91023 Y-29.82587
G01 X-38.94290 Y-29.87477
G01 X-39.06218 Y-30.01780
G01 X-39.20520 Y-30.13707
G01 X-39.25410 Y-30.16974
G01 X-39.33995 Y-30.21564
G01 X-39.33995 Y-30.84010
G01 X-39.34526 Y-30.90850
G01 X-39.35672 Y-30.96618
G01 X-39.39060 Y-31.05803
G01 X-39.42423 Y-31.11787
G01 X-39.46665 Y-31.17182
G01 X-39.50823 Y-31.21340
G01 X-39.56218 Y-31.25582
G01 X-39.62202 Y-31.28945
G01 X-39.67635 Y-31.31195
G01 X-39.74241 Y-31.33047
G01 X-39.77155 Y-31.33479
G01 X-39.83998 Y-31.34009
G01 X-39.95298 Y-31.34009
G01 X-49.23666 Y-40.62374
G01 X-49.19208 Y-40.77564
G01 X-49.17143 Y-40.97058
G01 X-49.17143 Y-41.02938
G01 X-49.19208 Y-41.22435
G01 X-49.24760 Y-41.41236
G01 X-49.27011 Y-41.46669
G01 X-49.36381 Y-41.63888
G01 X-49.48705 Y-41.79136
G01 X-49.52863 Y-41.83294
G01 X-49.68108 Y-41.95618
G01 X-49.85329 Y-42.04985
G01 X-49.90762 Y-42.07236
G01 X-50.09563 Y-42.12788
G01 X-50.29058 Y-42.14853
G01 X-50.34940 Y-42.14853
G01 X-50.54435 Y-42.12788
G01 X-50.73236 Y-42.07236
G01 X-50.78669 Y-42.04985
G01 X-50.93363 Y-41.97132
G01 X-50.98255 Y-41.93865
G01 X-51.13315 Y-41.81315
G01 X-51.25865 Y-41.66253
G01 X-51.29131 Y-41.61363
G01 X-51.38242 Y-41.44007
G01 X-51.44074 Y-41.25290
G01 X-51.45222 Y-41.19522
G01 X-51.46853 Y-41.02938
G01 X-51.46853 Y-40.97058
G01 X-51.44788 Y-40.77564
G01 X-51.39235 Y-40.58763
G01 X-51.36985 Y-40.53329
G01 X-51.29131 Y-40.38633
G01 X-51.25865 Y-40.33744
G01 X-51.13315 Y-40.18681
G01 X-50.98255 Y-40.06134
G01 X-50.93363 Y-40.02867
G01 X-50.78669 Y-39.95011
G01 X-50.73236 Y-39.92761
G01 X-50.54435 Y-39.87208
G01 X-50.34940 Y-39.85143
G01 X-50.29058 Y-39.85143
G01 X-50.09563 Y-39.87208
G01 X-49.94374 Y-39.91666
G01 X-40.51363 Y-30.48653
G01 X-40.43787 Y-30.42435
G01 X-40.37802 Y-30.39072
G01 X-40.33998 Y-30.37497
G01 X-40.33998 Y-30.21566
G01 X-40.42585 Y-30.16974
G01 X-40.47477 Y-30.13707
G01 X-40.59598 Y-30.03758
G01 X-40.63759 Y-29.99600
G01 X-40.73708 Y-29.87477
G01 X-40.76974 Y-29.82587
G01 X-40.84366 Y-29.68755
G01 X-40.85996 Y-29.64820
G01 X-40.91170 Y-29.48315
G01 X-40.92316 Y-29.42547
G01 X-40.93855 Y-29.26939
G01 X-40.93855 Y-29.21058
G01 X-40.92316 Y-29.05450
G01 X-40.91170 Y-28.99682
G01 X-40.86616 Y-28.84675
G01 X-40.84366 Y-28.79242
G01 X-40.76974 Y-28.65412
G01 X-40.73708 Y-28.60520
G01 X-40.61780 Y-28.46217
G01 X-40.47477 Y-28.34292
G01 X-40.42585 Y-28.31023
G01 X-40.28755 Y-28.23632
G01 X-40.23322 Y-28.21381
G01 X-40.05458 Y-28.16113
G01 X-39.86939 Y-28.14142
G01 X-39.81059 Y-28.14142
G01 X-39.65451 Y-28.15681
G01 X-39.59682 Y-28.16827
G01 X-39.41905 Y-28.22372
G01 X-39.25410 Y-28.31023
G01 X-39.20520 Y-28.34292
G01 X-39.08400 Y-28.44239
G01 X-39.04239 Y-28.48399
G01 X-38.94290 Y-28.60520
G01 X-38.91023 Y-28.65412
G01 X-38.83630 Y-28.79242
G01 X-38.81379 Y-28.84675
G01 X-38.76827 Y-28.99682
G01 X-38.75679 Y-29.05450
G01 X-38.74143 Y-29.21058
G01 X-38.74143 Y-29.26939
G04 P0 ( dwell for no time -- G64 should not smooth over this point )
G00 Z2.00000 ( retract )

G00 X-36.20143 Y-29.26939 ( rapid move to begin. )
G01 F30.00000
( Mill infeed pass 1/1 )
G01 Z-0.07500
G04 P0 ( dwell for no time -- G64 should not smooth over this point )
G01 F40.00000
G01 X-36.20143 Y-29.26939
G01 X-36.22111 Y-29.45458
G01 X-36.27379 Y-29.63321
G01 X-36.29630 Y-29.68755
G01 X-36.37023 Y-29.82587
G01 X-36.40290 Y-29.87477
G01 X-36.52218 Y-30.01780
G01 X-36.66520 Y-30.13707
G01 X-36.71410 Y-30.16974
G01 X-36.85243 Y-30.24368
G01 X-36.90676 Y-30.26618
G01 X-37.08540 Y-30.31886
G01 X-37.27059 Y-30.33855
G01 X-37.32939 Y-30.33855
G01 X-37.51458 Y-30.31886
G01 X-37.69322 Y-30.26618
G01 X-37.74755 Y-30.24368
G01 X-37.88585 Y-30.16974
G01 X-37.93477 Y-30.13707
G01 X-38.07780 Y-30.01780
G01 X-38.19708 Y-29.87477
G01 X-38.22974 Y-29.82587
G01 X-38.30366 Y-29.68755
G01 X-38.32616 Y-29.63321
G01 X-38.37884 Y-29.45458
G01 X-38.39855 Y-29.26939
G01 X-38.39855 Y-29.21058
G01 X-38.38316 Y-29.05450
G01 X-38.37170 Y-28.99682
G01 X-38.34343 Y-28.90363
G01 X-39.13078 Y-28.11628
G01 X-50.47348 Y-28.11628
G01 X-52.35997 Y-30.00278
G01 X-52.35997 Y-39.96792
G01 X-52.24630 Y-40.02867
G01 X-52.19741 Y-40.06134
G01 X-52.04681 Y-40.18681
G01 X-51.92133 Y-40.33744
G01 X-51.88864 Y-40.38633
G01 X-51.81011 Y-40.53329
G01 X-51.78760 Y-40.58763
G01 X-51.73924 Y-40.74709
G01 X-51.72774 Y-40.80474
G01 X-51.71143 Y-40.97058
G01 X-51.71143 Y-41.02938
G01 X-51.72774 Y-41.19522
G01 X-51.73924 Y-41.25290
G01 X-51.79753 Y-41.44007
G01 X-51.88864 Y-41.61363
G01 X-51.92133 Y-41.66253
G01 X-52.04681 Y-41.81315
G01 X-52.19741 Y-41.93865
G01 X-52.24630 Y-41.97132
G01 X-52.39329 Y-42.04985
G01 X-52.44762 Y-42.07236
G01 X-52.63563 Y-42.12788
G01 X-52.83055 Y-42.14853
G01 X-52.88940 Y-42.14853
G01 X-53.08435 Y-42.12788
G01 X-53.27236 Y-42.07236
G01 X-53.32669 Y-42.04985
G01 X-53.47363 Y-41.97132
G01 X-53.52255 Y-41.93865
G01 X-53.67317 Y-41.81315
G01 X-53.79865 Y-41.66253
G01 X-53.83131 Y-41.61363
G01 X-53.92245 Y-41.44007
G01 X-53.98074 Y-41.25290
G01 X-53.99222 Y-41.19522
G01 X-54.00855 Y-41.02938
G01 X-54.00855 Y-40.97058
G01 X-53.99222 Y-40.80474
G01 X-53.98074 Y-40.74709
G01 X-53.93238 Y-40.58763
G01 X-53.90985 Y-40.53329
G01 X-53.83131 Y-40.38633
G01 X-53.79865 Y-40.33744
G01 X-53.69293 Y-40.20863
G01 X-53.65135 Y-40.16705
G01 X-53.52255 Y-40.06134
G01 X-53.47363 Y-40.02867
G01 X-53.35999 Y-39.96792
G01 X-53.35999 Y-29.79570
G01 X-53.35468 Y-29.72727
G01 X-53.34323 Y-29.66959
G01 X-53.30934 Y-29.57774
G01 X-53.25819 Y-29.49425
G01 X-53.21336 Y-29.44198
G01 X-51.01008 Y-27.24216
G01 X-50.97437 Y-27.21168
G01 X-50.87859 Y-27.15875
G01 X-50.83510 Y-27.14074
G01 X-50.78931 Y-27.12974
G01 X-50.68059 Y-27.11625
G01 X-38.92370 Y-27.11625
G01 X-38.85527 Y-27.12156
G01 X-38.79759 Y-27.13302
G01 X-38.70574 Y-27.16690
G01 X-38.64590 Y-27.20053
G01 X-38.59195 Y-27.24295
G01 X-37.63630 Y-28.19654
G01 X-37.51458 Y-28.16113
G01 X-37.32939 Y-28.14142
G01 X-37.27059 Y-28.14142
G01 X-37.11451 Y-28.15681
G01 X-37.05682 Y-28.16827
G01 X-36.87905 Y-28.22372
G01 X-36.71410 Y-28.31023
G01 X-36.66520 Y-28.34292
G01 X-36.52218 Y-28.46217
G01 X-36.40290 Y-28.60520
G01 X-36.37023 Y-28.65412
G01 X-36.29630 Y-28.79242
G01 X-36.27379 Y-28.84675
G01 X-36.22111 Y-29.02539
G01 X-36.20143 Y-29.21058
G01 X-36.20143 Y-29.26939
G04 P0 ( dwell for no time -- G64 should not smooth over this point )
G00 Z2.00000 ( retract )

G00 X-33.66143 Y-29.26939 ( rapid move to begin. )
G01 F30.00000
( Mill infeed pass 1/1 )
G01 Z-0.07500
G04 P0 ( dwell for no time -- G64 should not smooth over this point )
G01 F40.00000
G01 X-33.66143 Y-29.26939
G01 X-33.68111 Y-29.45458
G01 X-33.73379 Y-29.63321
G01 X-33.75630 Y-29.68755
G01 X-33.83023 Y-29.82587
G01 X-33.86290 Y-29.87477
G01 X-33.98218 Y-30.01780
G01 X-34.12520 Y-30.13707
G01 X-34.17410 Y-30.16974
G01 X-34.31243 Y-30.24368
G01 X-34.36676 Y-30.26618
G01 X-34.54540 Y-30.31886
G01 X-34.73059 Y-30.33855
G01 X-34.78939 Y-30.33855
G01 X-34.97458 Y-30.31886
G01 X-35.15322 Y-30.26618
G01 X-35.20755 Y-30.24368
G01 X-35.34585 Y-30.16974
G01 X-35.39477 Y-30.13707
G01 X-35.51598 Y-30.03758
G01 X-35.55759 Y-29.99600
G01 X-35.65708 Y-29.87477
G01 X-35.68974 Y-29.82587
G01 X-35.76366 Y-29.68755
G01 X-35.78616 Y-29.63321
G01 X-35.83884 Y-29.45458
G01 X-35.85855 Y-29.26939
G01 X-35.85855 Y-29.21058
G01 X-35.84316 Y-29.05450
G01 X-35.83170 Y-28.99682
G01 X-35.80343 Y-28.90363
G01 X-37.63587 Y-27.07119
G01 X-50.87297 Y-27.07119
G01 X-54.89997 Y-31.09819
G01 X-54.89999 Y-39.96792
G01 X-54.78633 Y-40.02867
G01 X-54.73743 Y-40.06134
G01 X-54.58681 Y-40.18681
G01 X-54.46133 Y-40.33744
G01 X-54.42867 Y-40.38633
G01 X-54.35011 Y-40.53329
G01 X-54.32760 Y-40.58763
G01 X-54.27924 Y-40.74709
G01 X-54.26776 Y-40.80474
G01 X-54.25143 Y-40.97058
G01 X-54.25143 Y-41.02938
G01 X-54.26776 Y-41.19522
G01 X-54.27924 Y-41.25290
G01 X-54.32760 Y-41.41236
G01 X-54.35011 Y-41.46669
G01 X-54.42867 Y-41.61363
G01 X-54.46133 Y-41.66253
G01 X-54.58681 Y-41.81315
G01 X-54.73743 Y-41.93865
G01 X-54.78633 Y-41.97132
G01 X-54.93329 Y-42.04985
G01 X-54.98762 Y-42.07236
G01 X-55.17563 Y-42.12788
G01 X-55.37058 Y-42.14853
G01 X-55.42940 Y-42.14853
G01 X-55.59522 Y-42.13220
G01 X-55.65290 Y-42.12074
G01 X-55.81236 Y-42.07236
G01 X-55.86669 Y-42.04985
G01 X-56.01363 Y-41.97132
G01 X-56.06255 Y-41.93865
G01 X-56.19135 Y-41.83294
G01 X-56.23293 Y-41.79136
G01 X-56.33865 Y-41.66253
G01 X-56.37131 Y-41.61363
G01 X-56.46245 Y-41.44007
G01 X-56.52074 Y-41.25290
G01 X-56.53222 Y-41.19522
G01 X-56.54855 Y-41.02938
G01 X-56.54855 Y-40.97058
G01 X-56.53222 Y-40.80474
G01 X-56.52074 Y-40.74709
G01 X-56.47238 Y-40.58763
G01 X-56.44985 Y-40.53329
G01 X-56.37131 Y-40.38633
G01 X-56.33865 Y-40.33744
G01 X-56.23293 Y-40.20863
G01 X-56.19135 Y-40.16705
G01 X-56.06255 Y-40.06134
G01 X-56.01363 Y-40.02867
G01 X-55.89996 Y-39.96792
G01 X-55.89999 Y-30.89110
G01 X-55.89036 Y-30.79354
G01 X-55.87185 Y-30.72747
G01 X-55.84934 Y-30.67314
G01 X-55.81571 Y-30.61330
G01 X-55.75353 Y-30.53753
G01 X-51.43363 Y-26.21760
G01 X-51.39784 Y-26.18704
G01 X-51.31745 Y-26.13124
G01 X-51.22329 Y-26.09223
G01 X-51.12700 Y-26.07488
G01 X-51.08009 Y-26.07117
G01 X-37.42878 Y-26.07117
G01 X-37.33122 Y-26.08077
G01 X-37.26515 Y-26.09929
G01 X-37.17623 Y-26.14028
G01 X-37.12733 Y-26.17297
G01 X-37.07521 Y-26.21760
G01 X-35.09630 Y-28.19654
G01 X-34.97458 Y-28.16113
G01 X-34.78939 Y-28.14142
G01 X-34.73059 Y-28.14142
G01 X-34.57451 Y-28.15681
G01 X-34.51682 Y-28.16827
G01 X-34.33905 Y-28.22372
G01 X-34.17410 Y-28.31023
G01 X-34.12520 Y-28.34292
G01 X-34.00400 Y-28.44239
G01 X-33.96239 Y-28.48399
G01 X-33.86290 Y-28.60520
G01 X-33.83023 Y-28.65412
G01 X-33.75630 Y-28.79242
G01 X-33.73379 Y-28.84675
G01 X-33.68111 Y-29.02539
G01 X-33.66143 Y-29.21058
G01 X-33.66143 Y-29.26939
G04 P0 ( dwell for no time -- G64 should not smooth over this point )
G00 Z2.00000 ( retract )

G00 X-31.12143 Y-29.26939 ( rapid move to begin. )
G01 F30.00000
( Mill infeed pass 1/1 )
G01 Z-0.07500
G04 P0 ( dwell for no time -- G64 should not smooth over this point )
G01 F40.00000
G01 X-31.12143 Y-29.26939
G01 X-31.14111 Y-29.45458
G01 X-31.19379 Y-29.63321
G01 X-31.21630 Y-29.68755
G01 X-31.29023 Y-29.82587
G01 X-31.32290 Y-29.87477
G01 X-31.44218 Y-30.01780
G01 X-31.58520 Y-30.13707
G01 X-31.63410 Y-30.16974
G01 X-31.77243 Y-30.24368
G01 X-31.82676 Y-30.26618
G01 X-32.00540 Y-30.31886
G01 X-32.19059 Y-30.33855
G01 X-32.24939 Y-30.33855
G01 X-32.43458 Y-30.31886
G01 X-32.61322 Y-30.26618
G01 X-32.66755 Y-30.24368
G01 X-32.80585 Y-30.16974
G01 X-32.85477 Y-30.13707
G01 X-32.97598 Y-30.03758
G01 X-33.01759 Y-29.99600
G01 X-33.11708 Y-29.87477
G01 X-33.14974 Y-29.82587
G01 X-33.22366 Y-29.68755
G01 X-33.24616 Y-29.63321
G01 X-33.29884 Y-29.45458
G01 X-33.31855 Y-29.26939
G01 X-33.31855 Y-29.21058
G01 X-33.30316 Y-29.05450
G01 X-33.29170 Y-28.99682
G01 X-33.26343 Y-28.90363
G01 X-36.11997 Y-26.04709
G01 X-51.30048 Y-26.04709
G01 X-57.43997 Y-32.18658
G01 X-57.43997 Y-39.96792
G01 X-57.32633 Y-40.02867
G01 X-57.27743 Y-40.06134
G01 X-57.12681 Y-40.18681
G01 X-57.00133 Y-40.33744
G01 X-56.96867 Y-40.38633
G01 X-56.89011 Y-40.53329
G01 X-56.86760 Y-40.58763
G01 X-56.81924 Y-40.74709
G01 X-56.80776 Y-40.80474
G01 X-56.79143 Y-40.97058
G01 X-56.79143 Y-41.02938
G01 X-56.80776 Y-41.19522
G01 X-56.81924 Y-41.25290
G01 X-56.86760 Y-41.41236
G01 X-56.89011 Y-41.46669
G01 X-56.96867 Y-41.61363
G01 X-57.00133 Y-41.66253
G01 X-57.12681 Y-41.81315
G01 X-57.27743 Y-41.93865
G01 X-57.32633 Y-41.97132
G01 X-57.47329 Y-42.04985
G01 X-57.52762 Y-42.07236
G01 X-57.68708 Y-42.12074
G01 X-57.74477 Y-42.13220
G01 X-57.91058 Y-42.14853
G01 X-57.96940 Y-42.14853
G01 X-58.16435 Y-42.12788
G01 X-58.35236 Y-42.07236
G01 X-58.40669 Y-42.04985
G01 X-58.55363 Y-41.97132
G01 X-58.60255 Y-41.93865
G01 X-58.73135 Y-41.83294
G01 X-58.77293 Y-41.79136
G01 X-58.87865 Y-41.66253
G01 X-58.91131 Y-41.61363
G01 X-59.00245 Y-41.44007
G01 X-59.06074 Y-41.25290
G01 X-59.07222 Y-41.19522
G01 X-59.08855 Y-41.02938
G01 X-59.08855 Y-40.97058
G01 X-59.06788 Y-40.77564
G01 X-59.01238 Y-40.58763
G01 X-58.98985 Y-40.53329
G01 X-58.91131 Y-40.38633
G01 X-58.87865 Y-40.33744
G01 X-58.75317 Y-40.18681
G01 X-58.60255 Y-40.06134
G01 X-58.55363 Y-40.02867
G01 X-58.43996 Y-39.96792
G01 X-58.43999 Y-31.97949
G01 X-58.43036 Y-31.88193
G01 X-58.41185 Y-31.81586
G01 X-58.38934 Y-31.76153
G01 X-58.35571 Y-31.70169
G01 X-58.29353 Y-31.62592
G01 X-51.86114 Y-25.19352
G01 X-51.82535 Y-25.16294
G01 X-51.73457 Y-25.10158
G01 X-51.69108 Y-25.08357
G01 X-51.59738 Y-25.05530
G01 X-51.50759 Y-25.04707
G01 X-35.91288 Y-25.04707
G01 X-35.84445 Y-25.05238
G01 X-35.78677 Y-25.06383
G01 X-35.72152 Y-25.08514
G01 X-35.66033 Y-25.11621
G01 X-35.61144 Y-25.14887
G01 X-35.55931 Y-25.19352
G01 X-32.55630 Y-28.19654
G01 X-32.43458 Y-28.16113
G01 X-32.24939 Y-28.14142
G01 X-32.19059 Y-28.14142
G01 X-32.03451 Y-28.15681
G01 X-31.97682 Y-28.16827
G01 X-31.79905 Y-28.22372
G01 X-31.63410 Y-28.31023
G01 X-31.58520 Y-28.34292
G01 X-31.46400 Y-28.44239
G01 X-31.42239 Y-28.48399
G01 X-31.32290 Y-28.60520
G01 X-31.29023 Y-28.65412
G01 X-31.21630 Y-28.79242
G01 X-31.19379 Y-28.84675
G01 X-31.14111 Y-29.02539
G01 X-31.12143 Y-29.21058
G01 X-31.12143 Y-29.26939
G04 P0 ( dwell for no time -- G64 should not smooth over this point )
G00 Z2.00000 ( retract )

G00 X-28.58143 Y-29.26939 ( rapid move to begin. )
G01 F30.00000
( Mill infeed pass 1/1 )
G01 Z-0.07500
G04 P0 ( dwell for no time -- G64 should not smooth over this point )
G01 F40.00000
G01 X-28.58143 Y-29.26939
G01 X-28.60111 Y-29.45458
G01 X-28.65379 Y-29.63321
G01 X-28.67630 Y-29.68755
G01 X-28.75023 Y-29.82587
G01 X-28.78290 Y-29.87477
G01 X-28.90218 Y-30.01780
G01 X-29.04520 Y-30.13707
G01 X-29.09410 Y-30.16974
G01 X-29.23243 Y-30.24368
G01 X-29.28676 Y-30.26618
G01 X-29.43682 Y-30.31170
G01 X-29.49451 Y-30.32318
G01 X-29.65059 Y-30.33855
G01 X-29.70939 Y-30.33855
G01 X-29.86547 Y-30.32318
G01 X-29.92316 Y-30.31170
G01 X-30.07322 Y-30.26618
G01 X-30.12755 Y-30.24368
G01 X-30.26585 Y-30.16974
G01 X-30.31477 Y-30.13707
G01 X-30.45780 Y-30.01780
G01 X-30.57708 Y-29.87477
G01 X-30.60974 Y-29.82587
G01 X-30.68366 Y-29.68755
G01 X-30.70616 Y-29.63321
G01 X-30.75884 Y-29.45458
G01 X-30.77855 Y-29.26939
G01 X-30.77855 Y-29.21058
G01 X-30.76316 Y-29.05450
G01 X-30.75170 Y-28.99682
G01 X-30.72343 Y-28.90363
G01 X-34.64098 Y-24.98608
G01 X-51.72814 Y-24.98608
G01 X-59.97997 Y-33.23788
G01 X-59.97999 Y-39.96792
G01 X-59.86633 Y-40.02867
G01 X-59.81743 Y-40.06134
G01 X-59.66681 Y-40.18681
G01 X-59.54133 Y-40.33744
G01 X-59.50867 Y-40.38633
G01 X-59.43011 Y-40.53329
G01 X-59.40760 Y-40.58763
G01 X-59.35924 Y-40.74709
G01 X-59.34776 Y-40.80474
G01 X-59.33143 Y-40.97058
G01 X-59.33143 Y-41.02938
G01 X-59.34776 Y-41.19522
G01 X-59.35924 Y-41.25290
G01 X-59.40760 Y-41.41236
G01 X-59.43011 Y-41.46669
G01 X-59.50867 Y-41.61363
G01 X-59.54133 Y-41.66253
G01 X-59.66681 Y-41.81315
G01 X-59.81743 Y-41.93865
G01 X-59.86633 Y-41.97132
G01 X-60.01329 Y-42.04985
G01 X-60.06762 Y-42.07236
G01 X-60.22708 Y-42.12074
G01 X-60.28477 Y-42.13220
G01 X-60.45058 Y-42.14853
G01 X-60.50940 Y-42.14853
G01 X-60.70435 Y-42.12788
G01 X-60.89236 Y-42.07236
G01 X-60.94669 Y-42.04985
G01 X-61.09363 Y-41.97132
G01 X-61.14255 Y-41.93865
G01 X-61.27135 Y-41.83294
G01 X-61.31293 Y-41.79136
G01 X-61.41865 Y-41.66253
G01 X-61.45131 Y-41.61363
G01 X-61.54245 Y-41.44007
G01 X-61.60074 Y-41.25290
G01 X-61.61222 Y-41.19522
G01 X-61.62855 Y-41.02938
G01 X-61.62855 Y-40.97058
G01 X-61.60788 Y-40.77564
G01 X-61.55238 Y-40.58763
G01 X-61.52985 Y-40.53329
G01 X-61.45131 Y-40.38633
G01 X-61.41865 Y-40.33744
G01 X-61.29317 Y-40.18681
G01 X-61.14255 Y-40.06134
G01 X-61.09363 Y-40.02867
G01 X-60.97999 Y-39.96792
G01 X-60.97999 Y-33.03079
G01 X-60.97468 Y-32.96237
G01 X-60.96323 Y-32.90468
G01 X-60.92934 Y-32.81284
G01 X-60.91085 Y-32.77824
G01 X-60.87819 Y-32.72935
G01 X-60.83353 Y-32.67723
G01 X-52.28882 Y-24.13251
G01 X-52.20241 Y-24.06515
G01 X-52.17262 Y-24.04613
G01 X-52.11186 Y-24.01870
G01 X-52.04399 Y-23.99955
G01 X-51.93528 Y-23.98606
G01 X-34.43389 Y-23.98606
G01 X-34.36546 Y-23.99137
G01 X-34.30778 Y-24.00282
G01 X-34.24253 Y-24.02413
G01 X-34.18134 Y-24.05520
G01 X-34.13244 Y-24.08786
G01 X-34.08032 Y-24.13251
G01 X-30.01630 Y-28.19654
G01 X-29.89458 Y-28.16113
G01 X-29.70939 Y-28.14142
G01 X-29.65059 Y-28.14142
G01 X-29.49451 Y-28.15681
G01 X-29.43682 Y-28.16827
G01 X-29.25905 Y-28.22372
G01 X-29.09410 Y-28.31023
G01 X-29.04520 Y-28.34292
G01 X-28.90218 Y-28.46217
G01 X-28.78290 Y-28.60520
G01 X-28.75023 Y-28.65412
G01 X-28.67630 Y-28.79242
G01 X-28.65379 Y-28.84675
G01 X-28.60111 Y-29.02539
G01 X-28.58143 Y-29.21058
G01 X-28.58143 Y-29.26939
G04 P0 ( dwell for no time -- G64 should not smooth over this point )
G00 Z2.00000 ( retract )

G00 X-26.04143 Y-29.26939 ( rapid move to begin. )
G01 F30.00000
( Mill infeed pass 1/1 )
G01 Z-0.07500
G04 P0 ( dwell for no time -- G64 should not smooth over this point )
G01 F40.00000
G01 X-26.04143 Y-29.26939
G01 X-26.05677 Y-29.42547
G01 X-26.06827 Y-29.48315
G01 X-26.11379 Y-29.63321
G01 X-26.13630 Y-29.68755
G01 X-26.21021 Y-29.82587
G01 X-26.24290 Y-29.87477
G01 X-26.34239 Y-29.99600
G01 X-26.38400 Y-30.03758
G01 X-26.50520 Y-30.13707
G01 X-26.55410 Y-30.16974
G01 X-26.69243 Y-30.24368
G01 X-26.74676 Y-30.26618
G01 X-26.89682 Y-30.31170
G01 X-26.95451 Y-30.32318
G01 X-27.11059 Y-30.33855
G01 X-27.16939 Y-30.33855
G01 X-27.32547 Y-30.32318
G01 X-27.38316 Y-30.31170
G01 X-27.53322 Y-30.26618
G01 X-27.58755 Y-30.24368
G01 X-27.72585 Y-30.16974
G01 X-27.77477 Y-30.13707
G01 X-27.91780 Y-30.01780
G01 X-28.03708 Y-29.87477
G01 X-28.06974 Y-29.82587
G01 X-28.14366 Y-29.68755
G01 X-28.16616 Y-29.63321
G01 X-28.21884 Y-29.45458
G01 X-28.23855 Y-29.26939
G01 X-28.23855 Y-29.21058
G01 X-28.22316 Y-29.05450
G01 X-28.21170 Y-28.99682
G01 X-28.18343 Y-28.90363
G01 X-33.15238 Y-23.93467
G01 X-52.12994 Y-23.93465
G01 X-62.51999 Y-34.32467
G01 X-62.51997 Y-39.96792
G01 X-62.40633 Y-40.02867
G01 X-62.35743 Y-40.06134
G01 X-62.20681 Y-40.18681
G01 X-62.08133 Y-40.33744
G01 X-62.04867 Y-40.38633
G01 X-61.97011 Y-40.53329
G01 X-61.94760 Y-40.58763
G01 X-61.89924 Y-40.74709
G01 X-61.88776 Y-40.80474
G01 X-61.87143 Y-40.97058
G01 X-61.87143 Y-41.02938
G01 X-61.88776 Y-41.19522
G01 X-61.89924 Y-41.25290
G01 X-61.95753 Y-41.44007
G01 X-62.04867 Y-41.61363
G01 X-62.08133 Y-41.66253
G01 X-62.20681 Y-41.81315
G01 X-62.35743 Y-41.93865
G01 X-62.40633 Y-41.97132
G01 X-62.55329 Y-42.04985
G01 X-62.60762 Y-42.07236
G01 X-62.79563 Y-42.12788
G01 X-62.99058 Y-42.14853
G01 X-63.04940 Y-42.14853
G01 X-63.21522 Y-42.13220
G01 X-63.27290 Y-42.12074
G01 X-63.43236 Y-42.07236
G01 X-63.48669 Y-42.04985
G01 X-63.63363 Y-41.97132
G01 X-63.68255 Y-41.93865
G01 X-63.83317 Y-41.81315
G01 X-63.95865 Y-41.66253
G01 X-63.99131 Y-41.61363
G01 X-64.03998 Y-41.52260
G01 X-64.06985 Y-41.46669
G01 X-64.09238 Y-41.41236
G01 X-64.14074 Y-41.25290
G01 X-64.15222 Y-41.19522
G01 X-64.16855 Y-41.02938
G01 X-64.16855 Y-40.97058
G01 X-64.14788 Y-40.77564
G01 X-64.09238 Y-40.58763
G01 X-64.06985 Y-40.53329
G01 X-63.99131 Y-40.38633
G01 X-63.95865 Y-40.33744
G01 X-63.83317 Y-40.18681
G01 X-63.68255 Y-40.06134
G01 X-63.63363 Y-40.02867
G01 X-63.51996 Y-39.96792
G01 X-63.51999 Y-34.11758
G01 X-63.51036 Y-34.02002
G01 X-63.49185 Y-33.95396
G01 X-63.46934 Y-33.89963
G01 X-63.43571 Y-33.83978
G01 X-63.37353 Y-33.76402
G01 X-52.69062 Y-23.08111
G01 X-52.65483 Y-23.05053
G01 X-52.57442 Y-22.99472
G01 X-52.48031 Y-22.95571
G01 X-52.38397 Y-22.93836
G01 X-52.33708 Y-22.93465
G01 X-32.94530 Y-22.93465
G01 X-32.87687 Y-22.93996
G01 X-32.81919 Y-22.95141
G01 X-32.75393 Y-22.97273
G01 X-32.69275 Y-23.00379
G01 X-32.64385 Y-23.03645
G01 X-32.59173 Y-23.08111
G01 X-27.47630 Y-28.19654
G01 X-27.35458 Y-28.16113
G01 X-27.16939 Y-28.14142
G01 X-27.11059 Y-28.14142
G01 X-26.95451 Y-28.15681
G01 X-26.89682 Y-28.16827
G01 X-26.71905 Y-28.22372
G01 X-26.55410 Y-28.31023
G01 X-26.50520 Y-28.34292
G01 X-26.36218 Y-28.46217
G01 X-26.24290 Y-28.60520
G01 X-26.21021 Y-28.65412
G01 X-26.13630 Y-28.79242
G01 X-26.11379 Y-28.84675
G01 X-26.06109 Y-29.02539
G01 X-26.04143 Y-29.21058
G01 X-26.04143 Y-29.26939
G04 P0 ( dwell for no time -- G64 should not smooth over this point )
G00 Z2.00000 ( retract )

G00 X-20.95998 Y-29.24000 ( rapid move to begin. )
G01 F30.00000
( Mill infeed pass 1/1 )
G01 Z-0.07500
G04 P0 ( dwell for no time -- G64 should not smooth over this point )
G01 F40.00000
G01 X-20.95998 Y-29.24000
G01 X-20.97679 Y-29.42547
G01 X-20.98827 Y-29.48315
G01 X-21.03996 Y-29.64812
G01 X-21.05630 Y-29.68755
G01 X-21.13023 Y-29.82587
G01 X-21.16290 Y-29.87477
G01 X-21.26239 Y-29.99600
G01 X-21.30400 Y-30.03758
G01 X-21.42520 Y-30.13707
G01 X-21.47410 Y-30.16974
G01 X-21.61243 Y-30.24368
G01 X-21.66676 Y-30.26618
G01 X-21.81682 Y-30.31170
G01 X-21.87451 Y-30.32318
G01 X-22.03059 Y-30.33855
G01 X-22.08939 Y-30.33855
G01 X-22.24547 Y-30.32318
G01 X-22.30316 Y-30.31170
G01 X-22.48093 Y-30.25625
G01 X-22.64585 Y-30.16974
G01 X-22.69477 Y-30.13707
G01 X-22.83780 Y-30.01780
G01 X-22.95708 Y-29.87477
G01 X-22.98974 Y-29.82587
G01 X-23.06366 Y-29.68755
G01 X-23.08616 Y-29.63321
G01 X-23.13170 Y-29.48315
G01 X-23.14316 Y-29.42547
G01 X-23.16000 Y-29.24000
G01 X-23.14316 Y-29.05450
G01 X-23.13170 Y-28.99682
G01 X-23.10343 Y-28.90363
G01 X-30.07258 Y-21.93447
G01 X-52.95831 Y-21.93447
G01 X-53.10482 Y-22.08101
G01 X-53.01841 Y-22.01365
G01 X-52.98864 Y-21.99462
G01 X-52.92789 Y-21.96719
G01 X-52.85999 Y-21.94804
G01 X-52.75128 Y-21.93455
G01 X-31.40540 Y-21.93455
G01 X-31.33697 Y-21.93986
G01 X-31.27929 Y-21.95132
G01 X-31.21403 Y-21.97263
G01 X-31.15285 Y-22.00369
G01 X-31.10395 Y-22.03635
G01 X-31.05183 Y-22.08101
G01 X-24.93630 Y-28.19654
G01 X-24.84316 Y-28.16827
G01 X-24.78547 Y-28.15681
G01 X-24.62939 Y-28.14142
G01 X-24.57059 Y-28.14142
G01 X-24.41451 Y-28.15681
G01 X-24.35682 Y-28.16827
G01 X-24.17905 Y-28.22372
G01 X-24.01410 Y-28.31023
G01 X-23.96520 Y-28.34292
G01 X-23.82218 Y-28.46217
G01 X-23.70290 Y-28.60520
G01 X-23.67023 Y-28.65412
G01 X-23.59630 Y-28.79242
G01 X-23.57379 Y-28.84675
G01 X-23.52827 Y-28.99682
G01 X-23.51679 Y-29.05450
G01 X-23.49998 Y-29.24000
G01 X-23.51679 Y-29.42547
G01 X-23.52827 Y-29.48315
G01 X-23.57379 Y-29.63321
G01 X-23.59630 Y-29.68755
G01 X-23.67023 Y-29.82587
G01 X-23.70290 Y-29.87477
G01 X-23.80239 Y-29.99600
G01 X-23.84400 Y-30.03758
G01 X-23.96520 Y-30.13707
G01 X-24.01410 Y-30.16974
G01 X-24.17905 Y-30.25625
G01 X-24.35682 Y-30.31170
G01 X-24.41451 Y-30.32318
G01 X-24.57059 Y-30.33855
G01 X-24.62939 Y-30.33855
G01 X-24.78547 Y-30.32318
G01 X-24.84316 Y-30.31170
G01 X-25.02093 Y-30.25625
G01 X-25.18585 Y-30.16974
G01 X-25.23477 Y-30.13707
G01 X-25.37780 Y-30.01780
G01 X-25.49708 Y-29.87477
G01 X-25.52972 Y-29.82587
G01 X-25.60366 Y-29.68755
G01 X-25.62616 Y-29.63321
G01 X-25.67170 Y-29.48315
G01 X-25.68313 Y-29.42547
G01 X-25.70000 Y-29.24000
G01 X-25.68313 Y-29.05450
G01 X-25.67170 Y-28.99682
G01 X-25.64343 Y-28.90363
G01 X-31.61248 Y-22.93457
G01 X-52.54417 Y-22.93457
G01 X-65.05997 Y-35.45037
G01 X-65.05997 Y-39.96792
G01 X-64.94633 Y-40.02867
G01 X-64.89743 Y-40.06134
G01 X-64.74681 Y-40.18681
G01 X-64.62133 Y-40.33744
G01 X-64.58867 Y-40.38633
G01 X-64.51011 Y-40.53329
G01 X-64.48760 Y-40.58763
G01 X-64.43924 Y-40.74709
G01 X-64.42776 Y-40.80474
G01 X-64.41143 Y-40.97058
G01 X-64.41143 Y-41.02938
G01 X-64.42776 Y-41.19522
G01 X-64.43924 Y-41.25290
G01 X-64.49753 Y-41.44007
G01 X-64.58867 Y-41.61363
G01 X-64.62133 Y-41.66253
G01 X-64.74681 Y-41.81315
G01 X-64.89743 Y-41.93865
G01 X-64.94633 Y-41.97132
G01 X-65.09329 Y-42.04985
G01 X-65.14762 Y-42.07236
G01 X-65.33563 Y-42.12788
G01 X-65.53058 Y-42.14853
G01 X-65.58940 Y-42.14853
G01 X-65.75522 Y-42.13220
G01 X-65.81290 Y-42.12074
G01 X-65.97236 Y-42.07236
G01 X-66.02669 Y-42.04985
G01 X-66.17363 Y-41.97132
G01 X-66.22255 Y-41.93865
G01 X-66.37317 Y-41.81315
G01 X-66.49865 Y-41.66253
G01 X-66.53131 Y-41.61363
G01 X-66.62245 Y-41.44007
G01 X-66.68074 Y-41.25290
G01 X-66.69222 Y-41.19522
G01 X-66.70855 Y-41.02938
G01 X-66.70855 Y-40.97058
G01 X-66.68788 Y-40.77564
G01 X-66.63238 Y-40.58763
G01 X-66.60985 Y-40.53329
G01 X-66.53131 Y-40.38633
G01 X-66.49865 Y-40.33744
G01 X-66.39293 Y-40.20863
G01 X-66.35135 Y-40.16705
G01 X-66.22255 Y-40.06134
G01 X-66.17363 Y-40.02867
G01 X-66.05999 Y-39.96792
G01 X-66.05999 Y-35.24329
G01 X-66.05036 Y-35.14573
G01 X-66.03185 Y-35.07966
G01 X-66.00934 Y-35.02533
G01 X-65.97571 Y-34.96549
G01 X-65.91353 Y-34.88972
G01 X-53.10482 Y-22.08101
G01 X-67.59997 Y-36.57608
G01 X-67.59997 Y-39.96792
G01 X-67.48633 Y-40.02867
G01 X-67.43743 Y-40.06134
G01 X-67.30863 Y-40.16705
G01 X-67.26705 Y-40.20863
G01 X-67.16133 Y-40.33744
G01 X-67.12867 Y-40.38633
G01 X-67.05011 Y-40.53329
G01 X-67.02760 Y-40.58763
G01 X-66.97924 Y-40.74709
G01 X-66.96776 Y-40.80474
G01 X-66.95143 Y-40.97058
G01 X-66.95143 Y-41.02938
G01 X-66.96776 Y-41.19522
G01 X-66.97924 Y-41.25290
G01 X-67.03753 Y-41.44007
G01 X-67.12867 Y-41.61363
G01 X-67.16133 Y-41.66253
G01 X-67.26705 Y-41.79136
G01 X-67.30863 Y-41.83294
G01 X-67.43743 Y-41.93865
G01 X-67.48633 Y-41.97132
G01 X-67.63329 Y-42.04985
G01 X-67.68762 Y-42.07236
G01 X-67.84708 Y-42.12074
G01 X-67.90477 Y-42.13220
G01 X-68.07058 Y-42.14853
G01 X-68.12940 Y-42.14853
G01 X-68.29522 Y-42.13220
G01 X-68.35290 Y-42.12074
G01 X-68.51236 Y-42.07236
G01 X-68.56669 Y-42.04985
G01 X-68.71363 Y-41.97132
G01 X-68.76255 Y-41.93865
G01 X-68.91317 Y-41.81315
G01 X-69.03865 Y-41.66253
G01 X-69.07131 Y-41.61363
G01 X-69.16245 Y-41.44007
G01 X-69.22074 Y-41.25290
G01 X-69.23222 Y-41.19522
G01 X-69.24855 Y-41.02938
G01 X-69.24855 Y-40.97058
G01 X-69.23222 Y-40.80474
G01 X-69.22074 Y-40.74709
G01 X-69.17238 Y-40.58763
G01 X-69.14985 Y-40.53329
G01 X-69.07131 Y-40.38633
G01 X-69.03865 Y-40.33744
G01 X-68.91317 Y-40.18681
G01 X-68.76255 Y-40.06134
G01 X-68.71363 Y-40.02867
G01 X-68.59999 Y-39.96792
G01 X-68.59999 Y-36.36899
G01 X-68.58650 Y-36.26025
G01 X-68.57550 Y-36.21446
G01 X-68.55750 Y-36.17097
G01 X-68.50449 Y-36.07509
G01 X-68.47393 Y-36.03932
G01 X-53.51902 Y-21.08093
G01 X-53.46687 Y-21.03625
G01 X-53.41798 Y-21.00359
G01 X-53.38338 Y-20.98510
G01 X-53.29154 Y-20.95122
G01 X-53.23385 Y-20.93976
G01 X-53.16545 Y-20.93445
G01 X-29.86550 Y-20.93445
G01 X-29.79707 Y-20.93976
G01 X-29.73939 Y-20.95122
G01 X-29.67413 Y-20.97253
G01 X-29.61295 Y-21.00359
G01 X-29.56405 Y-21.03625
G01 X-29.51193 Y-21.08091
G01 X-22.39630 Y-28.19654
G01 X-22.30316 Y-28.16827
G01 X-22.24547 Y-28.15681
G01 X-22.08939 Y-28.14142
G01 X-22.03059 Y-28.14142
G01 X-21.87451 Y-28.15681
G01 X-21.81682 Y-28.16827
G01 X-21.63905 Y-28.22372
G01 X-21.47410 Y-28.31023
G01 X-21.42520 Y-28.34292
G01 X-21.30400 Y-28.44239
G01 X-21.26239 Y-28.48399
G01 X-21.14537 Y-28.62885
G01 X-21.05630 Y-28.79242
G01 X-21.03379 Y-28.84675
G01 X-20.98827 Y-28.99682
G01 X-20.97679 Y-29.05450
G01 X-20.95998 Y-29.24000
G04 P0 ( dwell for no time -- G64 should not smooth over this point )
G00 Z2.00000 ( retract )

G00 X-18.41998 Y-29.24000 ( rapid move to begin. )
G01 F30.00000
( Mill infeed pass 1/1 )
G01 Z-0.07500
G04 P0 ( dwell for no time -- G64 should not smooth over this point )
G01 F40.00000
G01 X-18.41998 Y-29.24000
G01 X-18.43679 Y-29.42547
G01 X-18.44827 Y-29.48315
G01 X-18.49379 Y-29.63321
G01 X-18.51630 Y-29.68755
G01 X-18.59023 Y-29.82587
G01 X-18.62290 Y-29.87477
G01 X-18.74218 Y-30.01780
G01 X-18.88520 Y-30.13707
G01 X-18.93410 Y-30.16974
G01 X-19.09905 Y-30.25625
G01 X-19.27682 Y-30.31170
G01 X-19.33451 Y-30.32318
G01 X-19.49059 Y-30.33855
G01 X-19.54939 Y-30.33855
G01 X-19.70547 Y-30.32318
G01 X-19.76316 Y-30.31170
G01 X-19.94093 Y-30.25625
G01 X-20.10585 Y-30.16974
G01 X-20.15477 Y-30.13707
G01 X-20.29780 Y-30.01780
G01 X-20.41708 Y-29.87477
G01 X-20.44974 Y-29.82587
G01 X-20.52366 Y-29.68755
G01 X-20.53996 Y-29.64820
G01 X-20.59170 Y-29.48315
G01 X-20.60316 Y-29.42547
G01 X-20.62000 Y-29.24000
G01 X-20.60316 Y-29.05450
G01 X-20.59170 Y-28.99682
G01 X-20.53626 Y-28.81904
G01 X-20.44974 Y-28.65412
G01 X-20.41708 Y-28.60520
G01 X-20.29780 Y-28.46217
G01 X-20.15477 Y-28.34292
G01 X-20.10585 Y-28.31023
G01 X-19.94093 Y-28.22372
G01 X-19.76316 Y-28.16827
G01 X-19.70547 Y-28.15681
G01 X-19.54939 Y-28.14142
G01 X-19.49059 Y-28.14142
G01 X-19.33451 Y-28.15681
G01 X-19.27682 Y-28.16827
G01 X-19.09905 Y-28.22372
G01 X-18.93410 Y-28.31023
G01 X-18.88520 Y-28.34292
G01 X-18.74218 Y-28.46217
G01 X-18.62290 Y-28.60520
G01 X-18.59023 Y-28.65412
G01 X-18.51630 Y-28.79242
G01 X-18.49379 Y-28.84675
G01 X-18.44827 Y-28.99682
G01 X-18.43679 Y-29.05450
G01 X-18.41998 Y-29.24000
G04 P0 ( dwell for no time -- G64 should not smooth over this point )
G00 Z2.00000 ( retract )

G00 X-15.87998 Y-29.24000 ( rapid move to begin. )
G01 F30.00000
( Mill infeed pass 1/1 )
G01 Z-0.07500
G04 P0 ( dwell for no time -- G64 should not smooth over this point )
G01 F40.00000
G01 X-15.87998 Y-29.24000
G01 X-15.89679 Y-29.42547
G01 X-15.90827 Y-29.48315
G01 X-15.95379 Y-29.63321
G01 X-15.97630 Y-29.68755
G01 X-16.05023 Y-29.82587
G01 X-16.08290 Y-29.87477
G01 X-16.20218 Y-30.01780
G01 X-16.34520 Y-30.13707
G01 X-16.39410 Y-30.16974
G01 X-16.55905 Y-30.25625
G01 X-16.73682 Y-30.31170
G01 X-16.79451 Y-30.32318
G01 X-16.95059 Y-30.33855
G01 X-17.00939 Y-30.33855
G01 X-17.16547 Y-30.32318
G01 X-17.22316 Y-30.31170
G01 X-17.40093 Y-30.25625
G01 X-17.56585 Y-30.16974
G01 X-17.61477 Y-30.13707
G01 X-17.75780 Y-30.01780
G01 X-17.87708 Y-29.87477
G01 X-17.90974 Y-29.82587
G01 X-17.98366 Y-29.68755
G01 X-18.00616 Y-29.63321
G01 X-18.05170 Y-29.48315
G01 X-18.06316 Y-29.42547
G01 X-18.08000 Y-29.24000
G01 X-18.06316 Y-29.05450
G01 X-18.05170 Y-28.99682
G01 X-17.99626 Y-28.81904
G01 X-17.90974 Y-28.65412
G01 X-17.87708 Y-28.60520
G01 X-17.75780 Y-28.46217
G01 X-17.61477 Y-28.34292
G01 X-17.56585 Y-28.31023
G01 X-17.40093 Y-28.22372
G01 X-17.22316 Y-28.16827
G01 X-17.16547 Y-28.15681
G01 X-17.00939 Y-28.14142
G01 X-16.95059 Y-28.14142
G01 X-16.79451 Y-28.15681
G01 X-16.73682 Y-28.16827
G01 X-16.55905 Y-28.22372
G01 X-16.39410 Y-28.31023
G01 X-16.34520 Y-28.34292
G01 X-16.22400 Y-28.44239
G01 X-16.18239 Y-28.48399
G01 X-16.06537 Y-28.62885
G01 X-15.97630 Y-28.79242
G01 X-15.95379 Y-28.84675
G01 X-15.90827 Y-28.99682
G01 X-15.89679 Y-29.05450
G01 X-15.87998 Y-29.24000
G04 P0 ( dwell for no time -- G64 should not smooth over this point )
G00 Z2.00000 ( retract )

G00 X-10.79998 Y-30.04000 ( rapid move to begin. )
G01 F30.00000
( Mill infeed pass 1/1 )
G01 Z-0.07500
G04 P0 ( dwell for no time -- G64 should not smooth over this point )
G01 F40.00000
G01 X-10.79998 Y-30.04000
G01 X-10.80574 Y-30.09852
G01 X-10.82281 Y-30.15480
G01 X-10.85055 Y-30.20667
G01 X-10.88786 Y-30.25211
G01 X-10.93333 Y-30.28942
G01 X-10.98517 Y-30.31716
G01 X-11.04146 Y-30.33423
G01 X-11.09998 Y-30.34000
G01 X-12.70000 Y-30.34000
G01 X-12.75852 Y-30.33423
G01 X-12.81478 Y-30.31716
G01 X-12.86665 Y-30.28942
G01 X-12.91212 Y-30.25211
G01 X-12.94943 Y-30.20667
G01 X-12.97714 Y-30.15480
G01 X-12.99423 Y-30.09852
G01 X-13.00000 Y-30.04000
G01 X-13.00000 Y-28.44000
G01 X-12.99423 Y-28.38145
G01 X-12.97714 Y-28.32519
G01 X-12.94943 Y-28.27332
G01 X-12.91212 Y-28.22786
G01 X-12.86665 Y-28.19055
G01 X-12.81478 Y-28.16283
G01 X-12.75852 Y-28.14574
G01 X-12.70000 Y-28.14000
G01 X-11.09998 Y-28.14000
G01 X-11.04146 Y-28.14574
G01 X-10.98517 Y-28.16283
G01 X-10.93333 Y-28.19055
G01 X-10.88786 Y-28.22786
G01 X-10.85055 Y-28.27332
G01 X-10.82281 Y-28.32519
G01 X-10.80574 Y-28.38145
G01 X-10.79998 Y-28.44000
G01 X-10.79998 Y-30.04000
G04 P0 ( dwell for no time -- G64 should not smooth over this point )
G00 Z2.00000 ( retract )

G00 X-2.85143 Y-38.43058 ( rapid move to begin. )
G01 F30.00000
( Mill infeed pass 1/1 )
G01 Z-0.07500
G04 P0 ( dwell for no time -- G64 should not smooth over this point )
G01 F40.00000
G01 X-2.85143 Y-38.43058
G01 X-2.85143 Y-38.48938
G01 X-2.87208 Y-38.68435
G01 X-2.92760 Y-38.87236
G01 X-2.95011 Y-38.92669
G01 X-3.04381 Y-39.09888
G01 X-3.16705 Y-39.25136
G01 X-3.20858 Y-39.29294
G01 X-3.33743 Y-39.39865
G01 X-3.38633 Y-39.43132
G01 X-3.53329 Y-39.50985
G01 X-3.58762 Y-39.53236
G01 X-3.74708 Y-39.58074
G01 X-3.80477 Y-39.59220
G01 X-3.97058 Y-39.60853
G01 X-4.02938 Y-39.60853
G01 X-4.19522 Y-39.59220
G01 X-4.25290 Y-39.58074
G01 X-4.41236 Y-39.53236
G01 X-4.46669 Y-39.50985
G01 X-4.63890 Y-39.41618
G01 X-4.79135 Y-39.29294
G01 X-4.83293 Y-39.25136
G01 X-4.95617 Y-39.09888
G01 X-5.03207 Y-38.95999
G01 X-5.65008 Y-38.95999
G01 X-5.69699 Y-38.95628
G01 X-5.80459 Y-38.93551
G01 X-5.84807 Y-38.91750
G01 X-5.94393 Y-38.86451
G01 X-5.97969 Y-38.83396
G01 X-13.47704 Y-31.34009
G01 X-14.43995 Y-31.34009
G01 X-14.50838 Y-31.33479
G01 X-14.56606 Y-31.32333
G01 X-14.65791 Y-31.28945
G01 X-14.74140 Y-31.23829
G01 X-14.81328 Y-31.17182
G01 X-14.85570 Y-31.11787
G01 X-14.90190 Y-31.03143
G01 X-14.92321 Y-30.96618
G01 X-14.93467 Y-30.90850
G01 X-14.93998 Y-30.84010
G01 X-14.93998 Y-30.21566
G01 X-15.02585 Y-30.16974
G01 X-15.07477 Y-30.13707
G01 X-15.21780 Y-30.01780
G01 X-15.33708 Y-29.87477
G01 X-15.36974 Y-29.82587
G01 X-15.44366 Y-29.68755
G01 X-15.46616 Y-29.63321
G01 X-15.51170 Y-29.48315
G01 X-15.52316 Y-29.42547
G01 X-15.54000 Y-29.24000
G01 X-15.52316 Y-29.05450
G01 X-15.51170 Y-28.99682
G01 X-15.45626 Y-28.81904
G01 X-15.36974 Y-28.65412
G01 X-15.33708 Y-28.60520
G01 X-15.21780 Y-28.46217
G01 X-15.07477 Y-28.34292
G01 X-15.02585 Y-28.31023
G01 X-14.86093 Y-28.22372
G01 X-14.68316 Y-28.16827
G01 X-14.62547 Y-28.15681
G01 X-14.46939 Y-28.14142
G01 X-14.41059 Y-28.14142
G01 X-14.25451 Y-28.15681
G01 X-14.19682 Y-28.16827
G01 X-14.01905 Y-28.22372
G01 X-13.85410 Y-28.31023
G01 X-13.80520 Y-28.34292
G01 X-13.66218 Y-28.46217
G01 X-13.54290 Y-28.60520
G01 X-13.51023 Y-28.65412
G01 X-13.43630 Y-28.79242
G01 X-13.41379 Y-28.84675
G01 X-13.36827 Y-28.99682
G01 X-13.35679 Y-29.05450
G01 X-13.34143 Y-29.21058
G01 X-13.34143 Y-29.26939
G01 X-13.35679 Y-29.42547
G01 X-13.36827 Y-29.48315
G01 X-13.41379 Y-29.63321
G01 X-13.43630 Y-29.68755
G01 X-13.51023 Y-29.82587
G01 X-13.54290 Y-29.87477
G01 X-13.66218 Y-30.01780
G01 X-13.80520 Y-30.13707
G01 X-13.85410 Y-30.16974
G01 X-13.93995 Y-30.21564
G01 X-13.93995 Y-30.34007
G01 X-13.26998 Y-30.34007
G01 X-13.20155 Y-30.34538
G01 X-13.17241 Y-30.34970
G01 X-13.10632 Y-30.36821
G01 X-13.05199 Y-30.39072
G01 X-12.96853 Y-30.44187
G01 X-12.93823 Y-30.46677
G01 X-5.44297 Y-37.95997
G01 X-5.03207 Y-37.95997
G01 X-4.95617 Y-37.82108
G01 X-4.83293 Y-37.66863
G01 X-4.79135 Y-37.62705
G01 X-4.63890 Y-37.50379
G01 X-4.44007 Y-37.39754
G01 X-4.25290 Y-37.33924
G01 X-4.19522 Y-37.32776
G01 X-4.02938 Y-37.31143
G01 X-3.97058 Y-37.31143
G01 X-3.77563 Y-37.33208
G01 X-3.58762 Y-37.38761
G01 X-3.53329 Y-37.41011
G01 X-3.38633 Y-37.48867
G01 X-3.33743 Y-37.52134
G01 X-3.20858 Y-37.62705
G01 X-3.16705 Y-37.66863
G01 X-3.04381 Y-37.82108
G01 X-2.95011 Y-37.99329
G01 X-2.92760 Y-38.04763
G01 X-2.87208 Y-38.23564
G01 X-2.85143 Y-38.43058
G01 X-2.85143 Y-35.94938
G01 X-2.87208 Y-36.14435
G01 X-2.92760 Y-36.33236
G01 X-2.95011 Y-36.38669
G01 X-3.04381 Y-36.55888
G01 X-3.16705 Y-36.71136
G01 X-3.20858 Y-36.75294
G01 X-3.36108 Y-36.87618
G01 X-3.53329 Y-36.96985
G01 X-3.58762 Y-36.99236
G01 X-3.77563 Y-37.04788
G01 X-3.97058 Y-37.06853
G01 X-4.02938 Y-37.06853
G01 X-4.22435 Y-37.04788
G01 X-4.41236 Y-36.99236
G01 X-4.46669 Y-36.96985
G01 X-4.63890 Y-36.87618
G01 X-4.79135 Y-36.75294
G01 X-4.83293 Y-36.71136
G01 X-4.95617 Y-36.55888
G01 X-5.04985 Y-36.38669
G01 X-5.07235 Y-36.33236
G01 X-5.12788 Y-36.14435
G01 X-5.14855 Y-35.94938
G01 X-5.14855 Y-35.89058
G01 X-5.12788 Y-35.69564
G01 X-5.07235 Y-35.50763
G01 X-5.04985 Y-35.45329
G01 X-4.95617 Y-35.28108
G01 X-4.83293 Y-35.12863
G01 X-4.79135 Y-35.08705
G01 X-4.63890 Y-34.96379
G01 X-4.44007 Y-34.85754
G01 X-4.22435 Y-34.79208
G01 X-4.02938 Y-34.77143
G01 X-3.97058 Y-34.77143
G01 X-3.77563 Y-34.79208
G01 X-3.58762 Y-34.84761
G01 X-3.53329 Y-34.87011
G01 X-3.36108 Y-34.96379
G01 X-3.20858 Y-35.08705
G01 X-3.16705 Y-35.12863
G01 X-3.04381 Y-35.28108
G01 X-2.95011 Y-35.45329
G01 X-2.92760 Y-35.50763
G01 X-2.87208 Y-35.69564
G01 X-2.85143 Y-35.89058
G01 X-2.85143 Y-35.94938
G01 X-2.85143 Y-33.40938
G01 X-2.87208 Y-33.60435
G01 X-2.92760 Y-33.79236
G01 X-2.95011 Y-33.84669
G01 X-3.04381 Y-34.01888
G01 X-3.16705 Y-34.17136
G01 X-3.20858 Y-34.21294
G01 X-3.36108 Y-34.33618
G01 X-3.53329 Y-34.42985
G01 X-3.58762 Y-34.45236
G01 X-3.77563 Y-34.50788
G01 X-3.97058 Y-34.52853
G01 X-4.02938 Y-34.52853
G01 X-4.22435 Y-34.50788
G01 X-4.41236 Y-34.45236
G01 X-4.46669 Y-34.42985
G01 X-4.63890 Y-34.33618
G01 X-4.79135 Y-34.21294
G01 X-4.83293 Y-34.17136
G01 X-4.95617 Y-34.01888
G01 X-5.04985 Y-33.84669
G01 X-5.07235 Y-33.79236
G01 X-5.12788 Y-33.60435
G01 X-5.14855 Y-33.40938
G01 X-5.14855 Y-33.35058
G01 X-5.12788 Y-33.15564
G01 X-5.07235 Y-32.96763
G01 X-5.04985 Y-32.91329
G01 X-4.95617 Y-32.74108
G01 X-4.83293 Y-32.58863
G01 X-4.79135 Y-32.54705
G01 X-4.63890 Y-32.42379
G01 X-4.44007 Y-32.31754
G01 X-4.22435 Y-32.25208
G01 X-4.02938 Y-32.23143
G01 X-3.97058 Y-32.23143
G01 X-3.77563 Y-32.25208
G01 X-3.58762 Y-32.30761
G01 X-3.53329 Y-32.33011
G01 X-3.36108 Y-32.42379
G01 X-3.20858 Y-32.54705
G01 X-3.16705 Y-32.58863
G01 X-3.04381 Y-32.74108
G01 X-2.95011 Y-32.91329
G01 X-2.92760 Y-32.96763
G01 X-2.87208 Y-33.15564
G01 X-2.85143 Y-33.35058
G01 X-2.85143 Y-33.40938
G01 X-2.85143 Y-30.86938
G01 X-2.87208 Y-31.06435
G01 X-2.92760 Y-31.25236
G01 X-2.95011 Y-31.30669
G01 X-3.02867 Y-31.45363
G01 X-3.06133 Y-31.50253
G01 X-3.16705 Y-31.63136
G01 X-3.20858 Y-31.67294
G01 X-3.36108 Y-31.79618
G01 X-3.53329 Y-31.88985
G01 X-3.58762 Y-31.91236
G01 X-3.74708 Y-31.96074
G01 X-3.80477 Y-31.97220
G01 X-3.97058 Y-31.98853
G01 X-4.02938 Y-31.98853
G01 X-4.19522 Y-31.97220
G01 X-4.25290 Y-31.96074
G01 X-4.41236 Y-31.91236
G01 X-4.46669 Y-31.88985
G01 X-4.63890 Y-31.79618
G01 X-4.79135 Y-31.67294
G01 X-4.83293 Y-31.63136
G01 X-4.95617 Y-31.47888
G01 X-5.03207 Y-31.33997
G01 X-5.65005 Y-31.33999
G01 X-5.69699 Y-31.33628
G01 X-5.80459 Y-31.31551
G01 X-5.84807 Y-31.29750
G01 X-5.94393 Y-31.24451
G01 X-5.97969 Y-31.21398
G01 X-11.22083 Y-25.97628
G01 X-17.45879 Y-25.97628
G01 X-17.55633 Y-25.96662
G01 X-17.62239 Y-25.94811
G01 X-17.67672 Y-25.92563
G01 X-17.76021 Y-25.87447
G01 X-17.79052 Y-25.84958
G01 X-18.37296 Y-25.26916
G01 X-18.45889 Y-25.27617
G01 X-18.58584 Y-25.26513
G01 X-18.64352 Y-25.25367
G01 X-18.73733 Y-25.22520
G01 X-18.79166 Y-25.20269
G01 X-18.90334 Y-25.14135
G01 X-19.00276 Y-25.06165
G01 X-19.04434 Y-25.02007
G01 X-19.12407 Y-24.92065
G01 X-19.18541 Y-24.80894
G01 X-19.20791 Y-24.75461
G01 X-19.23636 Y-24.66081
G01 X-19.24784 Y-24.60313
G01 X-19.25744 Y-24.50559
G01 X-19.25744 Y-24.44679
G01 X-19.24784 Y-24.34923
G01 X-19.23636 Y-24.29157
G01 X-19.20791 Y-24.19777
G01 X-19.18541 Y-24.14344
G01 X-19.12407 Y-24.03173
G01 X-19.02457 Y-23.91049
G01 X-18.90334 Y-23.81100
G01 X-18.79166 Y-23.74966
G01 X-18.73733 Y-23.72716
G01 X-18.64352 Y-23.69871
G01 X-18.58584 Y-23.68723
G01 X-18.48830 Y-23.67763
G01 X-18.42948 Y-23.67763
G01 X-18.33194 Y-23.68723
G01 X-18.27426 Y-23.69871
G01 X-18.18046 Y-23.72716
G01 X-18.12613 Y-23.74966
G01 X-18.01444 Y-23.81100
G01 X-17.89321 Y-23.91049
G01 X-17.79372 Y-24.03173
G01 X-17.73237 Y-24.14344
G01 X-17.70987 Y-24.19777
G01 X-17.68142 Y-24.29157
G01 X-17.66994 Y-24.34923
G01 X-17.65889 Y-24.47618
G01 X-17.66590 Y-24.56203
G01 X-17.25168 Y-24.97625
G01 X-11.01380 Y-24.97625
G01 X-10.92398 Y-24.98448
G01 X-10.83028 Y-25.01275
G01 X-10.78680 Y-25.03076
G01 X-10.74664 Y-25.05535
G01 X-10.66023 Y-25.12271
G01 X-5.44297 Y-30.33997
G01 X-5.03207 Y-30.33997
G01 X-4.95617 Y-30.20108
G01 X-4.83293 Y-30.04863
G01 X-4.79135 Y-30.00705
G01 X-4.63890 Y-29.88379
G01 X-4.44007 Y-29.77754
G01 X-4.25290 Y-29.71924
G01 X-4.19522 Y-29.70776
G01 X-4.02938 Y-29.69143
G01 X-3.97058 Y-29.69143
G01 X-3.77563 Y-29.71208
G01 X-3.58762 Y-29.76761
G01 X-3.53329 Y-29.79011
G01 X-3.36108 Y-29.88379
G01 X-3.20858 Y-30.00705
G01 X-3.16705 Y-30.04863
G01 X-3.06133 Y-30.17744
G01 X-3.02867 Y-30.22633
G01 X-2.95011 Y-30.37329
G01 X-2.92760 Y-30.42763
G01 X-2.87208 Y-30.61564
G01 X-2.85143 Y-30.81058
G01 X-2.85143 Y-30.86938
G01 X-2.85143 Y-28.32938
G01 X-2.87208 Y-28.52435
G01 X-2.92760 Y-28.71236
G01 X-2.95011 Y-28.76669
G01 X-3.04381 Y-28.93888
G01 X-3.16705 Y-29.09136
G01 X-3.20858 Y-29.13294
G01 X-3.36108 Y-29.25618
G01 X-3.53329 Y-29.34985
G01 X-3.58762 Y-29.37236
G01 X-3.77563 Y-29.42788
G01 X-3.97058 Y-29.44853
G01 X-4.02938 Y-29.44853
G01 X-4.22435 Y-29.42788
G01 X-4.41236 Y-29.37236
G01 X-4.46669 Y-29.34985
G01 X-4.63890 Y-29.25618
G01 X-4.79135 Y-29.13294
G01 X-4.83293 Y-29.09136
G01 X-4.95617 Y-28.93888
G01 X-5.04985 Y-28.76669
G01 X-5.07235 Y-28.71236
G01 X-5.12788 Y-28.52435
G01 X-5.14855 Y-28.32938
G01 X-5.14855 Y-28.27058
G01 X-5.12788 Y-28.07564
G01 X-5.07235 Y-27.88763
G01 X-5.04985 Y-27.83329
G01 X-4.95617 Y-27.66108
G01 X-4.83293 Y-27.50863
G01 X-4.79135 Y-27.46705
G01 X-4.63890 Y-27.34379
G01 X-4.44007 Y-27.23754
G01 X-4.22435 Y-27.17208
G01 X-4.02938 Y-27.15143
G01 X-3.97058 Y-27.15143
G01 X-3.77563 Y-27.17208
G01 X-3.58762 Y-27.22761
G01 X-3.53329 Y-27.25011
G01 X-3.36108 Y-27.34379
G01 X-3.20858 Y-27.46705
G01 X-3.16705 Y-27.50863
G01 X-3.04381 Y-27.66108
G01 X-2.95011 Y-27.83329
G01 X-2.92760 Y-27.88763
G01 X-2.87208 Y-28.07564
G01 X-2.85143 Y-28.27058
G01 X-2.85143 Y-28.32938
G01 X-2.85143 Y-25.78938
G01 X-2.87208 Y-25.98435
G01 X-2.92760 Y-26.17236
G01 X-2.95011 Y-26.22669
G01 X-3.04381 Y-26.39888
G01 X-3.16705 Y-26.55136
G01 X-3.20858 Y-26.59294
G01 X-3.36108 Y-26.71618
G01 X-3.53329 Y-26.80985
G01 X-3.58762 Y-26.83236
G01 X-3.77563 Y-26.88788
G01 X-3.97058 Y-26.90853
G01 X-4.02938 Y-26.90853
G01 X-4.22435 Y-26.88788
G01 X-4.41236 Y-26.83236
G01 X-4.46669 Y-26.80985
G01 X-4.63890 Y-26.71618
G01 X-4.79135 Y-26.59294
G01 X-4.83293 Y-26.55136
G01 X-4.95617 Y-26.39888
G01 X-5.03207 Y-26.25999
G01 X-5.65008 Y-26.25999
G01 X-5.69699 Y-26.25628
G01 X-5.80459 Y-26.23551
G01 X-5.84807 Y-26.21747
G01 X-5.94378 Y-26.16462
G01 X-5.97946 Y-26.13421
G01 X-7.14085 Y-24.97607
G01 X-16.26829 Y-24.97607
G01 X-16.33670 Y-24.97077
G01 X-16.39438 Y-24.95931
G01 X-16.48623 Y-24.92543
G01 X-16.52082 Y-24.90694
G01 X-16.56972 Y-24.87427
G01 X-16.62184 Y-24.82962
G01 X-20.51718 Y-20.93430
G01 X-53.81257 Y-20.93430
G01 X-62.63673 Y-29.75844
G01 X-62.68885 Y-29.80309
G01 X-62.77234 Y-29.85425
G01 X-62.86419 Y-29.88813
G01 X-62.96088 Y-29.90345
G01 X-66.23500 Y-29.90489
G01 X-66.34371 Y-29.89141
G01 X-66.41160 Y-29.87225
G01 X-66.47236 Y-29.84482
G01 X-66.50213 Y-29.82580
G01 X-66.58854 Y-29.75844
G01 X-70.60697 Y-25.73998
G01 X-71.02432 Y-25.73995
G01 X-71.08538 Y-25.85110
G01 X-71.22216 Y-26.01780
G01 X-71.36521 Y-26.13706
G01 X-71.41411 Y-26.16975
G01 X-71.57903 Y-26.25626
G01 X-71.75683 Y-26.31171
G01 X-71.81451 Y-26.32316
G01 X-71.97057 Y-26.33856
G01 X-72.02940 Y-26.33856
G01 X-72.18545 Y-26.32316
G01 X-72.24314 Y-26.31171
G01 X-72.42094 Y-26.25626
G01 X-72.58586 Y-26.16975
G01 X-72.63475 Y-26.13706
G01 X-72.77781 Y-26.01780
G01 X-72.91461 Y-25.85110
G01 X-72.97565 Y-25.73995
G01 X-73.39297 Y-25.73998
G01 X-78.38712 Y-30.73413
G01 X-78.42291 Y-30.76471
G01 X-78.50330 Y-30.82051
G01 X-78.59743 Y-30.85953
G01 X-78.69375 Y-30.87687
G01 X-78.74069 Y-30.88058
G01 X-82.47898 Y-30.88058
G01 X-82.58769 Y-30.86710
G01 X-82.65559 Y-30.84794
G01 X-82.71634 Y-30.82051
G01 X-82.79674 Y-30.76471
G01 X-82.83252 Y-30.73413
G01 X-87.75342 Y-25.81323
G01 X-87.81374 Y-25.73998
G01 X-88.02431 Y-25.73995
G01 X-88.08537 Y-25.85110
G01 X-88.22218 Y-26.01780
G01 X-88.36520 Y-26.13706
G01 X-88.41412 Y-26.16975
G01 X-88.57905 Y-26.25626
G01 X-88.75682 Y-26.31171
G01 X-88.81450 Y-26.32316
G01 X-88.97059 Y-26.33856
G01 X-89.02939 Y-26.33856
G01 X-89.18547 Y-26.32316
G01 X-89.24315 Y-26.31171
G01 X-89.39322 Y-26.26614
G01 X-89.44755 Y-26.24366
G01 X-89.58585 Y-26.16975
G01 X-89.63477 Y-26.13706
G01 X-89.77780 Y-26.01780
G01 X-89.89708 Y-25.87475
G01 X-89.92974 Y-25.82586
G01 X-90.01625 Y-25.66093
G01 X-90.07170 Y-25.48313
G01 X-90.08318 Y-25.42548
G01 X-90.09855 Y-25.26939
G01 X-90.09855 Y-25.21059
G01 X-90.08318 Y-25.05451
G01 X-90.07170 Y-24.99683
G01 X-90.02619 Y-24.84676
G01 X-90.00366 Y-24.79243
G01 X-89.91460 Y-24.62886
G01 X-89.79759 Y-24.48397
G01 X-89.75598 Y-24.44239
G01 X-89.63477 Y-24.34290
G01 X-89.58585 Y-24.31024
G01 X-89.44755 Y-24.23630
G01 X-89.39322 Y-24.21379
G01 X-89.24315 Y-24.16828
G01 X-89.18547 Y-24.15680
G01 X-89.00000 Y-24.13998
G01 X-88.81450 Y-24.15680
G01 X-88.75682 Y-24.16828
G01 X-88.57905 Y-24.22373
G01 X-88.41412 Y-24.31024
G01 X-88.36520 Y-24.34290
G01 X-88.22218 Y-24.46218
G01 X-88.08537 Y-24.62886
G01 X-88.02433 Y-24.73996
G01 X-87.39988 Y-24.73996
G01 X-87.33145 Y-24.74526
G01 X-87.27376 Y-24.75672
G01 X-87.20851 Y-24.77803
G01 X-87.12208 Y-24.82423
G01 X-87.06813 Y-24.86665
G01 X-87.04631 Y-24.88641
G01 X-87.00165 Y-24.93853
G01 X-86.96899 Y-24.98743
G01 X-86.93793 Y-25.04862
G01 X-86.90948 Y-25.14242
G01 X-86.89985 Y-25.25258
G01 X-82.27187 Y-29.88056
G01 X-78.94772 Y-29.88056
G01 X-73.92970 Y-24.86596
G01 X-73.89391 Y-24.83543
G01 X-73.79807 Y-24.78245
G01 X-73.75459 Y-24.76444
G01 X-73.64700 Y-24.74366
G01 X-73.60006 Y-24.73996
G01 X-72.97562 Y-24.73996
G01 X-72.91461 Y-24.62886
G01 X-72.77781 Y-24.46218
G01 X-72.63475 Y-24.34290
G01 X-72.58586 Y-24.31024
G01 X-72.44756 Y-24.23630
G01 X-72.39323 Y-24.21379
G01 X-72.24314 Y-24.16828
G01 X-72.18545 Y-24.15680
G01 X-71.99998 Y-24.13998
G01 X-71.81451 Y-24.15680
G01 X-71.75683 Y-24.16828
G01 X-71.57903 Y-24.22373
G01 X-71.41411 Y-24.31024
G01 X-71.36521 Y-24.34290
G01 X-71.24398 Y-24.44239
G01 X-71.20240 Y-24.48397
G01 X-71.08538 Y-24.62886
G01 X-71.02434 Y-24.73996
G01 X-70.39988 Y-24.73996
G01 X-70.35295 Y-24.74366
G01 X-70.24535 Y-24.76444
G01 X-70.20187 Y-24.78245
G01 X-70.10603 Y-24.83543
G01 X-70.07027 Y-24.86594
G01 X-66.02796 Y-28.90487
G01 X-63.19738 Y-28.90487
G01 X-54.37322 Y-20.08073
G01 X-54.32110 Y-20.03608
G01 X-54.27221 Y-20.00341
G01 X-54.23761 Y-19.98492
G01 X-54.14576 Y-19.95104
G01 X-54.08808 Y-19.93958
G01 X-54.01968 Y-19.93428
G01 X-20.31009 Y-19.93428
G01 X-20.24167 Y-19.93958
G01 X-20.18398 Y-19.95104
G01 X-20.09214 Y-19.98492
G01 X-20.00865 Y-20.03608
G01 X-19.95653 Y-20.08073
G01 X-16.06113 Y-23.97610
G01 X-6.90263 Y-23.97851
G01 X-6.85574 Y-23.98222
G01 X-6.80999 Y-23.99320
G01 X-6.70700 Y-24.03056
G01 X-6.66684 Y-24.05515
G01 X-6.58043 Y-24.12251
G01 X-5.44294 Y-25.25997
G01 X-5.03204 Y-25.25997
G01 X-4.97131 Y-25.14633
G01 X-4.93865 Y-25.09744
G01 X-4.83293 Y-24.96863
G01 X-4.79135 Y-24.92705
G01 X-4.66255 Y-24.82134
G01 X-4.61363 Y-24.78867
G01 X-4.46669 Y-24.71011
G01 X-4.41236 Y-24.68761
G01 X-4.25290 Y-24.63924
G01 X-4.19522 Y-24.62776
G01 X-4.02938 Y-24.61143
G01 X-3.97058 Y-24.61143
G01 X-3.77563 Y-24.63208
G01 X-3.58762 Y-24.68761
G01 X-3.53329 Y-24.71011
G01 X-3.38633 Y-24.78867
G01 X-3.33743 Y-24.82134
G01 X-3.20858 Y-24.92705
G01 X-3.16705 Y-24.96863
G01 X-3.06133 Y-25.09744
G01 X-3.02867 Y-25.14633
G01 X-2.93754 Y-25.31991
G01 X-2.87924 Y-25.50709
G01 X-2.86776 Y-25.56474
G01 X-2.85143 Y-25.73058
G01 X-2.85143 Y-25.78938
G01 X-2.84998 Y-23.21999
G01 X-2.86776 Y-23.41522
G01 X-2.87924 Y-23.47290
G01 X-2.93754 Y-23.66007
G01 X-3.02867 Y-23.83363
G01 X-3.06133 Y-23.88253
G01 X-3.18681 Y-24.03315
G01 X-3.33743 Y-24.15865
G01 X-3.38633 Y-24.19132
G01 X-3.53329 Y-24.26985
G01 X-3.58762 Y-24.29236
G01 X-3.77563 Y-24.34788
G01 X-3.99999 Y-24.36998
G01 X-4.19522 Y-24.35220
G01 X-4.25290 Y-24.34074
G01 X-4.41236 Y-24.29236
G01 X-4.46669 Y-24.26985
G01 X-4.61363 Y-24.19132
G01 X-4.66255 Y-24.15865
G01 X-4.79135 Y-24.05294
G01 X-4.83293 Y-24.01136
G01 X-4.93865 Y-23.88253
G01 X-4.97131 Y-23.83363
G01 X-5.03207 Y-23.71997
G01 X-14.47058 Y-23.71997
G01 X-14.57891 Y-23.77930
G01 X-14.63327 Y-23.80181
G01 X-14.72705 Y-23.83025
G01 X-14.78473 Y-23.84174
G01 X-14.91168 Y-23.85278
G01 X-15.03863 Y-23.84174
G01 X-15.09631 Y-23.83025
G01 X-15.19011 Y-23.80181
G01 X-15.24444 Y-23.77930
G01 X-15.35615 Y-23.71796
G01 X-15.45557 Y-23.63826
G01 X-15.49715 Y-23.59665
G01 X-15.57685 Y-23.49724
G01 X-15.63820 Y-23.38555
G01 X-15.66070 Y-23.33122
G01 X-15.68917 Y-23.23742
G01 X-15.70063 Y-23.17974
G01 X-15.71168 Y-23.05279
G01 X-15.70063 Y-22.92584
G01 X-15.68917 Y-22.86815
G01 X-15.66070 Y-22.77435
G01 X-15.63820 Y-22.72002
G01 X-15.57685 Y-22.60834
G01 X-15.47736 Y-22.48710
G01 X-15.35615 Y-22.38761
G01 X-15.24444 Y-22.32627
G01 X-15.19011 Y-22.30377
G01 X-15.09631 Y-22.27532
G01 X-15.03863 Y-22.26384
G01 X-14.94109 Y-22.25424
G01 X-14.88229 Y-22.25424
G01 X-14.78473 Y-22.26384
G01 X-14.72705 Y-22.27532
G01 X-14.63327 Y-22.30377
G01 X-14.57891 Y-22.32627
G01 X-14.46723 Y-22.38761
G01 X-14.36781 Y-22.46734
G01 X-14.32623 Y-22.50892
G01 X-14.24650 Y-22.60834
G01 X-14.18519 Y-22.71997
G01 X-5.03207 Y-22.72000
G01 X-4.97131 Y-22.60633
G01 X-4.93865 Y-22.55744
G01 X-4.83293 Y-22.42863
G01 X-4.79135 Y-22.38705
G01 X-4.66255 Y-22.28134
G01 X-4.61363 Y-22.24867
G01 X-4.46669 Y-22.17011
G01 X-4.41236 Y-22.14761
G01 X-4.25290 Y-22.09924
G01 X-4.19522 Y-22.08776
G01 X-3.99999 Y-22.06998
G01 X-3.77563 Y-22.09208
G01 X-3.58762 Y-22.14761
G01 X-3.53329 Y-22.17011
G01 X-3.38633 Y-22.24867
G01 X-3.33743 Y-22.28134
G01 X-3.18681 Y-22.40681
G01 X-3.06133 Y-22.55744
G01 X-3.02867 Y-22.60633
G01 X-2.93754 Y-22.77991
G01 X-2.87924 Y-22.96709
G01 X-2.86776 Y-23.02474
G01 X-2.84998 Y-23.21999
G01 X-2.84998 Y-20.67999
G01 X-2.86776 Y-20.87522
G01 X-2.87924 Y-20.93290
G01 X-2.93754 Y-21.12007
G01 X-3.02867 Y-21.29363
G01 X-3.06133 Y-21.34253
G01 X-3.18681 Y-21.49315
G01 X-3.33743 Y-21.61865
G01 X-3.38633 Y-21.65132
G01 X-3.53329 Y-21.72985
G01 X-3.58762 Y-21.75236
G01 X-3.77563 Y-21.80788
G01 X-3.99999 Y-21.82998
G01 X-4.19522 Y-21.81220
G01 X-4.25290 Y-21.80074
G01 X-4.41236 Y-21.75236
G01 X-4.46669 Y-21.72985
G01 X-4.61363 Y-21.65132
G01 X-4.66255 Y-21.61865
G01 X-4.79135 Y-21.51294
G01 X-4.83293 Y-21.47136
G01 X-4.93865 Y-21.34253
G01 X-4.97131 Y-21.29363
G01 X-5.03207 Y-21.17999
G01 X-15.37998 Y-21.17999
G01 X-15.44838 Y-21.17468
G01 X-15.50606 Y-21.16323
G01 X-15.57132 Y-21.14192
G01 X-15.63251 Y-21.11085
G01 X-15.68140 Y-21.07819
G01 X-15.73352 Y-21.03354
G01 X-21.72363 Y-15.04343
G01 X-21.81682 Y-15.07170
G01 X-21.87451 Y-15.08318
G01 X-22.05998 Y-15.10000
G01 X-22.24547 Y-15.08318
G01 X-22.30316 Y-15.07170
G01 X-22.48093 Y-15.01625
G01 X-22.64585 Y-14.92974
G01 X-22.69477 Y-14.89707
G01 X-22.81598 Y-14.79758
G01 X-22.85759 Y-14.75600
G01 X-22.95708 Y-14.63477
G01 X-22.98974 Y-14.58587
G01 X-23.07626 Y-14.42095
G01 X-23.13170 Y-14.24315
G01 X-23.14316 Y-14.18547
G01 X-23.16000 Y-14.00000
G01 X-23.14316 Y-13.81450
G01 X-23.13170 Y-13.75682
G01 X-23.08616 Y-13.60675
G01 X-23.06366 Y-13.55242
G01 X-22.98974 Y-13.41412
G01 X-22.95708 Y-13.36520
G01 X-22.83780 Y-13.22215
G01 X-22.69477 Y-13.10289
G01 X-22.64585 Y-13.07023
G01 X-22.48093 Y-12.98372
G01 X-22.30316 Y-12.92824
G01 X-22.24547 Y-12.91681
G01 X-22.08939 Y-12.90142
G01 X-22.03059 Y-12.90142
G01 X-21.87451 Y-12.91681
G01 X-21.81682 Y-12.92824
G01 X-21.63905 Y-12.98372
G01 X-21.47410 Y-13.07023
G01 X-21.42520 Y-13.10289
G01 X-21.30400 Y-13.20239
G01 X-21.26239 Y-13.24399
G01 X-21.16290 Y-13.36520
G01 X-21.13023 Y-13.41412
G01 X-21.05630 Y-13.55242
G01 X-21.03379 Y-13.60675
G01 X-20.98827 Y-13.75682
G01 X-20.97679 Y-13.81450
G01 X-20.95998 Y-14.00000
G01 X-20.97679 Y-14.18547
G01 X-20.98827 Y-14.24315
G01 X-21.01654 Y-14.33632
G01 X-15.17287 Y-20.17997
G01 X-5.03204 Y-20.17997
G01 X-4.97131 Y-20.06633
G01 X-4.93865 Y-20.01744
G01 X-4.83293 Y-19.88863
G01 X-4.79135 Y-19.84705
G01 X-4.66255 Y-19.74134
G01 X-4.61363 Y-19.70867
G01 X-4.46669 Y-19.63011
G01 X-4.41236 Y-19.60761
G01 X-4.25290 Y-19.55924
G01 X-4.19522 Y-19.54776
G01 X-3.99999 Y-19.52998
G01 X-3.77563 Y-19.55208
G01 X-3.58762 Y-19.60761
G01 X-3.53329 Y-19.63011
G01 X-3.38633 Y-19.70867
G01 X-3.33743 Y-19.74134
G01 X-3.18681 Y-19.86681
G01 X-3.06133 Y-20.01744
G01 X-3.02867 Y-20.06633
G01 X-2.93754 Y-20.23991
G01 X-2.87924 Y-20.42709
G01 X-2.86776 Y-20.48474
G01 X-2.84998 Y-20.67999
G01 X-2.84998 Y-18.13999
G01 X-2.86776 Y-18.33522
G01 X-2.87924 Y-18.39290
G01 X-2.93754 Y-18.58007
G01 X-3.02867 Y-18.75363
G01 X-3.06133 Y-18.80253
G01 X-3.16705 Y-18.93136
G01 X-3.20858 Y-18.97294
G01 X-3.33743 Y-19.07865
G01 X-3.38633 Y-19.11132
G01 X-3.53329 Y-19.18985
G01 X-3.58762 Y-19.21236
G01 X-3.77563 Y-19.26788
G01 X-3.99999 Y-19.28998
G01 X-4.19522 Y-19.27220
G01 X-4.25290 Y-19.26074
G01 X-4.41236 Y-19.21236
G01 X-4.46669 Y-19.18985
G01 X-4.61363 Y-19.11132
G01 X-4.66255 Y-19.07865
G01 X-4.81315 Y-18.95315
G01 X-4.93865 Y-18.80253
